ncols 52
nrows 52
xllcorner 436224
yllcorner 5715456
cellsize 10
NODATA_value -9999
99.27 99.06 99.62 99.29 99.19 99.25 99.29 99.37 99.47 99.62 99.79 99.85 99.79 100.15 100.39 100.46 100.50 100.55 100.53 100.50 100.41 100.30 100.24 100.25 100.29 100.23 100.27 100.28 100.29 100.33 100.33 100.30 100.25 100.29 100.28 100.27 100.27 100.32 100.35 100.43 100.45 100.50 100.61 100.67 100.76 100.86 100.93 100.94 100.92 101.03 101.05 101.13
99.06 98.99 99.06 99.08 99.08 99.09 99.15 99.24 99.38 99.55 99.70 99.79 99.87 99.88 100.23 100.51 100.49 100.56 100.54 100.52 100.41 100.32 100.32 100.33 100.27 100.28 100.35 100.35 100.42 100.45 100.42 100.41 100.40 100.42 100.42 100.39 100.35 100.35 100.43 100.49 100.55 100.61 100.70 100.77 100.83 100.90 100.94 100.99 100.99 100.93 101.07 100.79
99.11 99.08 98.85 98.88 98.90 98.96 99.00 99.10 99.27 99.47 99.60 99.78 99.94 100.29 100.18 100.36 100.53 100.54 100.57 100.50 100.40 100.40 100.33 100.29 100.31 100.35 100.40 100.47 100.50 100.47 100.50 100.52 100.54 100.53 100.51 100.50 100.48 100.49 100.53 100.61 100.68 100.75 100.79 100.83 100.87 100.94 100.98 101.06 100.96 100.94 100.99 101.03
99.25 98.66 98.75 98.78 98.81 98.83 98.95 99.14 99.23 99.43 99.58 99.86 99.97 101.01 100.49 100.38 100.44 100.58 100.53 100.54 100.43 100.35 100.29 100.32 100.37 100.42 100.46 100.51 100.52 100.57 100.62 100.64 100.59 100.57 100.59 100.62 100.62 100.60 100.69 100.76 100.81 100.82 100.85 100.89 100.92 100.99 101.03 101.00 101.03 100.97 100.95 101.07
98.69 98.57 98.71 98.82 98.75 98.76 98.88 99.08 99.19 99.36 99.57 99.89 100.34 100.08 100.53 101.08 100.58 100.12 100.51 100.43 100.34 100.32 100.31 100.36 100.39 100.43 100.50 100.51 100.60 100.68 100.69 100.66 100.67 100.67 100.69 100.71 100.70 100.75 100.81 100.87 100.90 100.86 100.91 100.94 101.01 101.03 101.02 101.07 101.07 101.00 100.98 101.06
98.50 98.42 98.46 98.61 98.70 98.72 98.81 99.01 99.15 99.28 99.46 99.65 100.37 100.34 100.68 100.37 101.72 100.73 100.45 100.42 100.45 100.38 100.35 100.36 100.40 100.49 100.45 100.60 100.66 100.72 100.77 100.74 100.76 100.78 100.80 100.82 100.82 100.84 100.90 100.96 100.97 100.95 100.97 101.02 101.03 101.04 101.07 101.08 101.06 101.03 101.02 101.02
98.39 98.39 98.45 98.42 98.57 98.67 98.78 98.93 99.04 99.28 99.61 99.83 100.16 100.14 100.28 100.52 101.23 100.51 100.65 100.74 100.42 100.50 100.45 100.36 100.43 100.43 100.54 100.64 100.74 100.74 100.78 100.81 100.84 100.87 100.88 100.89 100.87 100.91 101.00 101.06 101.03 101.01 101.05 101.06 101.08 101.07 101.07 101.08 101.05 101.04 101.06 101.03
98.32 98.25 98.32 98.44 99.10 98.67 98.67 98.85 99.04 99.34 99.63 99.85 100.13 100.44 100.15 102.05 100.62 100.54 100.54 100.71 100.82 100.51 100.54 100.51 100.46 100.52 100.60 100.69 100.74 100.79 100.84 100.87 100.91 100.94 100.98 100.94 100.96 100.98 101.06 101.11 101.10 101.11 101.06 101.12 101.12 101.11 101.10 101.05 101.06 101.06 101.07 101.03
98.28 98.15 98.20 98.36 98.48 98.50 98.70 98.79 99.05 99.38 99.49 100.13 100.37 99.92 100.35 100.40 100.57 100.63 100.66 100.66 100.65 100.82 100.20 100.49 100.51 100.56 100.64 100.69 100.79 100.85 100.91 100.94 100.95 101.00 101.01 100.99 100.98 101.03 101.09 101.15 101.17 101.07 101.12 101.14 101.14 101.14 101.10 101.06 101.06 101.05 101.02 101.04
98.02 97.96 98.01 98.15 98.34 98.43 98.59 98.90 99.07 99.38 99.59 99.85 100.32 99.93 101.37 100.19 100.28 100.51 100.71 100.56 100.61 100.50 100.79 100.49 100.57 100.53 100.67 100.74 100.83 100.95 100.98 100.99 101.00 101.01 101.01 101.00 101.05 101.08 101.14 101.19 101.11 101.15 101.15 101.16 101.18 101.14 101.11 101.07 101.02 100.99 101.00 101.05
97.71 97.75 97.82 98.06 98.19 98.42 98.58 98.83 99.55 99.56 99.50 100.20 100.02 100.99 100.01 100.06 100.26 100.47 100.59 100.58 100.65 100.47 100.58 100.73 100.86 100.75 100.73 100.83 100.91 100.99 101.03 101.00 100.99 101.03 101.03 101.05 101.08 101.12 101.15 101.11 101.17 101.14 101.15 101.18 101.18 101.17 101.15 101.06 100.98 101.02 100.99 101.32
97.47 97.21 97.76 97.99 98.22 98.31 98.61 99.08 99.22 99.51 99.40 99.67 100.21 100.78 99.90 100.10 100.15 100.25 100.38 100.60 100.52 100.54 100.55 100.60 100.78 101.04 100.95 100.86 100.92 101.01 100.97 100.98 100.98 101.00 101.04 101.05 101.08 101.07 101.07 101.14 101.12 101.07 101.09 101.12 101.17 101.18 101.12 101.07 101.05 101.11 101.03 101.26
97.61 97.53 96.91 97.82 98.05 98.34 98.69 98.99 99.14 99.30 99.25 99.39 99.76 99.74 99.86 100.02 100.16 100.23 100.33 100.48 100.55 100.58 100.54 100.60 100.69 100.78 101.14 100.83 100.97 100.99 100.97 100.99 100.99 101.04 101.05 101.04 101.01 100.99 101.04 101.04 101.01 101.01 101.00 101.06 101.12 101.14 101.13 101.14 101.33 101.08 101.22 101.12
97.50 97.64 97.64 97.79 97.79 98.21 98.90 98.96 98.97 99.22 99.32 99.93 99.78 99.95 99.77 100.00 100.04 100.14 100.29 100.39 100.53 100.63 100.63 100.66 100.68 100.68 100.92 101.23 100.85 101.06 101.01 101.04 101.06 101.03 101.06 100.99 100.95 100.92 100.94 100.95 100.92 100.92 100.94 101.00 101.04 101.09 101.19 101.45 101.18 101.18 101.12 101.10
97.55 97.74 97.50 97.76 97.80 98.07 98.63 98.91 98.92 99.20 99.32 99.95 99.49 99.57 99.71 99.79 99.98 100.02 100.15 100.31 100.49 100.65 100.69 100.72 100.74 100.76 100.88 101.08 101.26 101.14 101.09 100.99 100.97 101.00 100.94 100.91 100.89 100.85 100.81 100.81 100.82 100.85 100.88 100.91 101.00 101.09 101.47 101.14 101.07 101.05 101.07 101.11
97.58 97.72 98.00 97.53 97.90 97.83 98.32 98.62 98.60 99.06 99.72 99.46 99.57 99.56 99.70 99.78 99.86 100.02 100.11 100.27 100.43 100.62 100.77 100.80 100.80 100.81 100.83 101.01 101.05 101.06 101.18 101.07 100.85 100.85 100.87 100.83 100.78 100.72 100.69 100.72 100.75 100.78 100.79 100.88 100.97 101.44 101.01 100.95 100.96 101.02 101.04 101.06
97.61 97.72 97.89 98.15 98.26 98.04 97.94 98.12 98.75 99.18 99.29 99.38 99.38 99.49 99.58 99.66 99.80 99.95 100.10 100.23 100.39 100.62 100.82 100.89 100.85 100.88 100.91 101.00 101.06 101.04 100.99 101.24 101.00 100.99 100.79 100.71 100.67 100.62 100.63 100.68 100.73 100.76 100.83 100.85 101.37 101.01 100.89 100.89 100.94 101.00 101.04 101.02
97.60 97.74 97.92 98.04 98.21 98.39 98.20 98.10 98.14 98.83 99.38 99.36 99.38 99.34 99.45 99.62 99.74 99.89 100.04 100.20 100.39 100.63 100.82 100.93 100.94 100.84 100.82 101.04 101.03 101.06 100.99 101.02 101.19 100.73 100.83 100.72 100.65 100.55 100.60 100.68 100.73 100.82 100.75 101.10 100.98 100.85 100.80 100.83 100.86 100.93 100.99 101.00
97.58 97.76 97.91 98.04 98.08 98.29 98.45 98.32 98.26 97.90 98.82 99.51 99.43 99.34 99.40 99.56 99.69 99.85 100.01 100.18 100.37 100.60 100.80 100.88 100.93 100.85 101.09 101.06 101.03 101.00 101.01 101.01 101.01 101.07 100.86 100.72 100.69 100.55 100.57 100.67 100.78 100.86 100.79 100.87 100.81 100.78 100.79 100.77 100.80 100.84 100.90 100.93
97.56 97.74 97.88 98.01 98.12 98.23 98.35 98.57 98.51 98.40 98.32 98.90 99.22 99.26 99.52 99.47 99.65 99.81 99.97 100.15 100.37 100.56 100.71 100.86 100.92 101.02 101.04 101.07 101.01 100.95 100.99 101.00 100.94 100.94 100.98 100.96 100.67 100.57 100.55 100.69 101.10 100.92 100.81 100.71 100.70 100.71 100.72 100.72 100.72 100.75 100.80 100.86
97.56 97.70 97.83 97.95 98.09 98.20 98.31 98.40 98.37 98.82 98.58 98.49 98.75 99.15 99.38 99.40 99.56 99.74 99.94 100.14 100.31 100.49 100.69 100.86 100.93 101.03 101.01 101.00 100.96 100.98 100.96 101.00 100.97 100.89 100.94 101.25 101.01 100.52 100.52 101.21 100.86 100.71 100.69 100.68 100.67 100.68 100.66 100.68 100.69 100.71 100.73 100.78
97.53 97.65 97.81 97.92 98.01 98.11 98.29 98.26 98.46 98.66 98.64 98.71 98.63 98.37 99.08 99.24 99.53 99.72 99.89 100.08 100.26 100.44 100.77 100.78 100.91 100.91 100.96 100.90 100.90 100.91 100.90 100.87 100.97 100.91 101.32 101.36 101.48 101.02 101.20 100.86 100.54 100.54 100.69 100.67 100.64 100.62 100.67 100.67 100.65 100.65 100.66 100.70
97.46 97.59 97.75 97.84 97.95 98.12 98.24 98.35 98.47 98.61 98.67 98.81 98.68 98.82 98.72 99.35 99.45 99.64 99.85 100.00 100.16 100.35 100.60 100.72 100.86 100.99 101.00 100.88 100.85 100.85 100.84 100.80 100.84 101.43 101.78 101.50 101.42 101.10 100.76 100.51 100.48 100.44 100.53 100.71 100.67 100.59 100.61 100.61 100.61 100.58 100.58 100.56
97.39 97.55 97.68 97.79 97.93 98.11 98.15 98.31 98.40 98.55 98.65 98.78 98.92 98.84 98.99 98.90 98.64 99.59 99.75 99.93 100.06 100.19 100.52 100.61 100.78 100.99 100.97 101.01 100.78 100.80 101.61 100.85 100.85 101.46 101.74 101.16 101.01 100.65 100.47 100.44 100.42 100.42 100.40 100.55 100.54 100.62 100.55 100.53 100.51 100.51 100.47 100.44
97.35 97.47 97.60 97.74 97.94 98.03 98.15 98.22 98.36 98.48 98.61 98.82 98.94 99.07 99.18 99.09 99.06 98.99 99.71 99.80 99.90 100.26 100.41 100.55 100.72 100.76 100.85 100.82 100.82 101.06 102.25 101.78 101.38 101.49 101.00 100.97 100.57 100.40 100.36 100.38 100.34 100.29 100.34 100.40 100.56 100.47 100.51 100.44 100.44 100.40 100.37 100.32
97.26 97.38 97.54 97.72 97.82 98.01 98.10 98.19 98.32 98.43 98.63 98.76 98.93 99.09 99.15 99.29 98.63 99.25 99.17 98.90 99.97 100.18 100.56 100.59 100.68 100.74 100.78 100.79 100.75 100.74 101.03 101.36 101.28 101.09 100.80 100.53 100.38 100.36 100.32 100.28 100.21 100.25 100.29 100.32 100.35 100.52 100.42 100.40 100.35 100.31 100.26 100.21
97.18 97.34 97.51 97.57 97.78 97.92 98.03 98.18 98.33 98.44 98.58 98.72 98.93 99.09 99.24 99.32 99.38 99.34 99.39 99.32 99.25 99.85 100.36 100.60 100.57 100.56 100.68 100.74 100.73 100.76 100.75 101.26 100.88 100.66 100.48 100.45 100.41 100.38 100.26 100.21 100.19 100.21 100.25 100.24 100.26 100.33 100.44 100.38 100.29 100.20 100.15 100.09
97.15 97.32 97.48 97.56 97.72 97.86 97.99 98.17 98.30 98.44 98.58 98.76 98.91 99.05 99.19 99.27 99.36 99.42 99.54 99.24 99.50 99.42 99.22 100.47 100.58 100.41 100.49 100.80 100.84 100.62 100.54 100.81 100.49 100.36 100.38 100.35 100.36 100.30 100.23 100.22 100.18 100.18 100.17 100.23 100.24 100.23 100.28 100.35 100.21 100.10 100.03 99.98
97.14 97.33 97.40 97.55 97.65 97.79 97.95 98.09 98.30 98.43 98.58 98.75 98.88 99.00 99.12 99.22 99.34 99.46 99.61 99.90 99.77 99.62 99.56 99.47 99.56 100.45 100.39 100.55 100.79 100.67 100.66 100.40 100.30 100.34 100.34 100.32 100.25 100.21 100.20 100.17 100.10 100.10 100.17 100.17 100.18 100.10 100.10 100.19 100.08 100.05 99.92 99.84
97.17 97.26 97.38 97.46 97.60 97.74 97.92 98.10 98.27 98.40 98.58 98.76 98.86 98.96 99.04 99.20 99.32 99.45 99.84 99.95 99.83 100.00 99.74 99.69 99.60 99.46 100.23 100.35 100.18 100.43 100.49 100.19 100.21 100.28 100.28 100.19 100.15 100.15 100.13 100.05 100.04 100.15 100.11 100.08 100.04 100.03 100.00 99.93 100.06 99.91 99.78 99.68
97.03 97.24 97.35 97.45 97.60 97.74 97.86 98.07 98.23 98.42 98.56 98.70 98.81 98.90 99.03 99.16 99.28 99.47 99.78 99.87 99.91 100.09 100.54 99.67 99.78 99.72 99.64 99.62 100.04 100.20 100.32 100.08 100.15 100.24 100.19 100.15 100.14 100.04 100.02 100.02 100.02 100.03 100.05 99.99 99.93 99.89 99.86 99.87 99.84 99.88 99.68 99.54
97.07 97.21 97.32 97.47 97.63 97.74 97.92 98.04 98.23 98.41 98.53 98.66 98.77 98.88 99.00 99.12 99.27 99.69 99.72 99.83 99.86 100.03 100.31 100.39 100.23 99.82 99.84 99.74 99.61 99.93 99.89 100.07 100.03 100.11 100.12 100.10 100.07 99.97 99.92 99.97 99.93 99.93 99.90 99.90 99.85 99.76 99.76 99.72 99.67 99.63 99.72 99.49
97.03 97.18 97.32 97.48 97.65 97.75 97.92 98.03 98.23 98.40 98.52 98.62 98.72 98.87 98.99 99.12 99.55 99.71 99.62 99.84 99.78 100.10 100.46 100.42 100.21 99.71 99.91 99.87 99.82 99.73 99.61 99.74 100.02 99.97 100.00 100.01 99.93 99.90 99.89 99.83 99.81 99.81 99.81 99.80 99.75 99.67 99.68 99.60 99.52 99.46 99.45 99.49
97.04 97.13 97.32 97.50 97.65 97.79 97.94 98.09 98.24 98.38 98.49 98.59 98.71 98.82 98.95 99.08 99.41 99.46 99.59 99.52 99.69 100.02 100.23 100.36 100.18 99.82 99.95 99.80 99.75 99.90 99.83 99.70 99.51 99.88 99.90 99.84 99.86 99.84 99.82 99.77 99.70 99.67 99.66 99.68 99.65 99.64 99.58 99.49 99.49 99.38 99.27 99.34
97.02 97.17 97.37 97.51 97.66 97.82 97.98 98.11 98.24 98.37 98.44 98.57 98.68 98.82 98.96 99.29 99.33 99.32 99.40 99.51 99.79 99.88 100.01 100.11 100.11 99.93 99.91 99.66 99.60 99.62 99.76 99.90 99.79 99.65 99.72 99.89 99.80 99.73 99.69 99.65 99.59 99.57 99.56 99.56 99.56 99.54 99.45 99.41 99.29 99.23 99.18 99.18
97.08 97.24 97.40 97.55 97.70 97.83 97.98 98.13 98.26 98.35 98.45 98.57 98.71 98.84 99.10 99.12 99.21 99.35 99.49 99.55 99.62 99.65 99.76 99.88 99.96 99.80 99.90 99.76 99.65 99.37 99.17 99.18 99.81 99.85 99.72 99.58 99.70 99.68 99.61 99.55 99.53 99.46 99.44 99.45 99.46 99.42 99.36 99.22 99.13 99.07 99.07 99.06
97.16 97.32 97.46 97.62 97.76 97.86 97.99 98.10 98.23 98.34 98.45 98.54 98.68 98.88 98.93 99.24 99.10 99.12 99.29 99.49 99.57 99.67 99.56 99.64 99.76 99.83 100.04 99.81 99.68 99.40 99.15 99.07 99.58 99.67 99.77 99.81 99.67 99.47 99.53 99.54 99.40 99.36 99.35 99.31 99.32 99.31 99.21 99.07 99.01 98.95 98.92 98.85
97.26 97.37 97.56 97.67 97.77 97.88 97.97 98.09 98.20 98.32 98.44 98.55 98.72 98.81 98.87 99.05 99.20 99.20 99.32 99.48 99.66 99.56 99.59 99.49 99.62 99.71 99.86 99.60 99.60 99.42 99.32 99.02 99.33 99.58 99.53 99.40 99.71 99.72 99.56 99.36 99.42 99.35 99.21 99.20 99.19 99.11 99.01 98.90 98.87 98.77 98.72 98.68
97.32 97.47 97.62 97.69 97.81 97.90 97.97 98.07 98.15 98.30 98.44 98.59 98.74 98.69 98.77 98.93 99.08 99.20 99.35 99.40 99.71 99.72 99.77 99.43 99.39 99.33 99.52 99.44 99.38 99.33 99.16 99.18 98.90 99.33 99.31 99.32 99.29 99.29 99.64 99.64 99.46 99.20 99.26 99.21 99.07 98.97 98.88 98.78 98.69 98.61 98.55 98.55
97.36 97.49 97.62 97.71 97.81 97.89 97.96 98.06 98.19 98.28 98.43 98.60 98.60 98.65 98.75 98.84 98.99 99.18 99.23 99.25 99.18 99.61 99.54 99.43 99.17 99.25 99.22 99.35 99.28 99.13 99.15 99.16 98.98 98.65 99.07 99.11 99.15 99.19 99.04 99.25 99.57 99.53 99.40 99.11 99.09 98.96 98.73 98.65 98.55 98.50 98.46 98.43
97.39 97.50 97.61 97.70 97.80 97.90 97.99 98.08 98.19 98.35 98.49 98.46 98.62 98.63 98.73 98.84 99.00 99.13 99.14 99.08 98.97 99.10 99.23 99.06 99.07 99.03 99.16 99.18 99.13 99.02 99.11 99.19 99.12 98.63 98.41 98.93 98.94 99.00 99.02 99.03 98.95 99.15 99.45 99.45 99.31 98.96 98.77 98.63 98.45 98.39 98.35 98.29
97.38 97.49 97.60 97.70 97.80 97.89 97.97 98.08 98.21 98.35 98.50 98.77 98.49 98.72 98.71 98.84 98.96 99.00 98.94 98.93 98.94 99.06 99.22 99.01 98.96 98.97 99.13 99.08 98.94 99.02 99.15 99.29 99.46 99.07 98.31 98.11 98.68 98.71 98.81 98.90 98.91 98.90 98.72 98.88 99.35 99.37 99.25 99.06 98.53 98.40 98.28 98.17
97.38 97.53 97.62 97.69 97.78 97.87 97.98 98.09 98.18 98.35 98.47 98.43 98.53 98.56 98.68 98.82 98.84 98.82 98.79 98.81 98.97 99.07 98.94 98.92 98.87 98.90 98.93 98.91 98.86 98.96 99.01 99.22 99.32 99.13 98.67 98.01 97.80 98.43 98.58 98.73 98.62 98.66 98.61 98.59 98.50 98.63 99.04 99.33 99.20 99.00 98.32 98.25
97.46 97.56 97.65 97.74 97.81 97.90 98.01 98.09 98.26 98.36 98.39 98.45 98.46 98.57 98.61 98.63 98.78 98.68 98.67 98.71 98.86 99.09 98.88 98.89 98.87 98.92 98.88 98.75 98.80 98.86 98.99 99.05 99.13 99.13 98.67 98.42 97.71 97.62 98.39 98.46 98.45 98.33 98.38 98.46 98.44 98.43 98.27 98.32 98.57 99.26 99.12 98.97
97.58 97.64 97.71 97.76 97.83 97.91 98.00 98.14 98.24 98.29 98.32 98.34 98.38 98.48 98.58 98.60 98.56 98.56 98.56 98.72 99.01 98.83 98.66 98.67 98.82 98.81 98.75 98.65 98.72 98.72 98.81 98.98 98.98 98.83 98.67 98.68 98.62 97.21 97.43 98.16 98.11 98.17 98.19 98.23 98.28 98.29 98.10 98.07 98.12 98.11 98.28 99.15
97.67 97.77 97.74 97.79 97.83 97.92 98.03 98.12 98.18 98.19 98.25 98.24 98.39 98.42 98.48 98.49 98.43 98.39 98.51 98.69 98.74 98.44 98.51 98.62 98.72 98.65 98.61 98.62 98.65 98.65 98.68 98.84 99.00 98.87 98.79 98.64 98.46 98.08 97.20 97.25 97.96 97.93 97.98 98.04 98.04 97.98 97.95 97.95 97.97 97.98 97.98 98.04
97.66 97.82 97.85 97.83 97.83 97.93 98.05 98.00 98.00 98.11 98.18 98.23 98.24 98.39 98.33 98.39 98.40 98.37 98.52 98.64 98.51 98.29 98.27 98.35 98.50 98.50 98.42 98.50 98.56 98.51 98.55 98.65 98.67 98.61 98.57 98.75 98.38 98.21 97.97 97.02 97.04 97.74 97.75 97.77 97.78 97.79 98.06 98.00 97.82 97.71 97.65 97.73
97.53 97.65 97.68 97.89 97.87 97.91 98.04 97.92 97.94 97.98 98.08 98.11 98.19 98.21 98.19 98.20 98.19 98.24 98.85 98.56 98.27 98.15 98.12 98.17 98.20 98.27 98.27 98.35 98.38 98.35 98.39 98.52 98.38 98.46 98.40 98.22 98.23 98.10 97.98 97.74 96.79 96.88 97.46 97.44 97.58 97.71 97.66 97.75 97.70 97.55 97.53 97.55
97.39 97.48 97.65 97.74 97.82 97.81 97.85 97.80 97.86 97.90 97.94 98.05 98.04 98.09 98.07 98.03 98.11 98.26 98.43 98.27 98.05 97.98 98.02 98.04 98.03 98.10 98.00 98.14 98.20 98.16 98.18 98.31 98.18 98.34 98.20 98.07 98.00 97.99 97.87 97.75 97.26 96.79 96.56 97.42 97.32 97.62 97.59 97.53 97.40 97.39 97.37 97.39
97.24 97.31 97.43 97.57 97.72 97.86 97.72 97.70 97.72 97.76 97.82 97.86 97.87 97.90 97.90 97.90 97.98 98.18 98.29 97.99 97.85 97.85 97.86 97.90 97.91 98.00 97.95 98.03 98.01 97.96 98.12 98.12 98.15 98.21 97.90 97.85 97.76 97.75 97.65 97.67 97.47 97.40 95.99 96.45 96.91 97.26 97.26 97.21 97.24 97.23 97.26 97.23
97.08 97.18 97.26 97.37 97.58 97.55 97.58 97.60 97.60 97.58 97.63 97.71 97.72 97.64 97.71 97.76 97.92 98.07 98.17 97.79 97.75 97.75 97.74 97.73 97.79 97.74 97.75 97.77 97.85 97.91 97.89 97.60 98.11 97.86 97.71 97.59 97.58 97.50 97.47 97.47 97.38 97.36 97.26 95.74 96.28 96.76 96.92 97.01 97.06 97.10 97.15 97.15
96.96 97.00 97.12 97.16 97.27 97.31 97.39 97.41 97.44 97.45 97.49 97.51 97.52 97.50 97.47 97.62 97.84 97.71 97.63 97.81 97.67 97.59 97.60 97.56 97.65 97.56 97.57 97.59 97.60 97.65 97.67 97.83 97.74 97.66 97.54 97.34 97.26 97.25 97.21 97.19 97.25 97.16 97.19 97.06 95.87 96.10 95.54 96.79 96.89 96.88 96.94 96.98
