ncols 52
nrows 52
xllcorner 436224
yllcorner 5713920
cellsize 10
NODATA_value -9999
87.35 87.23 87.12 87.10 87.03 86.97 86.91 86.92 86.92 86.85 86.63 86.45 86.33 86.28 86.17 85.94 85.75 85.57 85.39 85.22 85.06 84.89 84.78 84.10 85.97 88.02 88.31 88.44 85.53 85.31 85.31 85.35 85.32 85.33 85.13 85.23 85.58 86.01 85.66 85.56 85.66 85.76 85.66 86.31 86.51 86.45 86.38 86.43 86.53 86.34 86.77 86.69
87.42 87.28 87.21 87.17 87.12 87.04 86.99 87.01 86.97 86.82 86.62 86.47 86.40 86.35 86.20 86.01 85.84 85.67 85.48 85.29 85.08 84.93 84.97 84.33 87.00 89.59 87.42 88.65 87.03 85.40 85.41 85.42 85.37 85.40 85.39 85.23 85.17 85.58 86.28 85.78 85.79 85.59 85.76 86.01 86.39 86.56 86.51 86.53 86.46 87.57 85.93 85.91
87.48 87.39 87.36 87.30 87.21 87.10 87.08 87.08 87.03 86.81 86.64 86.54 86.48 86.38 86.19 86.02 85.89 85.72 85.55 85.32 85.11 84.97 84.78 84.76 87.65 89.58 86.10 87.39 86.42 85.35 85.31 85.44 85.36 85.43 85.40 85.43 85.25 85.17 85.34 85.97 86.10 85.83 85.87 86.47 86.20 86.38 86.43 86.46 86.55 86.29 85.92 85.35
87.51 87.50 87.45 87.43 87.33 87.25 87.17 87.15 86.99 86.75 86.65 86.57 86.53 86.41 86.23 86.07 85.92 85.74 85.55 85.35 85.14 85.01 84.44 86.08 87.92 86.78 85.39 84.70 85.34 85.37 85.38 85.36 85.38 85.40 85.40 85.35 85.36 85.37 85.48 85.30 85.50 85.82 85.94 85.88 85.90 86.95 86.90 86.43 87.65 86.00 85.82 85.23
87.56 87.54 87.53 87.49 87.42 87.38 87.31 87.21 87.01 86.81 86.70 86.62 86.55 86.39 86.19 86.09 85.92 85.76 85.56 85.36 85.17 85.14 84.41 87.12 87.64 87.38 85.49 85.39 84.74 85.31 85.40 85.35 85.36 85.32 85.42 85.38 85.39 85.39 85.40 85.29 85.30 85.50 85.84 86.25 85.97 85.98 86.08 86.03 86.06 85.93 85.89 85.20
87.63 87.61 87.60 87.53 87.49 87.43 87.40 87.22 87.02 86.92 86.78 86.68 86.53 86.36 86.24 86.09 85.96 85.76 85.56 85.31 85.16 85.06 85.00 87.29 87.63 86.61 85.54 85.39 85.34 84.59 85.21 85.35 85.36 85.34 85.35 85.43 85.42 85.44 85.44 85.40 85.60 85.41 85.46 85.72 86.54 86.13 86.00 86.18 86.10 85.95 86.08 85.59
87.72 87.68 87.67 87.60 87.56 87.51 87.44 87.24 87.07 86.98 86.83 86.74 86.58 86.44 86.31 86.17 85.96 85.73 85.50 85.23 85.09 84.70 86.37 87.90 87.98 86.30 85.56 85.39 85.37 85.25 84.55 84.57 85.32 85.37 85.40 85.38 85.35 85.41 85.41 85.32 85.54 85.89 85.65 85.47 85.74 86.26 86.27 86.12 86.26 86.31 86.18 86.31
87.81 87.78 87.72 87.69 87.65 87.60 87.45 87.21 87.08 86.99 86.86 86.79 86.69 86.65 86.49 86.33 85.95 85.72 85.43 85.13 85.00 84.24 87.15 88.26 88.21 86.42 85.68 85.46 85.38 85.43 84.75 84.56 84.68 85.33 85.46 85.35 85.40 85.35 85.37 85.40 85.43 85.51 85.64 85.61 85.62 85.96 86.44 86.28 86.29 86.19 86.45 86.52
87.94 87.84 87.81 87.78 87.72 87.61 87.43 87.25 87.14 87.00 86.88 86.82 86.79 86.71 86.65 86.44 86.14 85.66 85.43 85.07 84.73 85.10 87.39 87.89 86.34 85.79 85.69 85.51 85.44 85.49 85.36 85.22 84.60 84.57 85.35 85.39 85.35 85.39 85.41 85.37 85.41 85.48 85.63 85.75 85.77 86.15 86.29 86.33 86.39 86.54 86.32 86.56
88.00 87.94 87.90 87.86 87.75 87.61 87.40 87.29 87.18 87.06 86.93 86.86 86.83 86.74 86.70 85.97 84.91 84.87 85.66 85.35 84.65 86.71 87.50 87.06 85.92 85.83 85.66 85.55 85.40 84.66 84.59 84.65 84.58 85.38 85.46 85.51 85.36 85.35 85.47 85.41 85.35 85.34 85.62 86.01 86.39 86.64 86.48 86.69 86.83 86.65 86.57 86.46
88.07 88.04 88.00 87.91 87.79 87.58 87.39 87.32 87.23 87.10 87.01 86.98 86.89 86.82 86.74 84.83 84.81 84.90 84.91 85.43 84.25 87.10 87.99 86.81 85.96 85.84 85.71 85.54 85.38 84.61 84.59 84.51 84.86 85.36 85.40 85.36 85.30 85.41 85.51 85.45 85.34 85.12 85.68 85.41 86.62 86.51 86.81 87.14 87.73 87.26 86.79 86.64
88.21 88.14 88.08 87.96 87.78 87.57 87.43 87.36 87.26 87.20 87.11 87.05 86.91 86.84 86.26 84.85 84.85 84.80 84.97 84.30 84.86 87.49 88.74 87.47 86.12 85.88 85.77 85.58 85.49 84.68 84.59 84.60 84.50 84.50 85.34 85.32 85.72 85.36 85.42 85.51 85.44 85.38 85.41 87.05 86.94 87.02 87.15 87.47 87.57 87.17 86.99 87.42
88.35 88.29 88.18 88.04 87.83 87.63 87.53 87.42 87.31 87.25 87.16 87.10 86.99 86.82 84.89 84.89 84.86 85.43 84.29 85.11 86.83 88.45 89.79 88.55 86.79 86.11 85.97 85.69 85.43 85.28 84.50 84.54 85.12 85.40 84.50 85.04 85.75 85.56 85.44 85.45 85.38 85.42 86.36 86.87 87.16 88.01 87.50 87.22 87.16 87.00 87.76 87.89
88.52 88.40 88.29 88.08 87.87 87.74 87.65 87.53 87.43 87.38 87.29 87.13 86.97 86.46 84.92 84.96 85.81 84.29 85.04 84.38 86.91 88.84 90.24 89.70 87.76 86.78 86.35 86.03 85.67 85.51 85.38 85.43 86.40 87.45 86.17 85.28 84.58 84.54 85.61 85.32 85.39 85.94 87.00 87.31 87.64 87.71 87.77 87.28 87.24 87.51 87.98 88.08
88.62 88.55 88.36 88.19 87.96 87.84 87.75 87.60 87.55 87.45 87.33 87.19 86.99 85.41 84.93 84.85 85.32 85.40 85.81 85.25 86.21 87.01 88.36 89.49 88.88 87.96 87.35 86.76 86.19 85.96 85.93 85.98 87.24 88.78 88.68 87.15 85.67 84.52 85.33 85.78 86.10 87.29 87.02 87.57 87.75 87.71 87.43 87.18 87.57 87.27 87.71 87.79
88.68 88.54 88.39 88.24 88.04 87.95 87.83 87.71 87.68 87.58 87.40 87.22 86.60 84.96 84.93 85.38 84.37 85.85 85.00 85.60 85.56 85.56 85.79 86.75 87.94 88.86 88.90 88.70 88.01 86.87 86.36 86.42 86.74 87.54 87.86 87.74 86.48 86.09 86.03 86.61 87.54 87.23 87.32 87.61 87.78 87.91 87.40 87.57 87.76 87.84 87.57 87.58
88.80 88.64 88.39 88.19 88.10 87.99 87.92 87.81 87.72 87.60 87.42 87.24 85.89 85.01 84.89 85.84 85.25 86.49 84.45 85.79 85.70 85.93 86.19 86.78 87.15 86.61 87.81 88.99 89.29 88.88 87.53 86.89 86.71 86.74 86.78 86.83 86.62 86.64 87.20 88.45 87.27 87.38 87.92 87.75 87.82 87.58 87.36 87.92 88.01 87.97 87.96 87.74
89.47 89.04 88.65 88.22 88.09 87.95 87.90 87.90 87.79 87.65 87.44 86.82 84.86 84.95 84.90 86.03 86.05 85.74 84.94 85.94 85.82 86.24 87.36 87.17 86.84 87.02 87.43 87.48 87.92 88.68 88.85 88.03 87.24 87.07 87.01 86.98 87.04 87.39 88.96 87.55 87.50 87.76 88.32 88.00 87.70 87.51 87.83 88.07 88.08 88.16 88.15 87.91
89.50 88.96 88.98 88.94 88.33 88.10 87.83 87.85 87.71 87.50 87.32 86.41 84.92 84.88 84.87 85.57 86.37 85.24 85.97 86.02 86.29 86.30 86.97 87.10 86.76 87.29 87.89 87.59 88.16 87.98 88.00 88.12 88.53 87.67 87.39 87.47 87.35 88.54 88.37 87.71 88.01 88.18 88.15 88.03 87.69 88.00 88.29 88.06 88.19 88.44 88.38 88.35
89.53 88.90 88.93 88.90 88.46 88.51 88.42 87.83 87.51 87.20 87.05 86.85 85.25 84.87 85.97 84.54 86.77 84.78 86.08 85.96 86.29 86.89 87.57 87.25 86.90 87.43 87.53 88.14 88.30 88.21 88.58 88.52 88.51 88.39 88.48 88.17 88.34 88.82 87.98 88.05 88.28 88.36 88.29 87.93 87.98 88.22 88.24 88.11 88.55 88.74 88.61 88.30
88.86 88.03 88.74 88.60 88.44 88.47 88.50 88.39 88.03 87.08 86.81 86.85 86.83 86.60 84.60 86.41 86.57 84.85 86.18 86.07 86.54 87.03 87.29 87.22 86.96 86.99 87.34 87.91 88.35 88.68 88.83 88.80 88.56 88.93 88.70 88.55 88.47 88.11 88.24 88.86 88.63 88.47 88.30 88.17 88.41 88.36 88.43 88.43 88.72 88.73 88.63 88.38
89.30 88.75 88.82 88.60 88.64 88.49 88.39 88.19 87.01 86.73 86.43 85.02 85.67 85.44 86.57 86.46 85.87 86.08 86.27 86.29 86.32 87.51 87.18 86.95 87.19 87.49 87.37 87.44 87.65 88.93 88.67 88.26 88.66 88.71 88.85 89.01 89.28 88.46 88.78 88.96 88.82 88.60 88.32 88.54 88.59 88.56 88.57 88.90 88.90 89.07 88.72 88.84
89.40 89.19 88.86 88.82 88.61 88.58 88.42 87.95 86.94 86.55 86.04 85.74 85.99 85.91 85.74 85.92 85.25 86.41 86.58 86.41 86.42 87.59 87.18 87.13 87.91 87.74 87.73 87.99 87.92 87.99 88.05 88.26 88.62 88.73 88.98 89.14 88.84 88.62 89.10 89.29 88.97 88.46 88.68 89.07 89.03 89.04 89.17 89.10 89.85 89.28 88.88 89.28
89.34 89.15 88.88 89.00 89.01 88.62 88.39 87.63 86.87 86.56 85.36 85.79 85.99 85.95 85.62 86.65 84.74 85.51 85.32 85.72 86.55 86.75 86.92 87.04 87.30 87.71 88.23 88.27 88.40 88.57 88.35 88.40 89.07 89.33 89.19 89.15 89.30 89.35 89.53 89.10 88.81 89.06 88.94 89.35 89.12 89.29 89.24 89.43 89.73 89.47 89.16 89.38
89.38 89.10 88.88 88.76 88.70 88.50 88.35 87.54 87.14 85.42 85.71 85.87 86.00 85.77 85.45 85.59 85.50 85.51 85.52 85.58 85.56 85.16 86.70 86.97 87.25 87.75 88.18 88.49 88.69 88.73 88.38 88.86 88.19 89.39 89.42 89.50 89.49 89.42 89.50 89.26 88.95 89.22 89.68 89.23 89.34 89.88 89.62 89.61 89.85 89.63 89.57 89.85
89.41 89.18 88.91 89.00 88.86 88.66 88.03 87.60 86.57 85.67 85.77 85.88 85.87 85.56 85.54 84.57 85.96 86.05 85.81 85.64 85.62 85.49 85.42 85.57 86.37 87.46 87.69 88.24 88.62 88.77 88.45 89.14 89.18 89.31 89.63 89.60 89.58 89.43 89.37 89.30 89.21 89.85 89.99 89.59 89.56 90.06 90.18 90.07 89.94 89.62 89.82 90.22
89.14 89.09 89.11 89.12 89.01 88.59 87.90 86.52 86.01 85.93 85.79 85.74 85.69 85.70 86.66 85.09 86.25 86.42 86.57 86.43 86.19 85.81 85.64 85.50 85.77 85.79 86.99 87.71 88.13 88.35 88.57 89.20 89.15 89.90 89.74 89.68 89.97 89.98 89.80 89.69 89.89 89.46 89.65 89.79 89.95 90.47 90.31 90.14 90.32 89.96 90.31 90.43
89.16 89.14 89.16 89.12 89.10 88.01 86.92 86.35 86.17 86.03 85.91 85.84 85.89 85.77 86.28 85.38 86.53 86.68 86.94 86.88 86.51 86.32 85.68 85.46 85.68 85.69 85.82 86.76 87.45 88.00 88.55 88.67 88.99 89.78 89.88 89.84 89.97 90.33 90.14 90.32 90.55 90.35 90.12 89.88 89.86 90.37 90.60 90.56 90.47 90.50 90.69 90.51
89.10 88.90 89.04 89.03 88.25 86.91 86.35 86.30 86.22 86.07 86.01 85.95 86.04 85.79 85.73 85.82 86.71 87.02 87.22 87.24 86.86 86.37 85.65 85.53 85.60 85.75 86.05 86.43 86.77 87.42 87.91 88.57 89.21 89.22 89.46 89.87 90.03 90.25 90.37 90.47 90.50 90.47 90.43 90.94 90.83 90.40 90.29 90.31 90.39 90.73 90.76 90.82
88.85 88.72 88.60 88.07 86.22 86.39 86.22 86.20 86.21 86.14 86.13 86.09 86.07 86.36 85.40 86.12 86.80 87.11 87.42 87.52 87.28 86.24 85.59 85.45 85.66 85.94 86.19 86.44 86.79 87.14 87.54 88.52 89.03 89.50 90.10 89.97 89.94 90.17 90.39 90.36 90.60 90.81 90.83 90.92 91.01 91.15 91.10 90.70 90.74 91.00 90.92 91.01
88.82 88.56 86.47 86.56 86.32 86.25 86.23 86.19 86.16 86.13 86.12 86.29 86.17 86.82 85.19 86.25 86.86 87.26 87.60 87.92 87.36 86.54 86.32 86.02 86.07 86.26 86.31 86.54 86.71 87.16 87.66 89.03 89.24 90.11 90.33 90.15 90.22 90.31 90.60 90.51 90.69 90.88 91.10 91.04 91.10 91.25 91.24 90.93 90.91 90.92 91.07 91.15
87.99 86.61 86.60 86.31 86.42 86.38 86.38 86.40 86.27 86.24 86.17 86.36 86.09 86.53 85.43 86.48 87.04 87.39 88.32 88.04 87.81 87.63 87.26 87.01 86.61 86.85 86.73 86.62 86.82 87.06 88.70 90.04 90.16 90.07 90.20 90.23 90.49 90.44 90.75 90.77 90.86 91.11 90.98 91.09 91.26 91.30 91.35 91.19 91.51 91.14 91.68 91.46
86.61 86.72 86.60 86.54 86.43 86.37 86.36 86.45 86.45 86.44 86.54 86.41 86.35 86.77 86.14 86.01 86.74 87.54 87.60 87.12 88.02 88.45 88.42 87.98 87.01 87.83 87.84 87.63 86.96 86.93 89.82 89.91 90.07 90.14 90.25 90.47 90.17 90.46 90.65 90.94 90.95 91.24 91.35 92.25 91.92 91.42 91.47 91.55 91.79 92.07 91.98 91.87
86.77 86.71 86.67 86.61 86.56 86.57 86.48 86.41 86.49 86.58 86.61 86.43 86.79 86.98 85.38 86.50 85.90 87.11 87.09 87.15 87.90 88.35 88.60 88.27 87.69 88.30 88.57 88.57 87.24 86.79 89.42 89.41 89.71 90.00 90.36 90.46 90.03 90.79 91.01 90.65 91.24 91.38 91.46 91.70 92.23 92.07 91.57 91.82 91.90 91.92 92.10 91.95
86.90 86.78 86.74 86.70 86.70 86.69 86.62 86.58 86.52 86.47 86.49 86.56 86.94 86.92 86.08 86.68 86.24 86.90 87.06 87.06 87.72 88.24 88.38 88.60 87.73 88.77 88.86 89.03 88.65 86.94 89.04 88.90 89.07 89.38 90.21 90.46 90.52 91.09 91.04 91.19 91.29 91.38 91.49 91.90 92.21 92.11 91.62 92.18 92.25 92.28 92.25 92.24
87.06 87.04 87.02 86.92 86.79 86.79 86.74 86.70 86.68 86.62 86.64 86.69 87.16 86.97 86.78 87.08 85.75 85.79 87.37 87.39 87.52 88.25 88.32 88.68 87.93 88.95 89.08 89.20 89.39 87.28 86.93 87.45 88.64 89.22 89.61 90.25 90.67 91.15 91.17 91.25 91.28 91.34 91.78 91.93 92.21 91.69 92.38 92.53 92.34 92.47 92.46 92.54
87.25 87.24 87.18 87.08 86.99 86.92 86.95 86.84 86.82 86.73 86.80 86.78 87.22 87.01 86.96 86.62 87.30 87.04 85.93 87.63 87.47 88.10 88.29 88.59 88.13 88.99 89.21 89.24 89.41 89.77 90.25 90.34 90.03 89.28 90.27 90.35 90.97 91.05 91.04 91.31 91.38 91.28 91.52 91.77 91.78 91.29 92.33 92.50 92.34 92.91 92.45 92.79
87.59 87.48 87.41 87.31 87.21 87.18 87.14 87.08 87.00 86.89 86.92 86.85 87.17 87.04 86.29 86.20 86.88 87.05 85.98 87.61 87.49 87.83 88.21 88.44 88.30 88.96 89.22 89.46 89.64 89.78 90.00 90.24 90.49 90.57 90.57 90.80 90.71 91.00 91.33 91.18 91.26 91.28 91.49 91.36 91.21 91.21 91.58 92.22 92.33 92.12 92.68 92.82
87.97 87.99 87.94 87.86 87.53 87.46 87.42 87.35 87.22 87.12 87.15 87.03 87.25 86.41 86.37 86.94 87.01 86.15 87.44 87.71 87.82 87.83 88.34 88.54 88.39 88.79 89.16 89.50 89.73 89.87 90.05 90.21 90.43 90.59 90.76 90.95 90.83 90.85 90.88 91.11 91.10 90.90 91.45 91.33 90.89 91.40 91.65 91.76 92.03 92.35 92.79 92.76
88.22 88.18 88.10 88.02 87.98 88.01 88.02 87.90 87.58 87.44 87.42 87.28 87.44 86.23 86.83 86.97 86.64 86.23 87.60 87.79 87.90 87.93 87.95 88.25 88.75 88.68 89.04 89.43 89.72 89.93 90.14 90.26 90.47 90.61 90.65 90.80 90.82 90.81 90.59 90.57 90.47 90.58 90.89 91.05 90.65 91.35 91.76 91.74 91.76 91.75 92.38 92.39
88.53 88.53 88.47 88.38 88.31 88.23 88.21 88.15 88.10 88.10 88.07 87.86 87.46 86.13 86.42 87.05 86.26 87.31 87.71 87.77 87.81 87.87 88.06 88.38 88.39 88.56 88.90 89.24 89.61 89.89 90.12 90.29 90.56 90.73 90.79 90.96 91.20 90.99 90.82 90.65 90.77 90.46 90.44 90.36 90.50 90.72 91.33 91.49 91.76 91.85 92.28 92.24
88.90 88.94 88.92 88.86 88.79 88.74 88.70 88.65 88.57 88.45 88.34 88.21 87.99 87.75 86.43 86.44 87.38 87.39 87.68 87.71 87.82 87.89 87.89 88.58 88.24 88.38 88.68 89.00 89.42 89.74 90.04 90.24 90.51 90.73 90.84 91.04 91.25 91.17 91.20 90.94 90.66 90.60 90.46 90.29 90.21 90.85 91.06 90.95 91.20 92.01 92.12 92.11
89.28 89.35 89.37 89.35 89.31 89.29 89.25 89.21 89.12 88.94 88.75 88.60 88.41 88.12 87.62 87.01 87.62 87.46 87.59 87.80 87.91 88.02 87.89 88.47 88.13 88.27 88.54 88.82 89.19 89.52 89.86 90.07 90.39 90.58 90.74 91.01 91.11 91.35 91.14 91.03 90.81 90.80 90.47 90.16 91.16 91.41 91.21 90.83 91.89 91.89 91.64 91.64
89.63 89.72 89.79 89.81 89.80 89.78 89.76 89.73 89.60 89.36 89.11 88.95 88.79 88.51 88.21 87.76 87.14 87.66 87.67 87.70 87.86 88.07 88.28 88.16 88.05 88.18 88.34 88.67 89.09 89.27 89.57 89.84 90.09 90.33 90.52 90.83 91.04 91.11 90.35 90.76 90.89 90.69 90.35 90.23 90.34 90.56 90.84 90.67 91.85 91.91 91.64 91.74
89.97 90.05 90.12 90.18 90.18 90.17 90.15 90.08 89.91 89.63 89.39 89.22 89.09 88.88 88.57 88.25 87.66 87.65 87.77 87.99 88.90 89.24 88.55 87.99 87.67 87.14 88.17 88.53 88.85 89.14 89.35 89.54 89.84 90.04 90.18 90.46 90.74 90.61 90.51 90.46 90.90 90.68 90.49 90.49 90.81 90.37 90.62 91.03 90.96 91.72 91.65 91.69
90.24 90.38 90.44 90.51 90.55 90.53 90.50 90.37 90.16 89.87 89.71 89.53 89.38 89.23 89.01 88.65 88.42 88.34 88.01 87.99 88.40 89.04 89.06 88.72 88.75 88.69 88.65 87.44 88.06 89.06 89.14 89.59 89.63 89.72 89.89 90.19 90.51 90.18 90.00 90.10 90.33 90.27 90.15 90.32 90.50 90.51 90.24 90.24 91.06 90.99 91.05 91.46
90.49 90.62 90.74 90.80 90.84 90.85 90.80 90.63 90.36 90.11 89.92 89.80 89.66 89.54 89.39 89.11 88.92 88.84 89.07 89.18 89.03 88.95 89.04 89.04 88.85 88.74 88.75 88.75 88.32 87.86 88.64 89.01 89.31 89.25 89.25 89.23 89.21 89.18 89.22 89.21 89.19 89.54 89.79 90.27 90.58 90.47 90.34 90.17 90.45 90.36 90.60 90.95
90.71 90.86 90.99 91.04 91.10 91.11 91.04 90.80 90.48 90.27 90.13 90.12 90.03 89.91 89.76 89.57 89.33 89.18 89.35 89.22 89.16 91.17 89.36 89.23 88.90 88.68 88.61 88.72 88.70 87.39 87.87 88.36 88.51 88.33 88.55 88.44 88.58 88.70 88.73 88.90 88.97 89.17 89.54 88.30 90.13 90.27 90.39 90.58 90.09 90.18 90.35 91.04
90.91 91.05 91.17 91.23 91.26 91.26 91.18 90.90 90.67 90.56 90.48 90.45 90.38 90.29 90.10 89.86 89.67 89.51 89.43 90.10 89.94 89.76 89.76 89.43 89.07 88.65 88.68 88.66 88.65 88.03 88.39 88.60 88.71 88.86 88.79 88.73 88.75 88.94 88.96 89.12 89.18 89.26 89.37 89.35 89.46 88.43 90.28 90.25 90.40 90.45 90.38 90.31
91.07 91.21 91.31 91.38 91.43 91.42 91.28 91.03 90.87 90.90 90.85 90.76 90.65 90.54 90.38 90.21 90.03 89.93 89.77 89.77 89.88 89.83 89.59 89.47 89.08 88.64 88.67 88.77 88.74 87.76 88.58 88.75 88.88 88.91 89.00 88.93 89.04 89.06 89.25 89.39 89.42 89.40 89.69 89.51 89.47 89.65 89.06 89.45 90.44 90.60 90.54 90.51
91.19 91.32 91.42 91.53 91.57 91.56 91.34 91.12 91.16 91.15 91.10 91.13 91.08 90.98 91.40 90.69 90.93 91.10 91.23 90.70 89.80 89.96 89.91 89.65 89.20 88.65 88.63 88.65 88.72 88.23 88.60 88.79 88.75 88.85 89.02 89.03 89.12 89.32 89.39 89.40 89.41 89.49 89.59 89.66 89.74 89.83 89.81 90.00 88.42 90.33 90.65 90.83
91.24 91.35 91.41 91.51 91.64 91.70 92.38 92.32 92.52 92.32 92.17 92.38 92.53 92.36 92.06 91.14 91.12 91.15 91.16 90.98 90.00 90.08 89.95 89.71 89.23 88.68 88.67 88.64 88.72 89.22 89.89 89.85 89.80 88.89 88.33 88.40 88.99 89.23 89.40 89.49 89.50 89.38 89.70 89.68 89.87 89.93 90.02 90.06 90.05 89.96 88.85 90.61
