ncols 52
nrows 52
xllcorner 436224
yllcorner 5716480
cellsize 10
NODATA_value -9999
88.55 88.79 88.76 88.71 88.56 88.63 88.47 88.19 87.65 87.82 87.84 88.12 88.23 88.31 88.32 88.39 88.41 88.40 88.42 88.39 88.42 88.49 88.55 88.56 88.59 88.65 88.68 88.74 88.81 88.85 88.89 88.92 88.94 88.93 88.89 88.91 88.67 88.66 88.63 88.55 88.57 88.62 88.65 88.70 88.76 88.85 88.96 89.02 89.16 89.18 88.44 89.25
88.47 88.71 88.87 88.62 88.53 88.31 88.29 88.00 87.66 88.15 88.27 88.29 88.36 88.39 88.42 88.44 88.40 88.44 88.52 88.48 88.47 88.53 88.56 88.62 88.67 88.71 88.76 88.82 88.87 88.90 88.98 89.00 88.99 89.01 88.96 88.57 88.85 88.68 88.60 88.59 88.68 88.77 88.78 88.82 88.86 88.93 89.03 89.12 89.23 89.30 89.18 89.26
88.47 88.46 88.65 88.68 88.32 87.81 87.97 88.26 88.40 88.40 88.41 88.44 88.45 88.48 88.49 88.49 88.49 88.45 88.51 88.62 88.59 88.57 88.64 88.68 88.73 88.80 88.83 88.86 88.92 88.97 89.00 89.04 89.08 88.89 89.02 89.01 88.85 88.70 88.67 88.69 88.79 88.86 88.92 88.95 88.96 89.05 89.14 89.25 89.34 89.40 89.48 89.23
88.30 88.04 88.29 88.33 88.23 87.79 88.43 88.54 88.51 88.53 88.51 88.53 88.54 88.53 88.54 88.54 88.52 88.46 88.54 88.69 88.67 88.64 88.68 88.74 88.79 88.86 88.92 88.94 88.96 88.99 89.07 89.08 89.12 89.07 89.05 89.01 88.91 88.78 88.77 88.84 88.93 88.98 88.97 89.01 89.05 89.13 89.22 89.32 89.42 89.51 89.60 88.76
88.20 88.26 87.49 88.25 88.40 88.56 88.55 88.58 88.57 88.57 88.58 88.58 88.57 88.59 88.58 88.58 88.58 88.55 88.57 88.65 88.72 88.67 88.71 88.76 88.85 88.91 88.97 89.00 88.99 89.06 88.61 89.18 89.15 89.06 89.06 89.06 89.01 88.91 88.90 88.98 89.06 89.09 89.11 89.15 89.17 89.21 89.31 89.42 89.50 89.63 89.81 89.42
88.18 87.86 88.39 87.50 88.58 88.54 88.52 88.58 88.62 88.62 88.61 88.60 88.60 88.61 88.63 88.61 88.64 88.63 88.62 88.71 88.78 88.74 88.74 88.83 88.93 88.95 89.03 89.08 89.02 89.03 89.02 89.34 89.23 89.15 89.15 89.12 89.10 89.06 89.01 89.03 89.11 89.15 89.19 89.23 89.25 89.30 89.41 89.51 89.60 89.75 89.91 89.75
88.30 88.54 88.51 88.57 87.84 88.57 88.49 88.59 88.67 88.69 88.68 88.65 88.65 88.66 88.67 88.65 88.68 88.68 88.71 88.78 88.78 88.80 88.79 88.83 88.93 89.01 89.08 88.57 89.06 89.21 89.32 89.38 89.32 89.29 89.23 89.19 89.19 89.15 89.11 89.11 89.20 89.26 89.31 89.35 89.38 89.43 89.50 89.59 89.71 89.85 90.01 89.95
88.68 88.67 88.74 88.68 88.74 88.38 88.58 88.57 88.67 88.69 88.68 88.67 88.67 88.67 88.69 88.69 88.70 88.71 88.75 88.83 88.84 88.86 88.84 88.85 88.96 88.94 89.03 89.12 89.15 89.22 89.41 89.13 89.36 89.31 89.30 89.28 89.23 89.22 89.18 89.16 89.24 89.31 89.38 89.42 89.47 89.52 89.60 89.71 89.82 89.98 90.11 90.31
88.66 88.83 88.79 88.74 88.72 88.83 88.49 88.60 88.67 88.72 88.73 88.69 88.70 88.67 88.69 88.72 88.74 88.77 88.79 88.83 88.85 88.93 88.96 88.91 88.57 89.00 89.10 89.19 89.25 89.29 89.37 89.45 89.43 89.37 89.34 89.34 89.32 89.29 89.26 89.22 89.31 89.39 89.46 89.53 89.60 89.62 89.69 89.80 89.93 90.04 89.94 90.21
88.90 88.89 88.90 88.90 88.84 88.84 88.06 88.69 88.66 88.69 88.75 88.77 88.73 88.73 88.75 88.77 88.79 88.79 88.83 88.85 88.93 88.76 88.77 88.99 89.07 89.12 89.22 89.31 89.35 89.33 89.39 89.45 89.33 89.46 89.39 89.41 89.35 89.34 89.30 89.28 89.33 89.43 89.53 89.61 89.66 89.74 89.82 89.93 90.10 90.20 90.23 90.51
88.94 88.95 88.98 89.01 88.96 88.93 88.95 88.04 88.71 88.70 88.74 88.79 88.77 88.76 88.77 88.80 88.81 88.84 88.84 88.87 88.97 88.81 89.10 89.13 89.18 89.26 89.33 89.36 89.41 89.44 89.45 89.47 89.55 89.56 89.47 89.44 89.40 89.38 89.38 89.36 89.40 89.49 89.61 89.69 89.77 89.85 89.90 89.89 90.12 90.21 90.32 90.55
89.00 89.02 89.05 89.07 89.01 89.00 89.00 89.09 88.74 88.72 88.70 88.79 88.83 88.81 88.82 88.83 88.83 88.84 88.88 88.88 89.08 89.18 89.19 89.27 89.35 89.39 89.42 89.45 89.49 89.52 89.54 89.54 89.62 89.15 89.58 89.50 89.45 89.42 89.42 89.40 89.42 89.53 89.67 89.81 89.89 90.06 90.03 90.08 90.17 90.31 90.42 90.57
89.09 89.10 89.13 89.11 89.07 89.08 89.04 89.06 89.22 88.93 88.74 88.73 88.80 88.82 88.85 88.82 88.87 88.93 89.11 89.20 89.25 89.31 89.35 89.39 89.44 89.49 89.52 89.52 89.57 89.61 89.65 89.65 89.69 89.72 89.68 89.63 89.56 89.49 89.48 89.48 89.49 89.60 89.79 89.91 89.64 89.85 89.97 90.15 90.26 90.35 90.43 90.58
89.12 89.15 89.20 89.17 89.15 89.14 89.17 89.15 89.18 88.76 89.11 88.81 88.77 88.79 88.79 88.93 88.77 89.28 89.31 89.36 89.44 89.49 89.49 89.53 89.58 89.62 89.62 89.61 89.64 89.68 89.72 89.73 89.75 89.77 89.55 89.68 89.58 89.53 89.54 89.57 89.65 89.74 89.97 89.67 89.72 89.85 90.02 90.17 90.28 90.43 90.53 90.61
89.16 89.18 89.24 89.22 89.21 89.21 89.25 89.26 89.25 89.23 88.32 89.08 88.93 88.88 88.97 89.28 89.32 89.34 89.42 89.49 89.59 89.62 89.67 89.68 89.70 89.71 89.72 89.72 89.72 89.77 89.80 89.82 89.80 89.87 89.83 89.76 89.62 89.61 89.67 89.76 89.89 89.30 89.58 89.66 89.79 89.92 90.05 90.17 90.31 90.42 90.53 90.63
89.21 89.24 89.29 89.27 89.29 89.31 89.34 89.33 89.32 89.25 89.23 89.21 89.07 88.81 89.34 89.31 89.37 89.45 89.55 89.62 89.73 89.76 89.80 89.82 89.79 89.80 89.83 89.82 89.81 89.83 89.87 89.88 89.85 89.89 89.87 89.69 89.76 89.76 89.82 89.94 89.54 89.59 89.68 89.83 89.94 90.01 90.16 90.24 90.40 90.50 90.63 90.67
89.33 89.33 89.29 89.29 89.38 89.38 89.37 89.42 89.37 89.22 89.22 88.94 89.46 89.41 89.35 89.35 89.47 89.57 89.64 89.75 89.85 89.91 89.91 89.91 89.92 89.91 89.90 89.90 89.90 89.91 89.96 89.96 89.96 89.88 89.92 89.75 89.76 90.03 89.49 89.59 89.63 89.73 89.83 89.93 90.02 90.14 90.22 90.28 90.39 90.55 90.68 90.81
89.48 89.42 89.33 89.36 89.45 89.46 89.48 89.48 89.39 89.29 89.41 89.12 89.45 89.65 89.44 89.44 89.54 89.67 89.75 89.86 89.94 90.01 90.03 90.01 90.00 90.01 90.01 90.01 89.99 90.01 90.04 90.04 89.99 89.96 90.01 90.02 89.74 89.67 89.69 89.72 89.79 89.88 89.93 90.07 90.15 90.26 90.28 90.40 90.52 90.65 90.72 90.89
89.61 89.46 89.41 89.48 89.54 89.53 89.57 89.53 89.40 89.44 89.11 89.46 89.45 89.01 89.66 89.63 89.67 89.80 89.87 89.94 90.04 90.12 90.10 90.12 90.11 90.10 90.08 90.09 90.10 90.09 90.07 90.07 90.06 90.07 90.01 89.75 89.77 89.79 89.84 89.86 89.90 89.97 90.08 90.14 90.24 90.35 90.40 90.49 90.57 90.67 90.79 90.92
89.70 89.57 89.53 89.60 89.61 89.62 89.61 89.51 89.50 88.92 89.57 89.52 89.50 89.64 89.84 89.83 89.86 89.87 89.94 90.02 90.13 90.18 90.20 90.20 90.21 90.19 90.19 90.18 90.17 90.12 90.13 90.14 90.11 89.70 89.87 89.87 89.90 89.93 89.96 89.95 90.04 90.07 90.15 90.20 90.35 90.43 90.52 90.54 90.66 90.77 90.83 90.92
89.75 89.64 89.67 89.70 89.67 89.70 89.64 89.59 88.74 89.63 89.67 89.64 89.59 89.68 89.85 89.98 90.00 89.97 90.04 90.08 90.16 90.25 90.27 90.25 90.24 90.25 90.25 90.21 90.19 90.16 90.21 90.15 90.03 89.94 89.95 89.96 90.01 90.04 90.08 90.13 90.15 90.20 90.28 90.33 90.40 90.48 90.61 90.67 90.74 90.81 90.89 90.98
89.84 89.77 89.79 89.80 89.78 89.75 89.72 88.86 89.63 89.74 89.76 89.77 89.74 89.81 89.86 90.01 90.19 90.10 90.06 90.12 90.21 90.27 90.32 90.33 90.33 90.31 90.26 90.22 90.27 90.34 89.71 90.11 90.07 90.06 90.06 90.06 90.07 90.12 90.18 90.21 90.23 90.30 90.35 90.42 90.49 90.63 90.72 90.78 90.85 90.96 91.06 91.11
89.97 89.93 89.96 89.95 89.92 89.88 89.12 89.74 89.80 89.85 89.88 89.82 89.85 89.90 89.95 89.96 89.43 90.28 90.17 90.18 90.20 90.29 90.33 90.38 90.31 90.31 90.36 90.34 90.37 90.29 90.26 90.25 90.27 90.22 90.11 90.12 90.16 90.23 90.26 90.34 90.36 90.40 90.43 90.50 90.56 90.67 90.75 90.89 90.98 91.07 91.19 91.37
90.09 90.15 90.15 90.10 90.04 89.40 89.81 89.81 89.94 90.02 90.00 89.96 89.96 89.95 89.98 90.03 90.14 90.08 90.38 90.25 90.24 90.29 90.32 90.35 90.37 90.44 90.50 89.94 90.40 90.35 90.39 90.37 90.35 90.26 90.21 90.21 90.23 90.25 90.34 90.40 90.43 90.46 90.54 90.58 90.62 90.75 90.86 90.96 91.04 91.18 91.36 91.48
90.28 90.34 90.33 90.27 89.87 89.98 89.91 89.92 90.08 90.12 90.15 90.10 90.04 90.01 90.05 90.08 90.18 90.29 90.44 90.42 90.28 90.22 90.26 90.38 90.42 90.51 90.48 90.52 90.54 90.54 90.50 90.46 90.45 90.39 90.30 90.27 90.33 90.37 90.42 90.43 90.51 90.54 90.61 90.64 90.74 90.84 90.90 90.98 91.19 91.32 91.45 91.56
90.50 90.54 90.49 90.19 90.14 90.06 90.03 90.08 90.15 90.24 90.28 90.23 90.16 90.15 90.14 90.22 90.29 90.32 90.56 90.54 90.35 90.25 90.35 90.51 90.37 90.50 90.57 90.63 90.65 90.62 90.54 90.56 90.52 90.45 90.38 90.35 90.40 90.45 90.47 90.50 90.56 90.59 90.68 90.73 90.82 90.88 91.00 91.14 91.22 91.33 91.47 91.58
90.68 90.70 90.68 90.39 90.23 90.14 90.19 90.21 90.30 90.35 90.38 90.36 90.33 90.28 90.28 90.32 90.35 90.44 90.46 89.73 90.59 90.34 90.36 90.49 90.54 90.64 90.69 90.71 90.70 90.71 90.65 90.67 90.60 90.58 90.53 90.47 90.45 90.53 90.55 90.59 90.61 90.70 90.74 90.81 90.90 91.04 91.12 91.18 91.25 91.39 91.51 91.64
90.85 90.86 90.67 90.53 90.27 90.28 90.33 90.36 90.46 90.50 90.50 90.55 90.51 90.48 90.43 90.45 90.51 90.54 90.68 90.63 90.18 90.64 90.67 90.63 90.70 90.77 90.77 90.79 90.81 90.78 90.77 90.72 90.68 90.67 90.61 90.56 90.55 90.58 90.58 90.65 90.70 90.75 90.79 90.91 91.04 91.11 91.14 91.22 91.33 91.46 91.57 91.69
91.24 90.83 90.82 90.60 90.40 90.38 90.44 90.55 90.62 90.65 90.66 90.65 90.67 90.63 90.62 90.57 90.58 90.69 90.82 90.67 90.80 90.94 90.93 90.85 90.79 90.78 90.87 90.86 90.87 90.81 90.84 90.82 90.83 90.76 90.72 90.65 90.64 90.64 90.69 90.72 90.73 90.75 90.92 91.02 91.08 91.11 91.20 91.26 91.36 91.50 91.64 91.76
91.03 91.07 90.86 90.76 90.60 90.50 90.57 90.68 90.77 90.79 90.78 90.77 90.74 90.75 90.74 90.67 90.71 90.84 90.81 90.69 90.81 91.02 91.09 91.07 90.94 90.94 90.94 90.95 90.96 90.94 90.94 90.92 90.90 90.85 90.77 90.73 90.74 90.75 90.77 90.73 90.81 90.90 90.96 91.01 91.12 91.17 91.24 91.32 91.46 91.58 91.65 91.80
91.25 91.08 90.99 90.94 90.78 90.69 90.68 90.78 90.87 90.88 90.83 90.83 90.82 90.83 90.82 90.83 90.96 90.88 90.85 90.86 90.82 90.97 90.83 91.24 91.12 91.00 91.02 91.03 91.03 91.07 91.00 90.99 90.96 90.95 90.86 90.84 90.80 90.81 90.82 90.85 90.91 90.95 91.00 91.10 91.17 91.21 91.29 91.40 91.47 91.54 91.75 91.87
91.32 91.24 91.19 91.07 90.96 90.82 90.79 90.90 91.00 90.96 90.93 90.90 90.90 90.84 90.88 91.00 90.91 90.95 91.01 91.02 90.95 91.00 91.12 90.94 91.26 91.21 91.10 91.13 91.11 91.13 91.08 91.06 91.02 91.02 90.97 90.92 90.86 90.93 90.97 90.96 90.98 91.02 91.08 91.17 91.23 91.28 91.35 91.40 91.51 91.64 91.76 91.91
91.43 91.45 91.32 91.25 91.12 90.96 90.93 91.04 91.12 91.14 91.10 91.05 91.01 91.00 91.10 90.98 91.07 91.13 91.18 91.16 91.16 91.12 91.17 91.29 91.40 91.34 91.26 91.17 91.19 91.18 91.17 91.12 91.14 91.10 91.04 91.01 91.04 91.07 91.07 91.09 91.07 91.10 91.16 91.23 91.32 91.34 91.42 91.53 91.57 91.67 91.81 91.99
91.55 91.49 91.46 91.39 91.27 91.14 91.08 91.17 91.29 91.28 91.26 91.20 91.19 91.26 91.10 91.19 91.26 91.31 91.30 91.33 91.28 91.26 91.24 91.31 91.36 91.50 91.46 91.29 91.26 91.22 91.25 91.23 91.20 91.14 91.21 91.22 91.18 91.21 91.23 91.24 91.22 91.21 91.29 91.37 91.43 91.53 91.58 91.62 91.67 91.78 91.89 92.05
91.69 91.65 91.62 91.57 91.43 91.31 91.18 91.26 91.40 91.45 91.41 91.39 91.41 91.22 91.29 91.36 91.40 91.41 91.44 91.47 91.42 91.40 91.37 91.31 91.40 91.35 91.72 91.51 91.33 91.39 91.33 91.29 91.32 91.33 91.35 91.34 91.34 91.33 91.35 91.34 91.36 91.42 91.46 91.54 91.65 91.70 91.79 91.84 91.92 91.98 92.04 92.15
91.88 91.86 91.82 91.70 91.58 91.44 91.36 91.38 91.51 91.56 91.56 91.56 91.43 91.46 91.49 91.50 91.52 91.57 91.60 91.58 91.61 91.56 91.51 91.44 91.43 91.52 91.24 91.67 91.52 91.38 91.43 91.50 91.50 91.51 91.50 91.49 91.45 91.42 91.44 91.49 91.48 91.50 91.62 91.71 91.79 91.90 91.99 92.04 92.12 92.15 92.23 92.30
91.97 92.02 91.94 91.82 91.69 91.63 91.49 91.51 91.62 91.69 91.72 91.63 91.62 91.67 91.64 91.67 91.70 91.73 91.72 91.76 91.75 91.70 91.65 91.57 91.55 91.59 91.72 91.93 91.76 91.60 91.60 91.64 91.62 91.64 91.62 91.60 91.57 91.59 91.60 91.58 91.59 91.68 91.76 91.87 91.97 92.09 92.15 92.23 92.27 92.36 92.42 92.46
92.27 92.12 92.08 91.92 91.85 91.75 91.68 91.71 91.80 91.88 91.86 91.85 91.83 91.79 91.82 91.83 91.87 91.86 91.90 91.91 91.92 91.86 91.81 91.79 91.73 91.67 91.75 91.90 92.06 91.95 91.76 91.71 91.74 91.73 91.70 91.72 91.71 91.70 91.71 91.72 91.74 91.81 91.94 92.04 92.14 92.25 92.33 92.40 92.47 92.51 92.58 92.62
92.71 92.31 92.14 92.07 92.00 91.90 91.92 91.97 92.11 92.05 92.04 92.06 91.99 91.99 91.99 91.99 92.03 92.06 92.07 92.10 92.07 92.07 92.04 91.96 91.85 91.84 91.86 91.95 92.24 92.20 92.01 91.80 91.84 91.81 91.84 91.83 91.80 91.81 91.82 91.83 91.84 91.96 92.10 92.21 92.32 92.39 92.50 92.57 92.66 92.71 92.71 92.74
92.74 92.65 92.33 92.19 92.08 92.10 92.14 92.25 92.24 92.23 92.26 92.20 92.22 92.21 92.18 92.14 92.19 92.29 92.33 92.29 92.32 92.31 92.24 92.14 92.09 92.07 92.03 92.09 92.20 91.65 92.15 92.03 91.93 91.98 91.97 91.94 91.95 91.92 91.93 91.95 92.03 92.12 92.26 92.37 92.48 92.57 92.66 92.73 92.81 92.82 92.86 92.66
92.77 92.90 92.66 92.34 92.26 92.31 92.35 92.40 92.42 92.47 92.40 92.40 92.44 92.43 92.39 92.41 92.47 92.54 92.54 92.58 92.56 92.47 92.35 92.31 92.32 92.26 92.26 92.25 92.29 92.42 92.43 92.29 92.18 92.10 92.11 92.11 92.09 92.08 92.10 92.11 92.17 92.27 92.42 92.54 92.61 92.71 92.80 92.88 92.95 92.88 92.58 93.20
92.88 92.79 92.96 92.51 92.35 92.47 92.59 92.61 92.61 92.60 92.61 92.67 92.66 92.66 92.68 92.69 92.74 92.71 92.80 92.75 92.66 92.57 92.51 92.49 92.46 92.43 92.42 92.46 92.43 92.47 92.59 92.68 92.50 92.33 92.28 92.29 92.24 92.26 92.26 92.28 92.33 92.44 92.57 92.68 92.76 92.85 92.91 92.97 92.89 93.24 93.29 93.26
92.90 92.86 92.80 92.90 92.69 92.75 92.76 92.81 92.78 92.78 92.82 92.82 92.85 92.89 92.92 92.92 92.86 92.91 92.93 92.86 92.77 92.75 92.68 92.62 92.58 92.54 92.58 92.59 92.62 92.56 92.69 92.72 92.87 92.68 92.44 92.43 92.43 92.42 92.43 92.46 92.49 92.57 92.68 92.81 92.89 92.97 92.87 92.88 93.34 93.39 93.38 93.42
92.96 92.95 92.84 92.77 93.08 92.99 92.91 92.97 92.96 92.96 92.95 92.99 93.01 93.07 93.10 93.01 93.04 93.07 93.02 92.97 92.93 92.88 92.80 92.73 92.71 92.71 92.71 92.76 92.75 92.77 92.83 92.93 92.94 92.86 92.78 92.60 92.58 92.57 92.60 92.64 92.67 92.68 92.80 92.89 92.92 92.86 93.43 93.43 93.45 93.49 93.51 93.56
92.98 92.92 92.94 92.94 92.96 93.25 93.16 93.11 93.15 93.16 93.18 93.15 93.18 93.20 93.18 93.20 93.21 93.16 93.15 93.13 93.09 93.02 92.93 92.89 92.87 92.86 92.88 92.89 92.92 92.96 92.92 92.97 93.17 92.91 93.04 92.88 92.76 92.75 92.75 92.80 92.83 92.85 92.89 92.76 93.28 93.43 93.48 93.51 93.58 93.62 93.68 93.71
93.01 92.95 93.04 93.10 93.12 93.35 93.42 93.30 93.29 93.35 93.32 93.33 93.31 93.33 93.36 93.38 93.34 93.33 93.32 93.26 93.24 93.15 93.08 93.05 93.01 93.00 93.02 93.04 93.10 93.12 93.16 93.17 93.24 93.32 93.29 93.17 92.90 92.85 92.89 92.93 92.92 92.86 92.78 93.44 93.52 93.57 93.60 93.64 93.71 93.76 93.81 93.85
93.12 93.15 93.19 93.32 93.41 93.33 93.59 93.57 93.46 93.52 93.50 93.49 93.50 93.52 93.58 93.53 93.52 93.53 93.46 93.43 93.36 93.32 93.28 93.19 93.19 93.18 93.18 93.21 93.25 93.28 93.40 93.41 93.42 93.40 93.28 93.44 93.26 92.98 93.04 93.00 92.86 93.43 93.49 93.53 93.62 93.69 93.76 93.80 93.83 93.91 93.97 93.99
93.23 93.28 93.40 93.48 93.59 93.64 93.51 93.79 93.74 93.66 93.67 93.72 93.75 93.75 93.70 93.72 93.76 93.70 93.63 93.57 93.56 93.51 93.45 93.41 93.36 93.32 93.33 93.37 93.42 93.51 93.54 93.61 93.55 93.60 93.62 92.36 93.43 93.24 92.94 93.11 93.53 93.59 93.62 93.69 93.77 93.85 93.90 93.96 93.99 94.05 94.13 94.18
93.34 93.46 93.61 93.69 93.68 93.73 93.73 93.86 94.04 93.90 93.85 93.94 93.94 93.90 93.96 93.98 93.93 93.88 93.78 93.75 93.71 93.72 93.65 93.58 93.52 93.52 93.50 93.55 93.60 93.61 93.71 93.66 93.80 93.74 93.61 93.61 93.75 93.24 93.47 93.53 93.63 93.71 93.75 93.82 93.93 93.99 94.05 94.10 94.13 94.18 94.23 94.27
93.54 93.68 93.78 93.86 93.94 93.98 94.05 94.08 94.41 94.22 94.15 94.07 94.08 94.16 94.18 94.14 94.10 94.03 93.99 93.94 93.94 93.89 93.85 93.76 93.71 93.69 93.71 93.68 93.73 93.79 93.79 93.95 93.94 93.83 93.75 93.54 93.56 93.61 93.67 93.71 93.81 93.82 93.88 93.96 94.06 94.12 94.20 94.28 94.31 94.34 94.37 94.42
93.77 93.87 93.99 94.06 94.11 94.24 94.31 94.23 94.37 94.30 94.40 94.37 94.37 94.36 94.32 94.32 94.27 94.23 94.21 94.17 94.12 94.07 94.01 93.94 93.93 93.88 93.84 93.81 93.85 93.93 94.07 94.01 94.05 93.91 92.75 93.83 93.84 93.84 93.86 93.88 93.92 93.94 94.01 94.10 94.18 94.25 94.35 94.38 94.42 94.45 94.51 94.57
93.97 94.07 94.15 94.23 94.33 94.42 94.47 94.51 94.48 94.64 94.59 94.67 94.55 94.52 94.52 94.49 94.51 94.46 94.43 94.38 94.28 94.25 94.21 94.16 94.08 94.02 93.96 93.96 94.07 94.11 94.11 94.12 94.00 94.10 93.94 94.04 94.06 94.09 94.06 94.04 94.04 94.10 94.11 94.21 94.32 94.39 94.46 94.51 94.54 94.59 94.68 94.71
