ncols 52
nrows 52
xllcorner 436224
yllcorner 5714432
cellsize 10
NODATA_value -9999
84.57 84.86 85.01 85.16 85.28 85.40 85.50 85.65 85.91 86.19 86.39 86.77 86.72 86.65 86.71 86.79 86.87 86.92 87.00 87.09 87.01 86.81 86.10 85.94 85.80 85.67 85.62 85.50 85.87 86.16 86.48 86.81 87.17 87.49 87.81 88.07 88.32 88.56 88.74 88.92 89.06 89.21 89.35 89.46 89.60 89.72 89.82 89.92 90.03 90.16 90.33 90.44
84.11 84.43 84.64 84.83 85.03 85.13 85.29 85.45 85.69 85.91 86.22 86.61 86.45 86.49 86.51 86.56 86.58 86.58 86.62 86.59 86.61 86.58 86.54 86.48 86.26 85.48 85.56 84.76 85.88 86.04 86.38 86.68 87.01 87.35 87.66 87.93 88.17 88.42 88.61 88.78 88.91 89.06 89.17 89.30 89.40 89.51 89.62 89.72 89.85 89.96 90.13 90.21
83.50 83.82 84.15 84.38 84.63 84.83 85.01 85.20 85.46 85.68 86.04 86.35 86.26 86.32 86.39 86.41 86.43 86.41 86.40 86.34 86.30 86.19 86.13 85.98 85.85 85.83 85.99 86.03 85.86 85.90 86.24 86.57 86.88 87.20 87.47 87.74 88.01 88.23 88.43 88.61 88.77 88.92 89.01 89.10 89.19 89.30 89.40 89.53 89.65 89.85 90.08 90.04
83.26 83.39 83.65 83.90 84.18 84.38 84.58 84.84 85.15 85.35 86.05 86.14 86.07 86.09 86.18 86.24 86.23 86.26 86.25 86.18 86.08 85.91 85.80 85.62 85.40 85.29 84.50 85.75 85.71 86.08 86.19 85.55 86.62 86.96 87.29 87.57 87.81 88.03 88.23 88.40 88.58 88.69 88.82 88.89 88.99 89.07 89.22 89.32 89.43 89.67 89.97 90.10
83.12 83.12 83.28 83.47 83.65 83.87 84.16 84.47 84.76 85.15 85.85 85.98 86.04 85.88 86.01 86.04 86.07 86.08 86.03 85.98 85.92 85.80 85.60 85.37 85.16 85.07 85.22 85.51 85.82 86.13 86.28 86.27 86.39 86.56 86.04 87.24 87.59 87.80 88.01 88.18 88.33 88.47 88.55 88.62 88.71 88.85 88.96 89.08 89.24 89.46 89.73 89.73
81.51 82.88 83.18 83.35 83.69 83.88 84.18 84.65 84.84 85.01 85.34 85.81 85.90 85.96 85.92 85.85 85.87 85.86 85.85 85.79 85.72 85.57 85.38 85.12 85.08 84.99 85.07 85.43 85.81 86.18 86.47 86.69 86.82 86.85 86.88 87.03 87.09 86.75 87.63 87.90 88.07 88.20 88.28 88.33 88.40 88.55 88.68 88.87 89.03 89.21 89.49 89.37
82.24 80.70 82.57 83.40 83.55 83.74 84.05 84.35 84.71 84.92 85.08 85.12 85.23 85.52 85.85 85.65 85.64 85.69 85.65 85.59 85.50 85.33 85.08 84.93 84.96 84.45 85.01 85.45 85.75 86.14 86.48 86.76 86.96 87.11 87.20 87.38 87.50 87.77 87.49 87.52 87.60 87.67 87.76 87.81 87.38 87.42 88.15 88.56 88.71 88.84 88.90 89.05
82.79 82.69 81.35 80.90 83.23 83.37 83.72 84.18 84.61 84.60 84.60 84.64 84.79 84.78 85.07 85.35 85.50 85.47 85.46 85.38 85.29 85.10 84.83 84.86 84.74 84.72 84.95 85.32 85.71 86.07 86.40 86.65 86.93 87.10 87.33 87.45 87.64 87.88 88.00 88.04 87.98 87.92 87.65 88.01 88.12 88.17 88.13 88.19 88.31 88.45 88.57 88.74
82.90 82.79 82.92 82.61 80.83 81.40 83.31 83.75 83.86 84.11 84.27 84.32 84.24 84.01 84.50 84.91 85.08 85.24 85.02 85.07 85.03 84.84 84.66 84.69 83.30 84.57 84.89 85.24 85.58 85.92 86.24 86.54 86.81 86.99 87.32 87.35 87.59 87.87 88.11 88.08 87.86 87.06 87.20 87.78 88.21 88.01 88.02 87.59 87.24 87.46 87.67 87.86
83.04 82.89 82.76 82.62 82.70 82.36 81.25 81.47 82.47 83.63 83.98 84.00 83.96 84.01 84.15 84.26 84.81 84.73 84.98 84.77 84.67 84.53 84.56 84.41 84.33 84.50 84.74 85.06 85.43 85.73 86.04 86.33 86.59 86.79 87.19 87.20 87.49 87.59 87.90 87.89 87.92 86.90 87.55 87.71 88.06 87.86 87.78 86.77 87.00 87.23 87.47 87.26
83.40 83.12 82.89 82.71 82.60 82.65 81.86 83.10 82.72 82.26 81.68 81.60 81.81 83.07 83.59 83.25 83.16 83.31 83.82 84.50 84.41 84.44 84.18 83.59 84.71 84.36 84.58 84.86 85.15 85.44 85.76 86.08 86.37 86.66 86.91 87.05 87.38 87.44 87.58 87.73 87.74 86.92 87.22 87.42 87.46 87.86 88.02 86.68 86.85 87.03 87.27 87.14
83.86 83.84 83.02 82.86 82.80 82.83 82.36 84.73 84.94 84.83 84.48 83.98 84.06 83.53 82.18 81.89 82.90 83.40 83.32 83.17 83.21 84.13 84.13 83.71 84.51 84.45 84.58 84.63 84.90 85.12 85.44 85.77 86.05 86.53 86.64 86.83 87.10 87.25 87.34 87.48 87.19 86.95 87.19 87.16 87.13 88.44 87.69 86.54 86.61 86.49 86.99 87.62
84.16 83.96 83.88 83.88 83.35 82.60 84.34 85.23 85.06 84.65 84.43 84.19 83.92 83.72 83.60 83.74 83.46 82.06 81.94 83.09 83.49 83.94 82.78 84.28 84.10 84.30 84.30 84.28 84.64 84.97 85.09 85.49 85.81 86.25 86.36 86.62 86.86 87.04 87.19 87.45 86.95 86.12 86.75 86.94 86.60 86.58 87.43 88.82 90.08 91.09 91.79 91.74
84.23 84.22 84.25 83.99 83.86 83.39 82.13 84.46 84.88 84.68 84.25 84.32 84.01 83.59 83.48 83.55 84.44 83.43 83.63 83.43 82.07 81.90 82.42 82.62 82.95 83.05 83.45 84.38 84.48 84.57 85.06 85.51 85.71 85.81 86.09 86.39 86.63 86.96 87.07 86.67 86.11 86.73 87.64 89.04 90.60 91.42 91.38 91.53 91.43 91.05 90.62 89.95
83.34 83.62 83.78 83.79 83.89 84.01 83.86 82.62 82.15 84.19 84.20 84.36 84.42 84.46 83.40 84.39 83.81 82.96 82.86 83.38 83.50 83.00 83.66 83.58 83.65 83.69 83.67 82.85 82.14 84.75 85.10 85.20 85.68 85.57 85.90 86.26 85.40 85.26 86.60 88.61 90.24 91.16 91.16 91.11 90.93 90.29 89.05 87.62 87.51 87.60 87.57 87.50
82.60 82.84 83.18 83.48 83.65 83.60 83.95 84.01 83.93 82.70 83.76 84.36 84.29 84.33 84.35 84.35 84.69 84.66 83.39 82.82 82.85 82.91 83.03 83.45 83.49 83.53 83.65 83.78 83.85 82.15 84.93 84.98 85.60 84.87 85.49 87.33 89.55 90.63 90.85 90.88 90.69 89.87 88.29 86.90 86.97 86.95 86.82 86.10 85.34 84.68 84.35 84.10
82.49 82.88 82.60 82.60 82.62 83.04 83.72 83.72 83.98 84.05 84.18 84.23 84.11 84.36 84.26 84.47 84.41 84.40 84.36 84.82 84.09 83.54 83.39 83.64 83.76 83.64 83.74 83.85 84.28 82.49 83.75 85.11 87.31 89.48 90.63 90.72 90.58 89.93 88.47 86.68 86.42 86.60 86.62 86.11 85.11 84.34 83.99 83.97 83.91 83.90 83.85 83.87
82.83 82.71 82.63 82.60 82.60 82.90 83.49 83.77 84.09 84.14 84.22 84.15 84.25 84.25 84.19 84.26 84.40 84.35 84.29 84.31 84.38 84.43 84.33 83.95 84.36 84.51 84.31 84.25 84.70 86.64 88.93 90.41 90.47 90.39 89.45 87.46 85.93 85.74 85.92 86.11 86.13 86.27 84.38 83.91 83.82 83.81 83.81 83.76 83.80 83.83 83.86 83.90
82.93 82.69 82.80 82.64 82.60 83.46 83.28 83.55 83.85 83.94 84.07 84.14 84.21 84.10 84.20 84.25 84.28 84.26 84.25 84.31 84.50 84.33 84.88 84.95 84.81 84.72 85.31 87.93 89.90 90.25 90.18 89.47 87.14 85.25 84.73 85.11 85.29 85.61 85.74 85.63 85.69 85.92 83.93 83.83 83.60 83.58 83.75 83.76 83.82 83.81 83.82 83.85
83.07 82.60 82.60 82.68 82.85 83.37 83.10 82.97 83.15 83.65 83.47 84.15 84.15 83.94 84.19 84.24 84.31 84.25 84.18 84.17 84.18 84.54 84.82 85.16 86.56 88.89 90.04 90.02 89.37 87.31 83.66 83.85 84.29 84.53 84.61 84.72 84.85 84.94 85.11 85.21 85.36 85.46 84.12 83.78 83.57 83.54 83.76 83.77 83.75 83.81 83.80 83.80
83.58 82.82 82.47 82.60 82.96 83.35 83.22 84.14 84.08 83.69 83.02 83.82 83.48 83.92 84.24 84.27 84.17 84.00 84.04 84.20 84.19 85.56 87.88 89.75 89.93 89.79 88.11 85.93 85.15 84.94 84.46 82.46 84.12 84.26 84.26 84.47 84.60 84.70 84.72 84.96 85.09 85.05 85.01 84.17 83.56 83.76 83.79 83.75 83.78 83.86 83.79 83.82
83.57 83.50 83.60 83.52 83.46 83.33 83.62 84.16 84.10 83.47 83.76 84.07 83.77 84.05 83.92 84.18 84.02 84.18 84.74 86.62 89.10 89.77 89.65 89.07 86.81 85.65 85.21 84.93 84.94 84.89 84.99 82.15 83.73 84.11 84.27 84.24 84.55 84.44 84.59 84.60 84.71 84.64 84.75 83.64 84.74 84.85 83.94 84.05 83.82 83.71 83.79 83.85
83.18 83.18 83.15 83.68 83.36 83.54 83.62 83.72 83.69 84.01 84.00 84.07 83.94 84.18 84.15 84.35 85.34 87.78 89.63 89.66 89.54 88.04 85.42 84.82 85.22 85.26 85.17 84.85 84.82 84.83 84.67 82.42 82.40 83.48 84.00 84.12 84.22 84.36 84.49 84.46 84.22 83.91 82.88 83.90 84.49 84.86 84.85 84.82 84.34 83.88 83.81 83.83
83.19 83.16 83.17 83.17 83.18 83.82 83.94 83.99 84.06 84.09 84.05 84.06 84.28 84.59 86.32 88.78 89.53 89.44 88.57 86.21 84.36 83.45 84.68 84.92 85.05 85.11 85.11 84.90 84.76 82.84 82.85 84.97 85.03 83.57 82.42 83.07 83.35 83.40 83.60 82.95 82.55 82.46 82.36 82.57 83.05 84.61 84.68 84.73 84.77 84.96 84.95 84.03
83.60 83.78 83.74 83.19 84.02 84.00 84.25 84.37 84.49 84.51 84.69 85.35 87.55 89.38 89.45 89.17 87.43 85.33 83.32 84.82 84.82 84.82 84.74 84.57 84.29 84.23 84.87 85.38 83.15 84.60 84.84 84.95 85.13 85.25 84.79 84.67 83.60 82.70 82.30 82.40 83.27 83.98 84.11 82.60 82.63 82.48 84.57 84.56 84.94 85.06 85.03 85.05
84.69 83.96 83.82 83.85 84.30 84.81 84.83 85.18 84.92 84.71 87.43 89.33 89.35 88.32 85.85 84.22 84.62 85.18 84.97 84.67 84.52 84.43 84.24 83.96 83.74 83.61 83.41 83.28 85.29 84.93 84.83 84.84 84.85 84.83 84.98 82.96 82.99 84.85 84.78 84.69 83.97 83.17 82.51 82.36 83.21 83.29 82.38 84.27 84.44 84.73 84.88 84.84
85.56 84.99 85.01 85.09 85.93 84.71 85.87 87.81 89.24 85.06 85.36 87.12 84.97 84.23 85.60 85.49 85.34 85.00 84.86 84.75 84.70 84.60 84.53 84.41 83.75 85.14 85.07 85.06 85.01 85.16 84.61 84.43 84.53 84.63 84.76 82.29 81.51 81.85 82.50 83.39 84.08 84.65 84.85 83.59 84.07 83.60 83.30 82.85 82.66 83.23 84.10 84.14
84.70 85.93 84.78 84.82 86.40 88.66 89.26 89.23 88.11 85.47 84.95 85.53 85.72 85.65 85.46 85.24 85.06 85.02 84.98 84.91 84.81 84.79 84.84 83.98 83.74 84.93 83.58 83.51 83.60 83.67 84.99 84.42 84.21 84.43 84.61 81.48 81.54 81.57 81.60 81.63 82.62 84.63 84.92 82.53 85.07 84.86 84.51 84.24 83.50 82.55 82.58 82.76
84.57 85.78 87.74 89.21 89.16 88.66 86.91 84.89 85.19 85.21 85.37 85.68 85.75 85.57 85.39 85.24 85.19 85.16 85.11 85.04 84.92 84.95 84.38 83.82 83.81 84.87 83.49 83.58 83.58 83.57 83.68 84.74 84.32 84.19 82.34 81.36 81.57 81.59 81.64 81.64 81.69 81.71 84.94 83.66 84.99 85.21 85.28 85.30 85.31 84.48 83.91 83.74
88.72 89.21 89.12 87.77 85.69 85.69 86.00 85.71 85.55 85.57 85.69 85.83 85.76 85.69 85.57 85.44 85.40 85.29 85.21 85.15 85.04 85.23 83.78 83.79 83.93 84.60 83.55 83.53 83.58 83.60 83.81 84.85 84.14 84.20 82.27 81.51 81.57 81.60 81.64 81.66 81.68 82.32 84.90 84.52 84.24 85.24 85.38 84.36 85.16 85.32 85.27 85.18
88.50 86.84 85.35 86.54 86.40 86.14 85.96 85.79 85.77 85.94 86.08 85.87 85.80 85.76 85.71 85.64 85.61 85.49 85.38 85.28 85.11 85.35 83.80 83.89 84.47 84.15 83.52 83.57 83.61 83.93 83.54 83.67 84.81 84.49 84.36 84.19 81.57 81.60 81.62 81.68 81.72 83.46 84.81 84.87 84.73 84.09 83.86 84.22 84.26 84.16 84.18 85.35
86.99 86.69 86.50 86.46 86.37 86.18 86.12 85.90 85.91 86.10 85.97 85.85 85.78 85.76 85.72 85.71 85.72 85.62 85.54 85.45 85.28 85.64 83.74 83.89 84.49 83.95 83.58 83.69 83.81 83.55 83.54 83.58 83.67 84.89 84.83 84.75 84.54 84.39 84.32 81.92 81.71 84.66 84.79 85.03 83.49 84.68 84.02 84.01 84.30 84.14 84.24 84.25
86.71 86.66 86.58 86.55 86.36 86.30 86.30 86.07 86.15 86.24 86.01 85.85 85.77 85.73 85.69 85.67 85.71 85.67 85.62 85.55 85.42 86.03 83.81 83.88 84.92 83.99 83.58 83.68 83.57 83.58 83.56 83.54 83.57 83.62 83.63 83.69 84.75 84.75 84.66 84.58 84.79 84.90 84.96 85.11 82.95 84.66 84.07 84.00 84.00 84.07 84.22 84.19
86.83 86.73 86.68 86.52 86.49 86.38 86.44 86.16 86.29 86.19 85.94 85.87 85.82 85.74 85.68 85.66 85.67 85.62 85.58 85.57 85.50 85.82 83.77 83.83 84.98 84.97 84.27 84.07 83.70 83.61 83.61 83.55 83.55 83.86 83.60 83.63 83.67 83.74 84.15 84.81 84.84 84.94 85.05 85.25 82.65 85.05 84.03 84.01 84.01 83.98 83.97 83.93
86.88 86.78 86.80 86.66 86.49 86.40 86.48 86.45 86.30 86.10 85.96 85.89 85.86 85.79 85.71 85.69 85.66 85.60 85.54 85.49 85.47 85.85 84.01 83.85 85.10 85.03 84.90 84.98 85.01 84.97 84.96 84.98 84.85 83.73 83.59 83.60 83.62 83.66 83.65 83.71 84.57 84.85 84.91 84.71 82.56 85.18 84.49 84.00 83.96 83.92 83.93 83.81
86.91 86.80 86.86 86.58 86.51 86.38 86.43 86.45 86.33 86.07 85.96 85.93 85.86 85.80 85.74 85.71 85.70 85.62 85.55 85.49 85.42 85.64 84.43 83.89 85.28 85.21 85.08 85.09 85.16 85.12 85.12 84.77 84.71 84.87 85.00 85.03 83.58 83.61 83.65 83.85 83.60 83.62 84.29 84.83 84.91 85.42 85.26 85.13 84.92 84.35 85.10 85.18
87.13 87.01 86.85 86.68 86.64 86.50 86.45 86.43 86.23 86.08 85.99 85.95 85.89 85.83 85.75 85.71 85.70 85.65 85.56 85.51 85.43 85.68 85.76 84.54 85.36 85.28 85.25 85.32 85.32 85.21 85.08 84.80 84.80 84.76 84.68 84.71 84.95 83.56 83.62 83.65 83.64 83.60 84.77 84.76 84.89 84.78 84.24 84.24 84.50 84.68 85.15 85.20
86.92 86.69 86.77 86.75 86.77 86.76 86.26 86.50 86.25 86.08 86.02 85.97 85.90 85.82 85.67 85.72 85.67 85.64 85.57 85.52 85.50 85.67 85.33 85.21 85.35 85.30 85.29 85.42 85.32 85.25 85.02 84.95 85.01 84.98 84.81 84.68 84.97 83.76 83.68 83.66 83.71 83.65 84.82 84.50 85.70 84.59 84.66 84.47 84.32 84.42 84.45 84.52
86.85 86.68 86.59 86.47 86.23 86.24 86.07 86.25 86.20 86.06 85.96 85.92 85.90 85.83 85.71 85.65 85.61 85.54 85.53 85.50 85.45 85.50 83.98 85.33 85.31 85.28 85.30 85.50 85.49 85.40 85.26 85.15 84.92 84.86 85.08 84.87 84.96 83.67 83.65 83.62 83.60 84.87 84.24 84.89 84.67 84.67 84.76 84.85 84.88 84.69 84.52 84.53
86.90 87.01 86.81 86.60 86.15 86.41 86.21 86.02 85.88 85.83 85.80 85.79 85.73 85.66 85.58 85.53 85.52 85.50 85.54 84.77 85.21 85.55 83.89 84.70 85.26 85.21 85.32 85.48 85.38 85.36 85.32 85.07 85.00 84.96 85.10 84.92 84.97 83.64 83.71 83.58 84.20 84.66 84.45 85.36 84.68 84.73 84.82 84.90 84.97 85.06 85.03 84.89
87.05 86.93 86.90 86.95 86.76 86.61 86.43 86.36 86.15 85.82 85.92 85.92 85.84 85.80 85.77 85.71 85.57 85.47 84.71 85.21 85.28 85.45 83.98 85.16 85.12 85.03 85.17 85.38 85.20 85.13 85.21 85.26 85.35 85.18 85.11 84.88 84.95 83.64 83.58 83.58 84.90 84.28 85.65 84.56 84.67 84.77 84.87 84.93 85.03 85.09 85.13 85.10
87.04 86.98 86.85 86.82 86.76 86.75 86.49 86.39 86.41 86.29 86.16 86.04 86.00 85.97 85.89 85.82 85.68 85.66 85.71 85.54 85.33 84.66 85.01 85.26 84.48 84.96 85.09 85.29 85.42 85.21 85.18 85.45 85.45 85.31 85.01 84.94 84.92 83.60 83.56 84.65 84.46 84.57 84.74 84.68 84.74 84.83 84.90 84.98 85.06 85.14 85.18 85.35
87.09 87.02 86.90 86.86 86.82 86.69 86.59 86.46 86.39 86.28 86.21 86.10 86.10 86.03 85.90 85.82 85.76 85.75 85.65 85.58 85.48 83.99 85.19 84.62 85.12 85.20 84.77 85.06 85.07 85.15 85.21 85.21 85.16 85.28 84.91 84.92 85.01 83.55 84.87 84.78 84.41 85.48 84.67 84.70 84.79 84.88 84.95 85.02 85.11 85.17 85.53 84.96
87.18 87.04 86.99 86.89 86.96 86.75 86.57 86.45 86.40 86.28 86.22 86.12 86.09 85.99 85.90 85.82 85.80 85.75 85.69 85.56 85.50 85.44 84.00 85.36 85.22 84.97 84.98 85.19 85.24 85.04 85.19 85.08 85.01 84.93 84.83 84.93 84.93 84.96 84.47 84.56 85.61 84.56 84.65 84.75 84.83 84.91 85.00 85.07 85.15 85.29 85.26 85.08
87.20 87.08 87.01 86.93 86.93 86.76 86.60 86.51 86.40 86.34 86.26 86.19 86.10 86.04 85.90 85.83 85.78 85.75 85.64 85.53 85.47 85.47 83.99 84.86 84.05 85.00 85.01 84.77 84.46 85.19 85.40 84.77 84.82 84.85 84.91 84.99 85.04 84.90 85.75 85.71 84.63 84.68 84.72 84.80 84.88 84.96 85.03 85.12 85.20 86.10 87.01 85.30
87.21 87.10 86.99 87.04 86.90 86.78 86.66 86.58 86.48 86.39 86.27 86.22 86.09 86.01 85.89 85.86 85.79 85.72 85.57 85.46 85.40 85.38 85.08 84.05 83.96 83.96 83.95 84.12 84.75 84.53 85.15 85.26 85.47 85.23 85.21 85.99 85.32 85.67 85.47 84.85 84.66 84.65 84.68 84.81 84.93 85.00 85.08 85.11 85.48 85.22 85.25 85.15
87.20 87.11 87.00 87.00 86.90 86.76 86.71 86.61 86.55 86.43 86.37 86.23 86.13 85.96 85.92 85.85 85.80 85.63 85.48 85.38 85.33 85.30 85.23 83.96 84.07 83.98 83.98 83.96 83.96 84.60 84.50 85.18 85.26 85.62 85.11 84.85 84.82 84.98 84.79 84.77 84.69 84.77 84.82 84.94 84.94 85.04 85.12 85.74 85.88 85.02 85.12 85.24
87.21 87.08 87.06 86.95 86.85 86.79 86.69 86.66 86.58 86.50 86.40 86.26 86.12 85.99 85.92 85.82 85.74 85.56 85.43 85.27 85.20 85.15 85.20 83.94 84.32 83.96 83.96 83.98 84.42 84.23 84.22 85.84 86.10 85.39 85.54 84.73 85.27 86.03 84.92 84.90 84.92 84.99 85.04 85.12 85.20 85.29 85.22 86.13 84.89 84.67 85.07 85.31
87.24 87.11 87.07 86.97 86.87 86.82 86.75 86.69 86.62 86.57 86.44 86.31 86.10 86.00 85.93 85.86 85.68 85.51 85.36 85.23 85.11 84.99 85.02 84.30 84.21 84.45 84.53 84.38 84.26 85.90 86.62 85.85 86.51 85.60 85.46 85.60 85.17 85.10 85.10 86.15 85.73 85.32 85.30 85.35 85.39 85.53 85.61 85.70 85.98 86.16 86.48 85.48
87.24 87.19 87.08 86.97 86.90 86.82 86.79 86.71 86.71 86.68 86.55 86.33 86.17 86.06 85.96 85.85 85.62 85.45 85.32 85.21 85.09 84.93 84.88 84.87 84.19 84.44 84.24 85.92 86.78 85.81 85.30 85.11 85.26 85.69 86.00 85.62 85.57 84.97 85.00 85.55 85.19 85.39 85.25 85.35 85.88 85.85 85.68 85.68 85.71 85.82 85.87 85.93
87.21 87.24 87.12 87.04 86.94 86.90 86.83 86.80 86.79 86.74 86.61 86.37 86.24 86.15 86.07 85.88 85.68 85.49 85.35 85.20 85.04 84.87 84.88 84.65 84.17 85.73 87.01 87.60 88.39 85.33 85.07 85.16 85.09 85.15 85.48 86.28 85.69 85.69 85.97 86.34 85.90 87.34 85.88 86.30 86.30 86.31 86.29 86.53 86.31 85.89 85.99 85.81
87.34 87.24 87.14 87.09 87.01 86.97 86.88 86.90 86.90 86.84 86.63 86.44 86.32 86.26 86.14 85.93 85.72 85.56 85.38 85.23 85.06 84.88 84.79 84.42 85.54 87.60 88.35 88.44 85.59 85.28 85.28 85.35 85.35 85.29 85.12 85.26 86.29 85.89 85.58 85.43 85.96 85.97 85.68 86.05 86.50 86.42 86.36 86.43 86.54 86.21 86.15 87.14
