ncols 52
nrows 52
xllcorner 436224
yllcorner 5714944
cellsize 10
NODATA_value -9999
96.93 96.97 97.08 97.13 97.23 97.25 97.32 97.36 97.40 97.41 97.45 97.47 97.47 97.47 97.44 97.57 97.84 97.61 97.58 97.70 97.69 97.55 97.58 97.52 97.60 97.54 97.53 97.55 97.59 97.61 97.62 97.75 97.70 97.61 97.50 97.31 97.20 97.16 97.16 97.15 97.15 97.15 97.11 97.12 96.46 96.09 95.95 96.78 96.83 96.85 96.88 96.93
96.72 96.82 96.87 97.03 96.99 97.04 97.10 97.09 97.15 97.25 97.30 97.29 97.26 97.18 97.24 97.45 97.65 97.42 97.39 97.38 97.47 97.59 97.57 97.52 97.48 97.38 97.41 97.37 97.38 97.38 97.34 97.36 97.42 97.44 97.28 97.10 96.98 96.97 96.89 96.83 96.96 96.88 96.96 96.87 96.92 96.50 95.36 95.88 95.32 96.57 96.60 96.59
96.53 96.62 96.76 96.76 96.79 96.84 96.84 96.86 96.88 97.01 97.10 97.10 97.06 96.99 97.07 97.17 97.26 97.17 97.17 97.21 97.16 97.26 97.32 97.46 97.30 97.21 97.24 97.20 97.16 97.14 97.15 97.08 97.18 97.23 97.38 97.03 96.88 96.78 96.72 96.61 96.61 96.65 96.70 96.68 96.76 96.67 96.66 95.81 95.71 95.59 95.32 96.14
96.42 96.46 96.55 96.54 96.60 96.63 96.59 96.61 96.66 96.75 96.83 96.85 96.83 96.81 96.93 97.07 96.96 96.91 96.90 96.89 96.95 96.98 96.96 97.04 97.16 97.18 97.07 97.03 96.98 96.96 96.92 96.94 96.95 97.13 97.06 96.83 96.69 96.58 96.56 96.48 96.43 96.32 96.35 96.46 96.47 96.55 96.51 95.76 96.18 95.40 94.99 95.19
96.22 96.32 96.33 96.35 96.40 96.37 96.36 96.36 96.43 96.54 96.57 96.56 96.58 96.62 96.75 96.79 96.69 96.69 96.66 96.65 96.68 96.71 96.73 96.73 96.72 96.80 96.93 97.05 96.84 96.82 96.72 96.75 97.33 96.81 96.84 96.85 97.01 96.55 96.52 96.27 96.25 96.16 96.11 96.06 96.14 96.25 96.22 96.22 96.06 96.23 96.32 95.89
96.02 96.12 96.11 96.19 96.22 96.18 96.13 96.13 96.19 96.29 96.32 96.29 96.32 96.42 96.61 96.50 96.46 96.44 96.42 96.43 96.45 96.44 96.46 96.46 96.49 96.46 96.51 96.57 96.76 96.76 96.61 96.56 96.99 96.76 96.90 96.82 96.73 96.73 96.63 96.20 96.14 95.98 95.93 95.84 95.82 95.81 95.81 96.03 95.88 96.08 96.19 96.28
95.84 95.82 95.93 95.99 95.97 95.96 95.90 95.92 96.02 96.10 96.09 96.10 96.14 96.23 96.32 96.25 96.25 96.25 96.24 96.23 96.22 96.23 96.24 96.24 96.25 96.27 96.28 96.23 96.27 96.37 96.58 96.34 96.65 96.72 96.57 96.40 96.48 96.22 96.22 96.20 95.97 95.64 95.65 95.65 95.58 95.51 94.99 95.72 95.80 95.93 95.98 96.11
95.47 95.56 95.68 95.71 95.76 95.71 95.69 95.71 95.81 95.89 95.87 95.91 95.97 96.18 96.07 96.03 96.05 96.01 96.03 96.03 96.01 96.03 96.02 96.03 96.02 96.05 96.02 95.99 95.99 96.01 97.24 97.13 95.96 96.65 96.48 96.39 96.47 96.42 95.98 96.01 95.67 95.61 95.83 95.45 95.33 95.28 95.57 95.56 96.02 95.92 96.07 96.03
95.23 95.29 95.35 95.39 95.42 95.43 95.40 95.50 95.61 95.67 95.71 95.73 95.92 95.93 95.83 95.84 95.84 95.83 95.83 95.82 95.83 95.83 95.82 95.85 95.84 95.86 95.81 95.77 95.76 96.87 95.42 95.08 96.75 96.67 95.78 95.90 96.24 96.02 96.07 95.75 95.59 95.37 95.37 95.55 95.30 95.24 95.31 95.64 95.92 96.00 95.85 95.83
95.00 95.04 95.05 95.08 95.08 95.10 95.10 95.19 95.38 95.45 95.49 95.54 95.71 95.68 95.65 95.65 95.62 95.62 95.63 95.61 95.60 95.62 95.63 95.61 95.67 95.65 95.61 95.56 95.41 96.75 94.80 94.73 94.76 94.97 97.03 96.01 95.88 96.10 95.62 95.60 95.30 95.08 95.19 95.34 95.10 94.49 95.03 95.43 95.86 95.99 95.62 95.62
94.76 94.78 94.79 94.78 94.79 94.78 94.80 94.91 95.08 95.18 95.28 95.41 95.51 95.46 95.48 95.49 95.46 95.44 95.43 95.43 95.44 95.44 95.44 95.45 95.46 95.44 95.39 95.35 96.68 94.71 94.68 94.69 94.62 94.53 94.54 94.91 96.90 95.28 95.67 95.55 95.32 94.89 95.04 94.93 94.93 94.86 94.74 95.62 95.38 95.36 95.44 95.39
94.53 94.52 94.53 94.52 94.54 94.53 94.49 94.60 94.74 94.82 94.97 95.18 95.19 95.24 95.31 95.28 95.29 95.31 95.26 95.26 95.26 95.27 95.24 95.27 95.25 95.24 95.17 95.00 96.19 94.54 94.51 94.49 94.52 94.53 94.46 94.57 94.60 95.21 96.41 94.72 94.66 94.87 94.92 94.89 94.68 94.73 94.66 95.41 95.08 95.11 95.26 95.33
94.26 94.27 94.28 94.29 94.28 94.29 94.27 94.35 94.47 94.54 94.84 94.86 94.85 94.97 95.06 95.10 95.12 95.11 95.12 95.13 95.12 95.11 95.09 95.11 95.07 95.02 94.97 96.40 94.56 94.42 94.32 94.46 94.48 94.47 94.40 94.47 94.60 94.58 94.56 96.26 95.59 94.43 94.81 94.60 94.36 94.52 94.52 94.74 94.89 95.05 95.18 95.09
94.01 94.01 94.02 94.05 94.05 93.99 94.06 94.15 94.20 94.27 94.52 94.48 94.56 94.67 94.74 94.79 94.86 94.90 94.93 94.99 94.99 94.96 94.97 94.92 94.90 94.83 94.64 95.82 94.40 94.28 94.27 94.28 94.31 94.31 94.34 94.42 94.54 94.54 94.57 94.69 95.43 94.65 94.44 94.36 94.35 94.37 94.43 94.51 94.76 95.00 94.95 94.85
93.76 93.75 93.78 93.80 93.83 93.79 93.84 93.95 93.97 94.23 94.25 94.21 94.29 94.37 94.43 94.51 94.54 94.62 94.68 94.75 94.82 94.84 94.83 94.78 94.73 94.65 96.21 94.51 94.38 94.29 94.21 94.19 94.22 94.21 94.27 94.32 94.50 94.60 94.83 95.81 95.75 94.54 94.47 94.61 94.36 94.32 94.39 94.46 94.57 94.72 94.68 94.73
93.50 93.49 93.53 93.58 93.55 93.56 93.64 93.70 93.74 94.04 93.97 94.01 94.11 94.16 94.21 94.27 94.28 94.33 94.40 94.48 94.51 94.61 94.60 94.60 94.56 94.39 96.29 94.64 94.49 94.58 94.48 94.79 94.45 94.38 94.30 94.34 94.42 94.65 95.41 96.49 95.82 95.35 94.43 94.38 94.38 94.35 94.35 94.43 94.54 94.48 94.50 94.47
93.25 93.29 93.34 93.35 93.32 93.33 93.44 93.48 93.78 93.79 93.74 93.82 93.88 93.94 94.03 94.04 94.09 94.10 94.17 94.23 94.28 94.33 94.35 94.34 94.30 95.69 95.93 95.52 95.37 95.43 95.46 95.48 95.84 96.31 96.23 96.13 96.33 96.47 95.52 94.05 95.53 95.63 95.31 94.38 94.35 94.36 94.37 94.46 94.54 94.43 94.40 94.42
92.98 93.04 93.12 93.10 93.08 93.15 93.22 93.26 93.57 93.50 93.55 93.64 93.69 93.76 93.84 93.86 93.88 93.90 93.95 93.96 94.04 94.02 94.06 94.04 93.96 95.92 93.17 93.04 93.00 93.06 93.09 93.00 93.10 93.07 93.00 93.65 93.41 93.03 93.11 93.16 93.13 93.18 93.42 95.50 95.48 94.75 94.38 94.43 94.40 94.46 94.25 94.33
92.74 92.78 92.87 92.85 92.85 92.93 93.00 93.01 93.32 93.25 93.32 93.42 93.49 93.58 93.63 93.68 93.69 93.72 93.79 93.82 93.81 93.81 93.80 93.77 95.44 93.29 93.22 94.15 94.14 94.04 94.01 94.22 93.20 93.00 93.00 93.00 93.00 93.17 94.18 95.00 95.00 93.71 93.11 93.18 93.38 93.29 95.30 95.44 94.77 93.79 94.48 94.37
92.52 92.61 92.62 92.60 92.66 92.74 92.84 93.15 93.01 93.05 93.16 93.21 93.31 93.39 93.43 93.46 93.49 93.54 93.59 93.64 93.59 93.61 93.58 93.60 95.48 93.13 93.87 94.10 94.26 94.29 94.22 93.16 93.10 93.00 93.00 93.00 93.11 93.03 93.03 93.13 93.15 93.13 93.11 93.11 93.13 93.13 93.13 93.19 94.00 94.66 94.96 94.65
92.31 92.38 92.40 92.40 92.44 92.56 92.57 92.86 92.77 92.86 92.93 93.00 93.11 93.18 93.25 93.27 93.30 93.36 93.42 93.44 93.42 93.40 93.37 95.13 93.15 93.12 93.97 94.04 94.28 94.32 94.22 93.17 93.05 93.12 93.07 93.06 93.13 93.10 93.12 93.13 93.13 93.11 93.13 93.13 93.12 93.13 93.12 93.13 93.12 93.15 93.49 95.43
92.08 92.15 92.19 92.21 92.27 92.39 92.67 92.58 92.61 92.68 92.74 92.83 92.90 93.00 93.03 93.08 93.11 93.14 93.21 93.19 93.21 93.19 93.36 95.50 93.14 93.21 93.95 94.06 94.19 94.23 94.18 93.14 93.25 93.16 93.12 93.11 93.14 93.13 93.12 93.11 93.13 93.11 93.13 93.12 93.12 93.12 93.13 93.12 93.13 93.13 93.18 94.39
91.89 91.93 91.99 92.08 92.17 92.08 92.42 92.38 92.43 92.49 92.54 92.64 92.73 92.80 92.84 92.85 92.93 92.97 93.00 93.01 93.01 92.99 95.21 93.26 93.17 93.95 93.99 94.09 94.14 94.15 94.12 94.09 94.19 93.14 93.12 93.12 93.13 93.14 93.13 93.12 93.16 93.13 93.13 93.12 93.13 93.12 93.12 93.12 93.13 93.15 93.18 95.55
91.76 91.78 91.83 91.90 91.96 92.32 92.21 92.21 92.29 92.32 92.38 92.46 92.54 92.58 92.63 92.67 92.68 92.77 92.76 92.80 92.77 92.85 95.34 93.13 93.15 94.03 93.95 94.00 94.05 93.96 94.04 94.21 94.28 93.96 93.14 93.12 93.13 93.12 93.12 93.14 93.13 93.14 93.16 93.15 93.13 93.25 93.16 93.14 93.13 95.12 93.29 95.45
91.63 91.71 91.77 91.86 91.75 92.10 92.02 92.05 92.11 92.14 92.22 92.29 92.38 92.41 92.43 92.48 92.53 92.54 92.57 92.57 92.57 94.45 93.93 93.12 93.88 93.98 93.83 93.85 93.23 93.28 93.13 93.13 93.12 93.14 93.17 93.12 93.13 93.14 93.13 93.13 93.67 95.30 93.41 94.35 94.24 95.53 94.99 95.32 95.45 94.09 93.27 93.83
91.57 91.71 91.73 91.64 92.13 91.96 91.94 92.00 92.00 92.02 92.06 92.15 92.18 92.23 92.26 92.28 92.33 92.32 92.35 92.36 92.43 95.20 93.14 93.12 93.12 93.00 93.00 93.11 93.04 93.00 93.00 93.00 93.12 93.19 93.09 93.12 94.13 94.10 93.57 93.98 94.22 92.69 92.64 93.07 92.66 94.83 95.10 94.12 93.26 93.20 93.26 93.18
90.74 91.63 91.83 91.90 91.99 91.88 91.88 91.89 91.90 91.93 91.96 92.01 92.04 92.06 92.11 92.14 92.14 92.18 92.16 92.15 93.92 95.08 93.65 93.13 93.25 93.38 93.93 94.18 94.03 93.50 93.71 93.91 94.63 95.00 94.16 93.33 92.67 92.65 92.60 92.57 92.55 92.55 92.55 92.63 92.62 94.59 93.17 93.24 93.22 93.24 93.21 93.36
90.50 90.65 90.53 91.38 91.68 91.27 91.99 91.90 91.82 91.87 91.90 91.90 91.92 91.93 91.95 91.95 91.96 91.99 91.97 92.13 94.35 93.23 93.40 93.34 93.36 93.26 92.69 92.62 92.68 93.25 92.55 92.59 92.60 92.65 92.57 92.55 92.55 92.55 92.55 92.55 92.55 92.55 92.60 92.66 94.34 93.19 93.24 93.25 93.21 93.19 93.17 93.18
90.79 90.88 90.40 90.58 90.75 90.46 91.52 91.62 91.52 91.97 91.86 91.83 91.81 91.82 91.86 91.82 91.85 91.87 91.82 92.15 93.17 92.65 92.58 92.58 92.71 92.59 92.67 92.56 92.55 92.62 92.55 92.55 92.55 92.55 92.55 92.55 92.55 92.55 92.55 92.55 92.55 92.55 92.64 94.29 93.18 93.28 93.21 93.19 93.21 93.11 93.22 93.23
90.48 90.66 90.83 90.92 91.03 90.53 90.75 90.85 90.84 91.53 91.54 91.86 91.89 91.77 91.74 91.73 91.75 91.73 91.86 93.68 92.62 92.64 92.65 92.64 92.70 92.55 92.55 92.55 92.55 92.55 92.55 92.55 92.55 92.55 92.55 92.55 92.55 92.55 92.55 92.55 92.55 92.55 94.23 93.21 93.17 93.18 93.22 93.17 93.15 93.14 93.12 93.19
90.25 90.40 90.60 90.71 90.84 90.95 91.03 91.08 90.81 90.94 91.02 91.30 91.43 91.18 91.84 91.77 91.67 91.61 91.69 93.61 92.55 92.63 92.68 92.71 92.55 92.55 92.55 92.55 92.55 92.55 92.55 92.55 92.57 92.55 92.55 92.55 92.55 92.55 92.55 92.55 92.55 93.04 93.32 93.15 93.19 93.17 93.21 93.15 93.10 93.13 93.13 94.94
90.00 90.15 90.30 90.45 90.54 90.68 90.76 90.82 90.93 91.01 90.89 90.86 91.07 90.77 91.44 91.40 91.21 91.77 92.86 93.63 92.82 92.55 92.64 92.55 92.55 92.60 92.55 92.55 92.55 92.55 92.55 92.55 92.55 92.55 92.55 92.55 92.55 92.55 92.55 92.55 92.71 94.17 93.10 93.12 93.18 93.20 93.15 93.16 93.14 93.17 94.89 95.62
89.73 89.86 90.01 90.18 90.31 90.36 90.44 90.54 90.64 90.78 90.84 90.95 90.99 90.80 90.99 91.15 90.69 91.32 91.35 91.34 93.05 93.29 92.98 92.64 92.64 92.55 92.55 92.55 92.55 92.55 92.55 92.55 92.55 92.55 92.55 92.55 92.55 92.55 92.55 92.55 92.55 93.33 93.18 93.15 93.15 93.15 93.18 93.24 93.18 93.36 95.56 93.83
89.43 89.58 89.71 89.85 90.03 90.09 90.21 90.30 90.38 90.46 90.57 90.68 90.80 90.82 90.89 91.01 90.88 91.11 91.26 90.56 91.22 90.91 90.99 93.03 93.44 93.16 92.57 92.55 92.55 92.55 92.55 92.55 92.55 92.55 92.55 92.55 92.55 92.55 92.55 92.74 93.55 93.24 93.16 93.19 93.18 93.19 93.33 93.29 93.14 95.38 94.02 93.12
89.15 89.32 89.42 89.56 89.72 89.81 89.87 90.02 90.12 90.27 90.36 90.42 90.48 90.54 90.68 90.79 90.82 90.71 90.69 91.14 91.31 91.32 90.24 90.51 90.01 90.65 92.74 93.55 93.19 92.56 92.55 92.55 92.55 92.55 92.55 92.55 92.55 92.55 92.55 92.60 93.78 93.12 93.17 93.16 93.14 93.18 93.35 93.18 94.71 95.02 93.10 93.13
88.91 89.03 89.13 89.31 89.41 89.54 89.62 89.73 89.88 90.01 90.12 90.23 90.29 90.36 90.40 90.53 90.54 90.50 90.43 90.29 90.20 90.58 91.24 91.44 91.24 89.79 89.55 89.36 89.97 92.03 93.36 93.06 92.55 92.55 92.55 92.55 92.55 92.55 92.55 92.75 93.46 93.11 93.18 93.18 93.18 93.27 93.15 93.15 95.22 93.13 93.17 93.57
88.65 88.77 88.88 89.05 89.20 89.28 89.40 89.57 89.69 89.78 89.86 89.97 90.06 90.15 90.25 90.32 90.34 90.30 90.22 90.11 89.99 89.86 89.73 89.68 90.90 91.35 91.53 91.08 89.34 88.88 88.59 89.32 91.70 93.15 92.75 92.55 92.55 92.55 92.55 93.64 93.21 93.18 93.21 93.21 93.22 93.25 93.40 93.10 95.35 93.18 93.15 93.65
88.43 88.54 88.64 88.78 88.93 89.05 89.24 89.38 89.47 89.56 89.69 89.76 89.84 89.90 90.06 90.14 90.13 90.10 89.95 89.89 89.79 89.65 89.51 89.34 89.21 89.02 89.99 91.24 91.56 91.65 90.77 88.66 87.83 88.05 90.08 92.56 93.55 92.63 92.71 93.91 93.11 93.11 93.20 93.21 93.17 93.32 93.45 93.15 95.24 93.36 93.13 93.56
88.25 88.35 88.46 88.60 88.71 88.84 88.99 89.15 89.31 89.40 89.48 89.52 89.61 89.74 89.88 89.95 89.90 89.87 89.76 89.64 89.57 89.42 89.33 89.17 88.96 88.82 88.58 88.40 88.37 90.51 91.61 91.73 91.70 88.79 87.91 88.76 89.30 91.81 93.66 93.74 93.15 93.12 93.12 93.18 93.29 93.31 93.37 93.19 94.59 94.64 93.26 93.14
88.03 88.19 88.31 88.40 88.54 88.68 88.88 89.03 89.10 89.17 89.22 89.32 89.40 89.55 89.69 89.77 89.72 89.66 89.53 89.39 89.35 89.24 89.10 88.93 88.75 88.64 88.45 88.26 88.00 87.80 87.65 88.71 90.90 91.69 91.84 91.71 89.65 89.66 90.18 91.69 93.75 93.68 93.22 93.18 93.20 93.11 93.29 93.24 93.39 94.86 94.79 94.83
87.86 87.97 88.12 88.23 88.36 88.56 88.72 88.86 88.93 89.01 89.04 89.07 89.18 89.33 89.50 89.57 89.52 89.43 89.32 89.26 89.12 89.01 88.87 88.72 88.54 88.38 88.24 88.03 87.82 87.64 87.51 87.47 87.33 87.60 89.67 91.35 91.85 91.93 91.40 90.43 90.86 91.35 92.97 94.20 94.18 93.64 93.12 93.10 94.02 94.61 94.88 95.03
87.64 87.83 87.90 88.07 88.19 88.38 88.52 88.67 88.76 88.77 88.80 88.86 88.99 89.12 89.28 89.32 89.29 89.25 89.12 89.01 88.94 88.81 88.67 88.49 88.35 88.17 88.01 87.82 87.64 87.41 87.29 87.34 85.72 87.96 88.34 88.78 89.00 90.69 91.79 92.03 92.06 91.10 91.19 91.42 91.73 92.95 94.32 94.28 94.27 94.47 94.60 94.62
87.40 87.60 87.76 87.87 88.04 88.15 88.31 88.43 88.53 88.51 88.53 88.60 88.72 88.87 89.03 89.13 89.10 89.03 88.95 88.83 88.75 88.63 88.49 88.35 88.16 88.01 87.80 87.61 87.41 87.15 87.00 86.96 87.61 88.00 88.39 88.80 89.22 89.58 89.93 89.78 91.27 92.08 92.18 92.09 91.45 91.73 92.03 92.28 92.94 94.03 94.33 94.30
87.22 87.40 87.54 87.64 87.80 87.92 88.02 88.09 88.15 88.23 88.26 88.27 88.39 88.55 88.70 88.82 88.84 88.82 88.76 88.68 88.57 88.43 88.28 88.16 87.99 87.87 87.63 87.39 87.11 86.93 86.82 85.83 87.55 87.92 88.46 88.86 89.23 89.57 89.85 90.12 90.34 90.52 90.41 91.62 92.14 92.24 91.99 92.16 92.07 92.49 92.81 92.95
87.13 87.31 87.36 87.42 87.55 87.62 87.68 87.76 87.85 87.91 87.96 87.97 88.09 88.26 88.37 88.47 88.54 88.60 88.57 88.51 88.39 88.25 88.13 87.98 87.82 87.59 87.38 87.16 86.88 86.69 86.56 87.07 87.46 87.92 88.37 88.80 89.18 89.52 89.83 90.08 90.28 90.46 90.68 90.86 90.97 91.06 91.82 92.28 92.33 91.99 92.25 92.54
87.33 87.46 86.91 87.26 87.36 87.37 87.43 87.50 87.56 87.64 87.70 87.78 87.81 87.95 88.04 88.16 88.24 88.33 88.30 88.26 88.18 88.09 87.93 87.81 87.59 87.40 87.15 86.83 86.58 86.45 86.33 87.10 87.40 87.83 88.26 88.68 89.03 89.33 89.68 89.96 90.19 90.33 90.53 90.68 90.80 90.91 90.95 90.42 91.61 92.26 92.50 92.45
86.71 87.03 87.23 87.47 87.47 86.87 87.24 87.32 87.37 87.47 87.56 87.57 87.59 87.65 87.72 87.82 87.86 87.96 88.02 88.03 87.97 87.87 87.71 87.60 87.40 87.16 86.85 86.58 86.36 86.23 86.39 87.13 87.43 87.82 88.20 88.56 88.90 89.19 89.49 89.73 89.97 90.14 90.31 90.45 90.59 90.72 90.84 90.93 91.05 91.10 90.61 91.63
86.14 86.47 86.68 86.80 86.96 87.19 87.48 87.52 86.85 87.30 87.39 87.37 87.38 87.39 87.41 87.42 87.48 87.53 87.62 87.67 87.63 87.56 87.45 87.29 87.11 86.89 86.60 86.35 86.20 86.14 86.85 87.10 87.42 87.78 88.15 88.50 88.79 89.06 89.33 89.54 89.73 89.91 90.07 90.24 90.38 90.52 90.63 90.78 90.84 91.01 91.13 91.14
85.77 86.03 86.16 86.26 86.38 86.55 86.80 86.96 87.18 87.54 87.62 86.97 87.17 87.19 87.20 87.12 87.13 87.11 87.16 87.18 87.21 87.21 87.09 86.97 86.77 86.62 86.32 86.08 86.01 85.89 86.77 87.03 87.39 87.76 88.10 88.41 88.68 88.94 89.19 89.40 89.56 89.71 89.88 90.04 90.19 90.32 90.46 90.58 90.68 90.82 90.98 91.14
85.34 85.65 85.78 85.82 85.93 86.10 86.27 86.45 86.68 86.88 87.13 87.36 87.55 87.58 87.41 86.89 86.83 86.83 86.81 86.84 86.79 86.74 86.67 86.57 86.46 86.29 86.01 85.81 85.81 86.40 86.68 87.01 87.33 87.68 88.01 88.30 88.57 88.83 89.06 89.25 89.40 89.54 89.71 89.85 89.99 90.11 90.23 90.38 90.47 90.62 90.76 90.99
84.99 85.26 85.41 85.48 85.61 85.77 85.89 86.03 86.26 86.52 86.76 87.05 87.02 87.00 87.15 87.33 87.38 87.26 86.49 86.57 86.53 86.43 86.33 86.21 86.10 85.92 85.76 85.63 84.92 86.30 86.57 86.94 87.27 87.60 87.92 88.18 88.46 88.71 88.92 89.09 89.24 89.40 89.54 89.70 89.82 89.93 90.03 90.14 90.24 90.37 90.60 90.66
84.66 84.93 85.09 85.19 85.33 85.43 85.54 85.74 85.96 86.19 86.44 86.83 86.76 86.69 86.75 86.87 86.94 87.01 87.07 87.18 86.99 86.18 86.14 86.00 85.85 85.66 85.65 85.54 85.90 86.17 86.49 86.85 87.18 87.53 87.82 88.08 88.34 88.58 88.77 88.96 89.10 89.24 89.38 89.51 89.64 89.74 89.85 89.94 90.07 90.19 90.38 90.51
