ncols 52
nrows 52
xllcorner 436224
yllcorner 5715968
cellsize 10
NODATA_value -9999
94.04 94.13 94.19 94.29 94.38 94.35 94.56 94.57 94.51 94.65 94.62 94.72 94.62 94.59 94.55 94.55 94.56 94.51 94.46 94.39 94.30 94.31 94.27 94.16 94.14 94.04 94.02 93.98 94.07 94.15 94.15 94.09 93.09 94.10 94.07 94.12 94.11 94.09 94.09 94.09 94.08 94.10 94.16 94.24 94.31 94.39 94.48 94.54 94.58 94.63 94.70 94.74
94.26 94.30 94.39 94.47 94.47 94.64 94.74 94.80 94.83 94.83 95.03 94.90 94.91 94.80 94.75 94.76 94.74 94.71 94.66 94.58 94.56 94.49 94.43 94.34 94.22 94.19 94.15 94.16 94.20 94.19 94.16 94.28 94.17 94.30 94.33 94.36 94.32 94.33 94.31 94.28 94.23 94.24 94.31 94.40 94.45 94.52 94.60 94.69 94.76 94.75 94.81 94.88
94.44 94.53 94.59 94.59 94.73 94.83 94.94 95.00 95.07 95.13 95.21 95.30 95.15 95.10 94.96 94.97 94.96 94.94 94.88 94.83 94.74 94.64 94.56 94.43 94.40 94.30 94.31 94.34 94.25 93.21 94.48 94.45 94.49 94.54 94.51 94.52 94.54 94.54 94.52 94.49 94.43 94.44 94.44 94.50 94.56 94.66 94.74 94.80 94.87 94.91 94.93 95.00
94.68 94.75 94.74 94.87 94.95 95.03 95.12 95.20 95.27 95.34 95.36 95.40 95.41 95.38 95.29 95.18 95.17 95.15 95.13 95.03 94.90 94.80 94.66 94.65 94.50 94.53 94.49 94.25 94.56 94.53 94.59 94.66 94.70 94.71 94.71 94.72 94.74 94.74 94.71 94.69 94.60 94.60 94.62 94.66 94.75 94.82 94.90 94.96 95.00 95.05 95.05 95.12
94.92 94.90 95.01 95.11 95.19 95.26 95.34 95.37 95.46 95.51 95.51 95.43 95.46 95.64 95.64 95.49 95.39 95.37 95.30 95.22 95.09 94.92 94.86 94.69 94.78 94.64 93.66 94.69 94.70 94.73 94.81 94.79 94.83 94.82 94.85 94.87 94.93 94.93 94.91 94.86 94.80 94.78 94.83 94.86 94.90 94.99 95.07 95.11 95.12 95.13 95.19 95.22
95.09 95.19 95.26 95.33 95.44 95.48 95.56 95.62 95.69 95.71 95.66 95.53 95.52 95.68 95.78 95.82 95.67 95.55 95.50 95.36 95.23 95.14 94.98 94.94 94.70 94.67 94.72 94.78 94.83 94.92 94.96 94.93 94.97 94.99 94.99 95.07 95.11 95.08 95.07 95.03 95.01 95.00 95.00 95.06 95.12 95.14 95.22 95.23 95.26 95.29 95.35 95.38
95.37 95.44 95.50 95.60 95.64 95.73 95.80 95.86 95.90 95.91 95.78 95.72 95.76 95.78 95.96 95.96 95.90 95.72 95.59 95.51 95.44 95.38 95.15 94.16 94.86 94.90 94.90 94.94 94.96 95.01 95.03 95.08 95.12 95.15 95.19 95.21 95.23 95.25 95.24 95.24 95.19 95.17 95.19 95.26 95.30 95.33 95.35 95.43 95.43 95.49 95.53 95.54
95.59 95.68 95.75 95.81 95.89 95.98 96.01 96.06 96.10 96.09 96.04 95.99 96.02 96.01 95.98 96.14 96.08 95.99 95.81 95.75 95.63 95.08 95.12 95.12 95.07 95.04 95.05 95.07 95.07 95.15 95.18 95.21 95.24 95.28 95.31 95.33 95.37 95.43 95.45 95.43 95.38 95.40 95.40 95.46 95.47 95.50 95.56 95.63 95.65 95.70 95.72 95.76
95.84 95.93 95.97 96.04 96.12 96.16 96.21 96.28 96.31 96.28 96.32 96.29 96.21 96.18 96.15 96.12 96.22 96.29 96.05 95.77 94.68 95.47 95.42 95.37 95.29 95.24 95.21 95.19 95.20 95.23 95.30 95.36 95.38 95.40 95.43 95.47 95.54 95.60 95.60 95.58 95.58 95.57 95.61 95.61 95.70 95.74 95.82 95.83 95.86 95.94 95.93 95.98
96.09 96.17 96.24 96.30 96.33 96.37 96.43 96.45 96.48 96.51 96.57 96.51 96.43 96.31 96.26 96.20 96.21 96.20 95.90 95.85 95.83 95.76 95.67 95.57 95.50 95.43 95.40 95.33 95.34 95.38 95.43 95.49 95.52 95.54 95.60 95.65 95.70 95.72 95.79 95.75 95.78 95.78 95.82 95.86 95.95 96.00 96.07 96.07 96.14 96.26 96.11 96.04
96.26 96.39 96.46 96.52 96.57 96.62 96.61 96.65 96.72 96.78 96.76 96.72 96.62 96.54 96.38 96.25 96.17 96.20 96.43 96.37 96.16 95.98 95.88 95.78 95.67 95.61 95.49 95.48 95.54 95.57 95.59 95.64 95.65 95.70 95.76 95.79 95.83 95.91 95.95 95.96 95.96 96.04 96.09 96.16 96.20 96.24 96.29 96.34 96.32 96.23 96.19 96.11
96.49 96.53 96.68 96.74 96.79 96.78 96.82 96.91 96.96 96.98 96.95 96.86 96.81 96.69 96.55 96.42 96.45 96.66 96.43 96.61 96.39 96.21 96.04 95.96 95.86 95.73 95.69 95.68 95.68 95.72 95.73 95.78 95.81 95.86 95.89 95.94 95.96 96.03 96.09 96.15 96.18 96.24 96.28 96.35 96.38 96.42 96.47 96.39 96.32 96.31 96.26 96.26
96.83 96.75 96.87 96.93 96.94 97.00 97.06 97.15 97.15 97.14 97.06 97.01 96.94 96.86 96.75 96.77 96.97 96.59 96.50 96.46 96.74 96.45 96.24 96.10 96.00 95.93 95.85 95.83 95.87 95.86 95.91 95.95 96.02 96.05 96.05 96.09 96.09 96.16 96.28 96.34 96.38 96.42 96.42 96.52 96.57 96.49 96.46 96.42 96.38 96.40 96.38 96.35
96.95 97.10 97.06 97.06 97.12 97.23 97.32 97.32 97.29 97.25 97.18 97.16 97.07 97.07 97.09 97.21 96.83 96.68 96.61 96.64 96.11 96.72 96.46 96.22 96.16 96.10 96.01 95.99 95.99 96.01 96.07 96.12 96.18 96.17 96.18 96.20 96.26 96.32 96.45 96.53 96.56 96.57 96.56 96.63 96.60 96.52 96.53 96.52 96.54 96.50 96.49 96.50
97.08 97.15 97.30 97.26 97.37 97.46 97.46 97.45 97.39 97.36 97.31 97.24 97.26 97.31 97.40 97.08 96.89 96.82 96.68 96.76 96.90 96.88 96.72 96.48 96.32 96.25 96.19 96.15 96.18 96.20 96.28 96.28 96.34 96.33 96.33 96.39 96.45 96.54 96.63 96.70 96.78 96.79 96.71 96.67 96.62 96.62 96.67 96.67 96.65 96.63 96.64 96.62
97.40 97.36 97.52 97.57 97.55 97.61 97.57 97.54 97.50 97.47 97.41 97.45 97.51 97.53 97.29 97.15 97.07 96.95 96.92 96.90 96.93 96.88 97.03 96.71 96.54 96.39 96.33 96.30 96.31 96.36 96.41 96.44 96.47 96.52 96.50 96.56 96.61 96.69 96.80 96.82 96.79 96.76 96.72 96.72 96.75 96.78 96.80 96.82 96.81 96.82 96.79 96.79
97.54 97.58 97.68 97.79 97.81 97.71 97.72 97.63 97.60 97.54 97.58 97.78 97.64 97.44 97.32 97.29 97.23 97.15 97.08 97.06 96.95 97.03 96.90 97.17 96.72 96.55 96.50 96.45 96.44 96.51 96.56 96.57 96.66 96.69 96.71 96.77 96.82 96.92 97.02 96.91 96.87 96.81 96.83 96.88 96.93 96.94 96.95 96.99 96.98 96.96 96.94 96.97
97.70 97.68 97.79 97.90 97.98 97.85 97.73 97.72 97.70 97.75 97.96 97.75 97.56 97.47 97.46 97.42 97.38 97.35 97.29 97.21 97.03 97.04 97.04 96.98 97.15 96.78 96.62 96.61 96.60 96.62 96.73 96.78 96.88 96.92 96.91 97.00 97.01 97.07 96.99 96.96 96.93 96.93 96.96 97.02 97.09 97.12 97.14 97.12 97.14 97.13 97.13 97.15
97.90 97.87 97.85 98.01 98.03 97.99 97.86 97.89 98.01 98.10 97.87 97.70 97.62 97.60 97.57 97.56 97.55 97.53 97.46 97.33 97.19 97.05 97.10 97.19 96.60 97.07 96.89 96.79 96.74 96.80 96.90 97.00 97.08 97.12 97.15 97.29 97.22 97.15 97.07 97.04 97.05 97.06 97.08 97.15 97.24 97.28 97.29 97.28 97.28 97.32 97.33 97.31
98.08 98.06 98.03 98.01 98.10 98.05 98.07 98.28 98.29 97.97 97.83 97.76 97.72 97.71 97.71 97.72 97.70 97.69 97.61 97.49 97.37 97.26 97.21 97.22 97.30 97.29 97.16 97.01 96.95 97.05 97.11 97.17 97.24 97.29 97.36 97.32 97.26 97.22 97.15 97.15 97.16 97.20 97.25 97.30 97.37 97.45 97.47 97.45 97.47 97.46 97.43 97.41
98.24 98.22 98.19 98.14 98.10 98.10 98.15 98.45 98.09 97.97 97.88 97.87 97.86 97.86 97.88 97.88 97.86 97.81 97.73 97.68 97.58 97.47 97.35 97.28 97.40 97.35 97.45 97.25 97.15 97.15 97.23 97.30 97.43 97.40 97.40 97.40 97.35 97.33 97.27 97.25 97.26 97.33 97.38 97.44 97.52 97.59 97.65 97.63 97.58 97.53 97.56 97.60
98.40 98.36 98.33 98.31 98.29 98.37 98.47 98.20 98.08 98.03 98.01 98.00 98.01 98.03 98.03 98.01 97.95 97.89 97.88 97.83 97.76 97.64 97.48 97.38 97.38 97.38 97.50 97.65 97.36 97.24 97.38 97.46 97.43 97.43 97.45 97.47 97.43 97.42 97.40 97.40 97.41 97.46 97.54 97.61 97.65 97.71 97.75 97.74 97.70 97.70 97.67 97.72
98.53 98.50 98.47 98.45 98.60 98.54 98.31 98.20 98.15 98.13 98.12 98.14 98.16 98.16 98.14 98.10 98.03 98.04 98.03 98.01 97.93 97.85 97.68 97.49 97.40 97.48 97.53 97.21 97.67 97.46 97.44 97.44 97.43 97.49 97.56 97.57 97.58 97.57 97.55 97.52 97.53 97.58 97.65 97.73 97.79 97.81 97.81 97.85 97.82 97.79 97.76 97.78
98.61 98.62 98.60 98.83 98.69 98.46 98.32 98.28 98.25 98.24 98.27 98.29 98.29 98.24 98.20 98.18 98.17 98.19 98.18 98.17 98.08 97.99 97.86 97.68 97.54 97.49 97.59 97.65 97.24 97.69 97.54 97.47 97.50 97.56 97.62 97.71 97.74 97.71 97.67 97.67 97.68 97.71 97.78 97.85 97.89 97.92 97.96 97.96 97.92 97.88 97.90 97.95
98.75 98.74 99.08 98.82 98.63 98.49 98.41 98.35 98.36 98.36 98.40 98.38 98.33 98.28 98.28 98.30 98.30 98.33 98.31 98.29 98.21 98.13 98.01 97.83 97.68 97.55 97.56 97.67 97.73 97.80 97.82 97.60 97.61 97.68 97.74 97.82 97.85 97.84 97.81 97.81 97.81 97.85 97.89 97.94 98.01 98.04 98.06 98.03 97.98 98.07 98.10 98.18
98.88 99.28 98.94 98.76 98.67 98.60 98.50 98.47 98.48 98.51 98.50 98.45 98.43 98.39 98.42 98.44 98.45 98.44 98.47 98.40 98.36 98.26 98.16 98.02 97.82 97.67 97.61 97.68 97.77 97.85 98.01 97.98 97.75 97.78 97.85 97.94 98.01 98.01 98.00 98.00 97.94 97.96 98.01 98.06 98.12 98.15 98.16 98.09 98.19 98.25 98.33 98.32
99.42 99.04 98.91 98.82 98.75 98.69 98.65 98.58 98.59 98.61 98.55 98.50 98.54 98.55 98.56 98.56 98.59 98.60 98.56 98.53 98.50 98.44 98.32 98.12 97.98 97.81 97.74 97.73 97.81 97.97 98.15 98.15 98.02 97.88 97.95 98.04 98.14 98.17 98.17 98.12 98.10 98.14 98.15 98.19 98.18 98.24 98.27 98.32 98.38 98.41 98.40 98.42
99.18 99.02 98.96 98.92 98.87 98.83 98.78 98.75 98.67 98.66 98.63 98.65 98.68 98.68 98.70 98.71 98.74 98.71 98.69 98.68 98.67 98.58 98.43 98.29 98.11 97.95 97.82 97.80 97.89 98.09 98.15 97.45 98.28 98.08 98.09 98.17 98.24 98.27 98.31 98.30 98.27 98.28 98.28 98.26 98.34 98.38 98.41 98.45 98.49 98.50 98.50 98.53
99.15 99.08 99.03 99.01 98.98 98.97 98.94 98.85 98.76 98.72 98.75 98.77 98.79 98.81 98.82 98.85 98.82 98.85 98.86 98.86 98.79 98.69 98.58 98.43 98.25 98.04 97.93 97.92 98.01 98.10 98.31 98.36 98.17 98.39 98.26 98.31 98.29 98.36 98.45 98.45 98.45 98.40 98.39 98.46 98.46 98.53 98.55 98.56 98.54 98.58 98.59 98.63
99.21 99.17 99.13 99.12 99.11 99.09 99.05 98.97 98.87 98.86 98.87 98.90 98.90 98.93 98.96 98.97 98.98 98.99 99.02 98.97 98.91 98.86 98.73 98.54 98.32 98.15 98.08 98.10 98.14 98.18 98.26 98.38 98.49 98.51 98.50 98.39 98.38 98.44 98.56 98.57 98.55 98.54 98.54 98.59 98.62 98.65 98.65 98.64 98.67 98.69 98.70 98.75
99.29 99.27 99.25 99.25 99.23 99.18 99.10 99.09 99.04 98.99 98.94 98.97 98.98 99.05 99.09 99.12 99.13 99.15 99.13 99.12 99.07 98.99 98.84 98.61 98.41 98.31 98.29 98.26 98.27 98.29 98.37 98.41 98.56 98.66 98.71 98.67 98.56 98.63 98.68 98.69 98.66 98.66 98.73 98.74 98.74 98.72 98.76 98.77 98.78 98.77 98.85 98.90
99.42 99.38 99.37 99.35 99.32 99.26 99.20 99.21 99.14 99.10 99.01 99.01 99.10 99.17 99.20 99.24 99.28 99.29 99.29 99.28 99.24 99.14 98.94 98.74 98.57 98.51 98.44 98.41 98.40 98.43 98.46 98.54 98.60 98.79 98.63 98.86 98.88 98.76 98.78 98.80 98.76 98.86 98.83 98.84 98.85 98.85 98.87 98.89 98.88 98.93 99.01 99.00
99.53 99.51 99.47 99.43 99.38 99.33 99.32 99.26 99.22 99.15 99.09 99.09 99.20 99.27 99.37 99.41 99.43 99.47 99.47 99.43 99.36 99.24 99.04 98.82 98.70 98.63 98.58 98.57 98.59 98.57 98.65 98.68 98.75 98.82 98.83 98.33 99.11 99.04 98.92 98.90 98.96 98.94 98.94 98.96 98.98 98.99 98.99 99.00 99.07 99.10 99.09 99.11
99.65 99.61 99.55 99.46 99.44 99.42 99.36 99.32 99.32 99.31 99.21 99.20 99.27 99.43 99.52 99.56 99.59 99.61 99.60 99.55 99.48 99.35 99.15 98.94 98.78 98.71 98.72 98.73 98.74 98.77 98.80 98.83 98.94 98.98 99.04 99.06 98.98 99.18 99.12 99.06 99.04 99.04 99.06 99.09 99.10 99.11 99.12 99.18 99.22 99.18 99.20 99.20
99.74 99.69 99.57 99.51 99.48 99.44 99.44 99.46 99.53 99.44 99.38 99.33 99.42 99.55 99.62 99.68 99.71 99.73 99.68 99.66 99.58 99.45 99.27 99.05 98.86 98.86 98.86 98.87 98.89 98.95 98.96 99.04 99.04 99.08 99.10 99.15 99.19 99.34 99.32 99.15 99.14 99.15 99.19 99.19 99.24 99.24 99.32 99.33 99.32 99.31 99.29 99.34
99.79 99.64 99.60 99.51 99.51 99.51 99.58 99.67 99.63 99.61 99.53 99.52 99.55 99.65 99.74 99.77 99.80 99.81 99.80 99.76 99.71 99.54 99.34 99.12 98.97 98.97 99.00 99.01 99.04 99.07 99.10 99.10 99.13 99.15 99.14 99.15 99.33 99.36 99.51 99.29 99.24 99.21 99.26 99.32 99.36 99.43 99.47 99.45 99.44 99.44 99.45 99.44
99.72 99.64 99.59 99.57 99.61 99.66 99.69 99.74 99.74 99.73 99.67 99.61 99.64 99.74 99.78 99.84 99.82 99.86 99.86 99.86 99.77 99.58 99.40 99.20 99.08 99.08 99.11 99.14 99.15 99.18 99.18 99.22 99.21 99.22 99.21 99.28 99.26 99.44 99.34 99.60 99.36 99.34 99.36 99.45 99.54 99.59 99.57 99.54 99.56 99.60 99.58 99.58
99.63 99.59 99.64 99.68 99.73 99.73 99.74 99.77 99.80 99.79 99.72 99.69 99.71 99.76 99.80 99.80 99.85 99.88 99.90 99.89 99.79 99.64 99.46 99.28 99.17 99.19 99.22 99.27 99.29 99.28 99.31 99.33 99.32 99.26 99.31 99.37 99.33 99.38 99.59 99.69 99.68 99.47 99.50 99.61 99.64 99.68 99.68 99.68 99.70 99.71 99.72 99.70
99.59 99.63 99.69 99.72 99.73 99.71 99.73 99.80 99.85 99.85 99.78 99.74 99.75 99.78 99.78 99.81 99.83 99.88 99.86 99.83 99.75 99.67 99.50 99.35 99.24 99.26 99.35 99.36 99.35 99.39 99.43 99.41 99.33 99.38 99.40 99.44 99.46 99.47 99.56 99.79 99.78 99.81 99.69 99.69 99.72 99.75 99.79 99.79 99.79 99.81 99.83 99.81
99.59 99.64 99.66 99.65 99.67 99.68 99.79 99.88 99.90 99.93 99.84 99.82 99.84 99.88 99.89 99.90 99.90 99.87 99.82 99.81 99.75 99.66 99.54 99.40 99.30 99.40 99.40 99.44 99.46 99.50 99.46 99.46 99.46 99.46 99.51 99.54 99.57 99.61 99.69 99.91 99.88 99.97 99.94 99.82 99.79 99.85 99.87 99.88 99.90 99.93 99.92 99.88
99.60 99.60 99.54 99.58 99.62 99.74 99.86 99.95 100.01 99.98 99.90 99.91 99.97 100.06 100.10 100.11 100.05 99.99 99.95 99.92 99.85 99.75 99.60 99.43 99.47 99.46 99.48 99.55 99.56 99.55 99.54 99.57 99.56 99.57 99.58 99.60 99.65 99.69 99.70 99.75 99.90 100.04 100.15 99.94 99.93 99.93 99.96 99.96 99.99 100.00 99.98 99.94
99.66 99.60 99.57 99.58 99.72 99.84 99.93 100.03 100.07 100.01 99.96 100.00 100.11 100.22 100.28 100.29 100.24 100.21 100.17 100.12 100.04 99.93 99.72 99.58 99.50 99.54 99.61 99.61 99.62 99.61 99.64 99.67 99.69 99.61 99.67 99.72 99.71 99.71 99.75 99.82 99.89 100.01 99.78 100.29 100.06 100.01 99.99 100.01 100.02 100.05 100.00 100.06
99.47 99.25 99.59 99.68 99.79 99.90 99.99 100.07 100.07 100.01 100.03 100.12 100.25 100.35 100.36 100.38 100.38 100.35 100.33 100.31 100.23 100.05 99.85 99.64 99.62 99.64 99.67 99.67 99.70 99.71 99.75 99.73 99.70 99.76 99.76 99.75 99.74 99.76 99.82 99.91 100.04 100.09 100.06 99.97 100.34 100.08 100.07 100.02 100.06 100.03 100.04 100.07
99.85 99.65 98.87 99.68 99.83 99.91 100.04 100.07 100.04 100.04 100.11 100.23 100.34 100.40 100.42 100.44 100.47 100.46 100.47 100.41 100.29 100.14 99.88 99.75 99.67 99.71 99.74 99.77 99.81 99.81 99.79 99.81 99.85 99.83 99.81 99.79 99.79 99.84 99.94 99.96 100.03 100.08 100.18 100.35 100.46 100.37 100.16 100.11 100.12 100.12 100.20 100.23
99.75 99.78 99.68 99.27 99.77 99.94 99.99 100.01 99.99 100.04 100.21 100.30 100.38 100.42 100.49 100.51 100.53 100.55 100.52 100.49 100.32 100.19 99.97 99.80 99.75 99.73 99.82 99.90 99.86 99.85 99.87 99.95 99.93 99.89 99.83 99.83 99.87 99.92 99.96 100.03 100.04 100.18 100.25 100.32 100.49 100.52 100.38 100.25 100.28 100.33 100.33 100.33
99.75 99.76 99.81 99.45 99.44 99.75 99.89 99.88 99.94 100.07 100.19 100.30 100.41 100.46 100.53 100.56 100.57 100.57 100.57 100.47 100.37 100.23 100.04 99.86 99.76 99.79 99.90 99.93 99.92 99.96 99.99 100.01 99.96 99.91 99.90 99.91 99.92 100.01 100.04 100.04 100.18 100.24 100.30 100.35 100.43 100.54 100.67 100.31 100.42 100.42 100.39 100.42
99.74 99.76 100.09 99.92 99.55 99.49 99.58 99.77 99.82 99.99 100.17 100.30 100.41 100.49 100.57 100.60 100.57 100.64 100.56 100.50 100.41 100.26 100.05 99.89 99.83 99.88 99.93 99.94 100.00 100.04 100.07 100.02 100.01 99.98 99.96 99.98 100.02 100.03 100.08 100.18 100.24 100.32 100.35 100.38 100.39 100.54 100.64 100.76 100.60 100.52 100.48 100.49
99.65 99.98 99.88 99.91 100.00 99.79 99.59 99.16 99.69 99.88 100.07 100.25 100.37 100.48 100.56 100.59 100.66 100.61 100.57 100.53 100.44 100.25 100.08 99.98 99.95 99.98 99.95 99.97 100.08 100.07 100.07 100.07 100.05 100.04 100.04 100.05 100.05 100.11 100.18 100.29 100.35 100.36 100.38 100.43 100.52 100.60 100.69 100.74 100.80 100.65 100.56 100.57
99.54 99.72 99.88 99.79 99.81 99.73 99.67 99.66 99.24 99.66 99.95 100.10 100.32 100.43 100.54 100.61 100.62 100.57 100.63 100.51 100.40 100.24 100.14 100.08 100.07 99.96 100.02 100.08 100.06 100.06 100.07 100.07 100.12 100.10 100.11 100.06 100.12 100.19 100.27 100.32 100.38 100.40 100.46 100.52 100.61 100.62 100.70 100.87 101.03 100.85 100.73 100.64
99.49 99.56 99.80 99.61 99.64 99.54 99.59 99.67 99.67 99.53 99.71 100.00 100.15 100.36 100.49 100.54 100.58 100.66 100.58 100.49 100.39 100.27 100.18 100.10 100.06 100.11 100.12 100.12 100.08 100.07 100.10 100.10 100.10 100.14 100.13 100.13 100.18 100.25 100.30 100.37 100.39 100.45 100.50 100.62 100.69 100.74 100.77 100.84 101.03 101.09 100.89 100.81
99.43 99.29 99.37 99.46 99.38 99.42 99.45 99.54 99.57 99.60 99.69 99.81 100.09 100.28 100.47 100.53 100.58 100.57 100.56 100.47 100.42 100.31 100.18 100.14 100.19 100.21 100.18 100.17 100.16 100.19 100.19 100.15 100.21 100.10 100.18 100.21 100.22 100.28 100.31 100.38 100.42 100.46 100.54 100.65 100.72 100.79 100.87 100.91 100.94 101.04 101.10 100.94
99.25 99.08 99.40 99.43 99.22 99.27 99.33 99.40 99.48 99.64 99.79 99.76 99.67 100.23 100.42 100.47 100.51 100.51 100.51 100.52 100.40 100.28 100.22 100.26 100.26 100.24 100.22 100.26 100.29 100.32 100.29 100.31 100.22 100.26 100.27 100.28 100.27 100.30 100.35 100.42 100.44 100.50 100.57 100.66 100.75 100.87 100.93 100.96 100.92 101.04 100.62 101.08
