ncols 52
nrows 52
xllcorner 436224
yllcorner 5716992
cellsize 10
NODATA_value -9999
86.04 86.00 86.00 85.99 85.99 85.95 85.93 85.72 85.42 85.14 85.07 83.33 85.35 85.37 85.47 85.68 85.83 85.94 86.10 86.26 86.45 86.64 86.82 86.99 87.17 87.33 87.57 87.74 87.92 88.01 88.12 88.21 88.25 88.29 88.33 88.42 88.46 88.50 88.74 88.92 89.13 89.23 89.23 89.35 89.47 89.57 89.68 89.75 89.77 89.83 89.87 89.86
86.07 86.03 86.04 86.01 86.03 86.00 85.95 85.76 85.39 85.08 84.59 85.39 85.48 85.55 85.74 85.86 86.01 86.14 86.25 86.40 86.57 86.77 86.96 87.16 87.36 87.57 87.77 87.94 88.05 88.12 88.23 88.30 88.37 88.40 88.47 88.49 88.58 88.70 88.92 89.25 89.22 89.20 89.30 89.43 89.56 89.68 89.78 89.77 89.82 89.84 89.82 89.76
86.07 86.06 86.05 86.06 86.02 86.01 85.92 85.78 85.47 85.21 84.02 85.48 85.60 85.90 85.90 86.04 86.18 86.29 86.46 86.57 86.74 86.92 87.12 87.32 87.55 87.76 87.97 88.09 88.16 88.25 88.32 88.40 88.46 88.51 88.57 88.64 88.71 88.88 89.27 89.26 89.20 89.28 89.38 89.50 89.64 89.75 89.78 89.80 89.83 89.79 89.72 89.62
86.12 86.08 86.06 86.04 86.03 86.00 85.93 85.73 85.54 85.14 85.27 85.32 85.60 86.02 86.17 86.17 86.32 86.44 86.61 86.78 86.93 87.08 87.28 87.46 87.69 87.94 88.09 88.20 88.29 88.35 88.42 88.48 88.54 88.62 88.67 88.79 88.99 89.31 89.26 89.20 89.29 89.37 89.48 89.57 89.68 89.75 89.79 89.80 89.75 89.70 89.63 89.48
86.23 86.19 86.15 86.08 86.04 85.97 85.85 85.62 85.51 83.62 85.35 85.39 85.67 85.98 86.26 86.47 86.48 86.61 86.74 86.89 87.11 87.29 87.44 87.65 87.85 88.05 88.20 88.28 88.36 88.42 88.49 88.57 88.65 88.68 88.80 89.00 89.38 89.29 89.25 89.29 89.36 89.46 89.55 89.64 89.68 89.73 89.78 89.75 89.68 89.60 89.45 89.32
86.23 86.23 86.19 86.15 86.09 85.98 85.77 85.50 85.31 85.31 85.45 85.67 85.89 86.05 86.29 86.52 86.72 86.85 86.92 87.07 87.24 87.45 87.63 87.79 87.99 88.14 88.28 88.39 88.46 88.53 88.58 88.63 88.70 88.76 89.01 89.42 89.30 89.29 89.32 89.38 89.46 89.54 89.62 89.65 89.70 89.72 89.68 89.68 89.60 89.44 89.29 89.13
86.30 86.27 86.21 86.14 86.04 85.89 85.63 85.43 84.79 85.57 85.65 85.89 86.10 86.27 86.40 86.60 86.81 87.05 87.30 87.26 87.42 87.60 87.80 87.98 88.12 88.25 88.38 88.47 88.53 88.62 88.65 88.72 88.83 89.04 89.43 89.34 89.32 89.34 89.42 89.48 89.55 89.62 89.65 89.68 89.70 89.65 89.64 89.56 89.44 89.33 89.13 88.91
86.35 86.32 86.28 86.20 86.05 85.83 85.58 85.47 84.96 85.70 85.86 86.10 86.28 86.46 86.61 86.75 86.92 87.10 87.40 87.53 87.60 87.76 87.93 88.12 88.27 88.38 88.48 88.57 88.63 88.68 88.72 88.83 89.07 89.43 89.31 89.32 89.36 89.42 89.51 89.56 89.63 89.67 89.68 89.69 89.64 89.60 89.52 89.42 89.29 89.13 88.94 88.74
86.33 86.32 86.29 86.23 86.10 85.86 85.60 85.46 85.94 85.86 86.07 86.31 86.43 86.61 86.79 86.94 87.07 87.26 87.43 87.69 87.86 87.93 88.07 88.21 88.37 88.53 88.60 88.68 88.76 88.79 88.86 89.04 89.38 89.29 89.26 89.32 89.40 89.52 89.57 89.65 89.68 89.73 89.72 89.66 89.60 89.49 89.39 89.26 89.10 88.90 88.75 88.54
86.43 86.39 86.34 86.25 86.11 85.90 85.63 84.48 85.93 85.97 86.28 86.47 86.62 86.77 86.92 87.13 87.28 87.44 87.60 87.81 88.00 88.18 88.24 88.36 88.47 88.56 88.67 88.76 88.80 88.96 89.09 89.43 89.28 89.24 89.30 89.35 89.44 89.54 89.65 89.69 89.74 89.73 89.68 89.62 89.51 89.38 89.24 89.07 88.88 88.70 88.54 88.39
86.52 86.48 86.42 86.34 86.19 85.95 85.77 84.95 85.87 86.12 86.45 86.63 86.76 86.91 87.06 87.24 87.46 87.64 87.82 87.96 88.12 88.30 88.44 88.65 88.58 88.67 88.72 88.80 88.90 89.10 89.43 89.30 89.22 89.26 89.35 89.41 89.51 89.61 89.66 89.71 89.73 89.68 89.63 89.55 89.41 89.26 89.06 88.88 88.69 88.53 88.35 88.18
86.59 86.56 86.50 86.43 86.26 86.03 85.95 85.82 86.04 86.26 86.58 86.78 86.90 87.08 87.23 87.38 87.59 87.81 87.96 88.14 88.26 88.42 88.57 88.68 88.87 88.72 88.77 88.80 88.98 89.48 89.39 89.30 89.22 89.32 89.38 89.49 89.57 89.63 89.68 89.69 89.66 89.64 89.56 89.42 89.27 89.08 88.90 88.71 88.51 88.35 88.17 87.99
86.65 86.58 86.54 86.44 86.29 86.08 86.09 86.14 86.18 86.44 86.73 86.93 87.10 87.24 87.40 87.54 87.72 87.94 88.11 88.25 88.34 88.46 88.61 88.71 88.85 88.94 88.81 88.91 89.21 89.28 89.18 89.35 89.35 89.38 89.45 89.59 89.65 89.67 89.65 89.63 89.60 89.54 89.41 89.28 89.10 88.94 88.74 88.54 88.36 88.15 87.97 87.86
86.74 86.67 86.62 86.49 86.30 86.14 86.17 86.22 86.32 86.60 86.89 87.09 87.25 87.42 87.56 87.71 87.87 88.08 88.23 88.36 88.43 88.53 88.60 88.73 88.81 88.96 89.01 89.01 89.40 89.17 89.22 89.26 89.44 89.52 89.58 89.59 89.68 89.67 89.65 89.58 89.50 89.39 89.27 89.14 88.94 88.74 88.56 88.38 88.15 87.98 87.84 87.72
86.85 86.77 86.70 86.55 86.35 86.26 86.00 86.29 86.40 86.70 87.01 87.25 87.41 87.57 87.72 87.84 88.00 88.15 88.32 88.41 88.51 88.58 88.66 88.72 88.84 88.94 89.07 89.17 89.28 89.18 89.23 89.37 89.42 89.62 89.65 89.67 89.63 89.63 89.57 89.49 89.38 89.26 89.11 88.92 88.77 88.58 88.37 88.18 87.97 87.85 87.72 87.57
86.94 86.88 86.75 86.60 86.35 86.32 84.93 86.44 86.55 86.88 87.09 87.36 87.59 87.73 87.82 87.96 88.10 88.23 88.36 88.48 88.58 88.65 88.68 88.77 88.88 88.99 89.18 89.50 89.20 89.21 89.29 89.43 89.51 89.54 89.72 89.71 89.62 89.53 89.48 89.37 89.22 89.07 88.88 88.71 88.57 88.40 88.19 87.99 87.87 87.73 87.57 87.42
86.95 86.93 86.81 86.57 86.38 86.37 86.45 86.60 86.81 87.04 87.25 87.47 87.67 87.84 87.96 88.03 88.15 88.29 88.43 88.54 88.62 88.69 88.74 88.85 88.93 89.08 89.29 89.34 89.22 89.29 89.37 89.46 89.57 89.63 89.59 89.67 89.61 89.46 89.34 89.21 89.06 88.89 88.70 88.55 88.35 88.19 88.02 87.88 87.75 87.58 87.43 87.23
87.03 86.91 86.79 86.53 86.43 84.97 86.78 86.79 87.00 87.21 87.41 87.59 87.75 87.93 88.02 88.13 88.23 88.32 88.47 88.59 88.68 88.74 88.79 88.91 88.99 89.11 89.46 89.29 89.25 89.35 89.43 89.51 89.56 89.60 89.60 89.49 89.49 89.36 89.18 89.06 88.90 88.71 88.53 88.31 88.17 88.01 87.89 87.76 87.63 87.46 87.26 86.98
87.06 86.95 86.77 86.61 85.83 87.00 86.89 87.03 87.28 87.41 87.56 87.70 87.85 87.97 88.13 88.19 88.32 88.40 88.49 88.60 88.71 88.81 88.86 88.96 89.04 89.32 89.26 89.26 89.30 89.41 89.46 89.53 89.56 89.52 89.52 89.45 89.29 89.21 89.07 88.88 88.67 88.52 88.34 88.15 87.99 87.87 87.77 87.64 87.49 87.29 87.04 86.71
87.04 86.94 86.80 86.73 85.64 86.95 86.99 87.21 87.45 87.62 87.76 87.86 87.96 88.06 88.18 88.30 88.38 88.47 88.54 88.62 88.71 88.82 88.93 89.04 89.25 89.48 89.33 89.25 89.35 89.44 89.51 89.53 89.52 89.49 89.39 89.29 89.17 88.98 88.90 88.75 88.54 88.33 88.17 88.00 87.88 87.78 87.63 87.49 87.33 87.11 86.82 86.41
87.12 86.95 86.87 86.31 86.97 86.96 87.16 87.41 87.62 87.79 87.91 88.00 88.08 88.18 88.23 88.35 88.44 88.52 88.61 88.65 88.72 88.86 88.97 89.07 89.39 89.35 89.29 89.35 89.40 89.45 89.50 89.50 89.48 89.38 89.28 89.11 88.97 88.81 88.63 88.59 88.44 88.26 88.04 87.90 87.78 87.62 87.50 87.33 87.13 86.87 86.54 85.76
87.29 87.11 86.78 84.96 86.89 87.03 87.34 87.55 87.75 87.89 88.02 88.12 88.18 88.28 88.34 88.40 88.49 88.57 88.63 88.72 88.75 88.89 89.02 89.20 89.56 89.32 89.20 89.39 89.45 89.47 89.46 89.44 89.36 89.29 89.11 88.96 88.80 88.65 88.50 88.41 88.36 88.21 88.03 87.81 87.65 87.50 87.32 87.09 86.86 86.57 85.83 84.86
87.36 87.09 86.72 86.05 87.04 87.12 87.46 87.71 87.85 87.98 88.05 88.19 88.26 88.32 88.40 88.45 88.50 88.58 88.60 88.72 88.82 88.93 89.03 89.33 89.49 89.34 89.37 89.32 89.46 89.48 89.44 89.34 89.23 89.14 89.00 88.81 88.65 88.52 88.43 88.39 88.24 88.10 87.93 87.79 87.53 87.32 87.10 86.84 86.57 85.88 84.92 86.65
87.29 87.13 86.33 86.99 87.00 87.26 87.57 87.81 87.97 88.08 88.16 88.22 88.32 88.38 88.45 88.47 88.52 88.60 88.66 88.71 88.87 88.98 89.20 89.53 89.39 89.28 89.34 89.41 89.36 89.43 89.37 89.25 89.11 88.97 88.82 88.69 88.56 88.48 88.44 88.20 88.08 87.96 87.82 87.66 87.48 87.16 86.89 86.61 85.95 85.10 86.69 86.84
87.38 87.22 85.40 87.08 87.14 87.38 87.66 87.90 88.08 88.16 88.26 88.33 88.37 88.41 88.50 88.53 88.55 88.62 88.68 88.76 88.93 89.01 89.34 89.40 89.24 89.29 89.32 89.38 89.38 89.25 89.22 89.15 89.00 88.80 88.67 88.54 88.49 88.43 88.34 88.19 88.11 88.06 87.82 87.59 87.34 87.05 86.68 86.06 85.39 86.82 86.91 86.97
87.39 87.14 85.30 87.10 87.21 87.49 87.72 87.93 88.11 88.25 88.29 88.38 88.43 88.45 88.53 88.57 88.60 88.65 88.73 88.84 88.96 89.19 89.44 89.30 89.23 89.25 89.29 89.32 89.29 89.21 89.06 88.97 88.86 88.69 88.52 88.44 88.32 88.24 88.08 88.06 88.01 87.97 87.81 87.65 87.50 86.90 86.14 85.71 86.93 87.06 87.04 87.16
87.28 85.92 87.13 87.22 87.40 87.64 87.83 87.99 88.12 88.26 88.38 88.39 88.48 88.51 88.55 88.61 88.65 88.70 88.78 88.88 88.94 89.27 89.36 89.18 89.20 89.24 89.23 89.21 89.16 89.08 88.96 88.82 88.65 88.56 88.43 88.29 88.19 88.04 87.92 87.83 87.93 87.85 87.71 87.43 87.05 86.54 85.98 87.01 87.12 87.09 87.17 87.26
86.94 86.73 87.34 87.38 87.57 87.78 87.94 88.05 88.14 88.26 88.36 88.45 88.47 88.54 88.57 88.65 88.68 88.73 88.81 88.89 89.06 89.36 89.24 89.16 89.20 89.18 89.15 89.09 89.01 88.92 88.81 88.66 88.50 88.37 88.29 88.17 88.03 87.90 87.78 87.67 87.59 87.58 87.34 87.09 86.64 85.91 86.96 87.10 87.14 87.18 87.22 87.34
85.61 87.40 87.38 87.53 87.75 87.91 88.06 88.12 88.21 88.28 88.35 88.44 88.51 88.58 88.62 88.65 88.71 88.74 88.83 88.86 89.14 89.25 89.07 89.14 89.14 89.11 89.05 88.97 88.86 88.74 88.62 88.51 88.40 88.26 88.10 88.06 87.92 87.77 87.64 87.47 87.39 87.24 87.19 86.58 86.07 87.04 87.12 87.14 87.20 87.23 87.33 87.41
87.37 87.44 87.57 87.74 87.92 88.02 88.18 88.22 88.31 88.31 88.37 88.44 88.53 88.59 88.65 88.69 88.72 88.78 88.85 89.02 89.28 89.14 89.00 89.05 89.07 89.02 88.95 88.82 88.73 88.59 88.45 88.34 88.25 88.15 88.04 87.85 87.83 87.71 87.53 87.36 87.27 86.96 86.52 86.18 87.21 87.18 87.18 87.21 87.28 87.35 87.38 87.45
87.43 87.57 87.82 87.94 88.04 88.14 88.23 88.32 88.36 88.38 88.40 88.47 88.52 88.62 88.67 88.74 88.75 88.79 88.84 89.09 89.16 88.95 88.96 88.96 88.97 88.91 88.82 88.70 88.56 88.43 88.33 88.21 88.13 88.03 87.93 87.82 87.63 87.60 87.42 87.39 87.06 86.60 86.53 86.85 87.32 87.29 87.24 87.29 87.38 87.42 87.49 87.51
87.56 87.80 88.03 88.16 88.15 88.23 88.29 88.35 88.43 88.44 88.48 88.50 88.55 88.60 88.70 88.71 88.79 88.81 88.97 89.21 89.03 88.86 88.90 88.89 88.87 88.79 88.69 88.56 88.45 88.31 88.21 88.09 87.99 87.91 87.83 87.74 87.68 87.48 87.46 87.16 86.66 86.57 86.81 87.05 87.20 87.26 87.28 87.39 87.44 87.48 87.52 87.57
87.65 87.98 88.16 88.31 88.35 88.32 88.35 88.39 88.44 88.50 88.54 88.56 88.59 88.64 88.68 88.75 88.79 88.85 89.08 89.08 88.84 88.82 88.85 88.81 88.74 88.66 88.57 88.44 88.32 88.23 88.09 88.00 87.92 87.81 87.74 87.64 87.61 87.37 86.65 86.76 86.93 87.15 87.18 87.06 87.15 87.18 87.27 87.45 87.49 87.53 87.56 87.62
87.86 88.10 88.28 88.39 88.47 88.49 88.44 88.45 88.49 88.53 88.60 88.65 88.64 88.66 88.69 88.76 88.78 88.97 89.23 88.99 88.80 88.80 88.77 88.72 88.62 88.54 88.44 88.35 88.24 88.11 88.01 87.90 87.83 87.74 87.67 87.58 87.43 86.84 86.46 87.16 87.25 87.15 87.33 87.15 87.22 87.19 87.27 87.47 87.56 87.56 87.61 87.68
88.05 88.24 88.35 88.46 88.54 88.58 88.57 88.56 88.55 88.58 88.67 88.70 88.72 88.74 88.74 88.77 88.80 89.13 89.21 88.85 88.76 88.74 88.69 88.62 88.54 88.42 88.34 88.26 88.14 88.05 87.93 87.85 87.78 87.72 87.59 86.93 86.89 87.17 87.33 87.27 87.33 87.35 87.55 87.32 87.43 87.32 87.40 87.53 87.60 87.66 87.66 87.74
88.18 88.32 88.44 88.51 88.62 88.65 88.69 88.64 88.62 88.65 88.68 88.75 88.80 88.79 88.79 88.80 88.94 89.24 89.15 88.90 88.76 88.68 88.61 88.53 88.44 88.32 88.24 88.15 88.08 87.99 87.93 87.88 87.69 86.80 87.07 86.83 87.23 87.42 87.61 87.54 87.65 87.60 87.52 87.46 87.60 87.46 87.53 87.56 87.64 87.71 87.76 87.80
88.30 88.39 88.50 88.55 88.61 88.65 88.74 88.75 88.70 88.73 88.73 88.78 88.85 88.89 88.88 88.85 89.04 89.14 89.06 89.02 88.82 88.65 88.51 88.43 88.32 88.23 88.15 88.07 87.99 87.94 87.85 87.04 87.21 86.49 87.22 87.46 87.51 87.57 87.70 87.85 87.88 88.00 87.74 87.68 87.75 87.38 87.67 87.62 87.71 87.74 87.79 87.87
88.42 88.49 88.53 88.60 88.64 88.65 88.72 88.82 88.85 88.80 88.82 88.85 88.89 88.94 88.95 89.02 89.08 89.01 88.88 88.91 88.89 88.70 88.48 88.34 88.23 88.12 88.03 88.01 87.96 87.76 87.33 87.02 87.53 87.61 87.62 87.68 87.67 87.73 87.82 88.05 87.97 87.82 87.57 87.88 87.94 87.61 87.74 87.65 87.74 87.85 87.89 87.94
88.47 88.57 88.62 88.63 88.68 88.70 88.75 88.85 88.92 88.94 88.93 88.90 88.91 88.94 88.94 89.01 89.10 88.93 88.80 88.77 88.82 88.74 88.51 88.28 88.15 88.07 87.98 87.88 87.22 87.38 87.50 87.74 87.79 87.77 87.83 87.78 87.76 87.79 87.83 87.92 87.99 87.99 87.93 87.93 88.14 87.40 87.77 87.85 87.84 87.87 87.95 88.00
88.50 88.60 88.62 88.69 88.71 88.74 88.81 88.85 88.95 89.01 88.99 88.96 88.96 88.92 88.95 88.92 88.92 88.83 88.67 88.60 88.63 88.69 88.62 88.32 88.13 88.04 87.85 87.27 87.40 87.75 87.89 87.86 87.88 87.91 87.93 87.90 87.86 87.87 87.87 87.94 88.14 87.97 87.90 88.04 88.37 88.15 87.79 87.94 87.92 87.96 88.01 88.10
88.56 88.57 88.65 88.68 88.74 88.79 88.85 88.88 88.92 89.04 89.09 89.02 88.98 88.92 88.89 88.84 88.81 88.78 88.77 88.57 88.53 88.46 88.52 88.41 88.07 87.79 87.52 86.93 87.90 87.96 87.94 87.97 88.01 88.02 88.03 88.02 87.96 87.92 87.90 87.97 88.04 88.04 88.07 87.98 88.06 88.12 87.51 87.91 88.04 88.03 88.10 88.15
88.53 88.63 88.65 88.72 88.76 88.79 88.86 88.91 88.94 88.96 89.05 89.04 88.96 88.86 88.80 88.76 88.74 88.63 88.55 88.49 88.46 88.32 88.35 88.26 87.73 87.57 87.73 88.01 88.04 88.05 88.08 88.08 88.13 88.11 88.16 88.11 88.09 87.99 87.92 87.97 88.04 88.21 88.16 87.97 87.98 87.92 88.03 88.01 88.08 88.13 88.16 88.25
88.69 88.65 88.65 88.74 88.78 88.85 88.85 88.89 88.93 88.94 88.93 88.98 88.95 88.80 88.71 88.63 88.57 88.53 88.43 88.32 88.50 88.24 88.14 87.64 87.60 87.96 88.08 88.10 88.19 88.12 88.17 88.21 88.22 88.21 88.23 88.19 88.12 87.98 87.99 88.03 88.05 88.19 88.10 88.08 87.99 88.07 88.23 88.01 88.33 88.22 88.23 88.28
88.61 88.74 88.72 88.72 88.79 88.86 88.88 88.89 88.88 88.89 88.87 88.88 88.86 88.79 88.65 88.53 88.43 88.35 88.26 88.14 88.04 87.77 87.75 87.17 88.00 88.11 88.14 88.22 88.24 88.26 88.26 88.31 88.29 88.27 88.27 88.22 88.19 88.12 88.09 88.08 88.17 88.22 88.22 88.06 88.02 88.15 88.40 87.39 88.31 88.28 88.32 88.38
88.69 88.82 88.63 88.81 88.79 88.85 88.86 88.85 88.85 88.81 88.78 88.75 88.71 88.70 88.59 88.44 88.28 88.19 88.14 88.11 87.56 87.75 87.93 88.04 88.12 88.18 88.22 88.28 88.33 88.35 88.35 88.40 88.39 88.36 88.34 88.31 88.28 88.23 88.15 88.15 88.20 88.28 88.32 88.89 88.09 88.56 88.36 88.38 88.38 88.41 88.42 88.50
88.86 88.76 88.86 88.71 88.78 88.79 88.82 88.78 88.77 88.72 88.68 88.63 88.51 88.52 88.43 88.25 88.10 88.11 87.81 87.78 87.54 88.06 88.14 88.19 88.22 88.24 88.31 88.35 88.41 88.46 88.46 88.45 88.43 88.43 88.44 88.41 88.35 88.34 88.26 88.23 88.24 88.31 88.42 88.39 89.56 88.39 87.76 88.58 88.37 88.64 88.55 88.57
89.72 88.89 88.53 88.89 88.77 88.77 88.76 88.74 88.68 88.62 88.57 88.50 88.42 88.30 88.25 88.12 88.02 87.76 87.62 88.04 88.12 88.18 88.24 88.23 88.29 88.32 88.39 88.43 88.49 88.49 88.53 88.52 88.53 88.53 88.51 88.46 88.46 88.43 88.38 88.32 88.30 88.32 88.37 88.57 88.41 88.40 88.48 88.62 87.93 88.64 88.65 88.67
89.41 89.16 88.67 88.60 88.84 88.75 88.69 88.67 88.60 88.54 88.48 88.36 88.26 88.17 88.12 87.52 87.76 88.05 88.11 88.18 88.25 88.26 88.29 88.31 88.36 88.38 88.44 88.50 88.54 88.54 88.58 88.61 88.62 88.61 88.59 88.57 88.55 88.48 88.47 88.39 88.39 88.43 88.46 88.14 88.47 88.44 88.41 88.65 88.55 88.66 88.71 88.80
88.81 88.82 88.76 88.60 88.74 88.69 88.68 88.57 88.53 88.44 88.33 88.31 88.31 88.03 87.73 87.53 88.10 88.24 88.17 88.23 88.27 88.31 88.36 88.40 88.38 88.43 88.50 88.55 88.60 88.64 88.70 88.70 88.69 88.68 88.68 88.64 88.64 88.60 88.59 88.52 88.45 88.40 88.43 88.48 88.46 88.50 88.53 88.64 88.82 88.70 88.86 88.92
88.84 88.72 88.79 88.63 88.68 88.89 88.49 88.56 88.44 88.41 88.36 88.22 87.72 87.70 87.97 88.14 88.18 88.27 88.21 88.25 88.29 88.35 88.40 88.45 88.49 88.49 88.54 88.60 88.68 88.70 88.75 88.79 88.79 88.76 88.75 88.73 88.72 88.67 88.68 88.61 88.37 88.48 88.48 88.49 88.55 88.61 88.67 88.76 88.92 88.11 88.98 88.98
88.70 88.82 88.80 88.71 88.74 88.57 88.52 88.40 88.41 88.47 87.54 87.81 87.84 88.10 88.21 88.28 88.35 88.40 88.34 88.33 88.35 88.40 88.45 88.49 88.51 88.55 88.60 88.68 88.73 88.78 88.82 88.83 88.82 88.85 88.83 88.81 88.79 88.79 88.49 88.53 88.52 88.49 88.51 88.58 88.65 88.71 88.80 88.91 89.03 88.88 89.00 89.12
88.58 88.80 88.77 88.68 88.59 88.60 88.52 88.21 88.12 87.81 87.47 88.05 88.18 88.26 88.30 88.37 88.43 88.39 88.43 88.38 88.39 88.46 88.51 88.54 88.59 88.63 88.68 88.70 88.80 88.87 88.88 88.92 88.91 88.93 88.90 88.90 88.81 88.66 88.61 88.56 88.56 88.60 88.62 88.71 88.75 88.85 88.94 89.01 89.14 89.17 88.88 89.23
