ncols 52
nrows 52
xllcorner 436736
yllcorner 5714432
cellsize 10
NODATA_value -9999
90.47 90.57 90.62 90.67 90.83 91.07 91.12 91.42 91.30 91.45 91.58 91.74 91.82 91.54 92.26 93.06 93.10 93.09 94.42 94.18 93.52 92.86 92.93 93.85 94.94 93.85 93.00 92.18 91.67 91.80 93.57 95.30 95.63 95.78 95.89 95.74 95.75 95.97 95.82 95.74 95.79 95.95 96.00 96.10 96.17 96.20 96.32 96.61 96.84 96.90 96.79 96.65
90.27 90.44 90.43 90.55 90.65 90.86 91.00 91.00 91.00 91.12 91.21 91.38 91.46 91.60 91.88 91.73 91.43 92.51 93.14 93.20 93.15 94.09 93.98 92.98 93.07 93.30 94.46 93.08 91.57 91.51 91.62 91.63 92.54 95.23 94.53 95.80 95.87 95.79 95.79 95.80 95.77 95.76 95.86 96.02 96.05 96.09 96.11 96.17 96.40 96.49 96.60 95.44
90.03 90.14 90.20 90.28 90.53 90.72 91.31 90.89 90.89 90.90 90.94 91.10 91.16 91.25 91.43 91.58 91.67 91.82 91.56 92.18 92.76 93.26 93.26 93.41 94.10 93.69 93.21 93.29 93.31 94.48 93.10 91.64 91.57 94.26 91.25 91.44 92.72 94.04 95.82 96.19 95.85 95.75 95.71 95.83 95.90 95.88 95.85 95.94 96.20 96.33 96.35 94.63
90.07 89.94 90.22 90.19 90.25 90.51 90.69 90.76 90.88 90.88 90.85 91.01 91.02 91.10 91.27 91.40 91.56 91.71 91.71 92.92 93.54 93.44 92.49 93.13 93.44 93.36 93.95 94.15 93.14 93.12 92.98 93.19 94.52 94.37 91.03 90.98 91.07 91.17 91.82 92.53 95.61 95.57 95.68 95.60 96.46 95.48 95.60 95.71 95.89 96.05 96.16 93.74
89.69 89.77 89.92 90.05 90.11 90.55 90.75 90.63 90.73 90.70 90.68 91.06 91.25 90.94 91.10 91.24 91.37 91.40 91.33 93.43 93.33 93.51 93.71 93.78 93.49 93.23 93.46 93.52 93.57 94.25 94.03 92.64 92.57 92.65 92.56 91.12 91.02 91.02 90.96 91.20 93.26 94.86 95.11 95.74 95.70 95.99 95.65 95.44 95.63 95.65 95.78 93.92
89.35 89.55 90.43 90.50 89.90 90.43 90.96 90.64 90.85 90.64 90.63 90.94 90.81 90.86 90.87 90.91 91.05 91.14 91.39 93.46 93.51 93.54 93.58 93.61 93.72 93.45 93.70 93.55 93.29 93.57 93.59 93.67 94.36 93.85 92.79 92.89 92.93 92.11 91.07 92.64 93.11 94.05 94.75 94.89 95.22 95.86 96.35 95.52 95.51 95.42 95.40 93.57
89.10 89.33 89.60 89.62 89.81 90.03 90.24 90.34 90.45 90.43 89.74 89.28 90.65 90.86 90.97 90.95 90.92 90.90 92.91 93.44 93.57 93.60 93.56 93.64 93.69 94.06 93.63 93.62 93.71 93.85 93.67 93.38 93.67 93.68 94.02 94.49 93.54 92.90 92.92 93.32 95.04 95.82 95.63 95.74 95.90 96.71 96.75 96.68 96.65 95.46 95.16 92.91
88.78 88.95 89.15 89.35 89.49 89.68 89.85 90.07 90.32 90.13 90.47 90.53 91.25 90.94 91.02 90.91 90.76 90.99 93.17 93.36 93.41 93.52 93.67 93.66 93.65 93.65 93.60 93.54 93.60 93.82 94.56 93.95 94.04 93.95 93.76 93.84 93.80 94.40 94.44 93.28 94.37 95.57 95.66 95.78 96.69 96.94 96.87 96.75 96.39 96.06 95.62 95.38
88.02 88.40 88.71 88.85 89.24 89.40 89.54 89.64 89.79 89.95 90.21 90.53 90.83 91.07 91.41 91.82 90.89 92.00 93.15 93.31 93.39 93.43 93.62 93.75 93.65 93.65 93.78 93.97 94.00 94.00 93.85 94.09 94.08 94.14 94.35 94.10 93.72 93.90 93.98 93.93 94.53 94.56 94.72 95.14 95.34 95.70 96.49 95.62 95.34 95.38 95.59 95.47
87.26 87.43 87.43 87.62 87.56 87.57 87.86 87.80 88.18 89.49 90.28 90.87 90.82 90.62 91.73 92.33 92.25 92.78 93.21 93.29 93.40 93.47 93.60 93.55 93.53 93.49 93.65 93.94 93.50 93.61 93.75 93.74 93.90 94.08 94.20 94.48 94.24 94.37 94.20 93.60 94.03 94.06 94.28 94.69 94.88 94.90 95.21 95.24 95.15 95.17 95.37 95.50
87.17 87.13 87.24 87.33 87.33 87.44 87.83 88.29 88.69 89.69 90.61 90.79 91.34 91.92 92.35 92.54 92.79 93.09 93.05 93.07 93.15 93.22 93.26 93.30 93.37 93.46 93.55 93.56 93.51 93.54 93.55 93.60 93.57 93.56 93.69 93.77 93.92 93.96 94.21 94.35 94.33 94.18 94.04 94.21 94.27 94.66 94.95 94.72 95.03 95.14 95.39 95.38
87.79 88.90 89.81 90.83 91.56 92.15 92.20 92.21 92.36 92.42 92.39 92.40 92.45 92.36 92.31 92.26 92.22 92.18 92.87 92.74 92.55 92.44 92.36 92.63 92.46 92.39 92.68 92.44 92.68 93.00 93.21 93.40 93.60 93.74 93.81 93.87 93.80 93.82 94.03 94.19 94.32 94.34 94.10 94.24 94.35 94.38 94.45 94.47 94.90 95.08 95.22 95.35
91.76 91.93 91.83 91.85 91.46 91.12 90.57 89.79 89.27 89.31 89.31 89.33 89.31 89.44 89.43 89.52 89.55 89.58 90.06 92.29 92.00 92.18 91.93 91.81 92.06 91.80 91.65 90.40 90.33 90.28 90.19 90.18 90.31 90.58 90.40 90.50 91.10 92.38 93.58 93.90 93.91 94.20 94.35 94.48 94.58 94.63 94.73 94.39 94.57 94.65 94.68 94.97
89.47 88.41 88.22 88.35 88.43 88.50 88.63 88.71 88.82 89.10 89.21 89.15 89.17 89.22 89.22 89.47 89.56 89.43 89.37 89.22 89.63 91.25 91.16 90.98 90.83 91.02 90.65 90.23 91.32 90.23 90.11 90.03 90.21 90.09 90.22 90.10 90.00 90.17 90.22 90.58 91.58 92.63 93.46 94.46 94.39 94.44 94.41 94.58 94.54 94.71 94.72 94.72
87.51 87.25 86.74 86.67 86.51 86.13 85.81 85.67 85.96 87.91 88.96 88.87 88.93 88.92 88.93 89.11 89.16 89.15 89.08 89.21 89.58 89.85 90.21 90.51 90.56 90.43 90.32 90.17 90.13 90.24 90.14 90.02 90.02 90.51 89.97 89.85 89.96 90.19 90.13 90.33 90.25 90.43 90.32 90.65 90.69 91.46 92.52 93.18 94.60 94.63 94.60 94.77
84.06 84.00 84.03 84.09 84.04 84.00 83.99 83.96 84.25 87.37 88.58 88.63 88.68 88.66 88.70 88.79 88.78 88.71 88.80 89.00 89.33 89.54 89.88 90.03 90.17 90.37 90.38 90.04 89.94 89.96 89.87 89.94 90.03 89.87 89.35 89.82 89.74 89.97 90.14 89.96 90.12 90.18 90.21 90.40 90.29 90.49 90.46 90.35 90.39 90.49 93.39 94.53
83.96 83.87 83.90 84.03 83.95 84.02 84.10 84.11 84.26 87.90 88.38 88.42 88.42 88.41 88.46 88.61 88.44 88.42 88.60 88.75 89.01 89.17 89.36 89.42 89.65 89.53 89.53 89.78 89.66 89.97 89.99 89.94 89.74 89.74 89.68 89.68 89.71 89.92 89.82 90.07 90.14 90.01 89.93 90.14 89.99 90.44 90.04 89.82 89.91 90.15 90.19 90.37
83.86 84.00 83.85 83.85 83.90 83.93 84.07 83.98 84.79 88.20 88.16 88.17 88.16 88.14 88.20 88.35 88.14 88.15 88.40 88.62 88.81 88.99 89.10 89.25 89.41 89.19 89.19 89.38 89.25 89.74 90.10 90.12 90.11 90.01 89.86 89.70 89.64 89.49 89.51 89.46 89.60 89.74 89.71 89.90 89.85 89.86 89.68 89.75 89.84 90.02 90.01 89.98
83.81 83.86 83.84 83.89 84.01 83.99 83.96 83.90 85.39 87.90 87.90 87.90 87.90 87.88 87.96 88.01 87.90 87.96 88.29 88.59 88.55 88.67 88.84 89.09 89.17 89.04 89.08 89.04 88.99 90.11 89.71 89.96 89.88 89.74 89.58 89.47 89.76 88.99 89.52 89.43 89.45 89.35 89.26 89.26 89.23 89.24 89.25 89.61 89.74 89.70 89.88 89.88
83.81 83.82 83.78 83.89 84.00 84.05 83.98 83.97 85.87 87.65 87.64 87.63 87.61 87.60 87.74 87.64 87.64 87.94 88.33 88.49 88.44 88.75 88.62 88.93 89.02 89.00 88.79 88.53 88.99 89.23 89.05 88.99 88.92 89.11 88.80 88.92 88.87 89.18 89.26 89.22 89.01 89.30 89.41 89.54 89.22 89.03 88.82 88.65 88.37 88.12 87.95 87.72
83.77 83.80 83.87 83.87 83.90 84.00 84.13 84.00 86.18 87.38 87.35 87.34 87.33 87.33 87.47 87.31 87.35 87.86 88.15 88.33 88.40 88.46 88.43 88.69 88.71 89.08 88.67 88.22 88.55 88.75 88.65 88.59 88.46 88.38 88.32 88.44 88.58 88.67 89.15 88.71 88.65 88.87 88.70 89.25 89.67 89.31 89.26 89.07 89.10 87.95 87.43 87.27
83.82 83.86 83.84 83.85 83.90 83.93 84.01 83.89 86.53 87.09 87.05 87.04 87.01 87.09 87.19 87.11 87.19 87.57 88.08 88.14 88.21 88.24 88.08 88.44 87.76 88.35 87.97 87.97 88.32 88.43 88.52 88.43 88.11 88.02 88.09 88.08 88.07 87.70 88.08 88.10 88.23 88.46 88.49 88.86 89.03 89.29 88.93 89.14 88.74 88.75 88.20 87.17
83.82 83.79 83.87 83.85 83.84 83.92 83.90 83.86 86.79 86.74 86.72 86.68 86.67 86.79 86.81 86.78 87.03 87.10 87.28 87.61 87.84 87.85 87.88 88.08 88.08 88.07 88.01 87.68 87.98 88.24 88.25 87.98 87.79 87.71 87.79 87.80 87.40 87.39 87.84 87.80 87.87 87.89 88.01 88.34 88.18 89.04 88.88 88.63 88.61 88.52 88.02 87.14
83.91 84.01 83.85 83.83 83.85 83.89 83.88 84.07 86.33 86.36 86.33 86.34 86.35 86.48 86.44 86.48 86.67 86.95 86.93 87.06 87.21 87.25 87.46 87.62 87.59 87.80 87.97 87.46 87.84 87.75 87.58 87.59 87.45 87.77 87.43 87.46 87.35 87.35 87.85 87.67 87.66 87.29 87.45 87.53 87.89 87.92 88.04 88.18 88.25 88.34 87.27 87.18
85.09 85.18 84.14 83.84 83.82 83.84 83.87 84.24 86.03 85.98 85.99 86.03 86.02 86.18 86.15 86.18 86.35 86.54 86.63 86.75 86.88 86.87 87.01 87.22 87.24 87.33 87.26 87.35 87.28 87.12 87.07 87.10 87.17 87.14 87.04 87.13 87.16 86.96 87.12 87.12 87.08 87.04 87.53 87.46 87.90 87.90 87.51 87.78 88.01 88.04 87.00 87.23
84.84 85.03 85.05 84.15 83.92 83.84 83.91 84.53 85.57 85.56 85.61 85.67 85.71 85.92 85.92 85.96 86.09 86.21 86.32 86.39 86.46 86.49 86.57 86.91 86.86 86.97 86.94 87.15 87.67 87.36 87.32 87.28 86.95 86.79 86.76 86.71 86.65 86.62 86.64 86.76 86.76 86.71 86.88 86.88 87.18 87.23 87.13 87.37 87.56 87.50 87.02 87.40
84.38 84.76 84.81 84.92 82.92 84.16 83.95 85.08 85.09 85.13 85.18 85.28 85.36 85.56 85.62 85.71 85.80 85.89 85.99 86.04 86.14 86.14 86.23 86.48 86.45 86.60 86.58 87.63 87.75 87.66 87.09 87.31 86.98 87.13 87.26 86.33 86.69 86.72 86.67 86.78 86.65 86.58 86.68 86.63 86.57 86.71 86.81 86.94 87.00 87.14 87.07 86.92
82.82 82.60 83.16 84.57 84.77 84.92 84.88 85.07 84.87 84.85 84.87 84.92 85.03 85.12 85.19 85.21 85.27 85.48 85.50 85.62 85.79 85.75 85.93 86.54 86.31 86.29 86.29 86.67 86.74 86.80 86.80 87.17 86.94 87.48 87.30 86.41 86.72 86.26 86.50 86.35 86.48 86.22 86.64 86.38 86.95 87.31 87.19 86.88 87.03 86.99 87.13 87.32
83.74 82.92 82.66 82.64 84.57 84.51 84.81 84.87 84.25 84.69 84.67 84.71 84.82 84.82 84.90 84.93 84.99 85.18 85.15 85.24 85.30 85.46 85.53 86.20 86.42 86.10 85.95 86.04 86.21 86.13 86.14 86.14 86.18 86.10 85.74 85.51 85.91 85.92 86.11 86.30 86.50 86.82 86.79 86.07 85.75 86.64 87.80 85.48 86.79 86.87 87.15 87.33
85.05 83.59 83.10 82.73 84.20 84.31 84.64 84.69 84.67 84.06 84.53 84.55 84.67 84.68 84.74 84.75 84.78 84.90 84.86 84.91 85.02 85.17 85.28 85.51 85.74 85.73 85.83 85.71 85.78 85.81 85.94 85.85 85.63 85.32 85.32 85.24 85.39 85.53 85.81 86.01 85.73 85.79 85.94 85.64 85.76 86.31 86.93 86.70 86.43 86.90 86.59 88.37
85.29 85.27 84.35 83.42 82.60 84.31 84.21 84.51 84.72 84.54 84.40 84.49 84.49 84.47 84.49 84.52 84.55 84.55 84.59 84.66 84.71 85.04 85.04 85.21 85.30 85.34 85.30 85.32 85.51 85.57 85.61 85.49 85.27 85.20 85.13 84.94 85.08 85.12 84.98 85.01 84.76 85.12 85.38 85.63 85.64 85.53 85.58 85.97 86.97 86.95 86.59 88.43
84.29 85.18 85.26 84.97 83.06 82.65 84.19 84.31 84.17 84.50 84.57 84.38 84.31 84.31 84.33 84.35 84.35 84.34 84.32 84.39 84.57 84.79 84.79 83.86 85.12 85.10 85.19 85.35 84.89 84.89 85.15 85.22 84.97 85.05 84.94 84.81 84.97 84.99 84.88 84.72 84.28 84.29 84.27 84.26 84.30 84.57 85.24 85.61 86.92 87.02 87.00 87.57
84.15 84.10 84.74 85.27 85.14 84.47 82.94 82.60 83.87 84.33 84.44 84.62 84.40 83.95 84.00 84.30 84.21 84.33 84.27 84.39 84.49 84.68 84.71 83.82 84.40 84.47 84.50 84.40 84.36 84.29 84.39 84.42 84.67 84.54 84.54 84.48 84.48 84.72 84.76 84.85 84.90 84.88 84.93 85.02 84.94 85.15 85.08 85.29 86.77 86.82 87.19 85.89
83.90 83.92 83.96 84.03 85.24 85.17 85.07 84.33 83.74 82.60 82.67 83.07 84.11 84.42 84.49 84.47 84.36 84.33 84.34 84.42 84.18 84.24 84.64 84.64 84.60 84.64 84.52 84.50 84.46 84.46 84.60 84.67 84.49 84.59 84.68 84.67 84.66 84.69 84.64 84.78 84.40 84.36 84.39 84.39 85.00 85.22 85.19 85.90 86.79 85.60 88.11 86.01
83.85 83.88 83.87 83.94 83.96 85.03 85.24 85.35 85.39 85.41 84.96 84.34 83.72 83.23 82.83 82.78 82.74 82.88 83.60 84.12 84.50 84.65 84.58 84.58 84.59 84.63 84.59 84.60 84.66 84.69 84.69 84.68 84.76 84.87 84.84 84.76 84.80 84.92 84.91 85.18 84.52 84.30 84.28 84.31 84.86 85.26 85.18 87.08 86.83 86.54 88.02 86.01
85.12 83.96 83.88 83.90 83.93 83.82 83.98 83.92 83.96 84.16 84.70 85.41 85.73 85.75 85.80 85.75 85.15 84.62 84.27 83.83 83.08 82.80 82.85 82.81 83.04 83.75 84.29 84.43 84.65 84.79 84.86 84.90 84.82 84.70 84.74 84.72 84.85 84.96 84.92 85.01 85.02 84.98 84.94 85.22 85.36 85.34 85.93 87.01 86.92 86.82 86.84 86.05
85.19 85.17 84.08 83.99 83.90 83.86 83.90 83.92 83.91 83.94 83.97 83.96 83.95 84.01 84.02 84.32 85.02 86.10 86.20 86.23 86.20 86.11 86.00 85.19 84.78 84.52 83.85 83.11 82.87 82.89 82.90 82.91 82.95 82.91 83.38 83.41 82.97 82.97 83.00 83.02 83.04 83.46 84.03 84.68 85.52 85.71 85.92 86.93 86.57 86.91 85.89 85.83
84.56 84.57 84.66 85.07 85.21 85.31 85.51 85.22 84.68 84.21 83.97 83.93 83.94 83.95 84.01 83.98 84.07 83.97 84.94 86.26 86.48 86.50 86.26 86.29 86.22 86.35 86.46 86.56 86.55 86.61 86.71 86.75 86.81 86.87 86.70 86.00 86.02 86.58 87.00 86.64 85.86 84.97 84.28 83.42 83.25 83.18 83.19 83.36 83.75 84.09 84.50 85.15
84.54 84.64 85.04 85.06 85.00 85.22 85.32 85.48 85.18 85.42 85.64 85.74 85.83 85.71 84.99 84.24 84.01 84.67 86.18 86.29 86.53 86.58 86.49 86.40 86.35 86.10 85.99 86.03 86.07 86.84 86.80 86.75 86.11 85.56 85.87 86.25 86.80 87.05 87.22 87.22 87.31 87.42 87.42 87.32 87.03 86.65 87.14 86.95 85.97 86.08 83.41 83.47
84.84 84.88 84.84 84.90 85.17 85.52 85.42 85.82 86.00 85.93 85.60 85.61 85.67 85.69 85.67 86.02 86.14 86.11 86.19 86.27 86.42 86.59 86.60 86.48 86.43 86.12 86.10 86.17 86.34 87.95 87.64 86.69 84.78 84.84 84.79 84.82 84.87 84.80 85.31 85.70 86.23 86.80 87.21 87.40 87.39 87.18 87.05 86.99 86.81 86.70 86.39 84.03
85.19 85.39 84.93 84.88 85.25 85.30 85.61 85.79 85.84 85.83 86.07 85.80 85.87 86.00 85.99 86.07 86.10 86.59 86.21 86.09 86.08 86.26 86.43 86.46 86.57 86.18 86.23 86.29 86.43 88.80 87.07 86.79 84.87 84.85 84.86 84.85 84.80 84.84 84.82 84.88 84.91 84.98 84.96 86.36 87.37 86.67 87.14 86.76 86.79 86.52 86.32 86.15
85.47 84.92 84.97 85.15 85.19 85.52 85.61 85.85 86.02 86.10 86.11 85.85 85.78 85.86 85.97 86.06 86.12 86.17 86.26 86.28 86.46 86.51 86.51 86.51 86.28 86.18 86.29 86.41 86.61 88.99 86.86 86.47 84.82 84.89 85.02 84.90 84.86 84.75 84.86 84.90 84.91 84.91 85.03 84.80 85.76 87.37 87.18 87.04 86.61 86.44 86.27 86.10
84.97 85.10 85.11 85.40 85.50 85.72 86.10 86.49 86.81 86.36 86.11 86.00 85.85 85.85 85.91 86.07 86.17 86.21 86.24 86.24 86.36 86.53 86.61 86.57 86.27 86.29 86.33 86.50 86.67 88.23 86.56 85.44 84.80 84.92 84.89 84.99 84.84 84.84 84.87 84.88 84.78 84.90 84.94 86.21 87.52 87.27 87.22 87.25 86.62 86.49 86.39 86.35
85.10 85.17 85.53 85.67 85.77 86.13 86.50 86.87 86.82 86.71 86.18 86.04 85.96 85.82 85.91 86.08 86.15 86.21 86.19 86.24 86.39 86.70 86.75 86.89 86.62 86.35 86.36 86.32 86.51 86.62 86.42 85.21 84.94 84.81 84.83 84.88 84.90 84.80 84.89 84.92 84.74 84.90 85.00 87.44 87.50 87.21 87.00 86.89 86.83 86.74 86.29 86.29
85.14 85.21 85.42 85.71 85.99 86.46 86.81 87.09 87.07 86.55 86.19 85.97 85.96 85.87 85.89 86.06 86.14 86.23 86.27 86.24 86.47 86.42 86.87 86.99 86.60 86.63 86.72 87.01 86.85 86.28 86.35 86.01 84.85 84.90 84.97 84.91 84.90 84.88 84.89 84.87 84.79 84.89 85.76 87.85 87.08 87.35 87.01 86.96 87.03 87.04 86.98 86.91
85.18 85.31 85.60 85.98 86.42 86.86 86.95 87.04 86.89 86.34 86.00 85.93 86.01 85.99 85.97 86.07 86.18 86.26 86.30 86.26 86.39 86.41 86.76 86.71 86.53 86.77 86.76 87.13 86.70 86.34 86.42 86.59 86.47 85.84 85.30 84.97 84.88 84.83 84.90 84.94 84.77 84.84 86.62 87.88 87.24 87.35 87.44 87.13 87.05 87.08 87.00 87.18
85.25 85.41 85.70 86.00 86.85 87.07 87.32 87.36 86.68 86.01 85.96 86.09 86.25 85.97 86.04 86.12 86.15 86.24 86.35 86.40 86.35 86.57 87.22 87.25 86.57 86.81 87.20 86.82 86.76 86.59 86.58 86.57 86.51 86.51 87.08 87.06 86.82 86.70 85.93 84.84 84.92 84.86 87.14 87.93 87.37 87.29 87.26 87.33 87.28 87.20 87.18 87.18
85.33 85.51 85.85 86.38 87.06 87.39 87.26 87.08 86.64 86.09 86.13 86.96 86.92 86.32 86.35 85.99 86.40 86.42 87.20 86.82 87.06 87.16 86.89 86.91 86.63 86.82 86.84 86.85 87.00 86.72 86.67 86.71 86.84 87.01 87.19 87.19 87.29 87.25 87.12 84.76 84.91 85.62 87.71 87.78 87.51 87.30 87.48 87.53 87.33 87.24 87.26 87.11
85.55 86.00 85.96 86.51 87.17 87.59 87.58 86.88 86.68 86.63 86.61 87.18 87.16 86.61 86.63 86.13 86.82 86.80 87.30 87.41 87.15 87.27 87.18 86.92 86.65 86.99 86.79 86.96 86.91 86.86 86.64 86.69 86.65 87.38 87.27 87.15 87.29 87.39 87.20 84.81 85.05 86.41 87.99 87.38 87.59 87.75 87.34 87.72 87.76 87.33 87.37 87.30
85.94 85.96 86.05 86.25 86.95 87.26 87.03 86.74 86.46 86.82 86.83 86.39 84.49 86.92 86.95 86.46 86.98 86.85 87.46 87.41 87.13 87.39 87.00 86.90 86.83 87.06 87.17 87.16 86.82 86.77 86.98 87.04 87.03 87.17 87.20 87.21 87.37 87.38 86.74 84.99 85.07 86.63 87.96 87.53 87.65 87.68 87.56 87.47 87.65 87.51 87.90 87.71
85.81 85.89 85.98 86.05 86.06 86.15 86.26 86.32 86.36 86.63 86.62 87.08 85.70 86.90 86.94 86.80 86.86 87.12 87.51 87.37 87.15 87.39 87.48 86.93 87.01 87.26 87.22 87.06 86.95 86.90 87.08 87.06 87.04 87.03 87.13 87.24 87.48 87.58 86.64 85.07 85.04 86.76 87.95 87.68 87.69 87.77 87.62 87.61 87.58 87.77 87.88 87.93
86.89 85.73 85.72 86.10 86.21 86.12 86.14 86.26 86.41 86.48 86.29 86.38 86.45 86.68 86.69 86.85 86.93 87.41 87.48 87.21 87.24 87.34 87.29 86.82 87.06 87.64 87.34 87.15 87.14 87.08 87.19 87.17 87.15 87.15 87.24 87.43 87.61 87.60 86.18 85.05 84.92 88.17 87.55 87.85 87.89 87.62 87.61 87.68 87.65 87.80 87.89 87.69
