ncols 52
nrows 52
xllcorner 436736
yllcorner 5714944
cellsize 10
NODATA_value -9999
96.94 96.99 97.01 97.02 96.98 96.86 96.67 96.39 96.05 95.87 95.58 96.61 96.41 96.70 97.18 96.08 97.92 98.32 98.38 98.33 96.61 97.38 100.22 100.16 98.76 98.68 98.67 98.72 99.00 99.04 99.10 99.32 99.41 99.40 99.46 100.11 100.69 100.62 100.75 100.54 100.32 100.24 100.61 100.86 100.71 100.80 100.75 100.76 100.96 101.07 100.99 100.93
96.58 96.67 96.74 96.79 96.75 96.60 96.38 96.06 95.77 95.60 96.12 96.68 96.71 96.46 98.37 96.75 99.05 96.99 97.45 98.22 98.29 98.22 96.71 97.97 100.70 99.66 98.52 98.28 98.48 98.87 99.07 99.19 99.22 99.17 99.24 99.38 100.19 100.64 100.16 100.31 100.32 100.34 100.47 100.57 100.65 100.53 100.71 100.86 101.17 101.01 100.85 101.03
96.20 96.27 96.31 96.38 96.35 96.22 95.99 95.71 95.57 95.44 95.89 96.12 96.71 97.33 96.89 96.93 96.87 96.99 99.28 97.31 97.31 98.12 98.22 98.15 97.32 98.84 101.14 98.23 98.22 98.80 98.99 99.11 99.07 99.02 99.05 99.21 99.58 99.67 100.27 100.18 100.26 100.23 100.28 100.39 100.38 100.56 100.60 100.71 101.61 100.75 101.04 100.62
95.18 94.95 95.86 95.86 95.81 95.70 95.50 95.39 94.14 95.70 95.82 96.03 96.33 96.45 96.74 96.84 96.91 96.96 97.17 97.51 99.46 97.82 97.25 98.04 98.11 98.06 98.16 99.31 100.64 98.79 98.98 98.97 98.95 98.98 99.00 99.10 99.15 99.57 99.98 100.35 100.08 100.28 100.20 100.29 100.39 100.50 100.61 100.61 100.78 100.50 100.61 100.77
95.58 94.40 94.88 94.69 95.25 95.22 95.21 95.09 95.57 95.57 95.82 95.93 96.25 96.72 96.51 96.79 96.90 97.04 97.08 97.18 97.26 97.38 99.51 97.54 97.35 97.98 98.06 98.04 98.49 100.43 99.39 98.81 98.93 98.93 98.90 98.96 99.08 99.34 99.90 100.05 100.19 100.33 100.25 100.10 100.29 100.42 100.50 100.72 100.61 100.38 100.39 100.53
96.22 96.17 95.78 94.18 94.62 94.35 94.97 94.87 95.07 94.85 95.69 95.94 96.21 96.40 96.60 96.62 96.84 96.87 96.90 96.86 97.09 97.39 97.46 97.61 99.51 97.89 97.72 97.93 98.02 98.30 98.66 100.78 98.71 98.90 98.82 98.92 99.14 99.38 99.64 100.08 100.28 100.61 100.27 100.21 100.08 100.24 100.20 100.29 100.20 100.31 100.35 99.86
96.15 96.06 96.04 95.75 95.10 94.42 94.48 95.07 95.28 95.46 95.65 96.04 96.31 96.48 96.40 96.62 96.74 96.76 96.79 96.89 97.00 97.35 97.61 97.43 97.89 98.50 98.86 98.19 97.78 97.88 97.97 98.57 100.46 98.98 99.02 99.15 99.32 99.74 100.00 99.77 99.76 100.10 100.57 100.40 99.97 100.11 100.19 100.17 100.04 100.09 100.35 99.76
96.04 96.24 96.06 95.90 95.23 95.01 94.38 94.68 95.19 95.24 96.38 96.26 96.40 96.37 96.45 96.52 96.54 96.91 96.79 96.65 96.81 97.17 97.33 97.90 98.21 98.29 99.00 98.68 98.24 97.54 97.74 97.85 97.85 98.78 100.35 99.39 99.54 99.87 99.68 99.49 99.75 100.06 100.57 100.15 100.42 99.93 100.10 100.15 99.98 100.21 100.30 100.20
95.73 95.85 95.56 95.42 95.25 94.60 93.51 94.60 94.83 95.74 96.05 96.09 96.27 96.40 96.51 96.54 96.69 96.87 96.83 96.82 96.78 97.14 97.36 97.74 98.22 98.47 98.66 98.15 98.04 98.28 97.46 97.61 97.73 97.76 98.95 100.28 99.70 99.54 99.34 99.43 99.46 99.71 99.17 99.93 100.18 100.28 99.87 99.94 100.10 100.31 100.00 99.87
95.62 95.62 95.35 94.97 94.60 94.78 94.94 94.37 94.81 95.69 96.40 96.06 96.26 96.48 96.37 96.62 96.72 96.62 96.96 96.91 96.77 97.19 97.26 97.32 97.89 98.24 98.28 98.16 98.41 98.51 98.58 97.19 97.53 97.62 97.73 98.68 99.26 99.22 99.29 99.26 99.56 99.54 99.86 100.06 100.32 99.90 99.92 99.76 99.97 99.88 99.92 99.86
95.49 95.42 95.11 94.68 94.39 93.78 95.01 95.23 94.81 94.71 96.28 96.14 96.41 96.41 96.52 96.67 96.92 97.26 97.09 97.08 97.04 97.14 97.32 97.28 97.21 98.00 98.08 98.51 98.50 98.61 98.67 98.69 97.60 97.61 97.50 97.62 97.65 99.25 99.33 99.46 99.44 99.21 99.21 99.55 99.68 99.81 100.11 99.79 99.75 99.72 99.73 99.78
95.32 95.15 94.77 94.42 94.68 94.35 94.99 95.53 96.03 95.20 95.64 96.42 96.47 96.45 96.74 97.31 97.36 97.29 97.11 96.93 97.23 97.12 97.27 97.13 97.40 98.10 98.39 98.48 98.75 98.74 98.65 98.92 97.76 97.69 97.37 97.40 97.54 97.52 99.57 99.14 99.16 99.05 99.08 99.43 99.56 99.69 99.89 99.97 99.65 99.81 99.78 99.74
95.01 95.02 94.57 94.19 94.01 94.96 95.29 97.08 97.16 95.83 95.43 96.07 96.31 96.46 96.99 97.38 97.34 97.26 96.96 96.99 97.02 97.29 97.12 97.42 97.79 98.15 98.27 98.44 98.82 98.77 98.60 97.94 97.91 97.51 98.26 98.46 97.42 97.44 97.43 99.22 99.01 98.97 99.04 99.54 99.53 99.73 99.61 99.76 99.73 99.61 99.78 99.73
94.90 94.72 94.28 94.12 93.49 94.84 96.99 95.49 94.86 97.46 95.43 95.51 95.83 96.32 97.00 97.39 97.60 96.66 97.02 96.90 97.59 97.19 97.46 97.48 97.62 98.23 98.34 98.40 98.68 98.71 98.40 98.01 97.57 98.75 97.08 99.08 98.89 97.24 97.33 97.37 99.03 98.94 98.83 98.81 98.97 99.23 99.14 99.74 99.64 99.66 99.54 99.62
94.70 94.44 94.77 94.63 94.62 97.00 95.45 94.83 95.00 95.36 97.67 95.63 95.20 96.37 96.71 97.17 96.75 96.86 96.65 96.96 97.29 97.26 97.44 97.51 97.50 97.60 98.54 98.61 98.81 98.44 98.19 98.40 97.51 97.09 97.07 97.08 99.12 98.81 97.15 97.19 97.26 99.00 98.68 98.60 98.76 98.62 98.91 99.15 97.70 99.50 99.64 99.45
94.45 94.68 95.19 93.28 94.74 96.66 94.69 94.79 95.13 95.57 96.78 97.48 95.76 96.06 96.49 96.46 96.56 96.69 96.99 97.46 97.28 96.78 97.31 97.56 97.71 98.60 98.65 98.68 98.60 98.32 98.70 97.04 97.12 97.12 97.15 97.13 97.03 99.17 98.74 97.04 97.07 97.13 98.64 98.53 98.60 98.57 98.99 99.14 99.16 99.26 99.57 99.49
94.44 94.56 94.48 94.06 96.82 95.37 94.50 94.76 95.16 95.52 95.52 97.78 96.57 95.82 96.14 96.38 96.40 96.81 96.89 96.79 96.60 96.69 96.94 97.69 97.91 98.07 98.68 98.67 98.43 97.24 97.06 97.13 97.13 97.12 97.12 97.11 97.10 97.04 98.99 98.75 97.00 96.96 96.97 98.64 98.49 98.72 98.94 99.10 99.19 99.32 99.51 99.72
94.32 94.42 93.79 94.31 96.88 94.40 94.66 94.76 95.15 95.38 95.70 95.82 98.12 96.11 95.88 96.22 96.69 96.63 96.62 96.51 96.60 96.70 97.43 97.87 98.11 98.64 98.67 98.47 97.01 97.08 96.99 96.95 96.97 96.99 97.02 97.04 97.06 97.08 98.21 98.85 98.55 96.87 96.81 96.81 98.68 98.69 99.05 99.03 99.06 99.28 99.49 99.68
94.17 93.37 93.28 96.02 95.73 94.48 94.76 94.94 95.19 95.42 95.59 97.67 97.67 97.38 96.07 96.07 96.50 96.42 96.40 96.48 96.75 96.95 97.61 97.72 98.52 98.54 98.57 97.01 97.04 96.82 96.72 96.76 96.78 96.81 96.83 96.85 96.98 97.08 97.05 98.71 98.81 98.39 96.71 96.66 96.63 98.78 98.96 98.91 98.93 99.31 99.44 99.85
94.48 93.60 94.24 96.72 94.28 94.75 94.86 95.03 95.38 95.31 97.74 97.59 95.60 95.79 98.33 96.12 95.82 96.49 96.55 96.57 96.61 97.17 98.25 98.28 98.33 98.31 96.48 95.90 96.35 96.47 96.54 96.57 96.60 96.62 96.64 96.79 96.91 96.99 97.12 97.02 98.81 98.68 98.33 96.45 96.56 97.11 98.93 98.94 98.85 98.97 99.66 99.89
95.36 94.71 94.69 96.20 94.64 94.81 95.10 95.42 95.50 98.36 97.36 95.58 95.60 95.66 96.97 98.27 96.19 96.26 96.58 96.70 96.88 97.45 97.96 98.00 98.11 96.33 96.15 95.99 95.90 96.20 96.36 96.39 96.41 96.47 96.62 96.68 96.79 96.91 97.01 97.10 96.98 98.73 98.62 97.55 96.27 96.37 98.45 98.99 98.94 98.78 99.21 99.14
95.21 94.89 94.66 96.76 94.45 94.81 95.28 95.91 98.23 95.50 95.50 95.56 95.56 95.67 95.74 98.13 97.71 96.40 96.57 96.81 97.36 97.57 97.63 97.88 96.64 96.41 96.24 96.10 95.97 95.96 96.18 96.17 96.27 96.44 96.48 96.59 96.67 96.82 97.01 97.28 97.09 98.20 98.66 98.35 96.56 96.14 96.19 98.78 98.97 98.90 98.64 98.76
95.62 94.85 94.30 95.93 97.06 95.10 95.47 98.05 95.40 95.41 95.45 95.51 95.46 95.67 95.65 98.32 97.11 97.27 96.64 96.90 97.15 97.29 97.70 97.59 97.59 96.53 96.35 96.19 96.04 95.94 95.96 96.09 96.22 96.27 96.43 96.50 96.66 96.86 97.05 97.23 97.35 97.04 97.52 98.39 98.24 96.06 96.02 96.02 98.92 98.72 98.71 98.60
95.47 94.99 94.34 94.90 95.90 97.38 95.69 95.31 95.32 95.36 95.25 95.32 95.37 95.52 96.39 97.30 97.21 97.13 97.37 96.87 97.00 97.22 97.29 97.46 97.36 97.50 96.47 96.32 96.14 96.00 95.90 95.99 96.07 96.21 96.31 96.50 96.70 96.90 97.09 97.17 97.17 97.12 96.99 97.00 98.21 98.24 95.91 95.85 97.56 98.68 98.38 98.51
94.38 94.08 94.50 94.64 95.68 97.27 95.61 96.87 95.20 95.17 95.10 95.11 95.38 95.48 98.32 96.88 96.84 96.61 97.05 97.26 96.96 97.08 97.18 97.07 97.22 97.36 96.69 96.43 96.26 96.10 95.97 95.92 96.01 96.15 96.35 96.54 96.74 96.93 97.10 97.21 97.10 97.06 97.32 97.00 97.28 98.15 97.50 95.60 95.65 98.54 98.40 98.26
93.38 94.17 94.35 94.69 95.67 94.92 96.44 98.29 95.48 95.08 95.07 95.04 95.31 97.64 97.00 96.72 96.54 96.53 96.79 97.11 97.11 97.10 96.98 97.07 96.96 97.10 96.96 96.54 96.39 96.22 96.06 95.96 95.98 96.19 96.38 96.58 96.78 96.97 97.10 97.05 97.17 97.37 96.98 96.99 96.99 97.96 98.19 95.71 95.48 95.79 98.42 98.33
93.36 94.09 94.51 94.67 94.96 94.87 95.19 97.14 98.21 95.13 95.15 95.16 95.57 98.03 96.84 96.69 96.56 96.49 96.47 96.99 97.39 97.18 96.90 96.88 96.96 96.95 96.89 96.81 96.50 96.35 96.18 96.04 95.90 96.05 96.33 96.60 96.83 97.10 96.96 96.97 97.35 97.00 97.02 96.99 96.99 96.99 98.23 98.12 95.35 95.29 98.06 98.89
93.30 93.94 94.37 94.75 94.90 95.02 95.13 95.28 97.17 98.25 95.15 95.24 97.88 97.18 96.77 96.58 96.48 96.48 96.67 97.23 98.30 97.60 97.12 96.82 97.10 96.95 96.92 96.89 96.82 96.49 96.32 96.13 96.00 95.90 96.21 96.57 96.90 96.89 97.20 97.13 97.14 97.21 97.23 96.99 96.97 96.98 97.19 97.98 96.32 95.00 95.02 98.70
93.21 94.45 94.30 94.91 95.18 95.14 95.15 95.29 95.51 96.77 98.02 95.97 97.71 96.83 96.70 96.74 96.64 96.56 96.79 97.22 97.39 97.50 96.94 96.93 96.79 97.02 96.82 96.92 96.85 96.79 96.43 96.28 96.10 95.98 95.92 96.15 96.43 95.95 96.06 96.95 97.27 97.29 97.24 97.21 97.31 97.08 97.01 97.88 97.63 94.91 94.85 97.23
93.43 94.55 94.61 95.75 96.95 96.40 95.35 95.32 95.58 95.82 97.65 98.41 96.54 96.45 96.46 96.62 96.68 96.89 96.98 97.16 97.34 96.97 96.83 96.87 96.72 96.68 96.72 96.69 96.79 96.77 96.57 96.40 96.23 96.07 95.98 96.10 96.19 96.13 96.04 96.15 96.73 97.12 97.05 97.15 97.30 97.13 97.09 97.81 97.59 95.85 94.57 94.62
95.08 95.04 95.00 94.85 95.68 96.39 96.28 95.41 95.59 95.73 96.33 97.61 96.21 96.15 96.23 96.46 96.46 96.83 96.97 97.20 97.39 96.92 96.88 96.75 96.70 96.59 96.57 96.82 96.56 96.66 96.72 96.52 96.33 96.09 95.98 96.14 96.26 96.25 96.19 96.18 96.42 96.51 96.52 96.76 97.12 97.20 97.36 97.26 97.30 97.35 94.50 94.41
95.57 94.00 95.67 95.11 95.87 96.60 96.73 96.23 95.54 95.86 97.31 96.26 96.19 96.06 96.29 96.42 96.53 96.68 97.01 97.32 97.20 96.91 96.70 96.69 96.45 96.53 96.54 96.58 96.50 96.41 96.65 96.71 96.33 96.15 96.16 96.24 96.24 96.24 96.55 96.75 96.24 96.33 96.42 96.51 96.72 96.99 97.07 96.86 97.15 97.17 94.92 94.15
93.65 93.35 95.21 96.38 95.13 96.90 97.74 96.85 95.65 95.84 96.36 96.07 96.27 96.12 96.27 96.41 96.56 96.64 96.92 96.99 96.98 96.91 96.69 96.57 96.42 96.24 96.38 96.37 96.36 96.39 96.27 96.50 96.31 96.19 96.24 96.24 96.26 96.40 96.11 96.58 96.29 96.27 96.33 96.43 96.55 96.66 96.91 96.77 97.07 97.04 96.76 93.93
93.14 93.17 93.15 95.56 96.06 95.36 95.90 95.73 95.81 95.97 95.91 96.04 96.01 96.11 96.15 96.29 96.63 96.57 96.64 97.15 96.77 96.71 96.54 96.45 96.34 96.22 96.13 96.20 96.10 96.19 96.21 96.13 96.15 96.21 96.21 96.27 96.26 95.92 96.37 96.12 96.15 96.39 96.24 96.37 96.46 96.54 96.75 96.98 96.81 96.86 96.65 93.79
93.15 93.51 93.14 93.29 95.64 96.80 95.71 95.79 95.96 95.99 95.72 95.89 95.99 96.07 96.07 96.16 96.33 96.47 96.72 96.49 96.44 96.40 96.36 96.26 96.21 96.11 96.07 96.25 96.05 96.17 96.07 96.06 96.07 96.17 96.22 96.11 95.76 96.18 96.01 96.01 96.29 96.19 96.25 96.32 96.40 96.54 96.60 96.74 96.58 96.76 96.67 95.35
93.50 93.78 93.80 93.15 93.27 95.42 96.15 96.00 95.94 95.55 95.79 95.72 95.85 95.94 95.94 95.94 96.00 96.17 96.48 95.90 96.03 96.12 96.14 96.13 96.11 96.09 95.91 96.18 95.97 95.85 95.89 95.96 95.94 96.08 95.99 95.63 95.99 95.90 95.86 96.12 96.08 96.07 96.20 95.90 96.29 96.44 96.79 96.76 96.50 96.61 96.62 96.38
93.68 93.94 94.05 93.99 93.15 93.14 94.57 95.85 95.68 95.74 95.93 95.84 95.94 95.99 95.89 95.83 95.83 96.04 95.92 95.61 95.77 95.67 95.64 95.71 95.79 95.96 95.97 96.04 96.50 96.86 96.09 95.89 95.87 95.88 95.56 95.81 95.77 95.70 96.01 95.97 95.96 96.11 95.76 95.93 96.42 96.72 96.68 96.61 96.60 96.30 96.54 96.21
93.57 93.76 94.01 93.64 93.16 93.19 93.69 95.90 95.73 95.77 95.89 95.75 95.90 95.89 95.93 95.87 95.80 95.82 95.65 95.56 95.57 95.50 95.60 95.67 95.78 95.75 96.01 96.08 96.95 97.10 96.86 96.58 96.33 96.14 95.93 95.63 95.54 95.83 95.83 95.81 96.01 95.65 95.77 96.27 96.50 96.52 96.57 96.55 96.61 96.28 96.39 96.15
93.10 93.81 94.17 93.56 93.16 95.54 95.73 95.31 96.01 95.88 95.85 95.65 95.64 95.65 95.74 95.92 95.92 95.92 95.57 95.56 95.49 95.54 95.40 95.39 95.53 95.56 96.09 96.18 96.04 96.13 96.85 97.11 96.58 96.93 96.86 96.30 95.70 95.68 95.62 95.85 95.52 95.59 96.10 96.34 96.39 96.51 96.49 96.52 96.53 96.48 96.31 95.80
94.92 95.55 95.19 93.79 93.65 95.40 93.92 94.10 95.60 95.63 95.65 95.65 95.66 95.68 95.65 95.62 95.73 95.68 95.45 95.43 95.37 95.40 95.43 95.40 95.51 95.88 96.19 96.90 97.07 97.17 96.90 96.78 96.66 97.22 97.26 97.03 96.88 96.28 95.79 95.44 95.40 95.88 96.17 96.32 96.39 96.40 96.43 96.40 96.44 96.54 96.33 95.86
95.09 95.10 95.33 95.43 95.39 93.74 93.80 94.95 95.64 95.65 95.66 95.65 95.66 95.69 95.67 95.65 95.62 95.71 95.31 95.33 95.33 95.50 95.41 95.40 95.34 96.32 96.42 96.99 97.10 97.09 96.96 96.83 96.92 97.19 97.26 97.18 97.21 97.22 97.06 96.95 96.89 96.67 96.50 96.38 96.38 96.41 96.41 96.35 96.60 96.64 96.50 95.99
94.65 94.88 95.22 95.19 93.71 93.54 93.60 95.60 95.66 95.66 95.66 95.65 95.67 95.67 95.67 95.67 95.75 95.51 95.32 95.32 95.09 95.41 95.42 95.46 95.29 96.51 96.70 96.97 97.19 97.14 97.01 96.88 97.08 97.15 97.23 97.16 97.24 97.22 97.30 97.07 97.10 97.23 96.92 96.75 96.33 96.32 96.40 96.49 96.94 96.88 96.66 95.99
94.22 93.97 95.03 94.89 93.43 93.34 94.39 95.54 95.58 95.59 95.65 95.67 95.67 95.65 95.65 95.62 95.69 95.57 95.29 95.09 94.87 94.91 95.42 95.50 95.39 96.64 96.95 97.11 97.14 97.11 97.06 96.93 97.14 97.18 97.12 97.18 97.21 97.23 97.17 97.12 97.33 97.42 97.40 97.08 96.97 96.71 96.42 96.76 97.20 97.13 96.80 95.93
93.17 93.86 93.61 93.46 93.17 93.15 93.33 95.42 95.56 95.61 95.61 95.67 95.65 95.65 95.65 95.79 95.89 95.70 95.39 95.21 94.95 95.18 95.27 95.57 95.49 96.63 96.78 97.02 97.03 97.03 97.08 96.98 97.07 97.17 97.12 97.25 97.18 97.19 97.14 97.17 97.35 97.33 97.32 97.26 97.18 97.25 97.05 96.97 97.07 97.15 96.82 96.04
92.61 92.51 93.07 93.12 93.06 93.12 92.82 92.69 92.76 93.75 95.57 95.68 95.66 95.68 95.71 95.88 95.93 95.82 95.86 95.79 95.20 94.68 95.02 95.67 95.57 96.25 96.45 96.72 96.87 96.93 97.01 97.03 97.07 97.10 97.11 97.25 97.14 97.19 97.16 97.21 97.30 97.34 97.28 97.24 97.25 97.26 97.20 97.18 97.25 97.13 96.75 96.32
92.42 92.29 92.63 92.86 92.92 92.82 92.87 92.78 93.01 92.95 93.31 93.49 94.90 95.27 95.11 95.94 95.80 95.89 95.83 95.85 95.44 95.17 95.37 95.88 95.67 95.92 95.96 96.11 96.18 96.47 96.72 96.88 96.95 97.06 97.09 97.22 97.10 97.22 97.19 97.25 97.32 97.29 97.25 97.22 97.26 97.27 97.20 97.31 97.08 97.01 96.58 96.45
91.73 92.45 92.54 92.32 92.79 92.88 92.73 92.69 92.76 93.10 92.93 93.04 93.42 93.69 93.57 93.07 95.52 94.61 95.18 95.47 95.83 95.61 95.35 95.72 95.81 95.74 95.98 95.94 95.90 96.00 96.07 96.17 96.35 96.59 96.86 96.97 97.05 97.24 97.22 97.26 97.37 97.24 97.36 97.29 97.29 97.25 97.25 97.21 96.75 96.35 96.14 96.62
91.12 91.38 91.49 92.07 92.57 92.65 92.28 92.81 92.69 92.65 92.67 92.75 92.82 92.89 92.86 92.66 93.16 94.00 94.51 94.84 95.26 95.68 95.74 95.72 95.74 95.67 95.98 95.91 95.97 95.92 95.78 95.85 95.96 96.01 96.25 96.40 96.82 96.88 96.98 97.22 97.29 97.29 97.31 97.35 97.30 97.21 97.27 97.01 96.54 96.07 96.80 96.76
91.16 91.45 91.54 91.49 91.50 91.91 92.56 92.75 92.75 92.69 92.84 92.67 92.70 92.69 92.72 92.62 92.78 93.40 93.83 94.21 94.63 95.06 95.48 95.76 95.71 95.68 95.82 95.76 95.76 95.89 95.68 95.64 95.78 95.92 96.12 96.21 96.19 96.46 96.83 96.80 96.90 97.00 97.21 97.31 97.29 97.32 97.29 96.82 96.42 96.38 96.96 96.82
90.98 90.99 91.35 91.19 91.47 91.74 91.77 91.64 91.94 92.82 92.87 92.89 93.04 92.90 92.79 92.71 92.75 92.80 93.16 93.58 94.01 94.43 95.06 95.63 95.65 95.74 95.73 95.63 95.57 95.67 95.75 95.75 95.83 95.96 96.00 96.03 96.01 95.96 95.96 96.10 96.35 96.57 96.83 96.93 97.03 97.29 97.13 96.98 96.80 96.97 96.89 96.75
90.72 90.77 90.93 91.01 91.24 91.41 91.51 91.71 91.84 92.14 91.47 92.31 92.89 92.96 92.71 92.79 94.38 92.84 92.83 92.94 93.32 93.82 94.87 95.35 95.36 95.48 95.58 95.35 95.39 95.61 95.82 95.58 95.76 95.84 95.86 95.94 95.95 95.81 95.78 95.88 95.99 96.08 96.15 96.33 96.60 96.85 96.96 97.03 97.15 97.08 96.86 96.68
90.53 90.59 90.71 90.74 90.89 91.07 91.18 91.47 91.40 91.54 91.67 91.83 92.05 91.73 92.56 93.01 93.03 93.27 94.58 94.04 92.85 92.90 93.46 95.11 95.05 93.90 94.29 92.57 91.69 92.67 94.56 95.58 95.68 95.94 95.73 95.73 95.86 95.90 95.77 95.74 95.81 95.97 96.01 96.12 96.14 96.23 96.38 96.88 96.85 96.96 96.80 96.65
