ncols 52
nrows 52
xllcorner 436736
yllcorner 5716992
cellsize 10
NODATA_value -9999
89.83 89.89 89.72 89.62 89.43 89.24 89.06 88.89 88.74 88.57 88.39 88.23 88.11 87.98 87.93 87.83 87.68 87.49 87.29 87.11 86.07 85.55 86.43 86.79 84.57 83.44 84.74 85.14 86.01 86.34 85.73 85.48 85.18 83.65 84.40 85.00 85.18 86.15 86.28 86.50 86.50 86.45 86.51 86.80 86.88 86.91 86.74 86.80 86.94 86.81 86.85 86.83
89.76 89.65 89.61 89.42 89.29 89.07 88.88 88.68 88.51 88.35 88.19 88.04 87.91 87.80 87.70 87.63 87.50 87.32 87.12 86.97 86.53 85.26 85.25 85.07 83.12 84.71 85.40 85.85 86.42 86.65 86.21 86.10 85.74 85.28 85.11 85.39 86.03 85.88 86.29 86.48 86.54 86.42 86.74 87.03 87.01 87.06 87.03 87.03 86.93 86.94 86.99 86.92
89.61 89.50 89.35 89.26 89.08 88.91 88.69 88.49 88.31 88.15 87.96 87.83 87.75 87.60 87.49 87.39 87.26 87.25 87.10 86.74 85.14 85.24 85.18 85.12 85.17 85.08 85.60 85.87 86.53 86.75 86.88 86.75 86.75 86.23 86.31 86.34 87.07 86.34 86.39 86.62 86.62 87.01 87.04 87.43 87.32 87.21 87.18 87.12 87.01 87.18 87.09 87.04
89.46 89.29 89.16 88.99 88.89 88.72 88.53 88.30 88.15 87.96 87.81 87.65 87.54 87.45 87.32 87.25 87.14 86.96 84.95 85.36 85.10 83.46 84.49 84.79 85.26 85.50 85.99 86.29 86.61 86.89 87.44 87.12 87.10 87.03 86.94 86.83 86.79 86.61 87.00 86.94 87.32 87.43 87.50 87.40 87.39 87.33 87.29 87.21 87.25 87.26 87.21 87.27
89.32 89.10 88.92 88.74 88.61 88.52 88.39 88.15 87.96 87.80 87.65 87.52 87.36 87.32 87.28 87.02 86.16 85.31 84.40 84.46 84.72 84.95 84.97 85.14 85.00 85.40 85.86 86.65 86.78 86.96 87.46 87.52 87.39 87.39 87.30 87.15 86.92 86.74 87.57 87.29 87.59 87.62 87.57 87.55 87.44 87.50 87.37 87.39 87.41 87.32 87.40 87.41
89.08 88.92 88.70 88.53 88.41 88.26 88.21 88.07 87.81 87.66 87.50 87.35 87.27 87.22 87.04 85.38 85.34 84.61 85.32 85.18 85.16 85.38 85.51 85.44 85.35 85.41 85.71 86.82 87.10 87.35 87.59 87.66 87.66 87.66 87.42 87.15 86.93 86.69 87.04 87.45 87.72 87.78 87.67 87.71 87.53 87.60 87.51 87.56 87.49 87.59 87.59 87.57
88.90 88.68 88.52 88.37 88.17 88.05 87.99 87.88 87.79 87.53 87.34 87.24 87.10 85.67 85.38 83.87 85.29 85.50 85.68 85.86 85.82 85.94 85.82 85.49 85.45 85.72 85.86 86.04 87.68 87.81 87.79 87.83 87.79 87.97 87.34 87.16 86.94 87.64 87.59 87.46 87.71 87.83 87.81 87.76 87.66 87.70 87.67 87.65 87.71 87.67 87.60 87.64
88.67 88.48 88.35 88.17 88.00 87.87 87.79 87.75 87.60 87.48 87.24 87.07 85.44 85.24 85.15 85.36 85.76 85.89 86.00 86.03 86.59 86.42 86.14 85.74 85.69 86.14 86.26 86.37 86.70 87.96 87.86 87.84 87.79 87.50 87.28 87.43 87.83 87.99 87.89 87.82 87.71 87.91 87.89 87.86 87.88 88.00 87.91 87.88 87.81 87.81 87.82 87.79
88.53 88.31 88.15 88.01 87.88 87.75 87.62 87.54 87.44 87.28 87.07 85.81 85.54 85.59 85.66 85.62 85.93 86.04 86.15 86.29 86.53 86.94 86.97 86.55 86.25 86.36 86.65 86.64 86.52 87.89 87.86 87.69 87.57 87.44 87.73 88.10 87.99 88.00 88.00 87.98 87.95 88.06 88.01 88.05 87.94 88.01 87.94 87.88 87.93 88.00 87.98 87.92
88.34 88.18 87.98 87.87 87.76 87.64 87.51 87.38 87.24 87.01 86.72 85.76 85.64 85.63 85.66 85.71 85.87 86.12 86.29 87.12 86.47 87.04 87.45 87.15 86.70 86.68 86.74 86.61 86.66 87.13 87.50 87.81 87.64 87.86 87.93 88.04 88.06 88.10 88.12 88.13 88.14 88.20 88.25 88.21 88.16 88.03 88.10 88.12 88.07 88.18 88.10 88.02
88.15 87.99 87.89 87.75 87.64 87.53 87.40 87.21 87.01 86.78 85.85 84.38 86.21 85.37 85.59 85.82 85.96 86.18 86.40 86.50 86.71 86.81 87.01 87.33 87.93 88.21 88.31 88.42 88.05 87.05 88.02 88.14 87.96 88.07 88.12 88.12 88.15 88.17 88.25 88.26 88.29 88.25 88.36 88.33 88.24 88.26 88.24 88.23 88.21 88.25 88.23 88.18
87.97 87.86 87.76 87.61 87.50 87.39 87.21 87.02 86.74 85.68 84.67 86.80 86.79 86.09 85.59 86.02 86.14 86.32 86.42 86.60 87.21 87.41 87.56 88.06 87.90 88.20 88.34 88.38 88.41 87.18 88.17 88.29 88.16 88.23 88.20 88.15 88.22 88.29 88.37 88.37 88.46 88.47 88.41 88.36 88.40 88.40 88.36 88.40 88.42 88.40 88.46 88.37
87.82 87.71 87.60 87.49 87.37 87.18 86.99 86.71 85.48 85.13 86.29 87.08 87.30 86.86 86.00 86.23 86.32 86.56 87.49 87.69 87.83 87.65 87.74 87.87 87.90 88.08 88.29 88.41 88.46 87.03 87.63 88.31 88.30 88.25 88.31 88.31 88.35 88.49 88.52 88.51 88.40 88.46 88.49 88.53 88.52 88.57 88.55 88.56 88.59 88.58 88.64 88.55
87.69 87.57 87.45 87.33 87.16 86.97 86.63 85.40 85.24 86.28 87.10 87.34 87.35 87.08 86.70 86.64 87.32 87.53 87.65 88.01 87.89 87.78 87.78 87.88 87.93 88.14 88.38 88.50 88.55 88.58 87.76 88.26 88.38 88.25 88.49 88.56 88.58 88.46 88.36 88.49 88.52 88.57 88.61 88.66 88.67 88.74 88.75 88.74 88.77 88.75 88.75 88.58
87.53 87.41 87.24 87.05 86.80 86.49 85.67 84.94 86.76 87.25 87.46 87.29 87.26 87.20 87.30 87.43 87.59 87.68 87.74 88.01 87.94 87.93 87.94 88.05 88.11 88.19 88.39 88.52 88.59 88.61 87.83 88.30 88.46 88.49 88.50 88.49 88.50 88.49 88.54 88.60 88.64 88.65 88.76 88.82 88.81 88.85 88.89 88.93 88.91 88.94 88.89 88.93
87.38 87.18 86.91 86.64 86.38 85.91 84.36 86.91 87.01 87.12 87.12 87.10 87.29 87.42 87.51 87.56 87.68 87.78 87.86 87.95 88.02 88.10 88.19 88.20 88.29 88.30 88.43 88.54 88.65 88.74 87.72 87.99 88.51 88.43 88.50 88.57 88.61 88.60 88.66 88.70 88.76 88.82 88.87 88.92 88.94 88.97 89.03 89.07 89.08 89.10 89.09 89.06
87.18 86.89 86.58 86.27 85.96 85.95 86.75 86.71 86.67 86.93 87.16 87.32 87.41 87.48 87.57 87.67 87.78 87.84 87.96 88.09 88.18 88.26 88.29 88.36 88.40 88.33 88.46 88.56 88.70 88.80 88.83 88.18 88.54 88.65 88.64 88.65 88.67 88.71 88.75 88.80 88.89 88.93 88.98 89.02 89.10 89.11 89.17 89.22 89.24 89.26 89.25 89.18
86.93 86.60 85.88 85.85 86.01 86.46 86.54 86.70 86.87 87.11 87.24 87.39 87.54 87.61 87.69 87.78 87.89 87.99 88.12 88.23 88.32 88.38 88.43 88.46 88.48 88.50 88.51 88.60 88.72 88.86 88.81 88.18 88.54 88.81 88.74 88.78 88.79 88.81 88.83 88.93 88.99 89.02 89.07 89.13 89.22 89.24 89.29 89.35 89.36 89.37 89.40 89.33
86.63 86.31 85.81 86.15 86.51 86.60 86.78 86.88 87.10 87.25 87.39 87.52 87.65 87.76 87.82 87.90 88.02 88.13 88.24 88.32 88.37 88.43 88.46 88.51 88.57 88.64 88.61 88.69 88.79 88.93 88.88 88.33 88.25 88.90 88.86 88.86 88.88 88.93 88.94 89.02 89.09 89.16 89.23 89.26 89.34 89.39 89.44 89.48 89.52 89.52 89.56 89.50
86.35 85.81 86.39 86.53 86.74 86.84 86.97 87.12 87.28 87.44 87.50 87.63 87.76 87.88 87.94 88.00 88.10 88.16 88.27 88.34 88.44 88.44 88.52 88.54 88.57 88.68 88.64 88.76 88.85 88.93 88.98 88.88 88.46 88.90 89.00 88.99 89.04 89.04 89.13 89.14 89.22 89.31 89.33 89.40 89.45 89.54 89.56 89.65 89.68 89.68 89.72 89.68
85.76 85.76 86.59 86.78 86.92 87.07 87.21 87.29 87.43 87.55 87.62 87.73 87.84 87.93 88.01 88.04 88.12 88.20 88.29 88.36 88.46 88.50 88.57 88.62 88.63 88.67 88.75 88.80 88.86 88.93 89.01 88.97 88.47 88.54 89.14 89.12 89.14 89.19 89.21 89.28 89.39 89.43 89.49 89.51 89.62 89.68 89.75 89.81 89.86 89.87 89.90 89.90
85.65 86.66 86.85 86.91 87.10 87.24 87.32 87.42 87.53 87.65 87.74 87.82 87.88 88.01 88.04 88.10 88.15 88.25 88.34 88.44 88.50 88.56 88.63 88.67 88.68 88.71 88.84 88.83 88.91 88.97 89.05 89.10 88.80 88.60 89.21 89.21 89.26 89.32 89.38 89.44 89.52 89.58 89.65 89.71 89.79 89.88 89.96 90.04 90.09 90.17 90.16 90.12
86.68 86.86 86.94 87.10 87.25 87.37 87.43 87.54 87.61 87.75 87.81 87.88 87.92 88.02 88.09 88.15 88.23 88.28 88.38 88.49 88.58 88.60 88.64 88.71 88.70 88.77 88.91 88.85 88.96 89.02 89.11 89.19 89.13 88.79 89.22 89.35 89.36 89.45 89.53 89.65 89.69 89.79 89.87 89.96 90.01 90.11 90.24 90.26 90.38 90.42 90.42 90.29
86.88 86.98 87.13 87.24 87.35 87.46 87.54 87.60 87.68 87.76 87.90 87.93 87.98 88.06 88.14 88.19 88.25 88.31 88.39 88.51 88.57 88.65 88.70 88.80 88.83 88.87 88.95 88.99 89.01 89.08 89.16 89.25 89.21 88.77 88.71 89.48 89.51 89.61 89.71 89.79 89.90 90.01 90.13 90.22 90.28 90.35 90.43 90.50 90.53 90.60 90.60 90.49
87.00 87.10 87.25 87.35 87.44 87.52 87.59 87.67 87.74 87.83 87.93 87.99 88.01 88.08 88.14 88.19 88.26 88.31 88.43 88.53 88.65 88.70 88.81 88.90 88.97 88.99 89.04 89.08 89.07 89.15 89.21 89.30 89.31 89.17 88.99 89.57 89.68 89.78 89.89 90.01 90.13 90.23 90.32 90.41 90.46 90.52 90.57 90.65 90.69 90.73 90.76 90.69
87.16 87.24 87.31 87.44 87.52 87.60 87.67 87.73 87.79 87.88 87.96 88.00 88.06 88.08 88.16 88.22 88.32 88.36 88.46 88.60 88.70 88.80 88.88 89.00 89.06 89.08 89.05 89.13 89.12 89.21 89.27 89.35 89.43 89.38 89.18 89.66 89.87 89.97 90.10 90.20 90.28 90.37 90.48 90.55 90.63 90.65 90.72 90.80 90.81 90.91 90.92 90.88
87.28 87.38 87.43 87.50 87.55 87.63 87.75 87.79 87.83 87.89 87.96 88.05 88.10 88.17 88.22 88.30 88.34 88.44 88.51 88.64 88.76 88.86 88.94 89.04 89.11 89.12 89.13 89.09 89.22 89.27 89.35 89.43 89.56 89.56 89.11 88.99 90.06 90.11 90.24 90.35 90.39 90.47 90.55 90.67 90.75 90.84 90.88 90.94 90.98 91.03 91.06 91.04
87.37 87.46 87.51 87.53 87.54 87.66 87.75 87.84 87.86 87.94 88.02 88.10 88.16 88.22 88.27 88.35 88.42 88.52 88.60 88.66 88.83 88.92 88.99 89.07 89.15 89.18 89.18 89.21 89.32 89.32 89.43 89.52 89.68 89.78 89.74 89.36 90.09 90.24 90.36 90.46 90.54 90.62 90.71 90.81 90.92 90.99 91.03 91.09 91.15 91.15 91.19 91.20
87.43 87.51 87.54 87.54 87.57 87.68 87.81 87.90 87.94 87.99 88.06 88.16 88.25 88.32 88.38 88.40 88.49 88.57 88.66 88.76 88.86 88.97 89.03 89.10 89.18 89.24 89.26 89.26 89.41 89.37 89.52 89.65 89.79 89.96 89.97 89.55 90.22 90.39 90.50 90.60 90.68 90.77 90.85 90.99 91.08 91.16 91.20 91.26 91.31 91.29 91.35 91.36
87.46 87.53 87.57 87.60 87.64 87.72 87.85 87.95 87.99 88.07 88.14 88.23 88.30 88.39 88.44 88.50 88.57 88.65 88.73 88.81 88.93 89.01 89.11 89.14 89.22 89.29 89.35 89.40 89.39 89.51 89.61 89.74 89.88 90.05 90.14 89.43 89.35 90.54 90.62 90.75 90.85 90.94 91.01 91.12 91.23 91.32 91.38 91.41 91.45 91.47 91.49 91.51
87.52 87.59 87.64 87.68 87.69 87.78 87.88 88.02 88.04 88.12 88.19 88.28 88.39 88.46 88.52 88.58 88.66 88.73 88.83 88.88 88.94 89.05 89.17 89.21 89.29 89.38 89.43 89.48 89.55 89.67 89.72 89.85 89.98 90.14 90.28 90.25 89.72 90.61 90.75 90.91 91.02 91.10 91.19 91.31 91.39 91.52 91.56 91.57 91.60 91.62 91.60 91.63
87.57 87.61 87.71 87.74 87.78 87.81 87.93 88.06 88.15 88.19 88.25 88.34 88.44 88.55 88.58 88.69 88.71 88.80 88.89 88.99 89.04 89.14 89.24 89.25 89.36 89.43 89.55 89.55 89.70 89.79 89.82 89.96 90.12 90.25 90.42 90.45 89.90 90.76 90.95 91.07 91.21 91.32 91.37 91.46 91.59 91.67 91.70 91.74 91.77 91.78 91.72 91.73
87.65 87.65 87.75 87.80 87.86 87.91 87.98 88.13 88.19 88.29 88.33 88.43 88.51 88.58 88.69 88.75 88.84 88.90 89.02 89.03 89.13 89.23 89.33 89.39 89.41 89.52 89.61 89.71 89.80 89.85 89.95 90.10 90.25 90.38 90.57 90.64 89.73 89.66 91.16 91.25 91.40 91.49 91.57 91.62 91.73 91.82 91.87 91.92 91.90 91.89 91.85 91.81
87.68 87.75 87.81 87.87 87.94 87.97 88.04 88.13 88.29 88.33 88.38 88.48 88.60 88.69 88.81 88.87 88.91 89.02 89.09 89.19 89.20 89.32 89.41 89.49 89.56 89.63 89.74 89.82 89.90 90.00 90.13 90.23 90.40 90.54 90.71 90.86 90.83 90.17 91.23 91.44 91.57 91.68 91.76 91.79 91.87 91.95 92.06 92.04 92.02 92.00 91.97 91.89
87.75 87.80 87.88 87.93 88.02 88.05 88.08 88.20 88.33 88.42 88.48 88.60 88.67 88.79 88.89 88.97 89.02 89.09 89.18 89.28 89.37 89.45 89.57 89.61 89.68 89.73 89.84 89.96 90.03 90.15 90.30 90.38 90.58 90.73 90.88 91.07 91.09 90.35 91.44 91.65 91.75 91.86 91.95 91.99 92.03 92.12 92.18 92.16 92.13 92.07 92.05 91.93
87.81 87.90 87.93 88.03 88.08 88.16 88.20 88.28 88.39 88.48 88.58 88.67 88.80 88.85 88.99 89.07 89.14 89.23 89.32 89.44 89.53 89.64 89.70 89.75 89.79 89.86 89.97 90.10 90.19 90.31 90.42 90.57 90.76 90.93 91.07 91.26 91.33 90.15 90.17 91.79 91.90 92.07 92.10 92.14 92.15 92.23 92.25 92.25 92.21 92.13 92.06 91.96
87.90 87.98 88.05 88.11 88.19 88.21 88.29 88.34 88.46 88.57 88.66 88.74 88.86 88.99 89.09 89.22 89.27 89.39 89.47 89.61 89.70 89.77 89.85 89.86 89.92 90.00 90.13 90.29 90.40 90.52 90.69 90.83 90.93 91.13 91.26 91.43 91.56 91.51 90.67 91.83 92.01 92.18 92.25 92.26 92.30 92.31 92.32 92.32 92.26 92.18 92.04 91.93
87.97 88.06 88.08 88.17 88.24 88.35 88.39 88.45 88.51 88.68 88.76 88.86 88.95 89.07 89.25 89.35 89.46 89.55 89.64 89.74 89.82 89.89 89.96 90.06 90.12 90.19 90.27 90.43 90.57 90.74 90.92 91.04 91.09 91.27 91.44 91.58 91.73 91.79 90.85 91.89 92.14 92.22 92.32 92.36 92.36 92.38 92.36 92.32 92.23 92.13 91.94 91.84
88.01 88.11 88.19 88.25 88.34 88.41 88.51 88.56 88.65 88.73 88.88 88.97 89.10 89.23 89.39 89.54 89.60 89.72 89.72 89.83 89.91 90.01 90.10 90.21 90.27 90.35 90.46 90.60 90.75 90.89 91.05 91.15 91.25 91.43 91.61 91.74 91.95 92.03 90.61 90.69 92.15 92.27 92.39 92.42 92.38 92.33 92.29 92.24 92.12 92.09 92.04 91.99
88.12 88.15 88.28 88.33 88.45 88.51 88.60 88.69 88.72 88.84 88.98 89.10 89.23 89.40 89.54 89.66 89.74 89.80 89.84 89.92 90.03 90.11 90.24 90.38 90.49 90.53 90.67 90.79 90.96 91.09 91.20 91.37 91.50 91.60 91.83 91.97 92.15 92.29 92.22 91.20 92.07 92.25 92.35 92.37 92.31 92.24 92.29 92.27 92.22 92.23 92.11 91.71
88.14 88.26 88.34 88.42 88.50 88.62 88.68 88.79 88.85 88.92 89.11 89.25 89.41 89.54 89.64 89.73 89.84 89.90 89.94 90.03 90.15 90.25 90.38 90.54 90.67 90.76 90.88 91.01 91.13 91.31 91.39 91.56 91.74 91.82 92.03 92.19 92.29 92.41 92.38 91.32 92.04 92.27 92.35 92.41 92.46 92.44 92.41 92.18 92.27 92.13 92.14 92.01
88.26 88.31 88.40 88.48 88.58 88.65 88.79 88.90 88.97 89.08 89.25 89.39 89.50 89.60 89.69 89.82 89.93 90.03 90.09 90.19 90.30 90.44 90.56 90.69 90.86 90.98 91.12 91.21 91.39 91.55 91.69 91.80 91.89 91.99 92.18 92.34 92.39 92.47 92.42 90.90 91.31 92.33 92.49 92.46 92.08 92.56 92.49 92.46 92.41 92.36 92.26 92.12
88.31 88.40 88.47 88.56 88.65 88.79 88.90 89.04 89.13 89.24 89.33 89.46 89.58 89.67 89.80 89.93 90.08 90.15 90.24 90.35 90.47 90.58 90.73 90.85 91.02 91.24 91.36 91.52 91.66 91.79 91.91 92.00 92.06 92.15 92.26 92.43 92.48 92.54 92.53 92.30 91.71 92.30 92.96 92.87 92.83 92.72 92.63 92.54 92.44 92.38 92.29 92.19
88.40 88.49 88.55 88.67 88.78 88.89 89.03 89.12 89.26 89.36 89.42 89.54 89.70 89.77 89.90 90.06 90.18 90.33 90.41 90.51 90.60 90.77 90.89 91.04 91.26 91.47 91.66 91.77 91.85 91.92 92.03 92.10 92.21 92.28 92.32 92.48 92.57 92.62 92.62 92.50 91.81 92.59 92.98 92.91 92.88 92.78 92.69 92.61 92.53 92.44 92.35 92.25
88.51 88.61 88.68 88.78 88.88 89.00 89.14 89.24 89.40 89.50 89.57 89.68 89.79 89.90 90.02 90.19 90.32 90.45 90.56 90.65 90.79 90.96 91.14 91.30 91.46 91.62 91.81 91.93 92.01 92.06 92.13 92.18 92.26 92.32 92.43 92.57 92.67 92.71 92.73 92.66 91.42 91.85 92.95 92.93 92.93 92.86 92.75 92.65 92.52 92.46 92.40 92.33
88.59 88.68 88.79 88.87 88.96 89.14 89.24 89.36 89.50 89.60 89.71 89.78 89.94 90.01 90.15 90.25 90.42 90.58 90.75 90.88 91.00 91.17 91.32 91.50 91.60 91.76 91.87 92.03 92.08 92.17 92.24 92.30 92.38 92.50 92.58 92.62 92.76 92.82 92.82 92.79 92.58 92.04 93.00 92.90 92.89 92.88 92.77 92.69 92.64 92.55 92.45 92.38
88.68 88.81 88.89 88.99 89.10 89.22 89.36 89.48 89.61 89.75 89.88 89.94 90.03 90.18 90.29 90.46 90.61 90.78 90.96 91.09 91.20 91.37 91.51 91.64 91.74 91.84 92.01 92.12 92.24 92.30 92.38 92.45 92.48 92.58 92.67 92.69 92.81 92.89 92.90 92.92 92.74 92.04 92.01 92.93 92.93 92.92 92.85 92.75 92.67 92.63 92.50 92.46
88.81 88.91 89.00 89.10 89.21 89.33 89.43 89.60 89.66 89.84 90.00 90.11 90.24 90.36 90.49 90.62 90.80 90.94 91.15 91.26 91.40 91.50 91.66 91.81 91.92 91.99 92.09 92.20 92.35 92.44 92.50 92.62 92.59 92.62 92.68 92.72 92.84 92.98 92.97 92.93 92.85 92.61 92.24 92.90 92.89 92.92 92.91 92.84 92.74 92.70 92.62 92.55
88.95 89.01 89.12 89.22 89.32 89.43 89.57 89.69 89.88 90.03 90.22 90.34 90.46 90.58 90.69 90.81 91.00 91.11 91.29 91.44 91.58 91.71 91.82 91.98 92.06 92.11 92.21 92.31 92.44 92.51 92.61 92.69 92.75 92.81 92.92 92.95 93.21 93.00 92.92 92.99 92.88 92.88 92.33 92.75 92.96 92.97 92.93 92.89 92.82 92.74 92.68 92.58
89.00 89.10 89.19 89.31 89.46 89.58 89.72 89.89 90.04 90.23 90.44 90.61 90.68 90.78 90.86 91.01 91.16 91.32 91.47 91.62 91.75 91.86 91.94 92.06 92.19 92.21 92.29 92.41 92.52 92.66 92.76 92.89 92.97 92.94 92.86 92.94 93.02 93.00 92.99 92.96 92.90 92.90 92.35 92.40 92.91 92.91 92.96 92.92 92.86 92.82 92.78 92.74
89.10 89.28 89.34 89.48 89.61 89.75 89.94 90.13 90.32 90.48 90.62 90.77 90.87 90.96 91.08 91.16 91.34 91.47 91.63 91.78 91.88 91.99 92.03 92.17 92.28 92.36 92.49 92.62 92.63 92.92 92.79 92.83 92.88 92.93 92.96 92.99 92.97 92.96 92.97 92.94 92.88 92.87 92.87 92.59 92.92 92.78 92.99 93.02 93.01 92.95 92.92 92.78
89.30 89.37 89.49 89.67 89.85 90.02 90.18 90.35 90.50 90.62 90.76 90.88 91.01 91.13 91.24 91.35 91.51 91.64 91.75 91.92 92.05 92.13 92.19 92.32 92.49 92.57 92.59 92.58 92.70 92.82 92.85 92.90 92.91 92.91 92.96 92.96 92.92 92.93 92.95 92.93 92.91 92.84 92.86 92.72 92.37 92.99 93.07 93.11 92.99 92.93 92.85 92.78
