ncols 52
nrows 52
xllcorner 436736
yllcorner 5716480
cellsize 10
NODATA_value -9999
89.34 89.36 89.54 89.73 89.90 90.09 90.21 90.40 90.51 90.65 90.76 90.89 91.05 91.17 91.28 91.39 91.51 91.64 91.80 91.96 92.06 92.15 92.26 92.41 92.42 92.60 92.50 92.56 92.72 92.82 92.88 92.90 92.90 92.92 92.97 92.93 92.91 92.92 92.96 92.94 92.92 92.85 92.86 92.74 92.68 92.93 93.08 93.09 92.97 92.92 92.85 92.81
89.28 89.58 89.76 89.97 90.14 90.24 90.40 90.52 90.64 90.74 90.89 91.01 91.18 91.29 91.36 91.51 91.68 91.85 91.99 92.13 92.25 92.43 92.47 92.44 92.45 92.51 92.56 92.62 92.74 92.81 92.86 92.88 92.90 92.93 92.93 92.91 92.91 92.91 92.94 92.93 92.93 92.89 92.86 92.82 92.87 93.07 93.03 93.08 93.09 93.04 92.96 92.93
89.34 89.69 89.94 90.11 90.21 90.37 90.50 90.64 90.74 90.84 90.96 91.09 91.39 91.43 91.60 91.73 91.95 91.94 92.32 92.24 92.26 92.32 92.36 92.42 92.46 92.50 92.58 92.62 92.73 92.83 92.89 92.91 92.93 92.93 92.93 92.92 92.94 92.96 92.94 92.95 92.94 92.95 92.93 92.92 92.74 93.01 93.10 93.22 93.23 93.14 93.07 93.04
89.32 89.83 90.01 90.19 90.35 90.46 90.58 90.73 90.87 91.01 91.15 91.30 91.50 91.68 91.85 92.08 92.28 92.08 92.16 92.29 92.32 92.35 92.39 92.46 92.49 92.54 92.55 92.61 92.71 92.84 92.89 92.91 92.88 92.89 92.89 92.92 92.96 92.98 92.99 93.01 93.06 93.04 93.03 93.05 92.92 93.10 93.14 93.32 93.31 93.24 93.17 93.13
89.20 89.82 90.06 90.27 90.35 90.61 90.76 90.89 91.04 91.28 91.36 91.63 91.74 91.68 91.78 91.97 92.12 92.21 92.22 92.32 92.37 92.40 92.46 92.48 92.51 92.50 92.50 92.56 92.68 92.81 92.87 92.88 92.87 92.89 92.93 92.98 93.01 93.03 93.06 93.05 93.03 93.04 93.02 93.08 93.07 93.11 93.26 93.32 93.39 93.33 93.26 93.21
89.64 89.77 90.17 90.40 90.57 90.82 90.99 91.17 91.29 91.35 91.39 91.52 91.63 91.78 91.89 92.01 92.25 92.20 92.41 92.36 92.41 92.42 92.48 92.51 92.54 92.51 92.53 92.59 92.68 92.78 92.85 92.88 92.93 92.97 92.99 93.00 92.97 93.00 93.01 93.02 93.04 93.04 93.07 93.08 93.11 93.02 93.09 93.42 93.46 93.41 93.36 93.31
89.92 89.86 90.24 90.55 90.84 90.96 90.98 91.09 91.21 91.36 91.46 91.61 91.71 91.83 91.91 92.08 92.27 92.25 92.44 92.39 92.44 92.46 92.50 92.54 92.54 92.54 92.56 92.63 92.69 92.79 92.89 92.91 92.91 92.88 92.92 92.92 92.96 92.98 93.00 93.02 93.03 93.06 93.10 93.13 93.18 93.01 93.38 93.49 93.60 93.52 93.45 93.43
90.31 90.18 90.39 90.53 90.76 90.92 91.07 91.19 91.29 91.39 91.52 91.61 91.72 91.86 91.96 92.11 92.24 92.39 92.49 92.44 92.47 92.50 92.54 92.55 92.57 92.60 92.63 92.65 92.69 92.75 92.83 92.89 92.85 92.87 92.87 92.94 92.95 92.97 92.99 93.03 93.03 93.07 93.07 93.10 93.15 93.21 93.48 93.65 93.67 93.62 93.58 93.57
90.32 89.24 90.33 90.58 90.82 90.95 91.09 91.20 91.33 91.42 91.54 91.64 91.72 91.86 92.00 92.15 92.31 92.43 92.44 92.53 92.51 92.55 92.57 92.60 92.61 92.61 92.63 92.67 92.68 92.74 92.79 92.85 92.89 92.83 92.86 92.89 92.92 92.94 92.99 93.00 93.08 93.10 93.14 93.16 93.19 93.27 93.48 93.71 93.78 93.74 93.71 93.70
90.53 89.85 90.31 90.57 90.78 90.98 91.13 91.21 91.32 91.42 91.57 91.68 91.77 91.91 92.01 92.15 92.29 92.42 92.34 92.56 92.55 92.55 92.52 92.56 92.59 92.62 92.68 92.66 92.70 92.71 92.76 92.82 92.85 92.81 92.83 92.82 92.85 92.93 92.98 93.03 93.09 93.17 93.24 93.25 93.28 93.29 93.36 93.50 93.91 93.89 93.85 93.89
90.64 90.41 90.38 90.64 90.82 90.96 91.15 91.25 91.38 91.46 91.57 91.67 91.79 91.89 92.01 92.16 92.28 92.45 92.43 92.56 92.50 92.52 92.53 92.55 92.59 92.64 92.63 92.66 92.66 92.67 92.70 92.79 92.79 92.81 92.77 92.81 92.87 92.94 93.01 93.07 93.13 93.19 93.24 93.24 93.19 93.38 93.52 93.80 94.06 94.06 94.00 94.04
90.62 90.61 90.44 90.72 90.89 91.01 91.12 91.24 91.36 91.46 91.60 91.69 91.79 91.91 92.02 92.15 92.21 92.36 92.47 92.49 92.45 92.50 92.50 92.51 92.55 92.60 92.65 92.65 92.64 92.65 92.72 92.74 92.78 92.76 92.82 92.84 92.90 92.97 93.04 93.03 92.96 93.06 93.20 93.32 93.39 93.41 93.57 93.90 94.26 94.18 94.13 94.12
90.61 90.79 90.52 90.74 90.91 91.06 91.19 91.27 91.40 91.46 91.59 91.68 91.81 91.89 91.99 92.11 92.21 92.33 92.44 92.35 92.45 92.43 92.49 92.49 92.54 92.56 92.61 92.60 92.64 92.66 92.70 92.73 92.76 92.77 92.80 92.85 92.84 92.82 92.91 93.01 93.07 93.17 93.28 93.37 93.46 93.56 93.65 93.92 94.33 94.28 94.25 94.22
90.66 90.74 90.32 90.76 90.96 91.09 91.24 91.34 91.44 91.51 91.60 91.71 91.81 91.88 92.00 92.10 92.16 92.27 92.35 92.36 92.44 92.38 92.42 92.43 92.48 92.53 92.57 92.60 92.64 92.67 92.73 92.74 92.75 92.63 92.71 92.79 92.90 92.97 93.03 93.10 93.18 93.30 93.41 93.49 93.56 93.68 93.77 93.97 94.33 94.37 94.35 94.32
90.68 90.79 89.65 90.77 91.01 91.15 91.26 91.38 91.49 91.56 91.64 91.74 91.80 91.87 91.99 92.05 92.13 92.23 92.32 92.37 92.46 92.38 92.41 92.44 92.48 92.53 92.57 92.61 92.65 92.65 92.58 92.67 92.79 92.83 92.85 92.91 92.97 93.08 93.15 93.22 93.27 93.39 93.46 93.57 93.61 93.75 93.88 93.76 93.98 94.46 94.47 94.44
90.68 90.93 90.59 90.77 91.02 91.19 91.29 91.43 91.51 91.57 91.67 91.74 91.81 91.90 91.97 92.06 92.15 92.21 92.28 92.42 92.39 92.42 92.43 92.53 92.54 92.54 92.46 92.55 92.65 92.71 92.75 92.79 92.85 92.92 93.00 93.03 93.08 93.15 93.18 93.24 93.31 93.39 93.49 93.63 93.78 93.89 94.00 94.07 94.25 94.51 94.58 94.55
90.81 91.07 90.89 90.81 91.00 91.20 91.30 91.43 91.49 91.60 91.69 91.78 91.86 91.93 91.97 92.06 92.13 92.18 92.24 92.39 92.28 92.47 92.46 92.42 92.52 92.59 92.68 92.71 92.75 92.80 92.86 92.91 92.95 93.00 93.05 93.11 93.15 93.14 93.18 93.29 93.33 93.46 93.56 93.72 93.85 94.00 94.10 94.24 94.43 94.67 94.68 94.71
90.86 91.09 91.03 90.85 91.06 91.16 91.31 91.43 91.54 91.63 91.72 91.81 91.89 91.92 91.99 92.06 92.17 92.25 92.29 92.41 92.54 92.49 92.52 92.60 92.66 92.71 92.80 92.84 92.85 92.89 92.98 93.01 93.06 93.06 93.09 93.15 93.19 93.24 93.29 93.36 93.44 93.54 93.68 93.85 93.96 94.10 94.25 94.33 94.54 94.79 94.79 94.81
90.95 91.15 91.14 90.85 91.03 91.22 91.35 91.51 91.62 91.72 91.79 91.88 91.96 92.00 92.08 92.13 92.27 92.35 92.40 92.43 92.50 92.52 92.60 92.72 92.81 92.88 92.92 92.97 92.96 93.01 93.03 93.07 93.14 93.16 93.21 93.25 93.28 93.33 93.42 93.52 93.61 93.73 93.85 94.00 94.07 94.20 94.34 94.47 94.64 94.73 94.90 94.99
90.98 91.15 91.13 90.46 91.02 91.26 91.40 91.58 91.70 91.81 91.87 91.97 92.04 92.08 92.15 92.27 92.35 92.41 92.44 92.46 92.54 92.63 92.75 92.86 92.92 92.96 93.01 93.01 93.04 93.08 93.15 93.20 93.21 93.23 93.30 93.36 93.41 93.47 93.57 93.66 93.73 93.86 93.99 94.13 94.23 94.32 94.45 94.51 94.38 94.64 95.01 95.03
91.01 91.15 91.27 90.36 91.10 91.32 91.51 91.64 91.79 91.90 92.01 92.09 92.11 92.20 92.27 92.35 92.43 92.53 92.57 92.57 92.60 92.74 92.91 92.92 92.97 93.04 93.10 93.15 93.12 93.17 93.22 93.25 93.30 93.32 93.42 93.47 93.53 93.57 93.69 93.77 93.89 94.01 94.11 94.26 94.40 94.51 94.56 94.67 94.92 94.96 95.18 95.30
91.14 91.29 91.52 91.29 91.15 91.44 91.61 91.79 91.90 91.97 92.07 92.16 92.24 92.36 92.40 92.49 92.59 92.65 92.68 92.73 92.76 92.89 93.01 93.06 93.07 93.10 93.14 93.22 93.28 93.31 93.33 93.35 93.40 93.44 93.51 93.60 93.67 93.74 93.81 93.92 94.04 94.17 94.30 94.43 94.56 94.65 94.78 94.85 95.08 95.14 95.23 95.32
91.39 91.52 91.70 91.49 91.24 91.61 91.68 91.82 91.98 92.08 92.19 92.26 92.36 92.47 92.52 92.62 92.68 92.70 92.78 92.85 92.95 93.03 93.10 93.13 93.12 93.18 93.24 93.35 93.42 93.44 93.45 93.53 93.55 93.60 93.68 93.71 93.78 93.86 93.97 94.11 94.23 94.34 94.41 94.60 94.66 94.87 94.91 94.83 95.00 95.29 95.37 95.49
91.51 91.62 91.73 91.66 91.36 91.62 91.78 91.93 92.05 92.19 92.26 92.33 92.42 92.49 92.62 92.66 92.74 92.81 92.87 92.93 93.02 93.11 93.25 93.27 93.32 93.35 93.41 93.51 93.56 93.62 93.62 93.66 93.68 93.74 93.79 93.85 93.95 94.03 94.07 94.29 94.51 94.56 94.64 94.71 94.82 94.93 94.99 94.98 95.14 95.35 95.46 95.58
91.56 91.66 91.81 91.81 91.49 91.67 91.84 91.96 92.13 92.22 92.28 92.42 92.49 92.62 92.62 92.70 92.82 92.89 93.03 93.06 93.12 93.26 93.38 93.44 93.49 93.53 93.57 93.67 93.70 93.73 93.75 93.81 93.85 93.92 94.00 94.01 94.36 94.20 94.27 94.37 94.50 94.60 94.69 94.77 94.90 95.00 95.10 95.22 95.31 95.47 95.35 95.58
91.60 91.72 91.84 91.88 90.85 91.74 91.93 92.04 92.22 92.33 92.43 92.50 92.60 92.68 92.74 92.89 92.96 93.08 93.19 93.24 93.26 93.39 93.54 93.60 93.65 93.67 93.76 93.82 93.89 93.94 93.99 93.98 94.19 94.23 94.11 94.18 94.24 94.30 94.38 94.44 94.58 94.68 94.80 94.88 95.00 95.13 95.23 95.32 95.38 95.61 95.38 95.76
91.65 91.78 91.86 91.99 90.94 91.85 92.04 92.16 92.29 92.42 92.51 92.66 92.74 92.86 92.97 93.06 93.15 93.24 93.33 93.40 93.44 93.51 93.69 93.78 93.85 93.90 93.98 94.04 94.04 94.29 93.93 94.00 94.12 94.15 94.20 94.25 94.32 94.43 94.51 94.62 94.70 94.82 94.92 95.01 95.12 95.23 95.34 95.43 95.50 95.71 95.49 96.09
91.72 91.84 91.90 92.10 91.85 92.00 92.12 92.26 92.44 92.54 92.69 92.82 92.90 93.00 93.10 93.21 93.31 93.40 93.48 93.58 93.60 93.72 93.89 94.00 93.97 94.17 94.09 94.18 94.15 94.12 94.11 94.18 94.18 94.26 94.34 94.41 94.47 94.56 94.67 94.73 94.78 94.88 95.00 95.12 95.22 95.31 95.40 95.51 95.56 95.69 95.76 95.94
91.76 91.88 91.97 92.25 92.17 92.11 92.26 92.41 92.55 92.71 92.85 92.93 92.99 93.11 93.23 93.38 93.48 93.57 93.68 93.76 93.81 93.89 94.11 93.81 94.08 94.14 94.19 94.22 94.38 94.18 94.25 94.29 94.36 94.38 94.46 94.53 94.60 94.68 94.76 94.82 94.90 94.97 95.10 95.20 95.29 95.38 95.44 95.54 95.65 95.61 95.83 95.36
91.84 91.98 92.06 92.22 92.30 92.24 92.35 92.51 92.68 92.86 92.99 93.09 93.18 93.30 93.46 93.58 93.72 93.74 93.97 94.01 93.94 93.97 94.10 94.21 94.21 94.17 94.22 94.32 94.45 94.29 94.35 94.42 94.47 94.50 94.57 94.65 94.71 94.79 94.85 94.94 95.01 95.10 95.17 95.28 95.38 95.50 95.58 95.65 95.71 95.76 95.92 95.70
91.90 92.02 92.09 92.25 92.38 92.34 92.40 92.62 92.81 92.99 93.13 93.27 93.41 93.53 93.69 93.90 93.56 93.87 93.99 94.04 94.14 94.10 94.14 94.19 94.26 94.25 94.29 94.36 94.53 94.46 94.47 94.54 94.59 94.65 94.70 94.76 94.83 94.90 94.96 95.00 95.11 95.23 95.32 95.42 95.50 95.61 95.67 95.75 95.78 95.70 95.97 95.89
91.96 92.10 92.21 92.29 92.35 92.32 92.48 92.68 92.91 93.12 93.24 93.49 93.57 93.54 93.74 93.89 93.99 94.05 94.06 94.10 94.08 94.07 94.19 94.28 94.36 94.36 94.39 94.43 94.57 94.61 94.57 94.65 94.71 94.77 94.81 94.85 94.93 95.00 95.07 95.15 95.24 95.30 95.43 95.50 95.60 95.65 95.75 95.81 95.87 95.83 95.76 95.79
92.03 92.16 92.29 92.35 92.37 92.16 92.53 92.85 93.24 92.92 93.35 93.50 93.60 93.82 93.89 93.93 94.01 94.09 94.18 94.19 94.22 94.15 94.21 94.35 94.45 94.48 94.50 94.56 94.61 94.74 94.68 94.74 94.77 94.86 94.94 94.99 95.06 95.13 95.17 95.25 95.33 95.42 95.36 95.70 95.71 95.76 95.79 95.80 95.87 95.88 95.90 95.66
92.08 92.22 92.32 92.42 92.49 92.51 92.41 92.88 93.11 93.32 93.47 93.56 93.62 93.76 93.91 94.01 94.10 94.18 94.31 94.31 94.30 94.26 94.30 94.42 94.52 94.60 94.61 94.63 94.69 94.94 94.83 94.85 94.92 94.98 95.01 95.04 95.14 95.19 95.20 95.30 95.38 95.51 95.61 95.64 95.69 95.88 95.82 95.99 96.02 96.04 95.88 95.92
92.17 92.32 92.40 92.44 92.58 92.31 92.62 92.83 93.07 93.24 93.41 93.55 93.67 93.82 93.96 94.08 94.18 94.28 94.40 94.42 94.42 94.34 94.40 94.51 94.58 94.67 94.68 94.69 94.75 94.94 94.98 94.94 95.03 95.08 95.09 95.01 95.32 95.31 95.37 95.38 95.44 95.51 95.60 95.67 95.77 95.79 95.95 96.11 96.20 96.15 96.07 95.90
92.32 92.42 92.46 92.47 92.65 92.53 92.70 92.83 93.10 93.29 93.46 93.60 93.77 93.89 94.03 94.12 94.24 94.37 94.49 94.54 94.47 94.43 94.49 94.59 94.68 94.75 94.74 94.76 94.82 94.95 95.02 95.01 95.00 95.17 95.24 95.25 95.32 95.31 95.36 95.45 95.54 95.67 95.67 95.69 95.80 95.88 96.23 96.32 96.32 96.24 96.12 95.95
92.47 92.52 92.54 92.56 92.47 92.64 92.83 92.89 93.18 93.36 93.49 93.67 93.80 93.94 94.08 94.21 94.33 94.46 94.55 94.62 94.56 94.56 94.59 94.69 94.76 94.84 94.88 94.86 94.90 94.99 95.04 95.06 95.11 95.15 95.25 95.31 95.41 95.53 95.53 95.57 95.62 95.69 95.74 95.80 95.93 96.09 96.19 96.31 96.43 96.44 96.20 96.08
92.62 92.62 92.60 92.40 92.74 92.94 92.97 92.98 93.21 93.41 93.55 93.69 93.85 93.99 94.10 94.24 94.39 94.50 94.58 94.65 94.61 94.63 94.70 94.78 94.83 94.87 94.93 94.92 94.97 94.99 95.24 95.25 95.32 95.40 95.38 95.43 95.46 95.53 95.59 95.67 95.77 95.85 95.90 95.93 95.99 96.04 96.06 96.06 96.28 96.37 96.30 96.31
92.75 92.60 92.21 92.86 93.00 93.02 91.83 92.98 93.18 93.39 93.54 93.67 93.77 93.93 94.05 94.17 94.31 94.40 94.49 94.55 94.61 94.69 94.76 94.80 94.85 94.87 94.93 94.94 94.97 94.99 95.10 95.19 95.15 95.25 95.40 95.53 95.66 95.72 95.82 95.83 95.86 95.92 95.95 96.00 96.05 96.09 96.08 96.26 96.31 96.35 96.26 96.24
92.67 93.00 93.00 92.97 92.94 93.02 93.14 92.95 93.06 93.29 93.43 93.57 93.73 93.86 94.01 94.15 94.28 94.38 94.49 94.60 94.68 94.76 94.87 94.87 94.90 94.93 94.96 94.99 95.01 95.06 95.15 95.25 95.18 95.29 95.64 95.72 95.73 95.77 95.83 95.90 95.95 95.96 96.02 96.05 96.08 96.09 96.08 96.14 96.16 96.44 96.20 96.21
93.19 93.18 93.12 93.12 93.09 93.14 93.32 92.94 93.05 93.32 93.50 93.66 93.82 93.99 94.15 94.31 94.46 94.58 94.68 94.79 94.89 94.95 95.03 95.03 95.04 95.04 95.07 95.13 95.14 95.18 95.23 95.45 95.45 95.45 95.67 95.75 95.80 95.88 95.91 95.96 95.99 96.01 96.04 96.08 96.12 96.17 96.17 96.20 96.27 96.22 96.19 96.12
93.26 93.25 93.26 93.28 93.28 93.28 93.37 92.57 93.23 93.45 93.69 93.86 94.04 94.18 94.33 94.46 94.60 94.74 94.83 94.92 95.00 95.05 95.15 95.17 95.17 95.18 95.18 95.26 95.27 95.29 95.31 95.56 95.48 95.42 95.71 95.76 95.81 95.92 95.96 96.06 96.06 96.09 96.12 96.15 96.14 96.15 96.14 96.21 96.29 96.25 96.17 96.20
93.41 93.41 93.43 93.43 93.44 93.47 93.50 93.03 93.42 93.54 93.79 93.99 94.14 94.27 94.40 94.53 94.62 94.71 94.82 94.90 94.99 95.06 95.17 95.24 95.24 95.25 95.30 95.34 95.38 95.39 95.40 95.53 95.58 95.53 95.75 95.85 95.88 96.03 96.05 96.10 96.13 96.09 96.15 96.21 96.23 96.21 96.16 96.19 96.33 96.32 96.28 96.15
93.56 93.56 93.57 93.59 93.61 93.54 93.65 93.75 93.57 93.61 93.86 94.00 94.14 94.27 94.40 94.48 94.60 94.69 94.77 94.90 94.99 95.08 95.17 95.29 95.31 95.32 95.34 95.42 95.47 95.47 95.52 95.62 95.65 95.60 95.85 95.94 96.01 96.07 96.12 96.17 96.22 96.26 96.25 96.27 96.28 96.32 96.33 96.32 96.27 96.26 96.18 96.17
93.70 93.69 93.70 93.73 93.72 93.66 93.68 93.82 93.53 93.65 93.84 93.95 94.08 94.22 94.38 94.51 94.63 94.73 94.85 94.93 95.01 95.14 95.22 95.32 95.38 95.38 95.41 95.44 95.54 95.57 95.62 95.68 95.88 95.62 95.90 96.01 96.10 96.17 96.16 96.22 96.29 96.30 96.31 96.35 96.33 96.35 96.27 96.31 96.31 96.26 96.26 96.26
93.86 93.85 93.83 93.88 93.87 93.84 93.81 93.85 92.57 93.66 93.78 93.97 94.12 94.25 94.43 94.56 94.68 94.78 94.87 94.98 95.06 95.16 95.28 95.40 95.44 95.46 95.49 95.53 95.62 95.67 95.73 95.76 95.91 95.68 95.93 96.07 96.16 96.22 96.25 96.30 96.31 96.29 96.26 96.33 96.36 96.39 96.40 96.40 96.39 96.35 96.33 96.32
93.99 94.02 93.97 94.01 93.99 93.96 93.91 94.00 93.92 93.77 93.85 94.02 94.18 94.34 94.47 94.60 94.73 94.83 94.92 95.01 95.12 95.23 95.32 95.43 95.51 95.53 95.56 95.61 95.68 95.76 95.81 95.84 95.91 95.76 95.96 96.12 96.26 96.25 96.34 96.29 96.36 96.40 96.42 96.45 96.46 96.45 96.45 96.43 96.40 96.37 96.34 96.35
94.17 94.15 94.15 94.14 94.14 94.15 94.07 94.13 94.18 93.83 93.89 94.08 94.24 94.38 94.52 94.65 94.78 94.88 94.94 95.06 95.18 95.28 95.38 95.49 95.57 95.61 95.64 95.68 95.79 95.86 95.92 95.96 95.92 95.80 96.02 96.16 96.26 96.35 96.41 96.43 96.46 96.48 96.49 96.49 96.48 96.46 96.45 96.44 96.44 96.42 96.40 96.38
94.28 94.32 94.29 94.26 94.24 94.24 94.24 94.21 94.29 93.92 93.96 94.15 94.30 94.42 94.56 94.69 94.82 94.94 95.02 95.12 95.23 95.33 95.46 95.56 95.65 95.67 95.74 95.80 95.85 95.97 96.00 96.03 95.95 96.07 96.15 96.28 96.35 96.45 96.47 96.49 96.49 96.49 96.50 96.48 96.50 96.49 96.48 96.46 96.47 96.47 96.44 96.43
94.43 94.44 94.45 94.39 94.38 94.37 94.38 94.29 94.32 93.33 94.04 94.16 94.36 94.50 94.63 94.77 94.88 95.00 95.10 95.18 95.29 95.37 95.51 95.63 95.71 95.79 95.81 95.87 95.96 96.05 96.10 96.12 95.99 95.98 96.30 96.34 96.38 96.45 96.47 96.49 96.51 96.53 96.53 96.53 96.53 96.51 96.50 96.50 96.50 96.55 96.56 96.57
94.60 94.61 94.61 94.58 94.55 94.52 94.51 94.46 94.46 94.49 94.17 94.24 94.43 94.58 94.72 94.82 94.96 95.04 95.17 95.25 95.35 95.45 95.57 95.71 95.79 95.86 95.90 95.96 96.03 96.14 96.20 96.18 96.10 96.02 96.26 96.42 96.42 96.50 96.50 96.53 96.56 96.57 96.58 96.57 96.54 96.56 96.59 96.63 96.65 96.66 96.67 96.65
94.72 94.76 94.73 94.74 94.68 94.66 94.62 94.57 94.58 94.63 94.28 94.25 94.48 94.60 94.77 94.90 95.00 95.12 95.22 95.35 95.43 95.54 95.65 95.80 95.86 95.93 95.97 96.02 96.10 96.20 96.29 96.29 96.17 96.07 96.40 96.51 96.58 96.51 96.58 96.60 96.61 96.65 96.65 96.74 96.68 96.67 96.73 96.74 96.71 96.70 96.71 96.70
