ncols 52
nrows 52
xllcorner 436736
yllcorner 5713920
cellsize 10
NODATA_value -9999
86.19 85.72 85.80 85.87 86.02 86.20 86.10 86.26 86.40 86.55 86.26 86.32 86.40 86.49 86.61 86.79 86.88 87.29 87.34 87.20 87.21 87.42 87.22 86.79 87.06 87.43 87.34 87.18 87.13 87.10 87.28 87.25 87.19 87.28 87.35 87.47 87.65 87.59 86.26 85.10 84.98 88.16 87.68 87.87 87.85 87.57 87.59 87.68 87.66 87.83 87.84 87.71
85.90 85.86 86.06 86.31 86.36 86.30 86.41 86.29 86.26 86.35 86.38 86.47 86.54 86.73 86.80 86.59 86.48 86.57 86.62 86.80 87.03 87.06 87.11 86.85 87.06 87.21 87.48 87.16 87.30 87.46 87.61 87.84 87.83 87.49 87.57 87.61 87.72 87.74 87.17 86.82 85.78 88.15 87.81 88.00 88.28 88.32 88.33 87.68 87.65 87.86 87.94 87.71
85.22 85.22 86.01 86.47 86.37 86.38 86.34 86.53 86.39 86.42 86.56 86.53 86.62 86.65 86.52 86.51 86.54 86.62 86.69 86.91 87.01 86.89 86.79 86.85 86.90 87.18 87.25 87.24 87.38 87.65 87.69 87.81 87.76 87.60 87.63 87.84 87.89 88.09 88.35 88.40 87.98 88.12 87.95 87.97 88.25 88.32 88.39 88.45 87.98 88.31 88.13 87.80
85.24 85.99 86.27 86.44 86.51 86.53 86.54 86.63 86.38 86.60 86.92 87.32 86.97 86.84 86.75 86.92 86.78 86.55 86.51 86.62 86.81 86.82 86.96 86.99 87.31 87.19 87.09 87.06 87.21 87.25 87.34 87.62 87.60 87.76 87.71 87.98 88.00 88.32 88.27 88.07 88.16 88.15 88.12 88.03 88.60 88.28 88.03 87.93 88.22 87.96 88.01 88.47
85.24 85.99 86.57 86.48 86.66 86.54 86.67 86.47 86.45 86.67 86.85 86.82 87.51 87.39 87.61 87.37 87.19 86.49 86.54 86.79 86.82 87.11 87.02 87.06 87.54 87.51 87.46 87.43 87.34 87.35 87.39 87.50 87.48 87.55 87.65 87.76 87.90 88.35 88.53 88.30 88.23 88.23 88.24 88.55 88.75 88.74 88.39 88.11 88.18 88.18 88.29 88.18
85.49 86.34 86.75 86.60 86.79 86.67 86.84 86.47 86.60 86.79 86.95 87.57 87.75 87.60 87.57 86.24 86.79 86.62 86.73 87.08 87.14 87.04 86.93 87.31 87.50 87.54 87.52 87.51 87.38 87.53 87.59 87.73 87.69 87.75 88.35 88.25 88.61 87.96 87.97 88.10 88.16 88.28 88.38 88.80 88.76 88.68 88.26 88.04 88.36 88.28 88.40 88.32
86.33 86.52 86.57 86.58 86.79 86.86 86.85 86.66 86.66 86.90 87.03 87.74 87.71 87.81 87.54 87.04 86.76 86.82 86.77 87.24 87.29 87.08 87.06 87.48 87.71 87.75 88.02 87.58 87.58 87.84 87.77 88.03 87.85 88.36 88.30 88.12 88.89 88.91 88.83 88.51 88.35 88.44 88.39 88.44 88.62 88.71 88.80 88.63 88.60 88.61 88.96 88.52
86.48 86.61 86.67 86.64 86.74 87.01 87.04 86.86 87.26 87.18 87.07 87.55 87.52 87.76 87.50 87.14 87.10 86.99 87.02 87.42 87.31 87.13 87.22 87.58 88.14 88.07 88.47 88.51 88.22 88.50 88.42 88.20 88.13 88.38 88.35 88.33 89.00 88.96 89.00 88.78 88.53 88.56 88.66 88.64 88.68 88.54 88.59 88.65 88.66 88.61 88.79 88.75
86.59 86.50 86.75 86.76 86.87 87.04 87.07 87.50 87.43 87.38 87.24 87.15 87.33 87.71 87.32 87.30 87.10 87.16 87.26 87.31 87.30 87.12 87.67 88.08 88.06 88.15 88.44 88.60 88.40 88.57 88.50 88.31 88.38 88.41 88.39 89.17 89.10 89.21 89.15 88.85 88.63 88.90 88.82 88.74 88.81 88.24 88.74 88.74 88.51 88.56 88.63 88.71
86.48 86.61 86.91 87.00 86.96 87.10 87.29 87.41 87.46 87.38 87.39 87.32 87.34 87.27 87.08 87.07 87.29 87.20 87.50 87.54 87.49 87.36 88.07 88.14 88.17 88.40 88.30 88.35 88.59 88.63 88.54 88.43 88.67 88.63 88.52 89.15 89.31 89.25 89.23 88.74 88.81 88.79 88.93 88.85 88.74 89.04 88.76 89.10 88.75 88.86 88.75 88.43
86.67 86.75 86.77 87.03 87.01 87.00 87.25 87.46 87.42 87.40 87.65 87.66 87.49 87.47 87.24 87.18 87.13 87.39 87.67 87.58 87.42 87.83 88.35 88.20 88.54 88.43 88.42 88.43 88.63 88.66 88.62 88.65 88.72 88.74 89.10 89.04 89.15 89.39 89.17 88.79 88.86 88.93 89.04 88.91 88.78 88.73 88.78 89.56 88.79 88.87 88.92 88.96
87.42 87.22 86.94 86.89 87.01 87.29 87.44 87.51 87.46 87.85 87.78 88.19 87.60 87.80 87.53 87.33 87.29 87.83 87.62 87.54 87.58 88.07 88.14 88.18 88.59 88.69 88.63 88.79 88.94 88.92 88.73 89.06 88.95 89.00 89.27 89.08 89.07 89.43 88.99 89.01 89.03 89.03 88.92 88.75 88.73 88.62 88.70 88.82 88.81 89.02 90.35 89.03
87.82 87.78 87.35 87.30 87.14 87.17 87.42 87.59 87.56 87.60 87.54 88.13 87.71 87.10 87.28 87.56 87.61 87.75 87.73 87.57 87.69 88.25 88.16 89.13 88.86 89.15 88.77 88.79 88.93 88.93 88.95 89.12 89.04 89.02 88.86 89.40 89.68 89.26 88.97 89.13 89.06 89.58 89.14 88.92 88.81 88.80 88.80 88.86 88.88 88.90 89.03 88.85
88.08 87.87 87.60 87.21 87.32 87.43 87.24 87.34 87.67 87.79 87.79 88.11 88.11 87.08 87.85 87.57 87.67 87.57 87.95 87.80 88.33 88.14 88.07 88.75 88.89 89.11 88.91 89.18 89.12 89.00 89.06 89.06 89.14 89.33 89.09 89.51 89.53 89.28 89.18 89.13 89.22 89.36 89.11 88.95 88.99 88.80 88.91 88.81 88.93 88.86 88.97 89.11
87.82 87.93 87.22 87.33 87.67 87.76 87.42 87.42 87.48 87.69 87.98 88.47 88.37 87.42 88.01 87.82 87.85 87.76 87.89 87.87 88.29 88.35 88.58 88.66 88.82 88.80 89.25 89.44 89.36 89.12 89.04 88.95 89.09 89.08 89.37 89.70 89.44 89.25 89.30 89.24 89.40 89.35 89.19 89.06 89.23 88.96 89.12 88.96 89.01 89.00 89.09 89.23
87.65 87.55 87.61 87.93 87.94 87.78 87.68 87.61 87.71 87.57 87.66 88.06 88.50 88.41 87.97 87.82 87.51 87.88 88.08 88.45 88.27 88.53 88.75 88.71 89.00 88.92 89.48 89.42 89.33 89.04 89.11 88.97 89.16 89.05 89.43 89.71 89.56 89.34 89.38 89.40 90.11 89.53 89.31 89.31 89.22 89.26 89.12 89.24 89.17 89.17 89.42 89.35
87.67 87.65 87.93 88.16 87.91 87.62 87.77 87.72 87.82 87.99 87.85 87.81 88.08 88.47 87.87 87.97 87.88 88.11 88.44 88.42 88.31 88.78 88.75 88.69 89.04 89.13 88.94 88.93 89.12 89.10 89.02 89.24 89.08 89.24 89.68 89.62 89.52 89.52 89.55 89.50 89.49 89.53 89.40 89.35 89.43 89.40 89.24 89.65 89.49 89.47 88.60 88.93
87.94 87.77 87.92 88.14 87.83 87.65 88.12 88.15 88.17 88.64 87.99 88.31 87.92 87.98 88.03 88.14 88.11 88.15 88.52 88.31 88.41 88.83 88.74 88.90 89.18 89.18 89.14 89.33 89.05 89.05 89.11 89.15 89.04 89.70 89.88 89.70 89.51 89.56 89.64 89.65 89.67 89.56 89.33 89.67 89.50 89.51 89.49 89.70 89.62 89.18 88.63 88.69
88.28 87.94 88.05 87.96 88.00 87.88 88.40 88.23 88.54 88.33 88.22 88.38 88.22 88.23 88.15 88.37 88.40 88.18 88.52 88.47 88.65 88.77 88.71 88.97 89.04 89.38 89.37 89.33 89.31 89.23 89.10 89.08 89.65 90.05 89.84 89.79 89.69 89.58 89.57 89.67 89.71 89.70 89.65 90.00 89.81 89.81 89.79 89.92 89.51 88.60 88.63 88.64
88.16 88.18 88.38 88.32 88.25 88.22 88.42 88.60 88.99 88.49 88.40 88.36 88.39 88.53 88.43 88.30 88.40 88.75 88.69 88.64 89.04 88.72 88.83 89.12 89.10 89.42 89.49 89.39 89.08 89.24 89.42 89.31 89.96 90.02 89.86 89.74 89.78 89.77 89.92 89.85 89.66 89.66 89.77 89.78 90.02 90.01 89.86 90.31 89.06 88.62 88.60 88.58
88.42 88.64 88.50 88.44 88.44 88.69 88.71 89.51 88.71 88.68 88.54 88.65 88.46 88.55 88.65 88.71 88.63 88.57 88.79 88.92 88.74 88.67 89.11 89.24 89.48 89.62 89.64 89.29 89.42 89.72 89.25 89.33 89.66 89.86 90.07 89.88 89.75 89.85 89.86 89.86 89.82 89.81 89.82 89.73 89.96 90.03 89.88 89.71 89.64 88.53 88.57 89.04
88.89 88.99 88.94 88.67 88.62 88.98 89.18 89.14 88.84 89.02 89.31 88.58 88.52 88.78 89.07 88.95 88.95 88.73 88.71 88.79 89.32 88.89 89.34 89.42 89.50 89.71 89.57 89.35 89.40 89.37 89.30 89.59 89.72 90.08 90.04 90.04 89.96 90.23 90.12 89.90 89.87 89.79 89.93 90.06 90.07 89.92 89.93 89.92 89.89 89.72 88.46 89.39
89.32 89.43 88.93 88.87 89.34 89.42 89.26 89.41 89.15 89.75 89.26 88.85 88.74 88.79 88.99 89.19 89.12 89.02 89.00 89.07 89.01 89.24 89.34 89.51 89.66 89.67 89.71 89.52 89.68 89.44 90.02 89.66 90.00 90.43 90.06 90.04 90.20 90.25 90.13 89.88 89.74 89.94 90.08 90.18 90.32 90.24 90.21 90.07 90.01 90.01 89.81 89.70
89.45 89.52 89.27 89.15 89.53 89.61 89.65 89.38 89.30 89.35 89.28 89.54 89.31 89.21 89.07 89.53 89.27 89.23 89.39 89.58 89.42 89.19 89.27 89.46 89.68 89.53 89.71 89.65 89.59 89.53 89.63 89.76 90.21 90.35 90.24 90.13 90.19 90.07 90.32 90.03 90.02 90.04 90.10 90.17 90.29 90.25 90.31 90.33 90.21 89.98 89.90 89.95
89.73 89.48 89.54 89.42 89.84 90.29 89.92 89.74 89.57 89.97 89.60 89.61 89.73 89.73 89.23 89.34 89.18 89.38 89.93 89.92 90.10 89.90 89.50 89.48 89.66 89.81 89.95 89.87 89.69 89.84 89.66 90.02 90.05 90.41 90.30 90.42 90.43 90.30 90.17 90.25 90.08 90.15 90.17 90.31 90.22 90.22 90.34 90.38 90.58 90.29 90.29 90.04
90.18 89.99 89.85 89.82 90.09 90.18 90.00 90.19 89.73 89.78 89.73 89.75 89.95 89.84 89.48 89.56 89.58 89.63 90.07 89.97 90.15 90.04 89.93 89.85 89.61 89.80 90.04 90.09 90.04 90.16 90.27 90.13 90.61 90.44 90.33 90.49 90.51 90.52 90.28 90.12 90.19 90.24 90.24 90.33 90.36 90.39 90.35 90.48 90.86 90.35 90.38 90.24
90.39 90.27 90.26 90.40 90.35 90.43 90.34 90.32 90.09 90.01 89.99 89.86 90.40 90.01 89.87 89.99 89.96 90.11 90.26 90.11 90.51 90.18 90.23 90.51 90.20 89.90 89.96 90.06 90.34 90.42 90.58 90.78 90.55 90.58 90.57 90.50 90.47 90.42 90.29 90.28 90.31 90.31 90.35 90.36 90.43 90.40 90.36 90.74 90.71 90.40 90.42 90.25
90.52 90.55 90.62 90.71 90.66 90.71 90.66 90.56 90.52 90.57 90.37 90.20 90.22 90.31 90.47 90.07 90.20 90.47 90.54 90.40 90.52 90.51 90.63 90.51 90.36 90.52 90.65 90.22 90.32 90.38 90.72 90.79 90.65 90.62 90.78 90.65 90.51 90.44 90.35 90.36 90.43 90.49 90.39 90.52 90.57 90.45 90.47 90.62 90.58 90.40 90.44 90.38
90.79 90.84 90.82 90.85 91.04 90.96 91.23 91.07 90.98 90.99 90.81 90.66 90.70 90.67 91.74 91.04 90.62 90.93 90.78 90.79 90.90 90.75 90.72 90.66 90.65 90.76 90.83 90.69 90.86 90.42 90.70 90.77 90.85 90.89 90.90 90.93 90.84 90.79 90.55 90.47 90.47 90.51 90.54 90.65 90.69 90.57 90.59 90.59 90.54 90.49 90.36 90.40
90.99 90.84 91.08 91.11 91.19 91.07 91.15 91.21 91.33 91.41 91.29 91.33 90.98 91.13 90.90 90.90 90.90 90.86 90.90 90.93 91.15 91.54 91.02 90.91 90.84 91.00 91.04 91.06 91.35 91.53 90.99 90.92 90.98 90.98 91.07 91.08 91.06 90.99 90.95 90.79 90.68 90.63 90.64 90.72 90.74 90.79 90.62 90.58 90.59 90.62 90.45 90.46
91.21 91.39 91.32 91.32 91.48 91.32 91.36 91.57 91.47 91.49 91.60 91.54 91.99 91.99 91.68 91.32 91.15 90.88 91.85 91.60 91.34 92.46 92.38 91.90 91.37 91.22 91.01 91.31 91.62 91.75 91.42 91.17 91.15 91.20 90.94 91.09 91.38 91.28 91.59 91.14 91.03 90.97 90.70 90.65 90.70 90.80 90.80 90.76 90.72 90.63 90.61 90.52
91.43 91.53 91.54 91.55 91.53 91.69 91.64 91.71 92.19 91.76 91.79 91.97 92.17 92.07 91.92 91.85 91.44 92.24 92.67 92.60 92.56 92.49 92.48 92.46 91.76 91.66 91.57 91.72 91.82 91.83 91.42 91.42 91.35 91.51 91.18 91.07 91.10 90.84 91.64 91.22 91.31 91.16 91.06 91.03 90.83 90.92 91.01 90.86 90.89 90.74 90.81 90.74
91.88 91.90 91.91 91.92 91.72 91.79 91.96 91.93 91.98 92.34 92.08 92.28 92.29 92.48 92.14 91.95 91.66 92.01 92.22 92.18 92.40 92.50 92.54 92.11 92.28 92.29 91.84 91.91 91.93 91.83 91.63 91.52 91.76 91.86 91.72 91.68 91.25 91.02 91.25 91.23 91.38 91.50 91.82 91.76 91.28 91.09 91.41 91.31 90.89 90.83 91.03 90.83
92.01 92.40 92.49 92.12 92.04 92.20 92.03 92.26 92.22 92.21 92.43 92.59 92.82 92.68 92.53 92.67 93.61 93.29 92.85 92.47 92.61 92.49 92.51 92.18 92.65 92.94 92.51 92.53 92.16 92.06 91.90 92.07 92.07 92.10 91.93 92.06 91.92 91.13 91.16 91.08 91.21 91.42 91.32 91.77 91.78 91.55 91.49 91.32 91.17 91.11 91.27 90.95
92.24 92.31 92.34 92.29 92.43 92.53 92.42 92.29 92.70 92.70 92.34 92.46 92.73 92.72 92.79 92.76 93.32 93.19 92.82 92.87 92.78 92.62 92.56 92.78 92.71 92.80 92.67 92.90 92.65 92.13 92.06 92.33 92.33 92.31 92.06 92.15 92.12 92.01 91.76 91.53 91.20 91.17 91.28 91.32 91.61 91.48 91.50 91.49 91.37 91.32 91.28 91.27
92.54 92.60 92.59 92.57 92.70 92.65 92.65 92.51 93.10 92.78 92.61 92.74 92.89 92.95 93.08 93.64 94.03 93.36 93.03 93.22 93.02 92.93 93.20 93.81 93.38 93.13 93.35 92.91 92.62 92.36 92.17 92.74 92.74 92.49 92.42 92.37 92.35 92.40 92.07 91.96 91.60 91.22 91.19 91.19 91.27 91.43 91.66 91.48 91.45 91.04 91.08 91.16
92.79 92.80 92.90 92.84 92.85 92.97 92.99 93.06 93.21 93.02 92.90 93.45 93.22 93.29 93.33 93.38 93.46 93.52 93.33 93.46 93.39 93.27 93.94 93.49 93.35 93.67 93.71 93.65 92.74 92.58 92.69 93.10 92.86 92.65 92.57 92.46 92.38 92.47 92.62 92.56 91.90 91.79 91.57 91.37 91.11 91.20 91.34 91.51 91.44 91.41 91.35 91.22
92.84 92.83 92.84 92.85 92.16 92.43 93.46 93.32 93.37 93.40 93.26 93.22 93.40 93.72 93.50 94.46 93.60 93.47 93.59 93.64 93.61 93.56 93.60 93.62 93.45 93.13 91.98 93.70 92.87 92.69 93.20 93.15 93.04 92.98 92.78 92.58 92.54 92.49 92.50 92.46 92.31 92.25 92.00 91.99 91.54 91.36 91.26 91.34 91.38 91.89 91.36 91.29
92.77 92.78 92.86 92.54 91.51 93.44 93.38 93.56 93.75 93.78 93.82 93.75 93.79 94.37 93.97 94.38 94.09 93.36 93.71 93.82 93.83 93.79 93.78 93.79 93.67 93.46 93.57 93.30 93.12 93.33 93.72 93.43 93.20 93.13 93.30 92.80 92.80 92.62 92.66 92.57 92.22 92.07 92.17 92.31 92.21 91.59 91.51 91.49 91.36 91.30 91.40 91.43
92.43 92.87 93.13 92.94 92.96 93.06 93.32 94.02 93.73 94.08 93.96 93.95 93.82 94.01 94.02 94.35 94.03 93.62 94.72 94.21 94.06 94.21 94.14 93.78 93.85 93.67 93.58 93.31 93.18 93.89 93.85 93.58 93.42 93.47 93.27 93.08 92.95 92.85 93.48 93.26 92.57 92.31 92.40 92.38 92.10 91.86 92.01 92.06 91.64 91.50 91.39 91.34
92.22 92.47 92.64 93.00 92.97 92.98 93.20 93.50 93.96 94.10 93.87 94.14 94.12 94.04 94.17 94.18 94.22 94.31 94.32 94.54 94.37 94.29 94.21 94.03 93.99 93.81 93.75 93.48 93.52 93.99 93.79 93.84 93.84 93.50 93.28 93.39 93.12 93.25 93.07 92.89 92.79 92.58 92.65 92.42 92.29 92.09 92.17 92.24 92.01 91.90 91.99 91.48
92.15 92.27 92.65 93.01 93.12 93.19 93.42 93.45 94.03 93.82 93.91 93.95 94.04 94.28 94.07 94.04 94.54 94.54 94.48 94.44 94.38 94.45 94.42 94.29 94.20 94.09 93.76 93.58 93.95 94.00 94.04 94.20 93.69 93.58 93.43 93.38 93.38 93.38 92.85 92.83 93.03 92.78 92.53 92.32 92.25 92.29 92.25 92.37 92.18 92.34 92.07 91.68
91.68 92.28 92.46 93.01 93.04 93.24 93.45 93.36 93.39 93.52 93.90 93.85 93.94 94.05 94.06 93.95 94.46 94.40 94.61 94.67 94.72 94.39 94.38 94.22 94.27 94.07 93.73 93.57 94.24 94.16 94.28 93.61 93.37 93.89 93.64 93.46 92.68 93.78 93.12 92.84 92.74 92.65 92.43 92.37 92.42 92.41 92.52 92.19 92.14 92.16 91.96 91.29
91.67 92.04 91.96 92.15 92.61 92.87 93.02 93.23 93.22 93.37 93.74 93.84 93.98 93.83 94.37 94.05 94.00 94.27 94.66 94.69 94.63 94.34 94.48 94.46 94.33 94.02 93.89 93.77 94.45 94.31 94.49 94.38 93.90 94.22 94.17 93.84 94.33 93.74 93.38 92.94 92.93 92.87 92.87 92.46 92.65 92.54 92.55 92.50 92.40 92.20 92.27 90.75
91.85 91.90 92.01 92.41 92.40 92.45 92.68 93.28 93.29 93.37 93.51 93.90 93.93 93.82 93.77 94.52 94.12 94.38 94.52 94.40 94.11 94.44 94.35 94.44 94.18 94.01 93.86 93.85 94.00 94.21 94.48 94.29 94.21 94.26 94.16 94.01 93.95 93.65 93.36 93.19 93.15 93.02 93.07 92.83 92.74 92.72 92.65 92.54 92.41 92.37 92.37 90.74
91.50 91.40 92.12 92.43 92.68 92.55 92.82 92.80 92.96 93.41 93.45 94.09 93.94 93.85 93.79 94.08 94.16 94.41 94.50 94.49 94.17 94.43 94.65 94.43 94.17 94.04 94.11 94.04 93.46 94.53 94.26 94.23 94.17 94.17 94.22 94.16 93.94 93.69 93.38 93.31 93.28 93.37 93.25 92.84 92.82 92.72 92.72 92.72 92.41 92.60 92.51 92.68
90.92 90.92 92.73 92.89 92.92 92.78 93.41 92.96 93.03 93.24 93.26 93.39 93.81 93.60 93.99 94.04 94.10 94.25 94.23 94.03 94.21 94.56 94.65 94.24 93.99 94.02 94.35 93.99 92.50 93.18 94.52 94.07 94.30 94.06 94.11 94.01 93.93 93.58 93.43 93.39 93.36 93.38 93.50 93.28 93.07 92.79 92.87 92.99 92.46 92.49 92.69 92.82
91.00 90.79 91.45 91.23 91.92 92.85 92.93 91.99 93.25 93.45 93.45 93.62 93.47 93.50 94.00 94.02 94.11 94.12 94.14 93.99 94.25 94.51 94.50 94.19 94.10 93.88 94.34 94.54 94.38 93.32 93.89 93.78 93.65 94.08 94.20 94.16 93.98 94.00 93.65 93.54 93.68 93.54 93.53 93.64 93.29 93.08 93.00 93.24 93.18 92.91 92.81 93.13
90.35 90.59 90.89 90.89 90.98 92.39 92.06 92.93 93.14 93.31 93.43 93.68 93.63 93.48 93.94 93.86 94.18 94.10 94.07 94.16 94.21 94.58 94.40 94.03 94.07 94.22 94.36 94.50 94.13 93.82 93.65 93.44 93.45 94.00 94.11 94.03 93.92 93.96 93.92 93.91 93.75 93.80 93.65 93.68 93.30 93.25 93.82 93.85 93.31 93.14 92.93 93.30
90.51 90.45 90.62 91.29 91.04 92.46 92.18 92.39 92.64 93.01 93.61 93.56 93.03 93.54 93.78 94.04 93.98 93.97 93.84 94.07 94.25 94.30 94.24 94.16 93.94 94.50 94.59 94.03 93.96 93.63 93.85 93.35 93.21 94.06 94.19 93.97 93.92 94.03 94.53 93.96 93.90 93.82 94.00 93.82 93.31 93.73 94.26 93.74 93.65 93.56 93.09 93.14
90.81 90.62 90.69 90.68 90.83 91.33 91.71 92.17 92.80 92.93 93.10 93.04 92.91 93.79 93.89 94.05 93.71 93.81 93.97 94.11 94.24 94.28 94.15 94.10 93.96 94.47 94.53 94.02 93.86 93.45 93.64 93.51 93.92 94.44 94.75 94.33 93.88 94.17 94.13 93.80 93.60 93.58 94.04 93.93 93.82 93.71 93.57 93.46 93.34 93.29 93.24 93.16
90.68 90.59 90.86 90.74 91.08 91.21 91.19 91.78 92.17 92.96 93.21 92.78 93.67 93.67 93.64 94.04 94.12 93.74 93.93 94.15 94.21 94.19 94.10 93.95 94.19 94.23 94.34 94.14 93.67 93.75 93.59 93.68 93.64 94.72 94.33 94.26 93.99 94.23 93.93 93.68 93.66 93.62 94.13 94.21 94.06 94.08 94.01 94.22 93.95 93.57 93.32 93.22
