ncols 52
nrows 52
xllcorner 436736
yllcorner 5715968
cellsize 10
NODATA_value -9999
94.75 94.80 94.78 94.76 94.72 94.69 94.65 94.58 94.61 94.67 94.31 94.29 94.49 94.62 94.78 94.92 95.03 95.15 95.24 95.36 95.46 95.55 95.67 95.81 95.88 95.94 96.01 96.05 96.12 96.22 96.32 96.30 96.18 96.09 96.39 96.49 96.59 96.54 96.59 96.60 96.64 96.65 96.69 96.78 96.74 96.69 96.73 96.74 96.71 96.69 96.72 96.74
94.85 94.94 94.92 94.87 94.85 94.85 94.79 94.77 94.73 94.74 93.70 94.38 94.51 94.70 94.86 95.00 95.13 95.24 95.35 95.43 95.54 95.64 95.73 95.88 95.97 96.06 96.10 96.16 96.24 96.31 96.39 96.39 96.25 96.16 96.35 96.68 96.63 96.62 96.70 96.74 96.78 96.82 96.87 96.83 96.79 96.71 96.78 96.76 96.75 96.74 96.78 96.81
94.99 95.02 95.05 95.02 95.01 94.97 94.95 94.91 94.82 94.84 94.58 94.54 94.57 94.79 94.96 95.12 95.21 95.34 95.44 95.54 95.62 95.71 95.82 95.95 96.06 96.15 96.22 96.26 96.32 96.38 96.43 96.41 96.31 96.32 96.33 96.79 96.65 96.76 96.87 96.90 96.88 96.83 96.90 96.97 96.90 96.87 96.85 96.86 96.85 96.88 96.88 96.92
95.08 95.14 95.19 95.18 95.14 95.12 95.11 95.12 94.96 94.95 94.96 94.66 94.63 94.86 95.03 95.20 95.33 95.44 95.55 95.64 95.72 95.82 95.91 96.03 96.15 96.25 96.37 96.34 96.40 96.44 96.50 96.53 96.52 96.64 96.81 96.84 96.86 96.82 96.88 96.99 97.00 97.00 96.98 96.97 97.00 97.04 96.97 96.96 96.96 96.96 96.98 96.97
95.23 95.32 95.31 95.29 95.29 95.26 95.30 95.15 95.03 95.02 95.15 94.69 94.77 94.96 95.16 95.28 95.42 95.57 95.67 95.75 95.83 95.92 96.02 96.13 96.26 96.40 96.49 96.53 96.62 96.69 96.73 96.72 96.72 96.67 96.73 96.89 96.98 97.00 96.96 97.02 97.10 97.18 97.20 97.16 97.09 97.10 96.98 97.01 96.99 96.98 96.93 96.90
95.39 95.45 95.45 95.51 95.60 95.42 95.35 95.28 95.22 95.17 95.28 94.75 94.90 95.02 95.24 95.40 95.57 95.66 95.77 95.85 95.94 96.11 96.25 96.32 96.46 96.56 96.77 96.77 96.79 96.82 96.83 96.88 96.85 96.75 96.83 96.94 97.07 97.19 97.20 97.21 97.16 97.13 97.16 97.19 97.21 97.07 96.94 96.93 96.90 96.94 97.00 97.05
95.54 95.60 95.62 95.71 95.60 95.56 95.50 95.46 95.43 95.41 95.36 95.29 95.13 95.12 95.36 95.52 95.67 95.82 95.97 96.05 96.17 96.26 96.46 96.50 96.55 96.67 96.92 96.89 96.90 96.93 96.96 96.97 96.96 96.76 97.12 97.17 97.16 97.17 97.22 97.28 97.27 97.22 97.16 97.10 97.08 96.97 97.04 97.00 97.06 97.15 97.19 97.27
95.75 95.89 95.83 95.81 95.78 95.75 95.73 95.66 95.65 95.58 95.51 95.64 95.30 95.28 95.54 95.68 95.86 95.97 96.15 96.18 96.26 96.40 96.56 96.65 96.71 96.71 96.99 96.94 96.97 97.00 97.08 97.08 97.08 96.87 97.14 97.27 97.32 97.28 97.22 97.19 97.15 97.11 97.12 97.12 97.19 97.35 97.23 97.24 97.27 97.29 97.35 97.42
95.98 95.94 95.94 95.92 95.93 95.89 95.86 95.83 95.77 95.69 95.64 95.73 95.45 95.37 95.63 95.86 95.96 96.10 96.21 96.32 96.41 96.45 96.61 96.81 96.84 96.96 97.17 97.02 97.07 97.10 97.17 97.20 97.18 96.94 97.10 97.21 97.27 97.26 97.30 97.15 97.24 97.41 97.48 97.44 97.43 97.43 97.38 97.40 97.46 97.44 97.54 97.54
96.03 96.02 96.04 96.07 96.04 96.02 95.99 95.95 95.89 95.81 95.78 95.81 95.79 95.65 95.81 95.88 96.00 96.11 96.25 96.40 96.49 96.52 96.69 96.84 96.90 97.02 97.16 97.27 97.18 97.21 97.26 97.33 97.32 97.08 97.21 97.35 97.36 97.49 97.55 97.53 97.54 97.50 97.51 97.51 97.47 97.53 97.55 97.55 97.57 97.61 97.63 97.65
96.11 96.16 96.17 96.14 96.14 96.14 96.08 96.07 96.03 95.96 95.90 95.90 96.05 95.78 95.92 96.08 96.06 96.19 96.30 96.43 96.60 96.79 96.95 97.06 97.10 97.10 97.16 97.35 97.28 97.34 97.37 97.45 97.49 97.44 97.58 97.74 97.66 97.57 97.64 97.59 97.56 97.56 97.61 97.61 97.67 97.68 97.67 97.71 97.71 97.68 97.71 97.71
96.26 96.26 96.26 96.28 96.28 96.23 96.22 96.21 96.16 96.11 96.04 96.03 96.17 95.42 96.06 96.04 96.22 96.46 96.55 96.62 96.74 96.88 96.95 97.03 97.17 97.28 97.34 97.39 97.43 97.48 97.54 97.65 97.65 97.68 97.86 97.75 97.74 97.79 97.74 97.69 97.72 97.75 97.72 97.78 97.76 97.78 97.79 97.84 97.78 97.75 97.89 97.87
96.37 96.36 96.39 96.38 96.40 96.38 96.36 96.34 96.31 96.25 96.19 96.21 96.27 96.18 96.10 96.10 96.32 96.46 96.58 96.63 96.81 97.05 97.18 97.23 97.32 97.33 97.38 97.50 97.60 97.64 97.44 97.35 97.42 97.60 98.00 97.78 97.90 97.90 97.93 97.83 97.83 97.85 97.87 97.87 97.92 97.90 97.85 98.01 97.99 97.97 98.02 98.05
96.51 96.50 96.50 96.54 96.55 96.54 96.53 96.50 96.44 96.43 96.36 96.31 96.37 96.50 96.12 96.23 96.39 96.60 96.74 96.88 97.00 97.15 97.26 97.32 97.36 97.37 97.43 97.49 97.53 97.37 97.34 97.38 97.91 97.92 98.13 97.93 98.05 98.09 98.12 98.04 97.96 97.95 97.96 97.96 98.04 98.06 98.11 98.16 98.09 98.08 98.11 98.18
96.63 96.65 96.66 96.68 96.71 96.71 96.70 96.62 96.62 96.61 96.54 96.50 96.41 96.54 96.32 96.51 96.58 96.66 96.83 96.97 97.16 97.32 97.44 97.46 97.46 97.51 97.53 97.52 97.63 97.71 97.68 97.66 97.88 98.16 98.26 98.14 98.26 98.24 98.14 98.11 98.07 98.18 98.14 98.20 98.20 98.19 98.25 98.28 98.26 98.25 98.24 98.29
96.81 96.81 96.82 96.87 96.85 96.85 96.85 96.79 96.81 96.79 96.72 96.68 96.62 96.67 96.63 96.47 96.63 96.81 96.95 97.11 97.30 97.44 97.54 97.59 97.58 97.62 97.65 97.67 97.85 97.86 97.87 97.79 97.90 98.35 98.32 98.35 98.34 98.30 98.31 98.36 98.32 98.32 98.31 98.35 98.35 98.33 98.37 98.42 98.46 98.42 98.38 98.38
96.96 96.99 96.99 96.96 97.01 97.03 96.99 97.00 96.99 96.98 96.92 96.89 96.84 96.85 96.88 96.60 96.82 96.93 97.07 97.24 97.45 97.57 97.64 97.70 97.71 97.78 97.83 97.85 97.95 98.05 98.07 98.04 97.99 98.45 98.39 98.41 98.49 98.47 98.50 98.46 98.49 98.46 98.46 98.50 98.49 98.49 98.54 98.57 98.61 98.55 98.51 98.56
97.17 97.12 97.10 97.13 97.18 97.14 97.19 97.18 97.18 97.15 97.14 97.12 97.03 96.92 96.97 96.29 97.01 97.12 97.28 97.38 97.51 97.62 97.75 97.82 97.85 97.90 97.98 97.99 98.02 98.16 98.25 98.21 98.18 98.40 98.57 98.60 98.60 98.58 98.59 98.59 98.60 98.59 98.62 98.67 98.64 98.67 98.66 98.71 98.76 98.75 98.69 98.70
97.28 97.26 97.25 97.31 97.32 97.34 97.40 97.40 97.38 97.38 97.35 97.26 97.15 97.06 97.11 96.97 97.15 97.28 97.41 97.51 97.63 97.73 97.85 97.91 97.93 98.00 98.08 98.14 98.17 98.39 98.44 98.40 98.40 98.47 98.62 98.67 98.68 98.69 98.74 98.73 98.72 98.73 98.77 98.79 98.81 98.83 98.86 98.90 98.96 98.95 98.89 98.82
97.42 97.44 97.47 97.46 97.47 97.53 97.58 97.61 97.62 97.55 97.47 97.38 97.29 97.22 97.26 97.29 97.29 97.47 97.65 97.67 97.74 97.86 97.96 98.04 98.14 98.10 98.27 98.40 98.46 98.52 98.61 98.59 98.53 98.53 98.61 98.69 98.73 98.76 98.80 98.81 98.80 98.85 98.91 98.94 98.99 99.04 99.02 99.08 99.09 99.09 99.07 99.04
97.58 97.61 97.58 97.60 97.67 97.74 97.79 97.82 97.76 97.69 97.61 97.57 97.47 97.38 97.36 97.39 96.86 97.67 97.75 97.77 97.92 98.06 98.05 98.29 98.34 98.42 98.53 98.59 98.64 98.67 98.74 98.78 98.74 98.71 98.70 98.68 98.72 98.80 98.85 98.89 98.93 98.97 99.05 99.08 99.15 99.18 99.23 99.22 99.26 99.26 99.24 99.16
97.69 97.71 97.75 97.82 97.88 97.96 97.96 97.93 97.87 97.86 97.81 97.74 97.65 97.56 97.51 97.60 97.65 97.75 97.93 97.93 98.15 98.29 98.39 98.49 98.52 98.58 98.67 98.73 98.75 98.83 98.89 98.93 98.94 98.90 98.91 98.90 98.97 99.02 99.04 99.14 99.19 99.22 99.24 99.24 99.26 99.36 99.39 99.38 99.41 99.44 99.39 99.30
97.79 97.87 97.95 98.01 98.07 98.10 98.10 98.08 98.07 98.01 97.98 97.91 97.82 97.74 97.71 97.82 97.93 98.03 98.12 98.30 98.42 98.50 98.58 98.64 98.72 98.76 98.79 98.87 98.92 98.97 99.02 99.08 99.10 99.12 99.12 99.15 99.22 99.29 99.33 99.35 99.39 99.45 99.49 99.49 99.49 99.47 99.49 99.49 99.54 99.58 99.56 99.51
97.95 98.07 98.14 98.19 98.19 98.23 98.25 98.25 98.21 98.16 98.14 98.07 98.03 97.90 97.90 97.93 97.98 98.03 98.39 98.46 98.51 98.62 98.71 98.79 98.87 98.88 98.95 98.99 99.04 99.14 99.22 99.24 99.28 99.31 99.35 99.38 99.42 99.46 99.52 99.57 99.57 99.66 99.69 99.73 99.68 99.66 99.66 99.65 99.72 99.81 99.79 99.80
98.18 98.21 98.27 98.29 98.33 98.38 98.39 98.42 98.37 98.35 98.28 98.26 98.18 98.11 98.10 98.07 98.16 98.33 98.51 98.61 98.66 98.75 98.88 98.92 98.97 99.03 99.06 99.16 99.24 99.32 99.37 99.43 99.44 99.48 99.53 99.59 99.64 99.67 99.71 99.76 99.77 99.81 99.85 99.88 99.90 99.85 99.88 99.86 99.90 100.01 100.06 99.99
98.31 98.34 98.36 98.43 98.46 98.51 98.58 98.57 98.55 98.50 98.46 98.42 98.37 98.32 98.28 98.26 98.36 98.59 98.68 98.83 98.85 98.92 98.98 99.07 99.17 99.19 99.23 99.32 99.42 99.47 99.54 99.60 99.66 99.71 99.75 99.79 99.80 99.85 99.90 99.93 99.93 99.99 100.01 100.01 100.06 100.04 100.04 100.02 100.01 99.99 100.00 100.04
98.43 98.45 98.51 98.53 98.62 98.65 98.72 98.72 98.70 98.69 98.64 98.62 98.57 98.53 98.47 98.46 98.51 98.66 98.31 99.07 99.10 99.08 99.17 99.23 99.31 99.35 99.42 99.46 99.54 99.65 99.72 99.78 99.86 99.89 99.95 99.96 99.99 100.02 100.05 100.07 100.11 100.12 100.15 100.14 100.03 100.06 100.04 100.10 100.00 100.07 100.10 100.14
98.54 98.58 98.63 98.69 98.74 98.79 98.84 98.90 98.88 98.85 98.82 98.78 98.79 98.73 98.68 98.70 98.84 98.71 99.05 99.26 99.27 99.31 99.34 99.39 99.46 99.50 99.56 99.65 99.74 99.82 99.88 99.98 100.04 100.10 100.12 100.12 100.17 100.18 100.20 100.20 100.26 100.20 100.26 100.26 100.15 100.13 100.09 100.24 100.07 100.22 100.33 100.31
98.65 98.71 98.77 98.82 98.89 98.94 98.99 99.04 99.06 99.03 99.00 98.97 98.93 98.91 98.88 98.98 98.97 99.04 99.26 99.43 99.47 99.55 99.53 99.59 99.65 99.72 99.78 99.82 99.91 100.00 100.07 100.19 100.24 100.30 100.29 100.31 100.30 100.33 100.18 100.34 100.43 100.37 100.36 100.32 100.23 100.15 100.13 100.12 100.24 100.26 100.29 100.35
98.76 98.84 98.88 98.93 99.01 99.10 99.12 99.19 99.21 99.21 99.19 99.15 99.13 99.12 99.04 99.11 99.19 99.26 99.52 99.02 99.75 99.76 99.75 99.75 99.81 99.88 99.94 100.02 100.10 100.19 100.27 100.41 100.47 100.50 100.47 100.29 100.54 100.57 100.53 100.51 100.50 100.45 100.42 100.33 100.29 100.24 100.21 100.11 100.35 100.32 100.35 100.38
98.91 98.93 98.98 99.05 99.14 99.22 99.26 99.31 99.36 99.38 99.35 99.35 99.35 99.25 99.29 99.29 99.27 99.42 99.69 99.75 99.86 99.93 99.90 99.94 99.97 100.05 100.12 100.20 100.32 100.42 100.51 100.60 100.49 100.64 100.69 100.70 100.71 100.68 100.60 100.54 100.51 100.44 100.46 100.41 100.37 100.34 100.31 100.18 100.25 100.29 100.35 100.38
99.00 99.05 99.07 99.16 99.26 99.35 99.42 99.46 99.49 99.50 99.50 99.51 99.43 99.47 99.47 99.48 99.49 99.54 99.77 100.03 99.95 100.01 100.08 100.12 100.21 100.27 100.35 100.44 100.56 100.47 100.69 100.77 100.82 100.85 100.82 100.83 100.80 100.74 100.65 100.57 100.54 100.52 100.49 100.44 100.43 100.40 100.37 100.27 100.18 100.36 100.40 100.38
99.10 99.10 99.18 99.27 99.38 99.46 99.54 99.56 99.58 99.58 99.64 99.58 99.65 99.65 99.69 99.68 99.65 99.69 99.90 100.11 99.61 100.32 100.28 100.37 100.50 100.56 100.46 100.75 100.90 100.87 100.90 100.92 100.96 100.95 100.93 100.88 100.86 100.78 100.69 100.59 100.54 100.51 100.49 100.50 100.46 100.46 100.42 100.33 100.21 100.41 100.42 100.47
99.18 99.25 99.30 99.39 99.47 99.57 99.63 99.62 99.61 99.65 99.68 99.78 99.81 99.82 99.82 99.80 99.81 99.84 100.00 100.21 100.38 100.45 100.52 100.49 100.71 100.85 100.95 101.03 101.07 101.05 101.02 101.00 101.03 101.01 100.96 100.89 100.85 100.78 100.70 100.60 100.54 100.54 100.50 100.49 100.46 100.48 100.44 100.39 100.31 100.44 100.46 100.50
99.35 99.36 99.40 99.47 99.55 99.60 99.62 99.65 99.73 99.77 99.84 99.90 99.99 99.97 99.95 99.92 99.92 100.04 100.08 100.30 100.60 100.46 100.63 100.81 100.86 100.94 101.05 101.11 101.17 101.15 101.10 101.09 101.05 101.03 101.00 100.90 100.86 100.77 100.71 100.64 100.58 100.53 100.52 100.51 100.49 100.50 100.48 100.42 100.37 100.34 100.34 100.43
99.46 99.49 99.51 99.57 99.58 99.61 99.69 99.79 99.94 99.96 100.00 100.08 100.10 100.11 100.06 100.05 100.10 100.19 100.27 100.44 100.63 100.71 100.64 100.82 100.90 100.99 101.10 101.18 101.29 101.28 101.21 101.15 101.12 101.07 101.03 100.93 100.84 100.80 100.74 100.67 100.58 100.56 100.55 100.51 100.49 100.51 100.49 100.43 100.40 100.26 100.33 100.32
99.58 99.62 99.62 99.61 99.65 99.71 99.87 100.05 100.09 100.12 100.15 100.20 100.25 100.21 100.19 100.21 100.26 100.34 100.39 100.47 100.68 101.10 100.76 100.92 100.98 101.07 101.12 101.26 101.37 101.40 101.30 101.22 101.18 101.10 101.02 100.93 100.85 100.83 100.75 100.71 100.63 100.56 100.55 100.52 100.51 100.48 100.49 100.45 100.38 100.30 100.38 100.30
99.70 99.71 99.69 99.69 99.74 99.91 100.05 100.10 100.15 100.22 100.26 100.32 100.34 100.32 100.32 100.34 100.40 100.48 100.53 100.57 100.74 101.00 101.24 101.02 101.07 101.15 101.23 101.37 101.44 101.47 101.39 101.26 101.19 101.10 101.03 100.98 100.87 100.84 100.79 100.72 100.67 100.60 100.56 100.54 100.52 100.50 100.49 100.47 100.42 100.35 100.32 100.25
99.80 99.76 99.73 99.76 99.94 100.05 100.10 100.17 100.24 100.30 100.35 100.41 100.44 100.43 100.44 100.45 100.52 100.57 100.65 100.72 100.83 101.04 101.42 101.04 101.19 101.29 101.32 101.40 101.49 101.54 101.46 101.29 101.20 101.15 101.07 101.01 100.96 100.87 100.84 100.77 100.69 100.62 100.60 100.57 100.56 100.52 100.51 100.51 100.42 100.36 100.27 100.32
99.88 99.83 99.84 99.97 100.07 100.10 100.20 100.26 100.31 100.36 100.43 100.46 100.51 100.50 100.55 100.57 100.62 100.68 100.75 100.84 100.91 101.09 101.26 101.64 101.30 101.34 101.37 101.44 101.53 101.62 101.52 101.32 101.25 101.21 101.17 101.10 101.04 100.94 100.91 100.83 100.78 100.71 100.62 100.61 100.59 100.59 100.57 100.52 100.46 100.39 100.28 100.35
99.93 99.94 100.01 100.10 100.13 100.21 100.26 100.33 100.37 100.40 100.50 100.54 100.54 100.60 100.64 100.67 100.73 100.77 100.87 100.97 101.05 101.18 101.24 101.81 101.31 101.46 101.52 101.54 101.63 101.69 101.62 101.42 101.30 101.28 101.25 101.19 101.12 101.04 101.00 100.91 100.85 100.78 100.71 100.70 100.66 100.59 100.57 100.54 100.48 100.38 100.33 100.31
99.97 100.01 100.10 100.12 100.21 100.28 100.34 100.40 100.42 100.51 100.56 100.61 100.64 100.68 100.71 100.77 100.81 100.89 100.97 101.07 101.23 101.47 101.82 101.75 101.94 101.57 101.58 101.65 101.71 101.78 101.76 101.60 101.47 101.42 101.38 101.30 101.21 101.16 101.06 101.03 100.97 100.89 100.79 100.74 100.69 100.66 100.61 100.56 100.52 100.40 100.35 100.25
100.09 100.16 100.18 100.23 100.29 100.33 100.39 100.43 100.51 100.57 100.62 100.66 100.69 100.71 100.79 100.87 100.92 101.00 101.06 101.23 101.50 101.79 101.60 101.63 101.91 101.56 101.73 101.79 101.80 101.88 101.91 101.79 101.64 101.57 101.49 101.44 101.35 101.29 101.20 101.11 101.05 100.96 100.88 100.79 100.73 100.71 100.64 100.59 100.53 100.45 100.35 100.23
100.23 100.28 100.32 100.36 100.38 100.41 100.44 100.51 100.54 100.61 100.68 100.72 100.77 100.80 100.88 100.93 101.02 101.11 101.24 101.51 101.78 101.59 101.64 101.73 101.90 102.18 101.84 101.85 101.90 101.98 102.02 101.94 101.78 101.68 101.61 101.53 101.43 101.37 101.29 101.22 101.10 101.05 100.93 100.83 100.78 100.70 100.66 100.63 100.56 100.46 100.38 100.26
100.35 100.36 100.43 100.46 100.46 100.48 100.52 100.57 100.64 100.69 100.73 100.79 100.84 100.89 100.96 101.03 101.10 101.28 101.50 101.71 101.58 101.62 101.71 101.78 101.93 102.14 101.81 102.01 102.06 102.09 102.12 102.08 101.93 101.79 101.71 101.60 101.53 101.43 101.36 101.29 101.20 101.11 101.00 100.87 100.77 100.72 100.68 100.64 100.58 100.49 100.40 100.30
100.43 100.45 100.50 100.53 100.57 100.54 100.56 100.62 100.69 100.73 100.81 100.88 100.96 100.98 101.05 101.10 101.27 101.47 101.54 101.57 101.60 101.68 101.76 101.86 101.99 102.15 102.54 102.09 102.12 102.16 102.20 102.20 102.04 101.89 101.79 101.68 101.58 101.48 101.40 101.35 101.23 101.13 101.00 100.86 100.74 100.70 100.69 100.65 100.58 100.52 100.42 100.30
100.51 100.52 100.57 100.62 100.64 100.64 100.67 100.68 100.72 100.82 100.88 100.96 101.02 101.09 101.17 101.33 101.61 101.56 101.57 101.60 101.69 101.82 101.90 102.00 102.07 102.22 102.43 102.07 102.24 102.26 102.29 102.27 102.14 101.96 101.85 101.73 101.61 101.50 101.42 101.33 101.24 101.10 101.02 100.88 100.75 100.69 100.68 100.64 100.59 100.52 100.41 100.30
100.58 100.56 100.63 100.66 100.70 100.76 100.77 100.78 100.83 100.88 100.99 101.06 101.15 101.27 101.46 101.76 101.53 101.58 101.61 101.72 101.85 101.99 102.10 102.19 102.23 102.39 102.51 102.88 102.32 102.35 102.36 102.33 102.20 102.00 101.85 101.75 101.63 101.52 101.44 101.31 101.26 101.14 101.03 100.90 100.76 100.69 100.69 100.63 100.57 100.50 100.41 100.29
100.67 100.68 100.71 100.70 100.77 100.83 100.85 100.90 100.93 100.96 101.04 101.14 101.25 101.51 101.75 101.49 101.56 101.59 101.67 101.81 101.97 102.12 102.20 102.21 102.32 102.36 102.49 102.61 102.29 102.43 102.43 102.31 102.17 101.97 101.85 101.76 101.64 101.52 101.42 101.32 101.22 101.11 101.01 100.93 100.81 100.74 100.68 100.64 100.58 100.48 100.39 100.29
100.80 100.76 100.76 100.77 100.80 100.85 100.92 100.96 100.99 101.01 101.07 101.20 101.46 101.69 101.48 101.54 101.57 101.64 101.72 101.85 102.03 102.15 102.19 102.23 102.25 102.26 102.35 102.47 102.92 102.40 102.38 102.27 102.10 101.93 101.82 101.72 101.60 101.50 101.41 101.30 101.23 101.12 101.02 100.94 100.84 100.75 100.70 100.64 100.55 100.46 100.40 100.31
100.92 100.83 100.79 100.79 100.85 100.88 100.96 101.02 101.04 101.06 101.18 101.42 101.57 101.40 101.50 101.55 101.62 101.69 101.79 101.92 102.06 102.13 102.19 102.20 102.16 102.17 102.18 102.29 102.44 102.24 102.29 102.26 102.09 101.91 101.79 101.68 101.60 101.50 101.37 101.30 101.21 101.14 101.01 100.96 100.85 100.75 100.69 100.67 100.66 100.64 100.50 100.44
101.06 100.90 100.81 100.85 100.85 100.89 101.00 101.04 101.07 101.19 101.38 101.50 101.33 101.42 101.49 101.61 101.71 101.80 101.91 101.99 102.07 102.11 102.16 102.14 102.12 102.13 102.15 102.21 102.27 102.63 102.19 102.18 102.06 101.91 101.76 101.68 101.60 101.49 101.37 101.26 101.22 101.12 101.04 100.95 100.98 100.90 100.84 100.72 100.74 100.75 100.65 100.64
