ncols 52
nrows 52
xllcorner 436736
yllcorner 5715456
cellsize 10
NODATA_value -9999
101.07 100.94 100.87 100.85 100.86 100.90 100.96 101.04 101.10 101.23 101.47 101.32 101.33 101.39 101.46 101.63 101.75 101.85 101.92 101.99 102.07 102.10 102.14 102.12 102.10 102.10 102.17 102.20 102.25 102.61 102.17 102.15 102.06 101.92 101.76 101.67 101.60 101.47 101.37 101.26 101.20 101.12 101.06 100.99 101.03 100.89 100.85 100.77 100.79 100.72 100.64 100.60
101.10 101.12 101.05 100.86 100.92 100.95 100.99 101.07 101.24 101.56 101.31 101.30 101.32 101.40 101.57 101.76 101.85 101.92 101.97 102.04 102.11 102.11 102.10 102.06 102.06 102.10 102.11 102.10 102.14 102.27 102.03 102.06 102.05 101.94 101.74 101.61 101.54 101.46 101.36 101.25 101.34 101.21 101.13 101.08 101.02 101.03 100.99 100.96 100.43 101.07 101.12 100.81
101.05 101.24 101.11 100.99 100.96 101.04 101.08 101.27 101.57 101.24 101.32 101.32 101.43 101.49 101.69 101.84 101.90 101.91 102.01 102.12 102.13 102.10 102.04 102.01 102.04 102.06 102.08 102.07 102.10 102.11 102.48 101.96 102.01 101.91 101.75 101.62 101.61 101.50 101.47 101.37 101.33 101.29 101.25 101.27 100.71 101.21 101.35 101.12 100.81 100.76 100.74 100.63
101.08 101.11 101.29 101.15 101.10 101.16 101.29 101.51 101.24 101.31 101.34 101.42 101.51 101.64 101.74 101.79 101.84 101.93 102.03 102.12 102.14 102.10 102.04 102.05 102.02 102.02 102.04 102.06 102.04 102.03 102.10 101.87 101.97 102.04 101.91 101.76 101.67 101.55 101.50 101.43 101.07 101.37 101.68 101.42 101.02 100.90 100.94 100.89 100.82 100.71 100.64 100.57
101.06 101.07 100.90 101.29 101.11 101.27 101.40 101.19 101.27 101.28 101.37 101.45 101.58 101.65 101.70 101.77 101.84 101.90 101.99 102.10 102.14 102.15 102.10 102.05 102.02 102.02 102.04 102.01 102.00 101.95 101.93 102.36 101.89 102.04 101.95 101.82 101.39 101.67 102.00 101.75 101.28 101.21 101.22 101.15 101.02 100.95 100.90 100.92 100.85 100.79 100.75 100.60
101.01 101.00 101.11 101.01 101.29 101.29 101.12 101.24 101.22 101.35 101.44 101.51 101.56 101.64 101.69 101.77 101.82 101.89 101.99 102.09 102.16 102.17 102.13 102.07 102.02 102.05 102.01 101.96 101.99 101.92 101.91 102.01 102.07 102.07 102.30 102.09 101.60 101.47 101.43 101.36 101.31 101.24 101.20 101.18 101.11 100.99 100.97 100.93 100.90 100.92 100.83 100.70
101.01 101.01 101.09 101.14 101.33 101.03 101.20 101.21 101.28 101.39 101.49 101.54 101.57 101.60 101.69 101.73 101.79 101.90 102.00 102.11 102.17 102.17 102.14 102.07 102.06 102.01 101.98 101.96 101.96 101.88 101.85 101.99 102.00 101.88 101.85 101.76 101.56 101.48 101.38 101.37 101.40 101.28 101.26 101.18 101.13 101.12 101.07 100.98 100.91 100.90 100.86 100.74
101.04 101.06 101.12 101.36 101.30 101.32 101.31 101.33 101.33 101.43 101.51 101.58 101.62 101.64 101.68 101.76 101.85 101.95 102.07 102.11 102.13 102.12 102.11 102.06 102.05 102.00 101.92 101.94 101.88 101.85 101.81 101.82 101.88 101.92 101.81 101.76 101.67 101.54 101.44 101.42 101.39 101.37 101.31 101.25 101.13 101.04 101.08 101.03 100.93 100.88 100.84 100.73
101.06 101.07 101.38 101.26 101.19 101.32 101.01 101.41 101.41 101.41 101.50 101.59 101.65 101.69 101.73 101.81 101.92 102.00 102.06 102.07 102.09 102.08 102.06 102.04 101.99 101.90 101.92 101.87 101.84 101.80 101.78 101.75 101.75 101.89 101.90 101.79 101.72 101.69 101.60 101.52 101.41 101.30 101.28 101.22 101.14 101.07 101.05 100.95 100.91 100.89 100.84 100.75
101.04 101.11 101.25 101.16 101.15 101.28 101.51 101.36 101.48 101.46 101.47 101.59 101.67 101.72 101.79 101.83 101.95 102.00 102.00 102.01 102.03 102.02 101.97 101.96 101.87 101.89 101.84 101.83 101.76 101.74 101.74 101.71 101.69 101.74 101.84 101.79 101.82 101.67 101.66 101.53 101.39 101.29 101.22 101.19 101.09 101.10 100.99 100.95 100.93 100.92 100.89 100.79
100.97 101.23 101.14 101.15 101.17 101.25 101.39 101.66 101.50 101.50 101.47 101.57 101.67 101.76 101.83 101.88 101.91 101.91 101.95 101.96 101.95 101.90 101.89 101.86 101.79 101.79 101.77 101.73 101.72 101.68 101.68 101.67 101.68 101.70 101.84 101.84 101.65 101.78 101.62 101.52 101.38 101.26 101.22 101.14 101.13 101.07 101.04 100.98 100.92 100.89 100.88 100.82
101.23 101.14 101.14 101.15 101.18 101.26 101.32 101.50 101.69 101.53 101.51 101.52 101.60 101.79 101.83 101.84 101.86 101.86 101.88 101.86 101.83 101.81 101.79 101.73 101.74 101.70 101.67 101.67 101.65 101.64 101.63 101.66 101.68 101.63 101.66 101.80 101.90 101.75 101.65 101.44 101.42 101.29 101.21 101.18 101.11 101.02 100.97 100.91 100.82 100.78 100.82 100.85
101.12 101.15 101.15 101.16 101.20 101.24 101.30 101.38 101.58 101.56 101.57 101.58 101.63 101.74 101.79 101.81 101.78 101.79 101.77 101.72 101.73 101.71 101.65 101.67 101.62 101.60 101.61 101.59 101.60 101.58 101.60 101.63 101.63 101.63 101.63 101.68 101.81 101.83 101.63 101.48 101.40 101.31 101.17 101.11 100.98 100.90 100.82 100.83 100.82 100.80 100.82 100.90
101.12 101.14 101.15 101.15 101.17 101.24 101.26 101.31 101.48 101.62 101.09 101.58 101.65 101.66 101.71 101.71 101.68 101.69 101.62 101.59 101.64 101.60 101.60 101.57 101.55 101.56 101.54 101.54 101.55 101.55 101.57 101.61 101.62 101.60 101.61 101.62 101.67 101.71 101.62 101.43 101.28 101.15 101.05 100.97 100.94 100.85 100.76 100.79 100.83 100.87 100.93 100.99
101.10 101.11 101.15 101.15 101.18 101.21 101.25 101.30 101.36 101.51 101.75 101.56 101.62 101.60 101.60 101.58 101.59 101.54 101.47 101.54 101.51 101.51 101.48 101.50 101.48 101.47 101.47 101.50 101.51 101.51 101.55 101.57 101.57 101.55 101.55 101.53 101.50 101.53 101.51 101.20 101.16 101.05 100.91 100.87 100.89 100.86 100.86 100.85 100.90 100.93 100.98 101.04
101.06 101.07 101.12 101.15 101.15 101.21 101.25 101.29 101.36 101.43 101.58 101.78 101.61 101.58 101.50 101.54 101.43 101.39 101.43 101.40 101.39 101.39 101.39 101.41 101.42 101.42 101.43 101.44 101.46 101.48 101.50 101.51 101.51 101.48 101.47 101.45 101.41 101.40 101.50 101.44 101.25 101.05 100.99 100.94 100.94 100.93 100.92 100.93 100.94 100.98 101.03 101.09
101.04 101.07 101.07 101.10 101.14 101.18 101.23 101.30 101.35 101.39 101.46 101.55 101.56 101.42 101.32 101.33 101.30 101.31 101.32 101.29 101.27 101.30 101.30 101.33 101.33 101.36 101.39 101.40 101.45 101.44 101.42 101.43 101.42 101.42 101.39 101.38 101.33 101.35 101.33 101.36 101.17 101.03 101.10 101.01 100.98 101.00 100.97 100.98 100.97 101.00 101.05 101.10
100.99 101.02 101.05 101.07 101.11 101.14 101.20 101.26 101.28 101.25 101.21 101.25 101.36 101.18 101.02 101.21 101.18 101.18 101.18 101.18 101.18 101.18 101.22 101.24 101.28 101.31 101.34 101.37 101.39 101.36 101.34 101.31 101.29 101.31 101.32 101.32 101.31 101.27 101.25 101.21 101.24 100.87 101.09 101.12 101.09 101.04 101.02 101.00 101.02 101.03 101.07 101.15
100.95 100.96 100.99 101.02 101.03 101.05 101.10 101.12 101.11 101.05 101.00 101.00 101.12 101.26 100.74 101.16 101.01 101.04 101.02 101.06 101.07 101.12 101.13 101.15 101.21 101.22 101.26 101.27 101.24 101.24 101.19 101.15 101.15 101.17 101.21 101.24 101.25 101.21 101.15 101.12 101.22 101.15 100.86 101.10 101.14 101.05 101.04 101.01 101.02 101.06 101.10 101.15
100.87 100.91 100.94 100.94 100.93 100.92 100.95 100.92 100.92 100.88 100.85 100.82 100.84 100.96 101.24 101.03 101.00 100.91 100.92 100.97 101.00 101.02 101.06 101.08 101.12 101.12 101.10 101.09 101.10 101.07 101.04 100.95 100.98 101.07 101.12 101.17 101.15 101.12 101.04 101.06 101.06 101.06 101.06 100.51 101.12 101.11 101.05 101.03 101.04 101.08 101.12 101.17
100.78 100.86 100.85 100.84 100.81 100.79 100.79 100.79 100.77 100.77 100.75 100.68 100.69 100.74 100.88 101.13 100.85 100.96 100.86 100.88 100.92 100.97 100.98 100.98 100.97 100.94 100.92 100.95 100.95 100.94 100.88 100.82 100.92 101.00 101.04 101.06 101.03 100.97 100.95 100.98 100.99 101.00 101.03 101.29 100.94 101.12 101.09 101.04 101.05 101.07 101.12 101.19
100.69 100.71 100.70 100.71 100.73 100.72 100.68 100.68 100.68 100.67 100.65 100.60 100.59 100.61 100.71 100.88 100.99 100.85 100.82 100.75 100.81 100.86 100.85 100.83 100.79 100.80 100.82 100.85 100.85 100.84 100.81 100.86 100.93 100.94 100.93 100.92 100.89 100.86 100.87 100.93 100.94 100.98 100.98 101.58 101.37 101.04 101.05 101.03 101.03 101.07 101.16 101.18
100.55 100.53 100.53 100.55 100.58 100.61 100.60 100.58 100.57 100.56 100.54 100.51 100.51 100.50 100.52 100.67 100.82 100.51 100.77 100.64 100.68 100.69 100.67 100.61 100.64 100.67 100.72 100.72 100.71 100.72 100.78 100.82 100.84 100.81 100.78 100.78 100.76 100.80 100.86 100.86 100.94 100.89 101.60 101.35 101.51 101.36 101.02 101.08 101.04 101.10 101.15 101.19
100.44 100.40 100.37 100.40 100.46 100.43 100.45 100.43 100.40 100.41 100.46 100.44 100.43 100.39 100.39 100.46 100.61 100.81 100.29 100.67 100.54 100.47 100.46 100.47 100.50 100.54 100.57 100.57 100.60 100.64 100.64 100.68 100.69 100.68 100.69 100.69 100.70 100.74 100.77 100.86 100.67 101.42 101.42 101.40 101.58 101.69 101.36 101.10 101.17 101.15 101.16 101.14
100.32 100.26 100.22 100.25 100.29 100.25 100.22 100.24 100.25 100.31 100.35 100.32 100.33 100.31 100.30 100.34 100.40 100.57 100.78 100.45 100.51 100.30 100.28 100.31 100.35 100.37 100.42 100.43 100.48 100.51 100.54 100.52 100.53 100.57 100.60 100.64 100.64 100.65 100.69 100.14 101.21 101.34 101.44 101.44 101.60 101.75 101.74 100.99 101.07 101.13 101.17 101.16
100.20 100.14 100.12 100.13 100.12 100.08 100.06 100.05 100.12 100.17 100.17 100.19 100.21 100.21 100.22 100.20 100.19 100.25 100.38 100.53 100.29 100.28 100.16 100.17 100.20 100.23 100.28 100.33 100.35 100.40 100.40 100.37 100.41 100.45 100.51 100.53 100.54 100.54 100.21 101.13 101.21 101.36 101.38 101.44 101.61 101.66 101.89 101.87 100.93 101.11 101.15 101.14
100.08 100.01 99.99 100.02 99.96 99.92 99.92 99.94 99.99 100.01 100.00 100.04 100.07 100.08 100.12 100.07 100.01 100.04 100.18 100.25 100.26 100.19 100.08 99.99 100.06 100.13 100.17 100.19 100.21 100.24 100.24 100.26 100.28 100.31 100.37 100.42 100.40 100.88 101.01 101.09 101.23 101.32 101.36 101.49 101.58 101.67 101.73 101.76 101.98 101.05 101.11 101.14
99.96 99.89 99.90 99.90 99.84 99.82 99.84 99.82 99.81 99.81 99.83 99.85 99.89 99.94 99.95 99.94 99.93 99.97 99.99 99.92 100.00 99.97 100.06 99.90 99.91 100.00 100.03 100.05 100.07 100.08 100.10 100.13 100.15 100.17 100.26 100.22 100.92 100.81 100.92 101.04 101.19 101.31 101.44 101.54 101.68 101.68 101.64 101.69 101.77 102.21 101.12 101.04
99.82 99.74 99.75 99.76 99.76 99.76 99.71 99.67 99.65 99.62 99.62 99.66 99.71 99.75 99.77 99.81 99.87 99.89 99.79 99.84 99.81 100.14 99.79 99.89 99.81 99.81 99.87 99.89 99.91 99.95 99.99 100.04 100.04 100.09 100.09 101.00 100.86 100.83 100.89 101.06 101.22 101.40 101.49 101.63 101.69 101.63 101.54 101.52 101.70 101.81 101.73 101.05
99.65 99.60 99.60 99.66 99.64 99.60 99.56 99.53 99.50 99.49 99.46 99.51 99.52 99.54 99.61 99.71 99.72 99.70 99.67 99.68 99.65 99.77 100.01 99.68 99.75 99.68 99.68 99.72 99.75 99.82 99.87 99.90 99.98 99.94 100.60 100.71 100.83 100.86 100.95 101.11 101.26 101.44 101.63 101.74 101.71 101.60 101.58 101.59 101.62 101.79 102.11 101.26
99.52 99.49 99.55 99.57 99.52 99.46 99.42 99.39 99.39 99.36 99.35 99.35 99.35 99.40 99.49 99.49 99.53 99.53 99.54 99.48 99.45 99.55 99.66 99.82 99.65 99.66 99.57 99.58 99.65 99.70 99.75 99.82 99.59 100.33 100.48 100.65 100.79 100.92 101.06 101.15 101.32 101.53 101.69 101.78 101.76 101.72 101.68 101.65 101.60 101.59 101.81 102.15
99.46 99.42 99.46 99.43 99.39 99.33 99.27 99.26 99.24 99.24 99.21 99.22 99.27 99.24 99.29 99.31 99.32 99.39 99.40 99.39 99.35 99.33 99.40 99.55 99.44 99.57 99.53 99.47 99.50 99.58 99.63 98.98 100.18 100.34 100.52 100.61 100.79 100.98 101.15 101.30 101.43 101.57 101.70 101.73 101.69 101.69 101.66 101.62 101.53 101.49 101.59 102.13
99.44 99.40 99.32 99.27 99.22 99.21 99.17 99.13 99.12 99.10 99.11 99.15 99.15 99.14 99.08 99.11 99.16 99.21 99.26 99.28 99.26 99.20 99.24 99.32 99.46 99.12 99.46 99.40 99.40 99.43 99.21 100.00 100.15 100.40 100.54 100.67 100.87 101.03 101.21 101.38 101.48 101.55 101.59 101.67 101.65 101.63 101.61 101.54 101.43 101.52 101.90 102.08
99.38 99.37 99.25 99.15 99.12 99.08 99.07 99.06 99.02 99.02 99.05 99.04 99.00 98.99 98.97 99.02 99.00 99.04 99.08 99.11 99.11 99.08 99.06 99.06 99.14 99.49 99.39 99.35 99.25 99.89 100.05 100.11 100.15 100.37 100.50 100.76 101.03 101.16 101.27 101.45 101.53 101.50 101.55 101.62 101.59 101.60 101.56 101.56 101.72 102.00 102.04 102.21
99.20 99.32 99.20 99.10 99.05 98.99 98.97 98.93 98.94 98.98 98.98 98.92 98.86 98.85 98.92 98.93 98.89 98.87 98.90 98.90 98.92 98.90 98.90 98.85 98.97 99.10 99.45 99.12 99.97 99.92 100.03 100.13 100.25 100.34 100.51 100.81 101.04 101.24 101.36 101.53 101.54 101.52 101.54 101.52 101.54 101.57 101.71 101.89 102.06 102.05 102.13 102.16
99.03 99.07 99.17 99.05 98.93 98.92 98.87 98.86 98.88 98.93 98.81 98.78 98.74 98.76 98.82 98.81 98.78 98.68 98.67 98.68 98.71 98.71 98.69 98.69 98.74 98.71 98.70 99.35 99.79 100.00 100.01 100.11 100.19 100.34 100.53 100.77 101.01 101.22 101.41 101.49 101.55 101.53 101.49 101.43 101.49 101.60 101.87 102.07 102.02 102.04 102.12 101.87
98.83 98.81 98.89 98.95 98.83 98.77 98.77 98.86 98.79 98.75 98.71 98.64 98.62 98.64 98.68 98.70 98.62 98.55 98.50 98.44 98.44 98.47 98.42 98.47 98.52 98.46 99.21 99.31 98.90 99.99 100.04 100.09 100.24 100.38 100.52 100.78 101.03 101.16 101.26 101.40 101.48 101.46 101.42 101.49 101.60 101.85 101.96 101.95 101.98 101.97 101.71 101.58
98.68 98.65 98.62 98.67 98.72 98.69 98.68 98.68 98.64 98.61 98.60 98.54 98.51 98.49 98.51 98.50 98.49 98.44 98.33 98.24 98.17 98.14 98.18 98.21 97.92 99.33 99.27 99.38 99.37 99.16 100.07 100.15 100.24 100.35 100.53 100.73 100.82 101.03 101.15 101.29 101.45 101.45 101.47 101.60 101.82 101.91 101.80 101.92 101.88 101.54 101.57 101.82
98.54 98.49 98.42 98.44 98.52 98.45 98.52 98.48 98.49 98.49 98.46 98.42 98.35 98.28 98.24 98.26 98.27 98.27 98.21 98.07 97.92 97.85 97.86 97.18 99.19 99.28 99.54 99.35 99.44 99.45 99.85 100.12 100.20 100.33 100.51 100.58 100.80 100.92 101.07 101.20 101.24 101.40 101.57 101.65 101.78 101.75 101.74 101.61 101.44 101.43 101.82 101.82
98.41 98.38 98.32 98.38 98.42 98.40 98.39 98.33 98.37 98.34 98.33 98.30 98.20 98.10 97.99 97.96 98.00 98.02 97.97 97.83 97.70 97.60 97.37 99.15 99.19 99.29 99.41 99.55 99.48 99.50 99.57 99.97 100.21 100.33 100.47 100.58 100.65 100.78 100.92 101.00 101.18 101.44 101.66 101.58 101.59 101.58 101.55 101.32 101.42 101.65 101.54 101.62
98.29 98.24 98.31 98.37 98.33 98.30 98.28 98.28 98.25 98.24 98.21 98.17 98.09 97.93 97.79 97.67 97.64 97.62 97.60 97.54 97.46 97.90 99.00 98.99 99.23 99.27 99.43 99.46 99.49 99.51 99.61 99.70 100.11 100.28 100.42 100.53 100.57 100.65 100.79 101.01 101.23 101.58 101.51 101.61 101.45 101.45 101.21 101.34 101.73 101.49 101.56 101.55
98.15 98.22 98.27 98.25 98.21 98.20 98.18 98.19 98.17 98.12 98.05 98.00 97.90 97.76 97.61 97.43 97.28 97.21 97.19 97.22 98.10 98.65 98.73 98.81 99.08 99.24 99.31 99.42 99.54 99.53 99.60 99.81 99.51 100.27 100.39 100.48 100.59 100.63 100.77 101.06 101.35 101.37 101.38 101.42 101.43 101.10 101.37 101.46 101.48 101.42 101.47 101.61
98.24 98.17 98.14 98.18 98.13 98.06 98.06 98.09 98.06 97.96 97.92 97.82 97.68 97.57 97.40 97.17 96.96 96.89 96.84 97.89 98.38 98.53 98.60 98.68 98.86 98.99 99.20 99.38 99.59 99.67 99.64 99.67 99.78 100.09 100.42 100.49 100.59 100.75 100.89 101.26 101.35 101.31 101.26 101.20 100.99 101.02 101.07 101.51 101.43 101.36 101.48 101.72
98.93 98.20 98.15 98.15 98.08 98.00 97.96 97.95 97.92 97.85 97.76 97.63 97.47 97.29 97.07 96.90 96.68 96.54 97.67 100.53 98.34 98.46 98.56 98.66 98.71 98.77 99.03 99.32 99.57 99.60 99.68 99.73 99.80 100.01 100.26 100.55 100.67 100.93 101.15 101.21 101.29 101.28 101.04 100.94 101.25 101.28 101.03 101.19 101.29 101.46 101.53 101.99
99.18 99.04 98.90 98.31 98.06 98.00 97.92 97.86 97.75 97.67 97.57 97.45 97.27 97.05 96.82 96.60 95.86 97.86 101.11 98.45 98.31 98.45 98.47 98.59 98.59 98.70 98.88 99.27 99.43 99.49 99.61 99.68 99.74 99.84 100.10 100.48 101.02 101.01 101.15 101.11 101.21 101.01 100.87 101.01 101.12 101.19 101.24 101.28 101.39 101.43 101.75 101.97
98.04 97.96 99.04 99.01 98.88 98.58 97.83 97.78 97.70 97.57 97.39 97.21 97.02 96.77 96.57 95.56 97.47 101.32 98.35 98.22 98.32 98.58 98.46 98.60 98.69 98.72 98.78 99.10 99.23 99.40 99.51 99.63 99.73 99.82 99.97 100.15 101.00 101.07 101.15 101.15 100.83 101.05 101.14 101.09 101.12 101.24 101.27 101.26 101.40 101.52 101.65 101.58
97.71 97.76 97.85 97.71 98.76 98.94 98.81 98.67 97.62 97.48 97.23 97.03 96.76 96.56 96.25 96.57 100.99 98.66 98.32 98.37 98.32 98.52 98.46 98.50 98.75 98.74 98.76 98.88 99.05 99.19 99.36 99.44 99.71 99.83 99.90 100.43 100.44 101.03 100.92 100.75 100.76 101.05 101.06 100.82 100.94 100.92 101.12 101.39 101.46 101.52 101.52 101.39
97.56 97.57 97.61 97.67 97.64 97.55 98.08 98.83 98.73 98.71 98.10 96.79 96.44 96.20 96.08 100.80 99.03 98.20 98.32 98.32 98.35 98.49 98.51 98.60 98.64 98.75 98.76 98.65 98.79 99.03 99.15 99.32 99.56 99.71 99.91 99.89 100.50 100.79 100.64 100.82 100.77 100.76 100.73 100.76 100.84 101.05 101.14 101.36 101.48 101.41 101.27 101.35
97.40 97.40 97.42 97.44 97.43 97.43 97.34 97.25 97.20 98.58 98.64 98.69 98.46 95.86 96.14 97.84 100.77 99.90 98.42 98.37 98.43 98.50 98.50 98.58 98.67 98.66 98.76 98.71 98.79 98.81 99.11 99.21 99.50 99.77 99.83 100.08 100.04 100.60 100.61 101.11 101.42 100.68 100.65 100.80 100.76 100.92 101.11 101.22 101.36 101.13 101.20 101.43
97.25 97.26 97.29 97.31 97.27 97.22 97.11 96.98 96.79 96.74 96.45 98.11 98.51 98.57 98.54 96.99 96.33 97.69 100.57 99.86 98.59 98.43 98.48 98.51 98.70 98.76 98.84 98.79 98.88 98.84 98.99 99.20 99.40 99.75 100.07 100.30 100.16 100.68 100.51 100.75 100.68 100.74 100.68 100.65 100.82 100.98 101.09 101.09 100.99 101.21 101.16 101.32
97.16 97.18 97.15 97.19 97.16 97.06 96.91 96.70 96.45 96.24 95.89 95.60 95.66 97.36 98.41 98.47 98.50 97.29 96.60 98.12 101.00 99.68 98.53 98.61 98.57 98.70 98.85 98.89 98.88 98.95 98.99 99.17 99.41 99.63 99.96 100.62 100.82 100.70 100.56 100.40 100.64 100.66 100.65 100.76 100.77 101.21 100.98 100.92 101.00 100.96 100.99 101.19
96.98 97.03 97.05 97.06 97.01 96.89 96.70 96.43 96.14 95.94 95.91 96.31 96.41 97.40 96.11 96.72 98.27 98.35 98.42 97.72 96.92 98.26 101.12 99.32 98.71 98.65 98.86 98.72 98.98 99.04 99.10 99.30 99.46 99.46 99.53 100.29 100.74 100.60 100.70 100.44 100.38 100.40 100.63 100.86 100.64 100.72 100.93 100.78 100.99 101.02 101.05 100.93
