ncols 52
nrows 52
xllcorner 437248
yllcorner 5715456
cellsize 10
NODATA_value -9999
100.49 100.11 100.76 100.68 100.44 100.24 100.20 100.17 100.08 99.98 99.95 99.89 99.83 99.76 99.62 99.58 99.54 99.51 99.43 99.36 99.29 99.20 99.12 99.07 98.51 98.56 98.54 98.72 98.86 98.79 98.61 98.50 98.27 98.37 98.35 97.81 97.38 97.08 96.89 96.79 96.61 96.39 96.29 96.21 96.04 95.85 95.69 95.52 95.34 95.19 95.00 94.85
100.71 100.47 100.39 100.36 100.32 100.31 100.22 100.17 100.11 100.12 100.00 99.98 99.97 99.84 99.76 99.71 99.69 99.64 99.58 99.50 99.43 99.38 99.28 99.23 99.00 98.64 98.67 98.80 98.84 98.76 98.56 98.59 98.68 98.68 98.73 98.27 97.48 97.22 97.06 96.92 96.76 96.60 96.48 96.35 96.17 95.99 95.78 95.63 95.45 95.30 95.12 94.94
100.61 100.49 100.39 100.39 100.31 100.31 100.29 100.29 100.25 100.21 100.15 100.13 100.08 99.99 99.90 99.84 99.79 99.80 99.74 99.70 99.62 99.56 99.48 99.40 99.20 98.73 98.74 98.91 98.76 98.88 98.88 98.97 98.93 98.88 98.89 98.48 97.74 97.39 97.21 97.04 96.88 96.69 96.55 96.38 96.19 96.04 95.85 95.68 95.54 95.39 95.21 95.04
100.50 100.51 100.47 100.44 100.40 100.42 100.43 100.41 100.35 100.28 100.32 100.26 100.20 100.10 100.00 100.00 99.94 99.91 99.91 99.84 99.77 99.64 99.57 99.45 99.33 98.78 98.94 99.07 98.93 98.92 98.93 98.93 98.94 98.91 98.81 98.61 97.88 97.42 97.20 96.97 96.79 96.57 96.43 96.29 96.14 96.06 95.92 95.79 95.62 95.47 95.32 95.16
100.60 100.53 100.56 100.52 100.47 100.49 100.49 100.50 100.47 100.44 100.41 100.38 100.32 100.23 100.17 100.12 100.09 100.04 100.03 99.97 99.88 99.76 99.62 99.48 99.44 98.70 98.96 98.92 98.99 98.91 98.95 98.89 98.83 98.74 98.60 98.39 97.75 97.36 97.12 96.88 96.63 96.47 96.38 96.30 96.19 96.09 95.97 95.82 95.67 95.54 95.40 95.21
100.69 100.62 100.55 100.58 100.57 100.56 100.56 100.51 100.54 100.53 100.54 100.51 100.48 100.37 100.32 100.24 100.23 100.19 100.14 100.05 99.92 99.79 99.65 99.51 99.49 98.83 98.91 99.11 99.19 99.43 99.15 99.01 98.62 98.28 98.13 97.85 97.48 97.32 97.06 96.82 96.63 96.53 96.42 96.32 96.23 96.15 96.04 95.88 95.71 95.57 95.41 95.23
100.73 100.62 100.60 100.56 100.59 100.64 100.70 100.65 100.65 100.66 100.65 100.65 100.62 100.56 100.43 100.38 100.29 100.25 100.20 100.10 99.99 99.81 99.65 99.52 99.47 99.30 99.07 99.11 99.08 99.14 99.16 98.72 98.32 98.06 97.75 97.61 97.46 97.29 97.09 96.85 96.67 96.54 96.44 96.33 96.24 96.21 96.08 95.90 95.71 95.51 95.34 95.18
100.72 100.67 100.68 100.65 100.61 100.73 100.75 100.81 100.83 100.82 100.80 100.72 100.71 100.60 100.53 100.44 100.40 100.33 100.21 100.13 100.01 99.87 99.71 99.59 99.45 99.40 99.20 99.10 99.21 99.35 98.90 98.63 98.41 98.03 97.66 97.46 97.40 97.26 97.10 96.87 96.72 96.58 96.49 96.37 96.25 96.15 96.07 95.86 95.67 95.44 95.28 95.09
100.68 100.74 100.68 100.79 100.74 100.77 100.87 100.90 100.92 100.89 100.87 100.83 100.83 100.69 100.54 100.51 100.43 100.39 100.29 100.17 100.01 99.85 99.70 99.58 99.49 99.42 99.26 98.88 98.90 98.96 98.79 98.66 98.25 98.04 97.79 97.60 97.51 97.36 97.08 96.83 96.73 96.61 96.48 96.35 96.19 96.07 96.03 95.87 95.67 95.43 95.23 95.05
100.81 100.75 100.73 100.83 100.83 100.83 100.94 100.96 100.98 101.04 101.01 100.91 100.92 100.79 100.64 100.52 100.46 100.34 100.26 100.14 99.98 99.83 99.69 99.57 99.47 99.41 99.02 98.89 98.82 98.78 98.70 98.43 98.31 98.23 97.92 97.75 97.41 97.30 97.07 96.83 96.69 96.59 96.46 96.35 96.21 96.14 96.08 95.90 95.70 95.47 95.21 95.04
100.85 100.77 100.82 100.86 100.92 101.00 101.06 101.07 101.11 101.15 101.16 101.01 101.00 100.79 100.64 100.54 100.44 100.34 100.21 100.09 99.93 99.79 99.67 99.50 99.42 99.20 98.94 99.15 99.05 98.77 98.59 98.38 98.24 98.18 98.17 97.79 97.54 97.26 97.07 96.85 96.68 96.61 96.49 96.34 96.22 96.14 96.04 95.92 95.71 95.49 95.23 95.04
100.90 100.89 100.87 100.96 101.04 101.14 101.19 101.21 101.22 101.22 101.19 101.05 101.09 100.85 100.67 100.52 100.43 100.32 100.21 100.06 99.91 99.75 99.58 99.43 99.27 99.24 99.21 99.10 99.01 98.79 98.67 98.56 98.57 98.64 98.59 97.81 97.75 97.21 96.99 96.79 96.61 96.62 96.46 96.32 96.21 96.12 96.00 95.90 95.71 95.48 95.23 95.06
100.91 100.98 101.03 101.07 101.11 101.18 101.23 101.22 101.21 101.20 101.15 101.07 101.13 100.88 100.72 100.57 100.43 100.29 100.15 100.02 99.85 99.70 99.56 99.41 99.28 99.21 99.18 99.15 99.03 98.72 98.69 98.64 98.78 98.55 98.47 98.28 97.56 97.09 96.95 96.83 96.68 96.57 96.45 96.31 96.18 96.05 95.92 95.83 95.70 95.48 95.29 95.09
101.00 101.04 101.05 101.07 101.10 101.13 101.17 101.15 101.14 101.11 101.07 101.03 101.10 100.85 100.65 100.50 100.39 100.24 100.12 100.01 99.87 99.71 99.56 99.40 99.23 99.15 99.07 99.07 98.98 98.80 98.71 98.57 98.58 98.36 98.12 97.67 97.58 97.18 97.02 96.89 96.68 96.50 96.36 96.22 96.09 95.95 95.81 95.76 95.62 95.50 95.30 95.10
101.06 101.05 101.04 101.05 101.08 101.10 101.11 101.10 101.06 101.04 101.01 100.96 100.97 100.71 100.54 100.42 100.30 100.18 100.09 99.93 99.79 99.64 99.48 99.35 99.15 99.05 98.92 98.78 98.83 99.00 99.24 99.04 98.39 97.95 97.69 97.47 97.25 97.08 96.89 96.73 96.60 96.45 96.35 96.20 96.07 95.91 95.77 95.67 95.57 95.46 95.28 95.10
101.09 101.10 101.07 101.08 101.07 101.10 101.08 101.07 101.03 100.98 100.95 100.91 100.83 100.62 100.47 100.33 100.21 100.08 99.93 99.82 99.67 99.53 99.37 99.20 99.04 98.95 98.84 98.55 98.61 99.14 98.87 98.98 98.33 97.63 97.49 97.39 97.23 97.08 96.89 96.81 96.62 96.49 96.37 96.21 96.08 95.92 95.78 95.59 95.52 95.38 95.22 95.08
101.12 101.15 101.14 101.11 101.09 101.09 101.10 101.04 100.99 100.93 100.89 100.84 100.79 100.54 100.42 100.30 100.14 99.99 99.85 99.70 99.56 99.42 99.25 99.14 98.98 98.93 98.85 98.79 98.89 98.88 98.79 98.83 98.10 97.84 97.58 97.51 97.29 97.09 96.83 96.89 96.70 96.52 96.34 96.19 96.06 95.89 95.69 95.51 95.39 95.32 95.18 95.01
101.16 101.20 101.19 101.15 101.12 101.10 101.07 101.01 100.95 100.92 100.88 100.83 100.79 100.51 100.38 100.23 100.10 99.91 99.80 99.67 99.53 99.39 99.27 99.12 98.97 98.89 98.88 98.81 98.94 98.90 98.93 98.73 97.93 97.75 97.63 97.52 97.36 97.12 96.93 96.83 96.69 96.48 96.29 96.18 96.00 95.88 95.70 95.50 95.36 95.23 95.09 94.92
101.18 101.25 101.25 101.20 101.13 101.11 101.06 100.98 100.93 100.90 100.90 100.79 100.72 100.49 100.32 100.23 100.08 99.94 99.81 99.66 99.51 99.38 99.24 99.06 98.93 98.86 98.89 98.85 98.89 98.79 98.74 99.04 98.15 97.96 97.79 97.54 97.41 97.21 96.92 96.77 96.62 96.46 96.35 96.20 96.07 95.94 95.75 95.52 95.31 95.08 94.96 94.83
101.19 101.25 101.29 101.24 101.15 101.09 101.04 100.99 100.94 100.90 100.91 100.83 100.72 100.49 100.37 100.22 100.08 99.95 99.79 99.65 99.50 99.36 99.24 99.08 98.96 98.87 98.89 98.90 98.74 98.88 98.64 98.42 98.17 98.02 97.90 97.60 97.44 97.36 96.98 96.84 96.71 96.63 96.45 96.22 96.10 95.96 95.74 95.49 95.24 94.98 94.80 94.67
101.19 101.24 101.27 101.25 101.15 101.10 101.05 101.02 101.02 101.00 100.98 100.82 100.74 100.51 100.34 100.23 100.10 99.95 99.80 99.68 99.54 99.40 99.29 99.15 99.04 98.95 98.80 98.90 98.33 98.39 98.70 98.97 98.32 98.20 97.97 97.59 97.43 97.39 97.18 96.97 96.82 96.65 96.50 96.30 96.12 95.93 95.78 95.51 95.22 94.93 94.68 94.50
101.18 101.24 101.25 101.24 101.18 101.15 101.12 101.07 101.04 101.04 101.01 100.93 100.79 100.54 100.39 100.27 100.13 100.01 99.85 99.74 99.61 99.48 99.31 99.25 99.24 98.97 98.88 98.87 98.28 98.38 98.89 99.34 98.69 98.06 97.84 97.80 97.63 97.25 97.17 96.90 96.86 96.74 96.57 96.39 96.19 95.97 95.80 95.58 95.29 94.95 94.63 94.37
101.21 101.23 101.26 101.25 101.17 101.13 101.10 101.12 101.07 101.02 101.00 100.91 100.81 100.55 100.42 100.35 100.20 100.03 99.93 99.83 99.60 99.51 99.32 99.33 99.24 99.26 99.07 98.89 98.37 98.68 98.34 98.29 98.06 98.25 98.52 97.96 97.37 97.21 96.98 96.87 96.82 96.78 96.65 96.42 96.26 96.04 95.81 95.54 95.19 94.83 94.45 94.19
101.14 101.14 101.17 101.18 101.15 101.14 101.11 101.07 101.04 101.08 101.06 100.94 100.78 100.66 100.52 100.32 100.19 100.08 99.96 99.87 99.71 99.59 99.40 99.32 99.31 99.47 99.12 99.01 98.94 98.90 99.20 99.34 98.33 97.92 97.85 97.73 97.27 97.05 96.82 96.83 96.70 96.71 96.66 96.36 96.21 95.96 95.72 95.48 95.12 94.79 94.42 94.11
101.15 101.12 101.08 101.09 101.15 101.17 101.14 101.12 101.04 101.15 101.04 100.96 100.79 100.67 100.54 100.40 100.26 100.11 99.99 99.88 99.71 99.64 99.43 99.35 99.42 99.53 99.18 99.06 98.79 98.86 99.23 99.43 98.51 97.98 97.85 97.53 97.31 96.96 96.78 96.90 96.90 96.68 96.42 96.28 96.16 95.94 95.69 95.40 95.10 94.74 94.29 94.00
101.15 101.15 101.11 101.10 101.12 101.20 101.13 101.07 101.07 101.04 100.99 100.86 100.72 100.65 100.51 100.49 100.35 100.21 100.02 99.88 99.74 99.84 99.65 99.51 99.59 99.54 99.30 99.14 99.02 98.87 98.89 98.72 98.25 97.98 97.76 97.58 97.40 97.11 96.83 96.77 96.65 96.56 96.29 96.23 96.04 95.83 95.51 95.21 94.79 94.37 94.17 92.87
101.20 101.18 101.19 101.18 101.19 101.26 101.06 101.03 101.12 101.07 100.88 100.78 100.62 100.44 100.36 100.32 100.26 100.14 100.01 99.93 99.93 99.88 99.89 99.70 99.65 99.57 99.43 99.31 99.07 98.85 98.68 98.56 98.49 98.07 97.92 97.76 97.45 97.12 96.88 96.92 96.86 96.52 96.33 96.10 95.90 95.60 95.21 95.01 94.44 93.36 94.64 94.60
101.07 101.14 101.21 101.25 101.28 101.24 101.15 101.04 101.05 101.04 100.93 100.82 100.62 100.46 100.43 100.35 100.28 100.14 100.06 99.79 99.72 99.76 99.63 99.65 99.31 99.47 99.42 99.35 99.22 98.96 98.86 98.89 98.61 98.38 97.98 97.86 97.57 97.26 97.08 96.79 96.53 96.45 96.00 94.53 94.35 95.12 95.30 95.28 95.16 95.08 95.03 95.00
101.04 101.10 101.18 101.23 101.24 101.27 101.24 101.19 101.08 100.99 100.90 100.82 100.73 100.62 100.46 100.42 100.27 100.22 99.99 99.87 99.81 99.68 99.57 99.57 99.36 99.42 99.48 99.44 99.39 99.03 98.96 98.74 98.53 98.46 98.41 98.07 97.61 96.65 97.12 97.12 96.81 96.51 96.53 96.31 96.15 95.89 95.62 95.55 95.46 95.26 95.29 95.22
101.37 101.24 101.26 101.31 101.24 101.24 101.21 101.18 101.18 101.03 100.90 100.88 100.75 100.57 100.68 100.50 100.39 100.22 100.13 100.01 99.78 99.80 99.52 99.54 99.43 99.43 99.50 99.68 99.35 99.05 98.61 98.69 98.68 98.40 98.28 98.13 97.88 97.70 97.43 97.24 96.95 96.72 96.64 96.71 96.44 96.17 95.88 95.89 95.71 95.56 95.57 95.44
102.26 101.43 101.25 101.33 101.34 101.35 101.24 101.18 101.18 101.07 100.96 100.88 100.77 100.62 100.68 100.56 100.36 100.32 100.14 99.94 99.83 99.85 99.58 99.56 99.37 99.38 99.50 99.92 99.35 99.11 99.06 98.65 98.57 98.41 98.31 98.23 98.38 98.29 98.04 97.76 97.47 96.97 96.79 96.78 96.72 96.42 96.18 96.18 95.95 95.86 95.81 95.78
102.17 102.35 101.34 101.35 101.40 101.34 101.26 101.28 101.22 101.12 100.98 100.93 100.80 100.75 100.69 100.58 100.46 100.25 100.13 99.94 99.88 99.67 99.60 99.51 99.36 99.29 99.17 99.03 99.07 99.17 99.10 99.09 98.74 98.40 98.43 98.29 98.40 98.37 98.28 97.85 97.31 97.09 96.97 97.05 96.84 96.70 96.46 96.43 96.27 96.19 96.13 96.14
102.18 102.28 102.26 101.40 101.39 101.38 101.43 101.39 101.31 101.21 101.06 100.96 100.85 100.74 100.72 100.57 100.42 100.19 100.08 99.97 99.83 99.72 99.62 99.55 99.38 99.25 99.18 99.12 99.07 99.22 99.51 99.09 99.08 98.10 98.48 98.36 98.42 98.39 98.22 98.10 97.49 97.35 97.11 97.18 96.91 96.91 96.71 96.67 96.50 96.39 96.35 96.38
102.23 102.21 102.22 101.92 101.54 101.49 101.48 101.42 101.34 101.26 101.19 101.06 101.06 100.79 100.66 100.52 100.37 100.26 100.14 100.01 99.90 99.79 99.68 99.58 99.44 99.32 99.21 99.18 99.11 99.26 99.30 99.26 99.17 98.82 98.52 98.40 98.61 98.53 98.33 98.21 97.68 97.46 97.32 97.29 97.12 97.08 97.01 96.90 96.83 96.82 96.69 96.53
102.13 102.00 101.80 102.09 102.06 101.63 101.55 101.43 101.46 101.29 101.19 101.13 100.99 100.86 100.69 100.56 100.45 100.33 100.21 100.10 99.97 99.89 99.77 99.66 99.55 99.41 99.27 99.19 99.18 99.33 99.29 99.26 99.19 98.85 98.91 98.47 98.54 98.39 98.54 98.22 97.82 97.73 97.58 97.50 97.43 97.39 97.33 97.50 97.78 97.38 96.69 96.62
101.76 101.74 102.20 102.17 102.01 101.61 101.60 101.51 101.40 101.35 101.27 101.17 101.06 100.90 100.81 100.68 100.55 100.42 100.32 100.17 100.07 99.95 99.83 99.74 99.60 99.49 99.38 99.28 99.21 99.41 99.18 99.14 99.10 98.91 98.75 98.64 98.52 98.37 98.35 98.25 98.10 98.15 98.14 98.27 98.19 97.23 98.24 96.92 97.61 97.71 96.82 96.73
101.65 101.88 102.08 102.14 102.37 101.96 101.62 101.67 101.49 101.38 101.35 101.27 101.17 101.06 100.93 100.78 100.66 100.53 100.39 100.27 100.15 100.03 99.91 99.81 99.69 99.56 99.46 99.37 99.32 99.50 99.35 99.21 99.09 98.90 98.76 98.66 98.55 98.52 98.38 98.29 98.15 98.12 98.11 98.06 98.08 97.09 97.95 96.96 97.62 97.65 97.02 96.99
101.82 101.93 102.07 102.16 102.29 102.26 101.75 101.75 101.69 101.52 101.46 101.34 101.27 101.16 101.01 100.88 100.75 100.62 100.49 100.35 100.25 100.13 100.00 99.91 99.82 99.68 99.43 99.36 99.38 99.57 99.21 99.14 99.16 98.94 98.84 98.74 98.59 98.55 98.55 98.31 98.18 98.18 98.14 98.15 98.29 97.10 97.81 96.99 97.93 97.78 97.15 97.14
101.81 101.73 101.93 102.50 102.29 102.38 102.18 102.12 101.83 101.64 101.51 101.44 101.35 101.23 101.12 100.98 100.86 100.72 100.62 100.48 100.41 100.28 100.09 99.96 99.85 99.71 99.57 99.42 99.37 99.65 99.30 99.26 99.27 99.02 98.83 98.76 98.65 98.61 98.57 98.37 98.21 98.28 98.21 98.24 98.42 97.24 98.33 98.17 98.32 97.90 97.42 97.32
101.68 101.65 101.78 102.17 102.57 102.47 102.54 102.20 102.10 101.83 101.64 101.53 101.43 101.33 101.25 101.11 100.99 100.86 100.71 100.57 100.47 100.32 100.18 100.04 99.92 99.79 99.64 99.52 99.48 99.73 99.37 99.35 99.38 99.13 98.97 98.92 98.85 98.71 98.71 98.51 98.39 98.34 98.34 98.38 98.43 98.43 98.40 98.52 98.39 98.17 97.51 97.53
101.61 101.71 101.78 102.18 102.46 102.52 102.61 102.54 102.21 101.82 101.90 101.65 101.54 101.45 101.32 101.16 101.08 100.94 100.80 100.65 100.55 100.42 100.28 100.16 100.00 99.82 99.68 99.57 99.55 99.78 99.48 99.50 99.48 99.41 99.17 99.01 98.85 98.75 98.63 98.65 98.59 98.56 98.46 98.69 98.55 98.47 98.46 98.55 98.44 98.22 97.75 97.65
101.60 101.85 101.76 102.08 102.18 102.46 102.37 102.33 102.33 102.21 102.04 101.81 101.61 101.46 101.38 101.26 101.16 101.06 100.92 100.76 100.64 100.48 100.35 100.23 100.11 100.03 99.88 99.70 99.64 99.82 99.69 99.43 99.44 99.38 99.17 99.06 98.92 98.90 98.76 98.77 98.72 98.73 98.67 98.55 98.71 98.69 98.56 98.57 98.54 98.35 98.05 97.85
101.68 102.22 101.94 102.50 102.21 102.25 102.20 102.11 102.11 102.33 102.41 102.03 101.68 101.56 101.46 101.33 101.25 101.11 100.94 100.86 100.73 100.62 100.50 100.34 100.24 100.10 99.92 99.76 99.70 99.87 99.85 99.54 99.46 99.28 99.03 99.03 99.06 99.00 98.87 98.84 98.82 98.78 98.75 98.78 98.82 98.78 98.71 98.72 98.68 98.54 98.29 98.14
102.05 102.18 102.03 102.47 102.19 102.04 102.08 102.20 102.32 102.18 102.22 102.34 101.85 101.62 101.48 101.42 101.32 101.21 101.08 100.93 100.81 100.71 100.62 100.47 100.33 100.17 100.00 99.84 99.79 99.82 99.95 99.59 99.49 99.33 99.29 99.25 99.17 99.21 99.02 98.90 98.86 98.84 98.86 98.91 99.12 99.00 98.93 98.86 98.81 98.75 98.60 98.34
102.07 102.04 101.97 101.86 101.93 102.12 101.80 102.37 102.30 102.10 102.44 102.12 102.17 101.83 101.63 101.47 101.35 101.25 101.12 100.98 100.86 100.76 100.68 100.60 100.49 100.35 100.25 100.03 99.93 99.78 100.04 99.71 99.56 99.46 99.38 99.31 99.28 99.27 99.14 99.06 99.03 99.00 99.04 99.09 99.33 99.29 99.26 99.18 99.28 99.17 99.02 98.81
101.62 101.68 101.77 101.81 102.02 102.46 101.97 101.78 101.94 102.07 102.38 102.36 102.03 102.06 101.74 101.54 101.39 101.28 101.22 101.09 100.98 100.94 100.84 100.72 100.55 100.43 100.28 100.16 100.05 99.71 100.20 99.96 99.71 99.65 99.56 99.50 99.49 99.48 99.37 99.34 99.32 99.31 99.37 99.46 99.46 99.87 99.72 99.57 99.40 99.12 98.60 98.40
101.40 101.59 101.69 101.89 102.10 101.92 101.73 101.73 101.89 102.16 102.29 102.29 102.21 101.80 101.89 101.72 101.57 101.41 101.31 101.16 101.04 100.96 100.85 100.74 100.58 100.53 100.41 100.23 100.17 99.70 100.18 100.25 99.99 99.83 99.81 99.75 99.78 99.79 99.85 99.86 99.99 100.03 100.01 99.96 99.37 99.33 99.58 99.42 99.41 99.12 98.96 98.84
101.34 101.57 101.61 101.72 101.86 101.54 101.56 102.02 102.30 102.06 102.15 102.03 102.06 102.06 101.80 101.83 101.61 101.49 101.35 101.21 101.07 101.00 100.89 100.78 100.73 100.63 100.59 100.63 100.73 100.45 100.38 100.28 100.30 100.37 100.40 100.40 100.27 100.12 100.11 99.75 100.01 100.01 100.04 100.00 99.89 99.85 99.65 99.47 99.43 99.16 99.08 98.85
101.47 101.43 101.49 101.55 101.67 101.60 101.55 102.25 102.34 102.28 101.67 101.89 101.85 101.86 101.90 102.00 101.69 101.55 101.38 101.23 101.13 101.03 100.97 101.06 101.13 101.32 101.21 101.09 100.85 100.61 100.64 100.46 100.11 100.29 100.47 100.28 100.32 100.23 100.14 100.04 100.01 99.96 99.97 99.89 99.86 99.83 99.78 99.67 99.55 99.46 99.29 99.14
101.39 101.30 101.43 101.45 101.35 101.45 101.60 101.85 102.24 102.24 102.22 101.60 101.67 101.70 101.96 101.76 101.88 101.73 101.53 101.35 101.18 101.04 101.05 101.40 101.24 101.21 101.22 101.12 101.02 100.92 100.57 100.59 100.60 100.57 100.50 100.38 100.31 100.25 100.24 100.19 100.15 100.09 100.11 100.08 100.03 100.01 99.98 99.88 99.75 99.78 99.58 99.41
101.20 101.23 101.19 101.33 101.41 101.41 101.44 101.67 102.21 102.25 101.47 101.48 101.57 101.99 101.88 101.87 101.65 101.69 101.61 101.43 101.17 101.20 101.08 101.10 101.19 101.37 101.21 101.21 101.12 101.06 100.75 100.68 100.60 100.51 100.53 100.47 100.42 100.42 100.42 100.38 100.35 100.30 100.28 100.25 100.19 100.12 100.07 100.18 100.02 99.93 99.75 99.64
100.92 101.22 101.85 101.04 101.17 101.22 101.25 101.43 101.40 101.46 101.40 101.40 101.54 102.18 101.85 101.74 101.79 101.49 101.71 101.46 101.39 101.20 101.21 101.47 101.56 101.34 101.37 101.08 101.34 101.15 100.96 100.84 100.79 100.71 100.64 100.62 100.76 100.56 100.51 100.51 100.45 100.51 100.54 100.50 100.40 100.34 100.32 100.30 100.18 100.08 100.00 99.87
