ncols 52
nrows 52
xllcorner 437248
yllcorner 5714432
cellsize 10
NODATA_value -9999
96.38 94.15 93.67 89.28 89.33 89.56 89.82 89.99 90.28 90.61 91.58 94.91 95.85 93.36 93.36 93.43 93.45 93.47 93.57 93.54 93.71 93.70 93.23 93.31 93.76 93.52 93.31 93.35 94.07 93.53 93.68 93.51 93.73 93.93 94.13 94.19 94.10 93.94 93.86 93.64 93.97 94.37 94.67 94.76 94.99 95.29 95.29 95.58 95.79 95.05 95.01 96.01
94.62 93.90 93.49 89.09 89.17 89.39 89.61 89.91 90.64 93.68 95.23 95.63 94.20 93.37 93.18 93.25 93.38 93.43 93.35 93.48 93.44 93.17 93.07 93.09 93.18 93.27 93.25 93.28 93.41 93.44 93.24 93.92 93.55 93.68 93.90 93.97 93.47 93.39 93.62 93.75 93.77 94.27 94.96 94.67 95.02 95.16 95.25 95.79 95.85 96.10 96.01 95.96
93.92 93.63 93.42 88.93 89.01 89.19 89.54 92.86 94.22 94.57 94.86 93.71 93.47 93.43 93.21 92.99 93.07 93.24 93.22 93.26 93.15 93.03 93.03 93.08 93.11 93.10 93.17 93.01 93.27 93.18 92.94 92.91 93.30 93.47 93.49 93.17 93.27 93.46 93.34 93.38 93.55 94.07 94.82 94.85 94.63 94.99 94.98 95.29 96.21 95.93 95.90 95.88
93.57 93.26 93.22 88.79 88.85 88.89 92.63 93.89 93.96 94.07 93.76 93.31 93.41 93.42 93.47 92.91 92.89 92.90 93.10 93.27 93.12 93.07 93.08 92.99 93.09 93.18 93.15 92.96 92.82 93.02 93.96 92.62 92.75 92.81 93.02 93.22 93.25 93.36 93.22 93.28 93.38 93.53 94.12 94.38 94.19 94.64 95.76 95.76 95.95 95.90 95.88 95.87
93.01 92.71 92.96 88.66 88.71 88.83 93.56 93.59 93.71 93.75 92.95 93.08 93.07 93.25 92.79 92.66 92.61 92.76 92.92 92.99 93.07 93.10 92.95 93.08 93.13 92.76 92.71 92.68 92.81 92.71 92.51 92.41 92.73 92.88 93.15 93.53 93.45 93.36 93.32 93.13 93.11 93.32 93.80 93.98 94.94 95.43 95.55 95.73 95.63 95.79 95.83 95.85
93.54 92.57 92.49 88.54 88.58 89.75 93.62 93.68 93.55 93.31 93.74 93.08 93.03 92.90 92.45 92.41 92.61 92.56 92.71 92.90 92.97 93.05 93.05 93.10 92.67 92.64 92.47 92.16 93.32 93.39 91.98 92.38 92.89 92.80 92.94 93.32 93.22 93.15 93.24 93.03 93.01 93.15 93.30 93.61 93.59 95.43 95.44 95.53 95.62 95.56 95.67 95.82
92.74 92.59 92.32 88.39 88.50 91.15 93.82 93.61 93.54 93.40 93.67 93.47 92.74 92.46 92.29 92.56 92.69 92.57 92.62 92.77 92.86 92.43 92.32 93.14 92.57 92.45 91.93 91.69 91.73 91.98 92.00 92.36 92.64 92.60 92.67 93.30 93.27 93.06 93.24 93.08 92.84 93.01 93.13 93.50 93.37 95.00 95.42 95.88 95.45 95.53 95.55 95.67
94.98 92.71 91.79 88.22 88.41 92.00 94.27 93.79 93.67 93.36 93.24 93.24 92.54 92.36 92.39 92.43 92.75 92.66 92.62 92.66 92.67 92.71 92.97 93.09 92.69 92.18 92.07 91.52 91.44 91.57 92.42 92.45 92.32 92.39 92.27 92.57 92.86 92.81 93.18 93.03 92.82 92.89 93.00 93.07 93.19 93.37 95.36 95.62 95.43 95.44 95.50 95.62
95.52 95.18 91.43 88.05 88.31 92.24 93.68 94.35 93.72 93.40 93.14 93.00 92.46 92.42 92.40 92.95 92.55 92.63 92.44 92.28 92.43 92.43 92.79 91.64 91.35 91.54 92.09 92.03 91.28 91.87 92.21 92.33 92.08 92.21 92.38 92.14 92.35 92.48 92.62 92.74 92.79 92.76 92.86 92.90 93.10 93.09 95.21 95.72 95.70 95.62 95.49 95.57
95.51 95.40 95.18 87.99 88.19 92.51 92.97 93.16 93.73 93.74 93.51 93.26 92.49 92.63 92.43 92.48 92.51 92.88 92.27 92.46 92.35 91.91 91.39 91.01 90.93 90.84 90.98 91.10 91.30 91.79 92.14 92.33 92.06 91.92 91.97 91.96 92.29 92.33 92.54 92.55 92.65 92.74 92.64 92.71 92.92 92.98 93.25 95.35 95.60 95.67 95.68 95.65
95.45 95.35 95.34 87.97 88.98 92.54 93.04 92.51 92.75 92.98 93.71 92.50 92.57 92.44 92.18 92.24 92.49 92.29 92.32 92.03 91.14 91.80 90.85 90.93 90.84 90.88 90.94 90.97 91.64 91.98 92.02 91.87 91.55 91.61 91.72 91.77 91.93 92.03 92.25 92.35 92.42 92.53 92.71 92.58 92.69 92.85 92.90 95.18 95.34 95.61 95.73 96.12
95.33 95.46 91.81 87.92 95.39 94.04 93.26 93.04 92.53 92.39 92.37 92.47 92.64 92.27 91.94 92.12 92.79 92.42 91.99 90.96 90.85 90.76 90.68 90.56 90.73 90.83 90.72 91.24 91.71 92.04 92.03 91.78 91.40 91.40 91.44 91.57 91.69 91.80 91.87 92.10 92.26 92.23 92.30 92.30 92.39 92.35 92.56 94.60 95.49 95.80 95.90 95.85
94.99 95.02 87.84 87.89 95.36 95.53 95.03 93.41 92.48 92.21 92.16 92.39 92.49 92.06 91.67 91.93 92.48 91.55 90.79 90.68 90.51 90.66 90.77 90.46 90.53 90.43 91.06 91.43 91.76 91.85 91.53 91.45 91.15 90.93 91.29 91.59 91.64 91.74 92.02 92.01 91.97 92.26 92.58 92.37 92.34 92.54 92.69 94.92 95.57 95.84 95.99 96.08
94.71 94.76 87.64 88.04 95.14 95.43 95.67 95.37 92.21 91.92 91.75 91.80 91.76 91.72 91.64 91.54 91.19 90.61 90.51 90.39 90.52 90.38 90.40 90.35 90.19 90.62 94.32 93.71 92.62 91.52 91.55 91.36 91.09 90.93 91.14 91.49 91.51 91.70 91.56 91.97 92.00 92.05 93.65 93.61 92.30 92.31 93.33 93.81 95.40 95.83 96.08 95.95
94.79 92.50 87.61 89.46 94.88 95.09 95.38 95.58 95.78 94.63 92.13 91.29 91.15 91.29 91.68 91.04 90.47 90.31 90.16 90.30 90.56 90.14 89.89 90.01 90.36 94.33 95.56 95.43 93.46 93.00 91.09 91.03 90.88 90.67 90.97 91.29 91.39 91.68 91.68 91.93 91.89 91.86 91.94 92.21 92.22 92.57 92.62 92.91 95.80 95.96 95.78 95.73
94.51 88.85 87.61 91.21 94.81 94.95 95.00 94.94 95.14 95.38 95.43 94.71 91.14 90.21 90.21 90.28 90.69 90.15 89.90 89.65 89.81 89.54 89.98 91.63 95.14 95.54 95.77 95.58 95.71 94.41 92.68 90.66 90.69 90.48 90.74 91.20 91.36 91.53 91.73 91.57 91.65 93.76 92.02 91.90 90.86 91.22 94.76 95.81 95.55 95.49 95.69 95.82
90.51 87.58 87.60 91.21 95.01 94.96 94.98 95.01 95.09 95.10 95.13 95.32 95.33 94.08 90.71 89.86 89.60 88.98 89.01 89.07 89.40 90.38 93.54 95.75 95.93 95.83 95.74 95.73 95.87 95.66 95.24 92.24 90.29 90.27 90.70 91.12 91.14 91.21 91.28 91.36 90.76 90.33 90.12 90.48 93.71 95.91 96.02 95.80 95.71 95.60 95.98 95.65
90.01 87.37 87.73 89.62 91.19 93.45 95.13 95.26 95.00 95.13 95.14 95.20 95.25 95.29 95.30 93.11 89.51 88.81 88.89 89.75 92.05 95.40 96.11 96.32 96.40 96.06 95.82 95.79 95.98 95.93 95.69 95.52 92.54 90.00 90.94 90.76 90.32 89.76 89.19 89.32 90.25 91.93 94.64 95.79 95.94 95.92 95.96 95.99 95.90 95.82 95.90 95.97
89.62 87.34 87.99 88.81 88.89 89.46 89.74 91.62 93.65 95.28 95.35 95.17 95.28 95.29 95.29 95.31 90.10 88.79 92.75 95.54 95.89 95.68 95.76 95.84 95.92 95.94 96.04 95.98 95.97 95.79 95.84 95.79 95.66 92.84 90.59 88.12 88.92 90.11 91.78 94.07 95.18 95.85 95.74 95.82 96.04 96.03 96.07 96.04 96.06 96.04 95.92 96.01
87.39 87.35 87.60 88.82 89.06 89.10 89.46 89.55 89.62 89.57 91.71 93.96 95.25 95.44 95.36 93.56 88.45 90.71 95.44 95.57 95.65 95.67 95.81 95.86 95.87 96.00 95.93 96.00 96.14 96.02 95.96 95.90 95.85 95.79 94.69 92.24 92.94 96.24 96.07 95.97 95.79 95.87 95.92 95.90 95.99 96.11 96.30 96.17 96.17 96.20 96.20 95.98
87.26 87.37 87.33 87.15 87.08 87.24 87.60 88.48 89.33 89.34 89.19 89.19 91.11 92.43 94.22 91.00 88.22 93.61 95.42 95.46 95.52 95.56 95.61 95.79 95.86 95.92 96.03 96.07 96.14 95.99 96.30 95.88 95.90 95.89 95.95 96.03 96.00 95.96 95.93 96.05 96.04 96.05 96.09 96.02 96.06 96.16 96.19 96.31 96.33 96.38 96.30 96.23
87.19 87.37 87.40 87.45 87.27 87.48 87.56 87.69 87.80 87.92 88.01 88.16 88.29 88.57 88.56 88.35 88.85 93.90 95.47 95.63 95.57 95.54 95.50 95.58 95.59 95.70 95.77 95.83 95.94 95.79 96.07 95.96 95.95 96.03 95.99 96.05 96.19 96.42 96.32 96.08 96.08 96.12 96.19 96.04 96.06 96.12 96.23 96.29 96.75 96.21 96.22 96.37
87.18 87.54 88.19 87.89 87.67 87.69 87.76 88.00 88.13 88.33 88.26 88.26 88.13 87.89 87.85 87.96 88.14 91.13 95.49 95.56 95.57 95.83 95.67 95.68 95.65 95.68 95.69 95.89 95.77 95.91 95.83 95.87 95.97 95.64 95.79 95.86 96.15 96.25 96.34 96.42 96.60 96.37 96.24 96.18 96.11 96.24 96.21 96.52 98.43 96.18 96.32 96.29
87.23 87.93 88.04 87.93 87.63 87.57 87.64 87.87 87.81 87.66 87.71 88.10 87.65 87.94 87.93 87.51 87.54 88.08 90.78 95.01 95.52 95.68 95.75 95.67 95.72 95.67 95.69 95.90 95.75 95.76 95.90 95.92 95.93 95.78 95.78 95.94 95.77 95.80 95.94 95.91 96.25 96.26 96.24 96.35 96.33 96.30 96.30 96.29 96.29 96.44 96.33 96.25
87.28 87.97 87.89 87.85 87.68 87.45 87.56 87.47 87.43 87.45 87.50 87.58 87.54 87.55 87.62 87.47 87.18 87.17 87.23 91.84 95.11 95.98 100.08 99.82 96.88 95.86 95.89 95.81 95.79 95.88 95.91 95.85 95.97 95.89 96.00 96.05 95.91 95.92 95.85 95.83 95.86 95.92 96.11 96.13 96.26 96.24 96.41 96.34 96.35 96.37 96.46 96.25
87.51 87.79 87.75 87.84 87.62 87.32 87.17 87.21 87.08 87.13 87.07 87.19 87.28 87.27 87.18 87.25 87.04 86.85 86.92 88.05 93.07 95.21 96.03 97.35 100.44 101.01 98.64 96.00 95.79 95.91 95.84 95.92 96.17 96.02 96.01 96.10 95.99 96.07 96.03 96.04 95.86 95.93 95.90 95.85 96.32 96.18 96.20 96.27 96.31 96.42 96.33 96.35
87.40 87.71 87.55 87.61 87.41 87.10 87.13 87.07 86.95 86.95 86.90 86.92 86.93 87.15 87.07 87.05 86.90 86.70 86.52 86.64 88.22 92.33 94.96 95.53 96.13 97.12 100.53 102.21 100.42 97.45 96.07 95.93 95.94 95.95 96.08 96.08 96.03 96.10 96.15 96.12 96.19 96.11 95.97 95.96 96.14 96.20 95.91 96.30 96.20 96.26 96.32 96.42
87.38 88.56 87.46 87.11 86.88 86.86 87.06 86.87 86.82 86.81 86.81 86.88 86.72 86.77 86.80 86.83 86.77 86.54 86.42 86.32 86.46 87.55 90.23 90.77 91.57 94.76 96.32 97.85 101.35 103.21 100.73 98.23 96.22 96.09 96.01 96.07 96.05 96.15 96.17 96.06 96.20 96.18 96.21 96.29 96.11 96.00 95.89 95.94 96.08 96.29 96.26 96.28
87.57 86.93 88.72 87.10 86.73 86.72 86.78 86.75 86.69 86.73 86.70 86.71 86.59 86.69 86.82 86.82 86.79 86.60 86.62 86.21 86.18 86.27 86.41 86.68 87.14 89.00 91.36 94.65 96.54 99.07 102.58 99.13 99.22 98.91 96.67 96.32 96.15 96.06 96.10 96.21 96.28 96.23 96.15 96.13 96.24 96.32 96.04 96.04 96.04 96.09 96.11 96.31
88.46 86.48 86.60 87.31 87.04 86.90 86.58 86.60 86.55 86.59 86.57 86.76 86.61 86.71 86.73 86.78 86.72 86.62 86.57 86.58 86.08 86.07 86.21 86.65 86.91 86.97 87.53 89.18 93.19 96.46 97.42 97.36 102.49 102.38 97.09 96.03 96.00 96.02 96.09 96.14 96.15 96.21 96.54 97.19 96.17 96.21 96.31 96.36 96.32 96.20 96.18 96.19
87.86 86.47 86.49 86.27 86.33 86.32 86.29 86.50 86.35 86.47 86.46 86.57 86.79 86.83 86.79 86.74 86.67 86.68 86.53 86.36 86.40 86.02 85.99 86.21 86.85 86.95 86.90 87.01 88.44 92.42 96.28 97.18 102.21 100.89 96.62 96.23 96.21 96.20 96.21 96.21 96.30 96.28 96.20 96.24 96.35 97.30 97.13 96.25 96.29 96.35 96.49 96.32
86.70 85.93 86.03 86.04 86.11 86.01 86.03 86.33 86.27 86.25 86.25 86.46 86.78 86.76 86.76 86.75 86.65 86.57 86.45 86.24 86.25 86.06 86.06 85.92 86.18 86.49 86.82 86.76 87.23 88.24 92.28 96.10 97.27 97.95 96.42 96.38 96.40 96.40 96.38 96.39 96.36 96.39 96.45 96.35 96.29 96.31 96.43 97.01 97.28 96.25 96.38 96.43
85.94 85.93 85.88 86.71 86.15 86.10 86.23 86.07 85.91 85.85 85.90 86.26 86.55 86.64 86.82 86.75 86.63 86.46 86.35 86.28 86.17 86.16 86.28 86.10 85.98 86.16 86.45 86.85 86.88 87.23 88.38 91.84 96.35 96.53 96.30 96.38 96.42 96.51 96.47 96.63 96.31 95.65 95.57 96.46 96.23 96.40 96.36 96.36 96.37 96.49 97.38 96.54
86.01 85.79 85.43 85.08 85.11 85.40 86.11 86.14 86.41 85.98 85.93 85.71 87.17 86.36 86.74 86.73 86.34 86.26 86.28 86.19 86.16 85.98 86.11 86.31 86.24 86.07 86.16 86.58 86.89 87.13 87.79 88.56 93.07 96.39 96.24 96.21 96.24 96.31 96.37 96.50 96.07 95.78 95.95 96.25 96.39 96.40 96.31 96.38 96.39 96.32 96.35 96.49
86.02 85.94 86.07 85.19 85.37 85.46 85.11 85.07 85.07 85.38 85.71 85.77 85.97 86.00 86.70 86.77 86.34 86.19 86.11 86.19 86.29 86.12 86.29 86.23 86.19 86.50 86.23 86.29 86.76 86.93 87.21 87.51 88.53 92.64 96.20 96.09 96.09 96.16 96.27 96.33 96.11 96.01 96.14 96.47 96.51 96.59 96.34 96.08 95.75 95.40 96.46 96.35
86.03 85.54 85.65 85.19 85.50 86.08 85.15 85.23 85.16 85.05 85.05 84.95 85.06 85.16 85.28 85.57 86.01 85.99 86.16 86.00 85.97 86.01 86.12 86.12 86.21 86.59 87.00 86.43 86.46 86.78 87.19 87.25 87.59 88.74 91.84 95.61 95.97 96.04 96.10 96.19 96.26 96.21 96.51 96.58 96.57 96.48 96.40 95.81 95.58 95.12 94.72 94.36
85.80 85.40 85.20 85.29 85.31 85.27 85.23 85.18 85.13 85.12 84.92 84.85 84.77 84.90 84.18 84.60 85.71 85.81 86.02 85.99 86.04 85.99 86.21 86.01 86.15 86.54 86.84 87.15 86.62 86.67 87.07 87.28 87.84 88.17 88.62 90.55 94.82 95.89 95.96 96.12 96.25 96.25 96.56 96.62 96.52 96.37 96.35 95.28 94.74 94.67 94.48 94.94
85.16 85.26 85.15 85.21 85.23 85.28 85.26 85.18 85.22 85.26 85.04 85.02 84.02 84.23 84.34 84.29 85.56 85.70 85.73 85.71 85.95 86.11 86.15 86.09 86.14 86.58 86.83 87.12 87.27 86.80 86.91 87.42 87.90 88.24 88.77 88.83 90.14 94.48 95.89 96.00 96.13 96.10 96.11 96.25 96.35 96.42 95.96 95.33 94.70 94.32 94.39 95.04
83.39 83.35 83.59 83.71 83.75 83.94 84.45 84.42 84.69 85.07 84.72 83.99 84.43 84.31 84.86 85.25 84.75 84.17 85.50 85.55 85.71 85.96 86.14 85.94 86.07 86.48 87.02 87.47 87.74 87.33 87.07 87.24 88.00 88.77 88.80 89.33 88.80 89.74 93.39 95.85 95.74 95.96 96.02 96.01 96.11 96.15 96.15 96.15 95.51 95.16 95.00 95.21
83.71 83.44 83.62 83.56 83.62 83.41 83.48 84.06 83.77 84.53 85.28 85.14 85.13 85.08 85.39 85.42 85.40 85.52 84.92 85.62 85.60 84.51 85.02 85.29 85.89 86.54 87.03 87.45 87.95 87.82 87.35 87.33 87.56 89.10 88.98 88.82 88.89 88.20 89.24 92.45 95.56 94.93 95.82 95.89 95.96 95.91 95.82 95.78 95.77 95.87 95.68 95.44
86.01 85.15 84.54 84.08 83.60 83.70 83.53 83.68 84.12 85.37 85.44 85.36 85.23 85.07 85.31 85.42 85.39 85.41 85.34 84.50 85.54 85.13 84.97 85.15 85.61 86.30 86.84 87.19 86.85 87.46 87.79 87.64 87.62 87.83 88.79 88.76 88.18 88.29 88.56 89.98 92.69 94.63 94.65 95.79 95.72 95.58 95.58 95.56 95.57 95.63 95.61 95.60
86.06 86.10 86.04 85.98 85.85 85.58 85.14 85.11 85.36 85.51 85.54 85.36 85.29 85.26 85.43 85.58 85.58 85.37 85.30 84.79 85.65 84.71 84.99 85.48 85.69 85.90 86.19 86.79 87.03 87.40 87.57 87.68 88.01 87.86 88.11 88.32 88.45 88.32 88.56 88.75 90.39 93.29 93.53 94.14 95.04 95.35 95.47 95.39 95.36 95.38 95.42 95.34
86.37 86.29 86.21 86.49 86.55 86.12 85.74 85.63 85.61 85.61 85.46 85.33 85.22 85.33 85.49 85.63 85.44 85.32 85.25 85.15 85.58 85.77 85.08 85.34 85.53 85.87 86.46 86.86 86.95 87.32 87.47 87.60 87.86 88.24 88.05 88.40 88.57 88.60 88.66 88.72 91.54 92.24 92.82 93.04 94.69 93.73 95.31 95.21 95.19 95.22 95.22 95.18
86.28 86.55 86.41 86.54 86.57 86.32 85.96 85.74 85.61 85.54 85.46 85.34 85.28 85.42 85.48 85.54 85.42 85.58 85.32 85.82 85.95 85.55 85.53 85.29 85.75 86.04 86.23 86.87 87.16 87.32 87.65 87.65 87.82 88.19 88.60 88.28 88.42 88.93 88.75 90.19 92.02 92.46 92.51 92.68 92.65 93.46 95.43 95.04 95.00 95.02 95.03 95.00
86.88 86.75 86.68 86.59 86.58 86.56 86.04 86.14 85.77 85.72 85.58 85.46 85.29 85.52 85.62 85.55 85.50 85.45 85.40 86.03 85.55 86.07 85.58 85.35 85.62 85.97 86.20 86.95 87.24 87.55 87.97 87.92 88.15 88.51 89.28 89.28 88.50 88.64 89.00 89.68 92.49 92.73 92.62 92.63 92.76 93.34 94.01 94.52 94.79 94.84 94.85 94.83
87.12 86.92 86.94 86.60 86.69 86.59 86.08 86.16 86.02 85.84 85.65 85.62 85.48 85.51 85.75 85.77 86.39 85.52 85.42 85.75 84.93 86.22 85.71 85.39 85.53 85.96 86.16 86.82 87.32 87.80 88.04 88.39 88.87 89.29 89.77 89.33 89.36 88.79 88.92 89.32 92.40 92.67 92.77 92.71 92.57 92.61 92.68 92.68 92.38 92.32 94.65 94.65
87.07 86.96 87.00 86.65 86.67 86.58 86.28 86.20 86.21 86.18 85.86 85.83 85.62 85.49 85.41 85.63 85.56 86.05 85.53 85.61 84.96 86.07 85.61 85.39 85.73 85.75 85.97 86.07 85.91 86.88 87.90 88.17 88.51 88.96 89.34 89.41 89.07 89.20 89.65 89.05 89.36 92.26 92.50 92.69 92.74 92.63 92.54 92.63 92.57 92.56 92.56 92.47
87.17 87.11 87.01 86.72 86.85 86.70 86.66 86.40 86.16 86.15 86.34 86.05 85.71 85.73 85.76 85.80 85.89 85.71 85.63 85.67 85.14 86.27 85.55 85.46 85.49 85.62 85.85 85.87 85.88 85.93 87.55 88.15 88.22 89.19 89.29 89.11 89.24 89.45 89.93 89.93 89.42 89.39 89.77 92.39 92.53 92.50 92.51 92.58 92.65 92.65 92.72 92.75
87.42 87.26 87.40 87.35 87.37 87.11 86.91 87.10 86.85 86.39 86.44 86.43 86.30 85.78 85.80 85.86 85.87 85.88 85.86 85.78 85.98 86.21 85.92 85.29 85.05 85.34 85.58 85.91 85.52 85.73 86.82 87.74 88.11 88.90 89.21 89.52 89.35 89.76 89.73 90.47 90.42 89.63 89.57 89.71 90.36 92.58 92.69 92.65 92.67 92.65 92.68 92.70
87.69 87.63 87.43 87.49 87.55 87.23 87.04 87.10 86.96 86.93 87.00 86.97 87.00 87.02 86.78 85.96 85.76 85.87 86.10 85.92 86.08 85.63 86.01 85.14 84.87 85.26 85.43 85.57 85.23 85.16 85.09 87.05 87.72 88.56 89.27 89.13 89.53 89.68 90.38 90.46 90.20 90.00 90.39 89.96 89.77 90.02 92.16 92.63 92.70 92.69 92.69 92.65
87.93 87.76 87.67 87.68 87.58 87.46 87.28 87.25 87.17 87.15 87.10 87.32 87.15 87.31 87.15 87.45 86.72 86.60 86.58 86.09 86.19 85.04 86.23 85.29 85.25 85.40 85.32 85.29 85.18 85.14 85.25 85.59 87.34 88.08 88.94 89.36 89.63 89.66 87.96 90.47 89.82 90.51 90.68 90.38 90.34 90.04 90.04 90.37 92.47 92.65 92.63 92.56
87.75 87.68 87.58 87.65 87.48 87.77 87.53 87.49 87.49 87.34 87.32 87.22 87.16 87.16 87.24 87.21 86.99 86.88 86.63 86.36 86.27 85.08 86.30 85.66 85.21 85.06 85.24 85.04 85.26 85.35 85.07 85.29 86.26 87.99 88.78 89.11 89.38 89.25 88.09 89.98 90.47 90.72 90.82 90.70 90.63 90.69 90.65 90.15 90.28 90.99 92.60 92.69
