ncols 52
nrows 52
xllcorner 437248
yllcorner 5713920
cellsize 10
NODATA_value -9999
87.79 87.77 87.62 87.67 87.51 87.67 87.50 87.55 87.52 87.39 87.37 87.22 87.22 87.14 87.23 87.18 87.02 86.88 86.76 86.48 86.29 85.09 86.31 85.76 85.18 85.03 85.17 85.04 85.26 85.18 85.06 85.16 85.70 88.05 88.70 89.01 89.38 89.24 88.35 89.86 90.48 90.76 90.85 90.71 90.76 90.73 90.92 90.19 90.23 90.58 92.88 92.69
87.73 87.78 87.69 87.54 87.48 87.41 87.42 87.38 87.47 87.36 87.31 87.28 87.26 87.24 87.57 87.12 87.07 86.98 86.99 86.68 86.43 85.49 86.04 85.96 85.37 84.97 85.32 85.13 85.04 85.08 85.12 85.26 85.25 88.46 88.60 88.70 89.07 89.35 89.75 89.83 89.98 90.16 90.71 90.87 91.27 91.17 91.16 91.01 90.39 90.31 90.57 92.80
87.83 87.78 87.79 87.57 87.56 87.76 87.57 87.41 87.26 87.23 87.14 87.11 87.21 87.11 87.26 86.99 87.04 87.96 87.01 86.82 86.49 86.48 85.13 86.31 85.76 85.10 85.18 85.14 85.15 85.16 85.22 85.24 85.52 88.76 88.64 88.64 88.77 88.99 89.54 89.75 89.73 90.04 89.92 89.32 91.02 91.18 91.20 90.96 91.28 90.55 90.46 90.53
87.99 87.96 87.96 88.27 87.83 87.98 87.50 87.40 87.02 87.70 87.45 87.39 87.16 86.98 86.94 86.89 86.83 86.85 86.85 86.81 86.64 86.62 85.12 86.46 85.98 85.20 85.08 85.16 85.13 85.11 85.09 85.14 85.47 88.66 88.62 88.57 88.71 89.03 89.11 89.36 89.69 90.09 89.15 89.16 90.80 90.94 91.18 91.35 91.42 91.29 91.51 90.64
88.19 88.14 88.14 88.10 88.20 87.98 87.44 87.43 88.14 87.93 87.74 87.53 87.36 87.43 87.16 87.40 87.08 86.89 86.78 86.65 86.61 86.59 86.53 85.15 86.35 85.56 85.10 85.18 85.14 85.14 85.14 85.05 85.22 88.60 88.66 88.49 88.59 88.75 88.98 89.32 89.82 89.86 89.09 89.10 89.10 89.98 91.04 91.29 91.52 91.53 91.63 91.70
88.26 88.39 88.58 88.44 88.12 88.26 87.98 88.06 88.23 87.82 87.69 88.00 87.54 87.40 87.34 87.09 87.08 86.94 86.79 86.72 86.56 86.56 86.60 86.47 85.21 86.42 85.15 85.14 85.13 85.12 85.10 85.20 85.47 88.50 88.44 88.08 88.32 88.62 88.70 88.92 89.50 89.06 89.04 89.04 89.06 89.06 89.16 90.36 91.28 91.46 91.82 91.75
88.56 88.63 88.60 88.60 88.30 88.22 88.11 88.19 88.58 87.90 87.96 87.76 87.49 87.38 87.23 87.05 86.88 86.76 86.78 86.72 86.47 86.53 86.61 86.78 86.54 85.21 85.69 85.35 85.18 85.10 85.24 85.25 86.22 88.59 87.78 87.42 87.77 88.29 88.52 88.71 89.05 88.98 89.00 89.00 89.01 89.02 89.01 89.04 89.89 91.49 91.45 91.56
88.71 88.54 88.51 88.73 88.27 88.43 88.20 88.39 88.29 87.97 87.82 87.82 87.55 87.48 87.56 87.24 87.04 86.91 86.85 86.85 86.39 86.55 86.77 87.06 86.94 86.97 86.11 85.28 86.14 85.11 85.01 85.13 86.13 88.59 88.29 86.86 86.89 87.60 88.08 88.43 88.85 88.92 89.02 88.97 89.01 89.02 88.98 88.98 89.01 90.96 91.24 91.17
88.73 88.67 88.63 88.71 88.52 88.52 88.65 89.02 88.31 88.04 87.91 88.12 87.68 87.60 87.54 87.29 87.11 86.94 86.85 86.67 86.32 86.63 86.82 86.82 86.88 86.60 86.57 86.54 85.31 85.68 85.64 85.07 86.46 88.67 87.97 87.03 86.80 87.35 88.18 88.73 88.86 88.83 88.89 89.00 89.00 88.99 88.93 88.95 90.60 90.73 90.84 90.74
88.44 88.43 88.62 88.47 88.49 88.53 88.60 89.24 88.28 88.11 88.07 88.10 87.84 87.71 87.73 87.34 87.16 86.95 86.89 86.64 86.36 86.60 86.68 86.82 86.85 86.49 86.73 86.77 86.74 86.19 85.39 85.76 86.73 88.33 87.26 87.27 87.02 86.87 88.24 88.75 88.67 88.84 88.90 88.92 88.88 88.95 88.96 89.02 90.33 90.46 90.84 90.49
88.94 88.62 88.57 88.33 88.24 88.29 88.28 88.28 88.40 88.20 88.18 88.39 87.98 87.88 87.60 87.44 87.18 87.15 87.29 86.16 86.43 86.65 86.80 86.81 86.85 86.91 87.00 87.01 87.18 87.03 86.82 86.51 85.38 86.17 86.82 87.25 87.67 88.47 88.66 88.55 88.65 88.89 88.92 88.83 88.71 88.77 88.79 88.82 89.01 89.40 89.74 89.61
88.88 88.83 88.75 88.81 88.03 88.29 88.07 88.04 87.97 87.96 88.01 88.04 87.91 87.88 87.62 87.43 87.25 87.13 87.02 86.76 86.51 86.73 86.84 86.84 87.39 87.20 87.04 87.08 87.41 87.38 87.27 87.13 88.11 86.67 85.40 87.32 87.71 88.40 88.44 88.46 88.60 88.77 88.79 88.68 88.58 88.49 88.60 88.63 88.74 88.92 88.92 88.86
88.85 88.82 88.81 88.93 86.78 88.76 88.44 88.23 88.18 87.85 87.78 87.66 87.73 87.61 87.95 87.77 87.44 87.20 87.00 86.69 86.58 86.83 86.92 86.96 87.33 87.50 87.40 87.55 87.76 87.59 87.47 88.01 88.88 87.87 86.74 85.54 87.77 88.22 88.32 88.44 88.58 88.67 88.59 88.46 88.33 88.52 88.57 88.47 88.49 88.56 88.58 88.62
89.08 88.93 89.03 88.98 88.99 88.92 88.71 88.58 88.69 88.59 88.49 88.25 87.61 87.47 87.37 87.46 87.21 87.09 86.93 86.87 86.65 87.38 87.74 87.33 87.76 87.68 87.58 87.89 87.84 87.73 88.26 88.75 88.65 88.09 87.84 86.51 85.43 85.64 88.23 88.37 88.43 88.49 88.47 88.30 88.30 88.36 88.36 88.39 88.37 88.18 88.27 88.26
89.26 89.24 89.09 88.95 88.93 88.92 88.82 88.77 88.87 88.77 88.65 88.60 88.46 88.19 87.76 87.21 87.14 87.13 87.07 86.85 86.78 87.16 87.34 87.62 87.83 87.88 88.07 88.21 88.00 88.12 89.00 88.57 88.38 88.26 87.98 87.62 86.28 85.48 85.42 85.49 85.50 86.40 88.40 88.11 88.26 88.24 88.23 88.25 88.21 87.90 87.88 87.60
89.34 89.32 89.21 89.05 89.05 89.04 89.01 89.00 88.87 88.82 88.71 88.74 88.76 88.58 88.31 88.06 87.51 86.99 87.00 86.89 87.03 87.28 87.46 87.78 87.83 87.94 88.36 88.46 88.72 88.70 88.89 88.56 88.46 88.43 88.16 87.92 87.02 86.58 85.85 85.43 85.44 85.71 85.40 85.79 87.58 87.97 88.06 88.11 87.56 87.65 87.47 87.35
89.10 89.32 89.33 89.20 89.12 89.03 89.08 89.02 88.85 88.78 88.84 88.71 88.74 88.67 88.20 88.18 88.05 87.93 87.14 86.93 87.19 87.36 87.50 87.93 88.08 88.03 88.36 88.47 88.87 88.76 88.80 88.47 88.71 88.47 88.16 88.07 87.51 87.19 87.15 87.16 87.07 87.09 86.97 87.15 85.86 86.30 88.14 87.31 87.37 86.85 87.12 87.29
88.68 88.64 88.58 89.41 89.17 89.14 89.09 89.02 88.93 88.98 89.07 88.76 88.82 88.72 88.27 88.27 88.21 87.93 87.22 86.93 87.00 87.08 87.46 87.92 88.44 88.33 88.51 88.60 88.56 88.86 88.85 88.65 88.54 88.24 88.21 87.77 87.65 87.34 87.31 87.22 87.26 86.71 87.05 87.52 87.59 87.26 85.57 87.31 86.96 86.57 87.04 87.11
88.62 88.60 88.88 88.71 89.01 89.24 89.15 89.05 89.04 89.14 88.92 88.85 88.81 88.74 88.34 88.29 88.21 88.13 87.41 86.95 87.07 87.12 87.25 87.61 88.05 88.44 88.72 88.81 88.70 88.91 88.72 88.54 88.35 88.35 88.23 88.14 88.01 87.57 87.62 87.54 87.66 87.59 87.41 87.54 87.79 87.54 87.51 86.20 86.04 86.54 87.12 87.14
88.63 90.12 90.51 89.56 89.06 89.31 89.28 89.19 89.17 89.03 88.91 88.81 88.88 88.60 88.43 88.30 88.38 87.91 87.06 87.16 87.36 87.45 87.47 87.54 87.66 88.35 88.60 88.68 88.88 89.09 88.84 89.62 89.06 88.76 88.60 88.41 88.22 87.93 88.10 88.58 88.39 87.89 87.71 87.70 87.58 87.64 87.57 87.59 87.06 85.65 87.03 87.46
89.08 91.52 91.54 90.62 89.19 89.30 89.21 89.23 89.14 89.06 89.07 89.21 88.57 88.66 88.44 88.25 87.96 87.32 87.30 87.68 87.72 88.29 88.81 87.21 87.94 88.03 88.27 88.55 89.21 89.40 89.59 89.88 89.46 89.10 89.01 88.91 88.66 88.30 88.21 88.68 88.63 88.32 87.90 88.03 87.94 87.68 87.91 88.05 87.78 87.53 85.97 87.68
90.04 91.53 91.52 90.59 89.02 89.42 89.35 89.39 89.44 89.11 88.74 88.56 88.33 88.24 88.27 87.69 87.54 87.60 87.69 87.83 87.93 88.87 89.17 88.54 88.39 87.60 88.35 88.53 89.03 88.99 89.18 89.67 89.62 89.35 89.14 88.73 88.65 88.56 88.24 88.53 88.54 88.49 88.32 87.24 87.85 87.76 88.52 88.12 88.14 88.26 87.30 86.17
89.76 90.03 90.51 88.65 89.18 90.68 90.38 89.40 89.49 89.51 88.89 88.68 88.53 88.15 87.84 87.82 88.37 88.23 88.02 88.25 88.44 88.58 88.53 88.51 88.46 89.21 89.16 88.91 88.85 89.02 89.32 89.49 89.58 89.44 89.46 90.09 89.72 88.50 88.41 88.40 88.35 88.33 88.58 88.11 87.93 88.67 89.07 88.93 88.24 87.88 87.85 85.71
89.97 89.90 89.77 89.74 89.46 89.51 90.26 89.51 89.29 89.01 88.86 88.62 88.21 88.06 88.26 88.09 88.28 88.25 88.26 88.58 88.80 88.92 88.75 88.99 88.99 88.45 89.45 89.22 89.17 89.18 89.13 89.24 89.46 89.65 89.98 89.76 89.36 89.09 88.92 89.00 88.27 88.28 88.56 88.24 88.04 88.94 89.41 89.39 89.21 88.55 87.62 87.79
89.91 89.78 89.87 89.74 89.63 89.60 89.43 89.25 89.06 89.06 88.62 88.44 88.36 87.89 87.65 88.29 88.52 88.51 88.48 88.79 88.71 88.76 88.88 89.17 89.26 88.79 89.43 89.32 89.35 89.56 89.32 89.33 89.32 89.46 89.64 89.67 89.37 89.56 89.88 89.88 88.51 88.45 88.39 88.24 89.32 89.57 89.79 89.79 89.52 87.76 87.86 87.91
90.25 89.98 89.85 89.60 89.68 89.60 89.53 89.56 89.43 88.74 88.65 88.73 88.89 88.72 88.36 89.75 88.90 88.71 88.77 88.77 88.70 88.87 89.00 89.23 89.42 89.25 89.57 89.55 89.57 90.00 87.64 90.14 89.76 89.76 89.49 89.51 89.57 89.42 89.63 89.39 88.76 88.69 88.63 88.49 89.68 89.99 89.96 90.02 88.65 88.00 87.95 88.85
90.21 90.09 90.43 89.83 89.81 89.43 89.35 89.71 88.97 88.93 89.31 89.38 89.20 89.10 89.06 88.98 88.99 88.99 89.02 89.01 88.87 89.06 89.28 89.35 89.56 89.56 89.56 89.59 89.87 89.93 90.09 90.00 90.08 89.94 90.02 89.79 89.50 89.43 89.22 89.20 89.17 88.94 88.83 88.43 89.91 90.24 90.14 89.69 87.93 88.01 91.26 88.06
90.32 90.12 90.79 90.24 89.98 90.31 89.49 89.21 89.17 89.38 89.53 89.59 89.53 89.38 89.33 89.12 89.08 89.29 89.04 89.19 89.19 89.28 89.37 89.48 89.82 89.69 89.57 89.82 89.88 89.94 90.18 90.14 90.38 90.34 89.94 89.81 89.92 89.76 89.35 89.35 89.58 89.30 89.22 90.32 90.32 90.23 90.34 88.36 87.99 92.16 90.86 88.21
90.33 90.25 90.10 90.18 89.88 89.95 89.39 89.36 89.62 89.90 90.10 89.81 89.78 89.65 89.49 89.43 89.35 89.46 89.83 89.40 89.43 89.49 89.68 89.85 90.45 90.13 90.00 90.24 90.05 90.19 90.30 90.45 90.30 90.25 90.20 90.12 90.13 89.96 89.87 89.80 89.75 89.69 89.84 90.45 90.44 90.52 90.88 88.07 88.78 93.21 88.28 88.36
90.32 90.39 90.32 90.14 89.87 89.59 89.58 89.79 90.17 90.00 89.74 89.80 89.77 89.90 89.96 89.66 89.73 90.31 90.08 89.68 89.71 89.74 89.71 90.14 90.74 90.31 90.07 90.43 90.47 90.43 90.50 90.47 90.44 90.39 90.43 90.27 90.21 90.11 90.44 90.39 90.35 90.07 90.24 90.21 88.45 88.31 88.13 88.31 94.12 88.68 89.17 88.96
90.51 90.29 90.86 90.24 89.97 89.66 89.77 90.10 90.31 90.49 89.85 89.81 89.91 89.90 90.20 90.12 90.24 90.40 90.41 90.04 90.23 90.07 89.83 90.31 90.36 90.59 90.35 90.39 90.40 90.35 90.42 91.00 90.74 90.55 90.43 90.65 90.45 90.50 90.71 90.82 90.89 90.40 89.12 88.67 88.47 87.31 88.44 90.65 94.57 88.83 89.27 89.39
90.72 90.65 90.58 90.19 89.91 89.90 90.08 90.37 90.54 90.63 90.64 90.56 90.13 90.08 90.24 90.50 90.34 90.35 90.46 90.30 90.70 90.59 90.36 90.48 90.66 90.33 90.54 90.63 90.42 90.43 90.34 91.11 91.10 90.82 90.87 90.42 90.84 90.93 91.57 90.82 90.79 89.90 88.84 87.99 91.48 94.49 91.00 95.40 89.45 89.32 89.12 89.35
90.83 90.84 90.65 90.55 90.04 90.41 90.32 90.37 90.71 90.74 90.75 90.61 90.79 90.39 90.43 90.54 90.44 90.35 90.19 90.85 90.81 90.65 90.53 90.66 90.66 90.54 90.97 90.66 90.79 90.98 90.80 91.14 91.11 91.24 91.04 91.07 90.95 91.02 91.03 91.00 90.90 88.94 88.56 92.79 98.65 99.22 97.40 95.85 89.57 89.70 89.62 89.46
90.96 90.77 90.59 90.25 90.27 90.68 90.40 90.57 90.69 90.79 90.77 90.66 90.80 90.84 90.80 90.49 90.61 90.38 90.12 90.81 90.75 90.68 90.68 90.81 90.82 91.00 91.07 90.94 91.08 91.21 90.95 91.13 91.25 91.40 91.22 91.17 91.15 91.10 91.19 91.06 91.07 89.03 88.51 93.50 99.52 99.37 98.21 95.25 90.29 90.84 89.97 90.24
91.24 91.06 90.56 90.36 90.78 90.75 90.71 90.70 90.83 90.73 90.68 90.77 90.90 91.07 91.01 90.70 90.61 90.41 90.31 90.56 90.93 90.97 90.90 90.92 90.82 91.13 91.13 91.33 91.26 91.28 91.57 91.15 91.18 91.34 91.49 91.38 91.20 91.08 91.52 91.30 91.20 89.10 88.53 88.45 96.54 99.58 97.09 90.95 90.60 90.85 91.22 90.68
91.21 91.14 90.59 90.61 90.91 91.00 90.93 90.97 90.95 90.77 90.73 90.81 91.01 91.19 91.02 91.07 91.07 90.83 90.79 90.63 90.76 91.26 91.18 91.14 91.13 91.29 91.43 91.54 91.54 91.59 91.60 91.65 91.67 91.44 91.54 91.61 91.63 91.68 91.44 91.46 91.56 92.04 88.45 88.32 88.66 95.16 96.76 90.52 90.54 90.90 91.13 91.65
91.19 91.00 90.73 90.82 91.00 91.23 91.24 91.25 91.34 91.05 90.96 90.99 91.12 91.10 91.09 91.15 91.27 90.95 90.88 91.13 91.00 91.05 91.14 91.12 91.45 91.71 91.67 91.65 91.85 91.79 91.75 91.74 91.85 91.62 91.68 91.68 91.81 91.81 91.58 91.56 91.84 90.46 92.09 88.45 88.74 90.27 96.86 90.64 90.98 90.93 91.15 91.59
91.30 91.01 90.99 90.75 90.86 91.10 91.57 91.38 91.35 91.06 91.10 91.10 91.18 91.28 91.21 91.21 91.24 91.40 90.97 91.59 91.78 91.74 91.59 91.41 91.65 91.87 91.98 91.88 91.90 91.97 92.07 91.96 91.76 91.85 91.78 91.83 91.79 91.96 91.90 91.79 92.05 92.07 92.07 91.82 88.98 92.79 95.50 91.13 91.26 91.23 91.11 91.29
91.38 91.09 91.12 90.82 91.01 91.08 91.23 91.50 91.44 91.38 91.26 91.12 91.11 91.08 91.20 91.21 91.28 91.24 91.57 91.71 91.87 91.90 91.67 91.82 91.91 92.14 92.16 92.06 92.09 92.15 92.17 92.03 91.92 92.00 91.99 92.02 92.14 92.20 92.13 91.94 92.28 92.46 92.39 88.68 89.24 97.23 92.51 91.21 91.15 91.76 91.74 91.47
91.31 91.26 91.53 91.18 91.09 91.14 91.33 91.36 91.56 91.75 91.59 91.07 91.71 91.57 91.26 91.24 91.23 91.72 91.67 92.16 91.94 91.73 91.71 92.14 92.11 92.18 92.24 92.17 92.27 92.30 92.22 92.01 92.12 92.25 92.07 92.19 92.29 92.29 92.32 92.21 92.37 92.50 92.63 88.73 90.95 97.36 91.31 92.07 91.38 92.34 92.05 91.89
91.49 91.31 91.28 91.39 91.48 91.35 91.29 91.56 91.70 91.57 91.87 91.88 92.01 92.15 92.21 91.41 91.76 91.90 92.12 92.19 92.10 92.03 92.01 92.18 92.25 92.28 92.29 92.23 92.29 92.45 92.31 92.40 92.83 92.36 92.25 92.37 92.38 92.46 92.40 92.51 92.62 93.29 93.01 88.66 92.29 97.18 91.84 92.36 92.33 92.53 92.02 92.06
91.90 91.52 91.96 91.40 91.43 91.48 91.67 91.79 91.78 91.76 91.84 91.94 92.04 92.30 92.36 92.36 92.09 92.17 92.26 92.22 92.18 92.18 92.07 91.60 92.25 92.35 92.28 92.27 92.43 92.45 92.32 92.72 92.73 92.56 92.40 91.86 92.46 92.67 92.63 92.76 92.98 93.17 91.45 89.47 93.93 94.62 92.60 92.43 92.58 92.64 92.67 92.55
90.75 90.75 91.73 92.12 92.09 91.52 91.57 91.77 92.26 91.82 92.09 92.79 92.15 92.13 92.42 92.46 92.29 92.40 93.25 92.33 92.43 92.27 91.82 90.63 90.27 91.78 92.21 92.46 92.46 92.59 92.50 92.74 92.81 92.57 92.61 93.00 93.05 92.98 92.83 93.07 93.33 93.29 89.21 91.21 98.12 92.02 92.36 92.73 92.81 92.86 92.84 92.57
90.72 92.28 90.79 92.22 92.28 91.26 92.56 91.83 91.75 91.79 92.26 92.28 92.43 92.47 92.63 92.56 92.60 92.59 92.78 92.71 92.54 92.49 91.72 90.60 90.19 90.59 93.60 92.70 92.79 92.95 92.96 92.91 93.50 92.87 92.73 93.01 93.15 93.08 93.10 92.97 93.45 93.24 89.31 92.24 98.35 92.18 92.52 92.97 93.02 93.08 93.02 92.67
90.72 92.31 91.03 92.32 92.42 93.19 92.61 92.45 92.37 91.92 91.96 92.07 92.32 92.64 92.41 92.62 93.14 92.95 93.24 92.78 92.60 93.26 92.78 92.03 91.67 93.45 93.69 93.36 93.13 92.91 93.04 93.49 93.66 92.93 93.57 93.38 93.42 93.26 93.34 93.99 93.96 93.58 89.07 95.76 97.50 92.72 92.78 92.79 93.13 94.29 94.08 92.61
92.65 92.04 92.36 92.37 92.42 92.22 92.49 92.50 92.60 92.71 92.85 92.12 92.19 92.30 92.56 92.58 93.24 93.17 93.37 92.88 92.73 93.40 93.58 93.57 93.50 93.73 93.61 93.22 93.49 93.37 93.44 93.58 93.81 93.65 93.61 93.60 93.67 93.47 93.87 93.97 93.83 89.94 89.96 98.99 94.10 92.93 93.04 92.91 93.31 94.08 93.85 92.68
92.89 93.06 93.12 93.00 92.56 92.47 92.78 92.33 92.90 93.00 92.85 92.82 92.43 92.31 92.44 93.13 93.18 93.43 93.35 92.90 93.09 93.54 93.61 93.54 93.56 93.66 93.69 93.52 93.60 93.43 93.42 93.67 93.77 93.76 93.95 93.93 93.78 93.74 93.83 94.03 93.90 90.05 91.46 99.11 92.83 93.08 93.29 93.23 94.14 94.59 93.90 93.42
93.15 93.27 92.66 92.54 92.90 92.77 92.62 92.55 93.13 92.97 92.87 92.90 92.83 92.79 92.48 92.54 93.38 93.31 93.11 93.11 93.44 93.57 93.67 93.54 93.62 93.67 93.46 93.52 93.60 93.54 93.49 93.77 93.68 93.93 93.85 94.22 93.87 93.90 93.96 94.07 94.52 89.93 92.54 98.59 93.12 93.32 93.58 93.73 93.86 94.21 94.63 95.31
93.27 93.30 92.90 92.71 92.89 92.84 92.60 92.14 93.06 92.89 92.82 92.88 93.05 93.73 93.27 92.72 92.85 92.97 93.17 93.21 93.57 93.60 93.63 93.70 93.59 93.78 93.76 93.66 93.71 93.91 93.74 93.70 93.62 93.79 93.93 94.19 94.01 94.05 94.08 94.44 93.91 89.88 96.54 96.76 93.44 93.52 93.96 93.90 94.46 94.77 94.48 94.51
93.14 93.13 93.10 93.02 93.07 93.08 93.12 93.13 93.18 93.28 93.15 93.17 93.47 93.56 93.37 93.14 93.05 93.21 93.26 93.41 93.66 93.65 93.95 93.80 94.26 93.84 93.96 93.85 93.80 94.02 93.82 93.59 93.69 93.77 93.94 94.22 94.14 94.20 94.24 94.56 90.89 91.42 99.75 93.52 93.88 94.23 94.16 94.25 94.22 94.16 94.58 94.65
93.11 92.89 92.89 92.90 92.82 93.14 93.14 93.28 95.24 93.97 93.47 93.31 94.32 94.67 94.45 94.18 93.63 93.48 93.48 93.50 93.53 93.84 93.88 93.82 93.95 94.03 93.99 93.99 95.02 94.65 93.96 93.91 93.83 93.79 94.19 94.22 94.51 94.39 94.42 93.13 92.53 92.67 99.65 93.64 94.10 94.46 94.65 95.10 94.40 94.18 94.31 94.53
92.80 92.38 92.16 92.14 92.07 92.66 93.50 93.58 96.32 95.96 95.53 95.32 96.18 96.81 96.24 94.81 93.84 93.80 93.64 93.78 93.73 93.71 93.70 93.85 93.98 94.04 94.19 94.04 95.03 94.71 94.73 94.29 94.01 94.08 94.42 94.40 94.55 94.37 94.54 93.14 92.75 94.47 98.99 93.95 94.37 94.54 94.71 94.65 95.15 94.50 94.65 94.60
