ncols 52
nrows 52
xllcorner 437248
yllcorner 5716992
cellsize 10
NODATA_value -9999
86.84 86.73 86.77 86.67 86.48 86.38 86.23 86.25 86.68 86.89 86.79 86.79 86.76 86.74 86.75 86.87 86.79 86.84 86.90 86.83 86.56 86.86 86.63 86.57 86.63 86.66 86.72 86.95 86.73 86.51 86.47 86.42 86.44 86.36 86.26 86.26 86.23 86.18 86.14 86.07 86.10 85.89 85.79 85.69 85.63 85.61 85.56 85.52 85.47 85.31 85.22 85.10
86.97 86.90 86.97 86.77 86.65 86.51 86.51 86.58 86.79 86.92 86.99 86.96 86.92 86.90 86.91 87.06 87.01 87.01 87.08 87.00 86.98 87.17 86.97 86.82 87.11 87.16 86.68 86.80 86.78 86.65 86.52 86.45 86.50 86.50 86.45 86.43 86.43 86.36 86.31 86.24 86.27 86.00 86.01 85.90 85.83 85.78 85.74 85.67 85.63 85.51 85.29 85.24
87.06 87.10 87.11 86.98 86.82 86.67 86.64 86.72 86.94 87.06 87.20 87.15 87.13 87.10 87.11 87.18 87.25 87.19 87.26 87.19 87.25 87.40 87.44 86.81 87.04 87.03 86.97 86.88 86.78 86.76 86.65 86.64 86.68 86.70 86.64 86.59 86.57 86.55 86.50 86.43 86.37 86.32 86.17 86.06 86.00 85.95 85.89 85.81 85.74 85.64 85.42 85.37
87.24 87.25 87.21 87.11 86.93 86.73 86.72 86.92 87.15 87.27 87.42 87.40 87.39 87.35 87.35 87.45 87.51 87.43 87.47 87.46 87.49 87.08 87.40 87.22 87.08 87.04 87.00 86.93 86.97 86.93 86.83 86.76 86.85 86.91 86.85 86.76 86.76 86.72 86.68 86.61 86.53 86.52 86.33 86.25 86.19 86.11 86.05 85.94 85.86 85.72 85.57 85.41
87.41 87.41 87.27 87.12 87.02 86.83 86.87 87.14 87.39 87.54 87.56 87.69 87.70 87.69 87.70 87.71 87.78 87.75 87.71 87.69 87.64 87.66 87.75 87.31 87.15 87.12 87.12 87.12 87.14 87.11 87.01 86.96 87.01 87.05 87.00 86.92 86.94 86.93 86.86 86.79 86.70 86.65 86.51 86.51 86.35 86.30 86.20 86.10 85.96 85.87 85.72 85.50
87.54 87.40 87.32 87.26 87.16 87.03 87.17 87.45 87.64 87.74 87.78 87.93 87.93 87.94 87.96 87.89 87.89 87.86 87.77 87.82 87.78 87.78 87.48 87.59 87.33 87.28 87.25 87.24 87.25 87.26 87.19 87.12 87.16 87.21 87.17 87.08 87.08 87.08 87.07 87.00 86.90 86.81 86.79 86.63 86.51 86.46 86.39 86.23 86.10 85.98 85.85 85.68
87.61 87.55 87.50 87.46 87.35 87.23 87.43 87.68 87.81 87.88 87.92 88.02 88.08 88.05 88.09 87.94 87.94 87.98 87.90 87.87 87.85 87.81 87.72 87.75 87.50 87.44 87.41 87.39 87.41 87.42 87.35 87.27 87.30 87.33 87.32 87.24 87.27 87.28 87.25 87.19 87.08 86.97 86.95 86.71 86.71 86.62 86.51 86.38 86.24 86.10 85.98 85.83
87.80 87.72 87.65 87.57 87.44 87.38 87.59 87.85 87.95 88.01 88.08 88.10 88.21 88.12 88.16 88.06 88.06 88.06 88.03 87.97 87.97 87.90 87.93 88.00 87.72 87.59 87.55 87.56 87.59 87.61 87.55 87.46 87.46 87.53 87.49 87.45 87.45 87.43 87.40 87.35 87.28 87.14 87.06 86.97 86.89 86.78 86.66 86.52 86.36 86.24 86.08 85.96
87.92 87.85 87.76 87.68 87.53 87.51 87.75 88.02 88.12 88.13 88.20 88.22 88.32 88.28 88.27 88.18 88.15 88.15 88.14 88.10 88.14 88.11 87.99 87.54 87.91 87.79 87.73 87.72 87.74 87.76 87.75 87.65 87.63 87.71 87.72 87.65 87.63 87.61 87.57 87.51 87.43 87.33 87.20 87.17 87.01 86.91 86.81 86.65 86.50 86.39 86.21 86.08
88.00 87.96 87.89 87.81 87.64 87.65 87.94 88.20 88.28 88.30 88.33 88.36 88.36 88.44 88.35 88.30 88.26 88.31 88.26 88.29 88.28 88.18 88.00 87.96 88.23 87.97 87.89 87.88 87.92 87.96 87.93 87.83 87.82 87.92 87.95 87.88 87.81 87.80 87.75 87.69 87.61 87.50 87.38 87.30 87.14 87.10 86.95 86.81 86.64 86.49 86.32 86.20
88.17 88.11 88.02 87.97 87.79 87.82 88.13 88.38 88.43 88.46 88.46 88.47 88.48 88.55 88.51 88.50 88.51 88.47 88.47 88.38 88.20 88.18 88.15 88.08 87.97 88.24 88.07 88.01 88.05 88.10 88.10 88.04 88.02 88.09 88.16 88.06 87.99 87.97 87.94 87.87 87.81 87.70 87.53 87.43 87.38 87.24 87.10 86.96 86.79 86.62 86.44 86.32
88.34 88.25 88.16 88.07 87.91 88.02 88.33 88.55 88.61 88.61 88.65 88.64 88.62 88.68 88.61 88.63 88.60 88.44 88.42 88.43 88.39 88.33 88.29 88.25 88.16 88.39 88.28 88.19 88.23 88.27 88.27 88.23 88.19 88.24 88.28 88.23 88.18 88.20 88.17 88.08 87.98 87.87 87.71 87.57 87.53 87.29 87.26 87.08 86.90 86.74 86.60 86.44
88.51 88.37 88.29 88.18 88.07 88.25 88.54 88.74 88.76 88.78 88.77 88.75 88.75 88.78 88.71 88.59 88.60 88.60 88.58 88.60 88.54 88.47 88.46 88.41 88.32 88.60 88.53 88.45 88.47 88.48 88.49 88.44 88.38 88.39 88.42 88.41 88.34 88.42 88.38 88.28 88.18 88.06 87.89 87.73 87.61 87.48 87.42 87.23 87.02 86.87 86.73 86.58
88.65 88.48 88.39 88.26 88.21 88.47 88.73 88.85 88.93 88.92 88.92 88.92 88.90 88.89 88.91 88.78 88.73 88.72 88.72 88.71 88.71 88.64 88.62 88.58 88.46 88.04 88.81 88.71 88.69 88.67 88.66 88.58 88.50 88.51 88.57 88.60 88.58 88.63 88.59 88.47 88.33 88.18 88.02 87.86 87.72 87.70 87.53 87.38 87.18 87.02 86.86 86.75
88.82 88.70 88.52 88.36 88.41 88.69 88.88 88.97 89.05 89.07 89.05 89.06 89.03 89.01 89.03 88.99 88.90 88.89 88.86 88.87 88.85 88.80 88.78 88.74 88.61 88.50 88.94 88.95 88.89 88.85 88.82 88.73 88.64 88.62 88.69 88.78 88.76 88.78 88.74 88.60 88.45 88.31 88.17 88.02 87.85 87.77 87.59 87.56 87.33 87.14 87.02 86.90
89.07 88.83 88.62 88.50 88.59 88.88 88.99 89.11 89.16 89.21 89.19 89.22 89.19 89.16 89.20 89.16 89.12 89.09 89.06 89.03 88.99 88.99 88.94 88.87 88.80 88.66 88.83 89.18 89.07 89.00 88.96 88.88 88.77 88.75 88.86 88.93 88.91 88.86 88.83 88.70 88.57 88.42 88.29 88.13 87.97 87.86 87.84 87.73 87.49 87.28 87.16 87.02
89.18 88.99 88.72 88.65 88.81 89.00 89.17 89.22 89.28 89.35 89.38 89.40 89.39 89.35 89.36 89.44 89.31 89.28 89.28 89.24 89.18 89.13 89.11 88.99 88.95 88.92 88.91 89.30 89.26 89.12 89.07 88.97 88.89 88.87 88.94 89.00 89.01 88.97 88.94 88.82 88.64 88.51 88.35 88.22 88.06 87.92 87.96 87.76 87.65 87.44 87.26 87.14
89.30 89.20 88.92 88.80 88.98 89.15 89.30 89.35 89.39 89.46 89.53 89.56 89.57 89.53 89.51 89.55 89.53 89.49 89.46 89.43 89.37 89.30 89.27 89.17 89.13 89.18 89.27 89.44 89.42 89.29 89.18 89.11 89.04 88.97 89.00 89.12 89.13 89.07 88.99 88.89 88.74 88.58 88.46 88.33 88.19 88.04 88.00 87.94 87.85 87.57 87.39 87.28
89.46 89.36 89.12 88.96 89.18 89.34 89.48 89.50 89.50 89.56 89.65 89.68 89.67 89.65 89.63 89.68 89.71 89.65 89.63 89.60 89.56 89.46 89.46 89.40 89.37 89.41 89.44 89.01 89.64 89.46 89.31 89.24 89.18 89.07 89.12 89.18 89.21 89.14 89.07 88.97 88.82 88.68 88.57 88.44 88.32 88.18 88.07 88.15 87.97 87.76 87.59 87.45
89.65 89.51 89.24 89.15 89.36 89.54 89.61 89.65 89.63 89.64 89.71 89.75 89.76 89.76 89.73 89.74 89.82 89.79 89.74 89.69 89.66 89.62 89.59 89.54 89.53 89.55 89.56 89.56 89.77 89.60 89.45 89.42 89.32 89.23 89.18 89.25 89.28 89.23 89.17 89.10 88.93 88.78 88.65 88.54 88.45 88.33 88.24 88.27 88.07 87.99 87.76 87.61
89.87 89.71 89.62 89.38 89.46 89.63 89.71 89.73 89.74 89.69 89.78 89.82 89.83 89.83 89.85 89.86 89.92 89.89 89.85 89.83 89.78 89.73 89.70 89.67 89.66 89.66 89.68 89.68 89.69 89.83 89.62 89.53 89.47 89.34 89.26 89.33 89.39 89.35 89.29 89.17 89.04 88.90 88.83 88.70 88.60 88.54 88.42 88.39 88.35 88.18 87.93 87.82
90.09 89.93 89.79 89.57 89.51 89.70 89.76 89.81 89.82 89.79 89.81 89.90 89.92 89.94 89.96 89.97 90.01 90.07 90.00 89.93 89.90 89.87 89.83 89.78 89.80 89.78 89.82 89.85 89.74 89.97 89.82 89.69 89.61 89.49 89.39 89.43 89.49 89.43 89.36 89.30 89.16 89.02 88.94 88.88 88.78 88.70 88.58 88.49 88.50 88.25 88.17 88.05
90.27 90.09 89.94 89.65 89.61 89.78 89.84 89.89 89.91 89.90 89.92 89.96 90.01 90.06 90.08 90.10 90.09 90.16 90.10 90.04 90.03 90.01 89.98 89.95 89.95 89.97 89.98 89.98 89.99 90.15 90.07 89.88 89.75 89.67 89.56 89.54 89.55 89.53 89.43 89.39 89.28 89.17 89.08 88.98 88.90 88.79 88.69 88.61 88.58 88.44 88.38 88.24
90.45 90.30 90.13 89.96 89.75 89.83 89.96 89.97 89.98 90.00 89.99 90.06 90.13 90.16 90.20 90.23 90.24 90.25 90.29 90.20 90.15 90.15 90.14 90.08 90.10 90.13 90.14 90.15 90.11 89.56 90.32 90.07 89.91 89.78 89.67 89.61 89.66 89.62 89.54 89.48 89.40 89.26 89.13 89.04 88.97 88.90 88.84 88.76 88.68 88.71 88.54 88.40
90.68 90.49 90.31 90.15 89.93 89.95 90.05 90.07 90.06 90.10 90.08 90.13 90.21 90.27 90.30 90.33 90.36 90.37 90.43 90.38 90.33 90.28 90.26 90.25 90.26 90.28 90.27 90.30 90.27 90.22 90.44 90.22 90.03 89.91 89.78 89.72 89.75 89.73 89.65 89.59 89.52 89.35 89.23 89.12 89.04 89.00 88.97 88.93 88.89 88.88 88.64 88.60
90.85 90.68 90.52 90.34 90.07 90.12 90.19 90.18 90.17 90.15 90.17 90.19 90.28 90.38 90.40 90.48 90.50 90.50 90.53 90.50 90.47 90.45 90.43 90.41 90.41 90.42 90.40 90.42 90.40 90.38 90.42 90.43 90.18 90.03 89.93 89.85 89.83 89.82 89.74 89.67 89.62 89.47 89.33 89.22 89.17 89.12 89.10 89.10 89.06 89.02 88.91 88.74
91.01 90.89 90.72 90.56 90.37 90.25 90.28 90.30 90.25 90.25 90.26 90.27 90.35 90.46 90.54 90.58 90.64 90.65 90.65 90.75 90.64 90.62 90.60 90.58 90.56 90.56 90.55 90.53 90.50 90.45 90.35 90.55 90.34 90.17 90.04 89.96 89.89 89.91 89.82 89.75 89.68 89.57 89.44 89.37 89.32 89.31 89.27 89.25 89.18 89.13 89.08 88.81
91.20 91.10 90.95 90.78 90.56 90.40 90.40 90.39 90.35 90.34 90.36 90.38 90.43 90.55 90.65 90.70 90.77 90.79 90.78 90.83 90.81 90.79 90.75 90.72 90.74 90.75 90.71 90.67 90.62 90.51 90.55 90.77 90.54 90.31 90.15 90.06 90.02 89.99 89.91 89.84 89.79 89.70 89.56 89.51 89.49 89.47 89.45 89.42 89.33 89.23 89.15 88.99
91.36 91.29 91.18 91.03 90.75 90.55 90.54 90.47 90.43 90.45 90.41 90.44 90.51 90.63 90.77 90.79 90.87 90.92 90.93 90.94 90.97 90.93 90.91 90.88 90.90 90.92 90.89 90.79 90.69 90.72 90.71 90.90 90.77 90.46 90.25 90.15 90.09 90.07 90.02 89.94 89.89 89.83 89.71 89.66 89.65 89.63 89.60 89.56 89.48 89.37 89.32 89.06
91.51 91.45 91.35 91.19 90.94 90.71 90.65 90.58 90.55 90.50 90.53 90.53 90.60 90.72 90.84 90.91 90.96 91.02 91.02 91.07 91.18 91.10 91.04 90.97 90.98 90.99 91.04 91.04 91.03 91.01 91.06 90.39 90.93 90.62 90.40 90.27 90.19 90.18 90.13 90.04 90.00 89.94 89.83 89.80 89.74 89.74 89.78 89.75 89.68 89.42 89.35 89.13
91.62 91.60 91.52 91.34 91.12 90.82 90.69 90.71 90.63 90.62 90.62 90.65 90.72 90.82 90.95 91.02 91.10 91.16 91.18 91.21 91.31 91.24 91.15 91.22 91.26 91.26 91.26 91.16 90.52 90.93 91.27 91.25 90.94 90.89 90.61 90.42 90.32 90.29 90.24 90.15 90.09 90.08 90.00 89.96 89.93 89.99 89.89 89.38 89.57 89.39 89.35 89.09
91.74 91.71 91.61 91.47 91.25 90.89 90.84 90.80 90.76 90.74 90.75 90.79 90.88 90.96 91.09 91.19 91.27 91.33 91.39 91.50 91.52 91.46 91.50 91.46 91.20 90.86 91.17 91.59 91.21 91.20 91.15 91.09 91.12 91.07 90.75 90.54 90.42 90.40 90.35 90.29 90.24 90.22 90.19 90.08 89.59 90.00 89.92 89.75 89.65 89.27 89.15 88.91
91.81 91.80 91.72 91.57 91.33 90.99 90.85 90.90 90.89 90.88 90.96 91.00 91.08 91.13 91.27 91.39 91.53 91.56 91.61 91.57 91.60 91.23 91.26 91.42 91.44 91.45 91.47 91.41 91.39 91.33 91.21 91.15 91.32 91.20 90.87 90.61 90.50 90.50 90.49 90.48 90.36 90.18 90.32 90.26 90.05 89.97 89.81 89.68 89.60 89.32 89.07 88.85
91.89 91.84 91.76 91.62 91.39 91.10 90.88 90.85 91.01 91.04 91.11 91.18 91.25 91.38 91.48 91.57 91.54 91.66 91.00 91.40 91.57 91.67 91.66 91.70 91.59 91.56 91.53 91.44 91.41 91.35 91.18 91.18 91.22 90.45 91.04 90.79 90.72 90.71 90.51 90.50 90.62 90.48 90.29 90.11 90.01 89.93 89.77 89.66 89.56 89.34 89.01 88.78
91.92 91.89 91.80 91.62 91.44 91.18 90.94 90.99 91.07 91.15 91.28 91.37 91.53 91.56 91.71 90.83 91.66 91.73 91.61 91.71 91.78 91.81 91.79 91.75 91.64 91.58 91.53 91.49 91.42 91.35 91.29 91.18 91.33 91.31 91.18 90.84 90.30 90.92 90.78 90.65 90.49 90.43 90.34 90.21 90.06 89.96 89.81 89.64 89.54 89.34 89.05 88.85
91.94 91.85 91.74 91.58 91.44 91.17 90.96 91.04 91.10 91.36 91.41 91.64 90.71 91.77 91.81 91.76 92.82 91.74 92.66 91.86 91.86 91.90 91.83 91.85 91.74 91.70 91.66 91.54 91.53 91.43 91.43 91.31 91.22 91.34 91.22 90.99 90.97 90.81 90.74 90.58 90.53 90.53 90.50 90.36 90.14 90.00 89.85 89.65 89.52 89.35 89.15 88.96
91.89 91.78 91.66 91.53 91.44 91.32 91.26 91.29 91.46 90.72 91.72 91.65 91.81 91.94 91.93 92.02 92.32 91.50 92.20 92.41 91.93 91.90 91.90 91.91 91.82 91.79 91.77 91.65 91.57 91.45 91.40 91.32 91.39 91.32 91.28 91.26 90.92 90.83 90.81 90.78 90.70 90.68 90.67 90.49 90.22 89.99 89.88 89.68 89.51 89.39 89.25 88.99
91.84 91.76 91.73 91.66 91.57 91.49 90.85 91.06 91.29 91.64 91.96 91.96 91.89 92.10 92.26 91.72 92.14 92.10 92.14 92.17 91.98 92.05 92.01 91.99 91.90 91.84 91.83 91.76 91.60 91.54 91.47 91.37 91.26 91.22 91.21 91.45 91.11 91.00 90.96 90.90 90.85 90.76 90.75 90.59 90.32 90.07 89.91 89.68 89.51 89.43 89.33 89.21
91.96 91.93 91.79 91.41 91.35 91.36 91.30 91.21 91.14 91.74 92.14 92.14 92.07 92.01 92.05 92.23 92.42 92.25 92.54 92.23 92.14 92.24 92.03 92.03 91.97 91.89 91.87 91.82 91.64 91.61 91.52 91.41 91.34 91.25 91.26 90.93 91.33 91.10 91.10 91.05 90.99 90.91 90.84 90.68 90.40 90.13 89.89 89.72 89.56 89.50 89.45 89.37
91.86 91.73 91.67 91.60 91.52 91.47 91.43 91.28 91.44 91.72 91.94 92.00 92.05 92.40 92.15 92.18 92.31 92.33 92.27 92.24 92.20 92.23 92.15 92.18 92.13 91.91 91.93 91.82 91.78 91.71 91.56 91.47 91.41 91.36 91.29 91.35 91.50 91.31 91.20 91.21 91.10 91.00 90.89 90.73 90.41 90.22 90.01 89.84 89.72 89.60 89.57 89.50
91.98 91.90 91.80 91.69 91.64 91.59 91.55 91.52 91.54 91.65 91.87 92.07 92.15 92.17 92.26 92.44 92.37 92.59 92.56 92.78 92.57 92.28 92.12 92.18 92.15 92.06 91.99 91.90 91.84 91.76 91.68 91.62 91.52 91.44 91.36 91.42 91.54 91.44 91.29 91.26 91.17 91.08 90.96 90.77 90.53 90.29 90.12 89.97 89.84 89.69 89.65 89.59
92.11 92.02 91.93 91.85 91.73 91.69 91.60 91.59 91.62 91.51 92.24 92.29 92.08 92.18 92.27 92.40 92.40 92.51 92.45 92.29 92.36 92.33 92.31 92.25 92.23 92.19 92.08 92.04 91.94 91.87 91.76 91.65 91.57 91.53 91.45 91.49 91.38 91.59 91.39 91.31 91.24 91.14 91.01 90.86 90.64 90.41 90.23 90.07 89.95 89.80 89.73 89.69
92.17 92.09 91.99 91.91 91.83 91.74 91.70 91.66 91.63 91.43 91.81 92.02 92.18 92.21 92.65 92.36 92.37 92.47 92.50 92.49 92.48 92.44 92.42 92.38 92.35 92.31 92.19 92.11 92.04 91.91 91.83 91.74 91.72 91.67 91.64 91.59 91.66 91.70 91.49 91.39 91.29 91.17 91.05 90.90 90.68 90.49 90.38 90.19 90.04 89.92 89.82 89.76
92.22 92.14 92.08 92.00 91.93 91.85 91.74 91.72 91.59 91.77 91.92 92.01 92.10 92.44 92.65 92.45 92.51 92.65 92.62 92.61 92.57 92.56 92.52 92.48 92.43 92.34 92.29 92.17 92.10 92.01 91.96 91.86 91.79 91.75 91.71 91.64 91.65 91.51 91.64 91.41 91.33 91.22 91.10 90.98 90.79 90.60 90.46 90.30 90.11 90.02 89.89 89.83
92.32 92.24 92.15 92.07 92.01 91.94 91.83 91.81 91.69 91.79 91.82 92.07 92.76 92.46 92.75 92.60 92.64 92.68 92.74 92.70 92.67 92.65 92.59 92.54 92.49 92.43 92.37 92.27 92.21 92.11 92.00 91.94 91.85 91.82 91.76 91.72 91.71 91.83 91.79 91.57 91.42 91.30 91.18 91.04 90.88 90.69 90.51 90.39 90.23 90.15 90.03 89.94
92.35 92.31 92.22 92.14 92.10 92.05 91.98 91.91 91.83 91.90 92.13 92.04 92.41 92.52 92.67 92.78 92.72 92.78 92.83 92.81 92.75 92.72 92.67 92.62 92.58 92.53 92.43 92.34 92.24 92.13 92.03 91.97 91.93 91.95 91.90 91.88 91.82 91.83 91.87 91.65 91.48 91.33 91.23 91.11 90.96 90.80 90.65 90.49 90.34 90.23 90.14 90.05
92.44 92.36 92.33 92.23 92.19 92.11 92.06 92.00 91.93 91.91 91.68 92.29 92.46 92.67 92.78 92.93 92.81 92.89 92.93 92.93 92.89 92.85 92.80 92.73 92.65 92.57 92.46 92.37 92.28 92.17 92.10 92.08 92.07 92.04 92.01 91.95 91.89 91.87 91.79 91.78 91.54 91.43 91.26 91.21 91.06 90.93 90.75 90.60 90.43 90.33 90.27 90.18
92.52 92.47 92.40 92.31 92.30 92.25 92.24 92.10 92.08 91.92 91.79 92.69 92.40 92.77 92.76 92.94 93.00 93.01 93.06 93.04 93.02 92.93 92.85 92.78 92.71 92.62 92.55 92.49 92.38 92.28 92.20 92.14 92.14 92.10 92.07 92.01 91.92 91.91 91.95 92.02 91.69 91.51 91.36 91.26 91.13 90.98 90.83 90.67 90.58 90.45 90.40 90.33
92.58 92.54 92.51 92.51 92.43 92.40 92.28 92.13 91.95 91.81 91.86 92.17 92.47 92.62 92.82 93.03 93.07 93.16 93.18 93.12 93.08 93.02 92.96 92.89 92.82 92.77 92.70 92.61 92.50 92.40 92.32 92.24 92.22 92.16 92.14 92.11 92.05 91.95 91.90 91.85 91.83 91.60 91.46 91.35 91.23 91.08 90.97 90.82 90.69 90.58 90.47 90.45
92.73 92.69 92.65 92.52 92.40 92.28 92.21 92.12 92.03 91.94 92.00 92.19 92.54 92.73 92.95 93.10 93.21 93.24 93.27 93.26 93.21 93.18 93.11 93.07 92.95 92.86 92.74 92.67 92.57 92.45 92.42 92.33 92.29 92.26 92.26 92.20 92.12 92.03 91.89 91.86 92.01 91.74 91.57 91.45 91.34 91.19 91.07 90.94 90.79 90.69 90.61 90.57
92.75 92.65 92.59 92.51 92.45 92.36 92.32 92.24 92.10 92.01 92.13 92.50 92.75 92.89 93.08 93.25 93.35 93.41 93.44 93.43 93.40 93.33 93.22 93.10 92.99 92.87 92.79 92.69 92.62 92.57 92.50 92.44 92.37 92.37 92.31 92.23 92.14 92.08 91.94 91.86 92.11 91.89 91.72 91.58 91.46 91.35 91.19 91.10 90.94 90.85 90.74 90.69
92.79 92.73 92.69 92.67 92.58 92.49 92.40 92.28 92.15 92.12 92.30 92.65 92.96 93.10 93.26 93.43 93.54 93.58 93.58 93.57 93.46 93.37 93.23 93.12 93.04 92.94 92.83 92.78 92.73 92.65 92.59 92.54 92.50 92.44 92.34 92.24 92.18 92.09 91.97 91.90 91.74 92.12 91.93 91.74 91.59 91.49 91.38 91.23 91.09 90.97 90.92 90.86
