ncols 52
nrows 52
xllcorner 437248
yllcorner 5716480
cellsize 10
NODATA_value -9999
92.81 92.75 92.74 92.68 92.61 92.51 92.40 92.31 92.16 92.16 92.33 92.67 93.00 93.12 93.30 93.46 93.55 93.61 93.60 93.56 93.47 93.37 93.25 93.13 93.04 92.94 92.87 92.81 92.71 92.69 92.63 92.57 92.51 92.47 92.37 92.24 92.18 92.10 92.00 91.93 91.80 92.17 91.99 91.79 91.65 91.51 91.39 91.25 91.09 91.01 90.96 90.97
92.94 92.86 92.83 92.78 92.71 92.60 92.51 92.37 92.25 92.29 92.52 92.79 93.10 93.27 93.41 93.56 93.60 93.64 93.64 93.60 93.51 93.42 93.32 93.21 93.16 93.07 92.99 92.88 92.74 92.67 92.65 92.68 92.62 92.51 92.41 92.29 92.29 92.23 92.16 92.08 92.06 92.31 92.19 91.96 91.76 91.63 91.50 91.35 91.31 91.25 91.25 91.17
93.03 92.96 92.91 92.87 92.85 92.73 92.60 92.43 92.37 92.45 92.72 92.98 93.31 93.46 93.46 93.56 93.64 93.71 93.69 93.65 93.57 93.49 93.34 93.28 93.19 93.02 92.96 92.86 92.78 92.85 92.82 92.73 92.65 92.60 92.53 92.44 92.44 92.44 92.40 92.32 92.28 92.07 92.31 92.10 91.88 91.76 91.72 91.64 91.57 91.44 91.51 91.50
93.12 93.09 93.06 93.00 92.94 92.83 92.65 92.51 92.50 92.65 92.94 93.19 93.45 93.64 93.60 93.67 93.72 93.74 93.77 93.68 93.58 93.49 93.33 93.32 93.22 93.13 93.02 92.98 92.86 92.85 92.89 92.89 92.76 92.69 92.61 92.55 92.55 92.56 92.55 92.48 92.43 92.32 92.43 92.15 92.07 91.99 91.86 91.89 91.82 91.70 91.51 91.42
93.24 93.21 93.18 93.11 93.07 92.94 92.74 92.67 92.71 92.89 93.14 93.39 93.61 93.73 93.76 93.78 93.77 93.78 93.74 93.58 93.60 93.50 93.43 93.35 93.33 93.20 93.11 93.03 93.00 92.94 93.00 92.93 92.87 92.75 92.66 92.60 92.62 92.66 92.64 92.57 92.51 92.46 92.46 92.24 92.22 92.25 92.07 91.87 91.72 91.61 91.57 91.57
93.32 93.32 93.31 93.26 93.15 93.01 92.84 92.82 92.93 93.17 93.39 93.60 93.79 94.00 93.92 93.90 93.73 93.79 93.74 93.67 93.61 93.56 93.42 93.36 93.25 93.19 93.21 93.19 93.16 93.07 93.06 93.06 93.01 92.88 92.77 92.74 92.73 92.73 92.71 92.65 92.62 92.56 92.38 92.60 92.26 92.10 91.93 91.82 91.79 91.76 91.73 91.72
93.44 93.46 93.43 93.38 93.24 93.07 92.96 93.04 93.23 93.46 93.64 93.81 93.93 93.99 93.81 93.94 93.87 93.84 93.82 93.67 93.60 93.52 93.46 93.35 93.29 93.27 93.31 93.30 93.26 93.18 93.09 93.15 93.15 93.02 92.95 92.89 92.86 92.82 92.80 92.73 92.68 92.62 92.55 92.57 92.26 92.12 92.00 91.92 91.89 91.88 91.86 91.89
93.56 93.57 93.58 93.49 93.32 93.17 93.13 93.29 93.54 93.70 93.83 93.93 93.96 93.98 93.87 93.97 93.84 93.81 93.70 93.64 93.63 93.58 93.53 93.47 93.41 93.38 93.39 93.38 93.33 93.28 93.21 93.25 93.19 93.17 93.08 93.03 93.00 92.92 92.84 92.79 92.75 92.71 92.59 92.34 92.35 92.18 92.07 91.99 92.00 92.00 92.00 92.04
93.71 93.74 93.74 93.65 93.48 93.29 93.34 93.52 93.74 93.90 93.95 93.99 94.00 93.99 94.01 93.96 93.84 93.82 93.78 93.74 93.73 93.68 93.62 93.60 93.54 93.53 93.53 93.51 93.45 93.39 93.32 93.30 93.32 93.29 93.18 93.15 93.11 93.03 92.94 92.86 92.82 92.78 92.67 92.55 92.54 92.22 92.14 92.11 92.09 92.08 92.07 92.02
93.87 93.89 93.95 93.85 93.68 93.50 93.54 93.73 93.90 94.01 94.03 94.00 94.02 94.09 94.09 93.99 93.97 93.90 93.86 93.82 93.78 93.75 93.72 93.69 93.67 93.66 93.63 93.60 93.52 93.46 93.40 93.34 93.39 93.35 93.27 93.24 93.19 93.15 93.04 92.96 92.89 92.83 92.73 92.61 92.58 92.38 92.23 92.19 92.15 92.16 92.08 92.04
94.02 94.06 94.09 94.00 93.83 93.67 93.70 93.86 94.00 94.16 94.10 94.06 94.08 94.07 94.03 94.03 94.01 93.94 93.91 93.90 93.85 93.82 93.79 93.77 93.71 93.68 93.65 93.62 93.55 93.51 93.49 93.43 93.41 93.43 93.42 93.32 93.28 93.25 93.15 93.03 92.95 92.86 92.77 92.65 92.43 92.44 92.29 92.26 92.23 92.19 92.12 92.04
94.12 94.15 94.19 94.14 94.03 93.85 93.90 94.02 94.14 94.25 94.12 94.16 94.16 94.13 94.08 94.12 94.04 94.03 94.01 93.95 93.91 93.87 93.82 93.77 93.75 93.69 93.67 93.61 93.59 93.54 93.52 93.47 93.43 93.54 93.50 93.43 93.40 93.35 93.28 93.13 93.03 92.91 92.82 92.68 92.59 92.63 92.42 92.32 92.27 92.22 92.17 92.05
94.23 94.25 94.27 94.26 94.15 94.05 94.04 94.13 94.21 94.28 94.34 94.33 94.30 94.26 94.18 94.16 94.13 94.08 94.04 93.97 93.93 93.89 93.86 93.83 93.81 93.74 93.66 93.58 93.58 93.57 93.56 93.56 93.54 93.65 93.57 93.54 93.51 93.42 93.37 93.21 93.10 92.99 92.89 92.76 92.62 92.62 92.49 92.37 92.34 92.26 92.15 92.06
94.32 94.35 94.38 94.38 94.33 94.08 94.29 94.33 94.35 94.42 94.41 94.38 94.36 94.31 94.28 94.21 94.18 94.10 94.05 94.02 93.97 93.93 93.92 93.86 93.79 93.74 93.69 93.67 93.71 93.72 93.72 93.73 93.68 93.68 93.65 93.65 93.56 93.52 93.45 93.31 93.14 93.03 92.94 92.81 92.67 92.53 92.59 92.39 92.34 92.28 92.18 92.06
94.46 94.48 94.49 94.51 94.49 94.31 94.40 94.43 94.43 94.53 94.55 94.51 94.43 94.35 94.29 94.23 94.16 94.13 94.09 94.02 93.99 93.96 93.90 93.88 93.89 93.85 93.78 93.81 93.83 93.82 93.79 93.78 93.74 93.68 93.62 93.59 93.56 93.54 93.44 93.33 93.17 93.07 92.94 92.82 92.71 92.61 92.53 92.48 92.37 92.28 92.14 92.05
94.57 94.57 94.57 94.61 94.63 94.51 94.56 94.54 94.60 94.62 94.62 94.58 94.48 94.38 94.32 94.27 94.20 94.16 94.10 94.07 94.02 94.04 94.04 94.01 93.98 93.94 93.87 93.84 93.87 93.83 93.79 93.75 93.73 93.65 93.61 93.56 93.56 93.50 93.44 93.35 93.18 93.03 92.97 92.86 92.79 92.63 92.36 92.49 92.38 92.29 92.17 92.00
94.69 94.68 94.67 94.65 94.75 94.71 94.76 94.68 94.68 94.71 94.70 94.66 94.54 94.41 94.32 94.27 94.21 94.18 94.18 94.18 94.15 94.13 94.12 94.09 94.04 93.98 93.94 93.88 93.87 93.81 93.79 93.71 93.67 93.63 93.54 93.53 93.53 93.44 93.41 93.32 93.21 93.07 92.98 92.87 92.81 92.68 92.56 92.49 92.41 92.27 92.12 92.00
94.80 94.76 94.76 94.86 94.85 94.89 94.89 94.83 94.80 94.79 94.77 94.70 94.58 94.46 94.37 94.35 94.34 94.31 94.28 94.28 94.24 94.21 94.18 94.15 94.08 94.03 93.96 93.92 93.86 93.80 93.76 93.70 93.67 93.60 93.51 93.50 93.43 93.39 93.37 93.31 93.21 93.10 92.96 92.89 92.82 92.69 92.55 92.19 92.33 92.18 92.10 91.98
95.00 94.97 94.92 94.91 95.01 95.10 95.00 94.97 94.85 94.81 94.78 94.76 94.69 94.60 94.51 94.45 94.43 94.41 94.39 94.36 94.31 94.25 94.24 94.15 94.08 94.03 93.99 93.93 93.87 93.80 93.73 93.68 93.61 93.60 93.51 93.50 93.42 93.37 93.32 93.26 93.20 93.10 92.99 92.90 92.81 92.71 92.57 92.41 92.38 92.15 92.06 91.91
95.03 95.14 95.13 95.08 95.13 95.16 95.11 95.15 94.95 94.94 94.92 94.92 94.86 94.75 94.63 94.58 94.54 94.49 94.44 94.39 94.32 94.27 94.22 94.19 94.12 94.06 94.00 93.93 93.83 93.79 93.73 93.68 93.60 93.56 93.48 93.43 93.41 93.35 93.23 93.16 93.13 93.07 92.98 92.88 92.76 92.68 92.57 92.43 92.37 92.15 92.02 91.88
95.34 95.28 95.20 95.21 95.25 95.26 95.47 95.30 95.12 95.12 95.09 95.01 94.92 94.82 94.68 94.60 94.56 94.53 94.49 94.47 94.43 94.32 94.25 94.21 94.14 94.08 93.99 93.92 93.86 93.79 93.71 93.65 93.58 93.53 93.49 93.42 93.41 93.32 93.20 93.08 93.06 93.01 92.90 92.82 92.73 92.64 92.56 92.40 92.08 92.12 91.96 91.83
95.32 95.34 95.29 95.26 95.21 95.43 95.62 95.43 95.31 95.21 95.12 95.06 94.93 94.83 94.71 94.65 94.61 94.62 94.60 94.58 94.50 94.39 94.29 94.21 94.16 94.08 94.00 93.93 93.86 93.80 93.73 93.67 93.64 93.57 93.53 93.46 93.36 93.32 93.24 93.12 93.02 92.96 92.85 92.75 92.64 92.53 92.49 92.35 92.27 92.32 91.92 91.72
95.49 95.50 95.39 95.42 95.64 96.97 95.66 95.52 95.41 95.24 95.11 95.00 94.92 94.89 94.79 94.74 94.71 94.68 94.65 94.58 94.51 94.40 94.29 94.19 94.14 94.08 94.01 93.96 93.90 93.82 93.80 93.72 93.68 93.62 93.56 93.46 93.38 93.36 93.24 93.12 93.03 92.89 92.81 92.71 92.56 92.44 92.34 92.28 92.18 92.03 91.83 91.61
95.55 95.53 95.47 95.11 95.82 95.71 95.75 95.60 95.54 95.34 95.31 95.19 95.09 94.91 94.85 94.79 94.77 94.71 94.67 94.60 94.51 94.42 94.29 94.19 94.17 94.13 94.06 94.01 93.93 93.86 93.81 93.74 93.65 93.60 93.54 93.52 93.44 93.38 93.26 93.18 93.05 92.93 92.85 92.70 92.52 92.35 92.26 92.20 92.08 91.96 91.88 91.55
95.62 95.58 95.63 95.79 95.76 95.71 95.90 95.81 96.18 95.63 96.19 95.45 95.33 95.04 94.89 94.78 94.79 94.73 94.68 94.61 94.53 94.44 94.36 94.25 94.23 94.20 94.11 94.02 93.93 93.88 93.80 93.75 93.74 93.69 93.61 93.56 93.48 93.37 93.29 93.21 93.10 93.01 92.90 92.77 92.57 92.39 92.26 92.18 92.08 91.98 92.12 91.70
95.75 95.81 95.83 95.76 97.55 95.71 95.79 95.67 95.32 95.59 95.81 95.43 95.24 95.14 94.98 94.79 94.78 94.74 94.69 94.62 94.52 94.46 94.38 94.32 94.26 94.21 94.16 94.07 93.99 93.93 93.88 93.83 93.78 93.74 93.68 93.61 93.49 93.39 93.32 93.25 93.16 93.04 92.93 92.78 92.65 92.50 92.33 92.22 92.13 91.97 91.72 91.81
96.11 95.95 96.07 95.85 95.76 95.77 95.87 95.57 95.34 95.38 95.37 95.32 95.15 95.16 94.99 94.83 94.80 94.76 94.70 94.64 94.54 94.46 94.43 94.37 94.31 94.28 94.24 94.13 94.06 93.99 93.95 93.91 93.86 93.79 93.74 93.67 93.58 93.46 93.32 93.29 93.20 93.07 92.96 92.85 92.73 92.55 92.41 92.26 92.18 91.99 91.86 92.08
96.20 96.28 96.04 95.94 95.87 95.83 95.89 95.76 95.57 95.58 95.51 95.31 95.04 95.03 94.99 94.90 94.84 94.81 94.77 94.68 94.58 94.51 94.44 94.41 94.34 94.31 94.27 94.18 94.10 94.05 94.01 93.96 93.92 93.88 93.83 93.76 93.64 93.50 93.37 93.34 93.21 93.10 92.99 92.82 92.71 92.57 92.42 92.26 92.16 92.06 91.93 92.09
95.29 96.38 96.35 96.04 96.14 96.11 95.65 95.61 95.70 95.74 95.52 95.33 95.22 95.24 95.08 94.93 94.88 94.85 94.79 94.77 94.71 94.57 94.50 94.45 94.38 94.31 94.31 94.24 94.17 94.14 94.12 94.09 94.04 93.97 93.90 93.83 93.70 93.55 93.38 93.38 93.20 93.11 92.95 92.82 92.69 92.66 92.54 92.33 92.14 91.54 92.07 92.05
95.45 96.64 96.56 96.10 96.00 95.89 95.36 95.44 95.72 95.73 95.62 95.52 95.40 95.27 95.18 94.98 94.96 94.93 94.88 94.84 94.78 94.65 94.57 94.49 94.42 94.36 94.37 94.39 94.29 94.24 94.21 94.18 94.11 94.03 93.93 93.89 93.74 93.56 93.47 93.35 93.25 93.07 93.02 92.90 92.72 92.53 91.79 92.46 92.35 92.20 92.03 91.92
95.81 95.27 96.10 96.10 95.85 95.54 95.25 95.37 95.65 95.62 95.62 95.49 95.29 95.11 94.99 95.07 95.07 94.99 94.96 94.91 94.86 94.75 94.65 94.56 94.50 94.42 94.44 94.47 94.35 94.31 94.28 94.25 94.18 94.03 94.00 93.93 93.76 93.62 93.50 93.33 93.18 92.86 92.15 92.90 92.90 92.73 92.59 92.40 92.28 92.13 92.01 91.82
95.76 95.46 95.93 96.06 95.58 95.06 95.26 95.53 95.57 95.54 95.32 95.29 95.28 95.23 95.17 95.17 95.09 95.08 95.01 94.97 94.93 94.83 94.73 94.64 94.57 94.52 94.51 94.50 94.44 94.35 94.35 94.22 94.14 94.07 93.97 93.74 93.70 93.56 92.82 93.33 93.43 93.21 93.11 93.00 92.85 92.69 92.52 92.39 92.29 92.15 92.01 91.90
95.65 95.51 95.28 95.88 95.51 95.00 95.40 95.40 95.46 95.48 95.46 95.43 95.36 95.30 95.29 95.25 95.21 95.14 95.08 95.04 94.99 94.90 94.75 94.72 94.62 94.60 94.62 94.51 94.46 94.33 94.26 94.13 94.09 93.97 93.21 93.93 94.11 93.94 93.63 93.47 93.26 93.14 93.00 92.90 92.79 92.67 92.50 92.39 92.27 92.14 92.01 91.86
95.92 95.74 95.35 95.18 95.15 95.12 95.41 95.51 95.56 95.55 95.52 95.51 95.46 95.42 95.36 95.31 95.30 95.21 95.12 95.10 95.01 94.92 94.82 94.74 94.62 94.53 94.46 94.42 94.45 94.28 93.56 94.50 94.60 94.43 94.29 94.28 94.20 93.88 93.58 93.43 93.27 93.12 93.00 92.90 92.77 92.63 92.51 92.33 92.21 92.11 92.02 91.90
95.88 95.61 95.53 95.32 95.20 95.24 95.47 95.52 95.63 95.62 95.62 95.56 95.51 95.47 95.44 95.39 95.36 95.26 95.20 95.18 95.05 94.88 94.75 94.67 94.60 94.36 94.23 94.88 94.84 94.68 94.65 94.56 94.43 94.30 94.21 94.19 94.06 93.80 93.63 93.42 93.29 93.15 93.02 92.83 92.71 92.61 92.46 92.32 92.20 92.06 91.95 91.88
95.93 95.84 95.70 95.14 95.36 95.25 95.50 95.58 95.60 95.65 95.63 95.61 95.60 95.55 95.51 95.46 95.38 95.31 95.24 95.05 94.96 94.96 93.99 95.16 95.16 94.94 94.94 94.87 94.77 94.70 94.60 94.50 94.39 94.26 94.21 94.14 94.08 94.12 93.55 93.37 93.24 93.11 93.01 92.89 92.75 92.62 92.43 92.28 92.07 91.94 91.90 91.82
96.07 96.06 96.08 95.73 95.27 94.81 95.42 95.60 95.66 95.68 95.71 95.68 95.64 95.59 95.53 95.40 95.33 95.20 95.16 94.35 95.21 95.38 95.14 95.11 94.99 94.96 94.89 94.85 94.76 94.68 94.60 94.45 94.34 94.25 94.16 94.10 94.06 94.19 93.60 93.39 93.28 93.18 93.01 92.89 92.75 92.59 92.44 92.24 92.12 92.00 91.90 91.78
96.28 96.16 96.50 95.82 95.55 95.51 95.42 95.68 95.70 95.73 95.72 95.69 95.62 95.54 95.43 95.36 94.82 95.21 95.58 95.26 95.28 95.17 95.11 95.06 95.00 94.96 94.92 94.82 94.75 94.65 94.52 94.41 94.35 94.24 94.17 94.06 94.13 94.26 93.73 93.53 93.33 93.17 93.07 92.90 92.80 92.65 92.48 92.33 92.19 92.07 91.96 91.79
96.28 96.27 96.04 95.86 95.43 95.45 94.85 95.70 95.77 95.69 95.67 95.59 95.51 95.42 94.93 95.68 95.48 95.45 95.35 95.27 95.22 95.14 95.12 95.08 95.02 94.98 94.88 94.81 94.74 94.66 94.55 94.45 94.39 94.35 94.19 94.06 94.14 94.24 93.98 93.57 93.40 93.24 93.11 92.96 92.81 92.68 92.53 92.40 92.24 92.10 91.97 91.79
96.15 96.12 95.95 95.89 95.64 95.17 95.63 95.77 95.77 95.65 95.69 94.50 95.79 95.75 95.65 95.58 95.46 95.37 95.29 95.24 95.24 95.19 95.12 95.07 95.03 95.01 94.94 94.87 94.77 94.71 94.54 94.44 94.39 94.32 94.26 94.23 94.16 94.18 94.14 93.71 93.45 93.32 93.15 93.03 92.88 92.70 92.55 92.38 92.24 92.08 91.94 91.83
96.10 96.13 96.04 96.00 95.93 95.70 95.76 95.90 95.50 95.29 95.98 95.82 95.81 95.69 95.59 95.50 95.46 95.40 95.29 95.26 95.24 95.20 95.16 95.15 95.13 95.03 94.93 94.86 94.78 94.75 94.67 94.58 94.48 94.39 94.31 94.23 94.24 94.24 93.87 93.79 93.56 93.38 93.24 93.04 92.88 92.72 92.53 92.41 92.27 92.15 92.02 91.90
96.18 96.15 96.17 95.93 95.89 95.54 95.77 95.85 96.01 95.94 95.87 95.82 95.76 95.68 95.61 95.54 95.49 95.42 95.35 95.35 95.30 95.22 95.15 95.18 95.16 95.13 95.08 95.00 94.88 94.76 94.65 94.57 94.49 94.43 94.35 94.28 94.20 94.09 94.13 93.93 93.60 93.35 93.24 93.10 92.91 92.78 92.61 92.48 92.34 92.21 92.08 91.98
96.14 96.17 96.05 96.06 95.93 95.81 95.61 95.65 95.95 95.88 95.84 95.84 95.79 95.74 95.65 95.62 95.54 95.38 95.38 95.40 95.39 95.37 95.38 95.31 95.25 95.18 95.06 95.00 94.90 94.82 94.71 94.59 94.47 94.39 94.31 94.28 94.21 94.15 94.15 94.11 93.69 93.44 93.26 93.15 92.99 92.82 92.71 92.54 92.40 92.28 92.09 92.02
96.17 96.19 96.17 96.13 96.03 95.91 95.71 95.97 95.90 95.95 95.93 95.90 95.80 95.67 95.65 95.61 95.58 95.57 95.54 95.49 95.49 95.44 95.40 95.37 95.31 95.24 95.16 95.03 94.90 94.80 94.75 94.66 94.54 94.48 94.35 94.28 94.22 94.16 94.14 93.94 93.76 93.54 93.30 93.18 93.01 92.88 92.70 92.56 92.44 92.35 92.23 92.07
96.26 96.25 96.23 96.17 96.11 96.01 95.88 96.03 96.01 96.03 95.97 95.91 95.88 95.83 95.78 95.71 95.67 95.64 95.60 95.58 95.57 95.53 95.47 95.40 95.31 95.31 95.23 95.11 94.99 94.86 94.77 94.68 94.59 94.50 94.40 94.35 94.25 94.18 94.18 94.07 93.78 93.56 93.32 93.19 93.07 92.96 92.80 92.63 92.52 92.40 92.24 92.12
96.30 96.28 96.23 96.19 96.15 96.05 95.98 95.86 95.23 96.16 96.04 95.97 95.88 95.85 95.84 95.79 95.76 95.73 95.66 95.59 95.59 95.63 95.61 95.54 95.51 95.40 95.25 95.14 95.03 94.92 94.81 94.71 94.65 94.52 94.44 94.34 94.26 94.19 94.21 94.10 94.00 93.51 93.44 93.27 93.14 92.99 92.85 92.69 92.55 92.40 92.26 92.16
96.35 96.32 96.27 96.22 96.21 96.16 96.08 95.91 96.10 96.12 96.08 96.00 95.99 95.94 95.86 95.82 95.83 95.85 95.82 95.82 95.76 95.72 95.68 95.63 95.55 95.46 95.32 95.17 95.06 94.95 94.79 94.72 94.62 94.56 94.47 94.43 94.31 94.23 94.20 94.17 94.19 93.60 93.43 93.30 93.16 93.01 92.85 92.73 92.58 92.44 92.31 92.19
96.38 96.37 96.35 96.33 96.33 96.27 96.25 96.06 96.22 95.93 96.14 96.08 96.10 96.09 96.05 96.01 95.99 95.93 95.92 95.91 95.83 95.80 95.73 95.68 95.53 95.43 95.33 95.21 95.10 94.99 94.89 94.75 94.68 94.54 94.50 94.42 94.36 94.28 94.21 94.19 93.97 93.72 93.54 93.34 93.20 93.08 92.90 92.75 92.61 92.47 92.35 92.20
96.43 96.46 96.46 96.46 96.45 96.40 96.29 96.15 96.23 95.57 96.29 96.26 96.27 96.21 96.17 96.15 96.11 96.05 95.99 95.96 95.89 95.84 95.78 95.68 95.61 95.50 95.40 95.23 95.10 95.01 94.92 94.80 94.71 94.68 94.57 94.46 94.39 94.30 94.20 94.18 94.07 93.92 93.54 93.39 93.24 93.09 92.93 92.78 92.64 92.50 92.40 92.26
96.57 96.56 96.58 96.55 96.53 96.46 96.36 96.28 96.00 96.21 96.30 96.38 96.33 96.36 96.29 96.20 96.19 96.12 96.07 96.05 95.97 95.92 95.82 95.73 95.62 95.53 95.43 95.30 95.16 95.07 94.97 94.86 94.77 94.67 94.60 94.51 94.39 94.31 94.21 94.11 94.06 93.99 93.59 93.46 93.29 93.12 93.00 92.84 92.70 92.60 92.39 92.24
96.64 96.65 96.62 96.62 96.58 96.53 96.50 96.41 96.27 96.40 96.32 96.46 96.46 96.44 96.41 96.36 96.36 96.28 96.19 96.07 96.04 95.99 95.88 95.78 95.73 95.59 95.51 95.38 95.21 95.09 94.99 94.90 94.81 94.68 94.62 94.54 94.46 94.33 94.26 94.20 94.13 93.73 93.65 93.58 93.32 93.17 93.00 92.77 92.79 92.65 92.51 92.39
96.70 96.71 96.71 96.71 96.68 96.67 96.60 96.49 96.41 96.47 96.15 96.55 96.66 96.65 96.58 96.54 96.50 96.42 96.42 96.21 96.14 96.07 95.97 95.89 95.81 95.68 95.56 95.40 95.29 95.13 95.02 94.94 94.86 94.73 94.66 94.57 94.53 94.40 94.31 94.25 94.21 93.99 94.03 93.36 93.36 93.22 93.10 92.96 92.78 92.62 92.53 92.39
