ncols 52
nrows 52
xllcorner 437248
yllcorner 5714944
cellsize 10
NODATA_value -9999
100.88 101.20 101.78 101.01 101.11 101.17 101.26 101.39 101.41 101.44 101.42 101.39 101.55 102.22 101.81 101.72 101.75 101.68 101.67 101.52 101.40 101.24 101.21 101.56 101.47 101.37 101.38 101.12 101.34 101.15 100.99 100.85 100.79 100.72 100.67 100.65 101.03 100.56 100.53 100.50 100.55 100.57 100.52 100.51 100.44 100.43 100.32 100.34 100.24 100.17 100.07 99.91
101.10 100.73 100.84 100.72 100.94 101.05 101.14 101.24 101.27 101.48 101.44 101.47 101.40 101.41 101.51 101.61 101.63 101.71 101.55 101.55 101.52 101.38 101.25 101.40 102.96 101.72 101.43 101.29 101.44 101.35 101.17 101.00 100.97 100.90 100.89 100.82 100.83 100.74 100.69 100.69 100.70 100.62 100.68 100.69 100.66 100.56 100.51 100.43 100.38 100.32 100.31 100.12
100.68 100.64 100.69 100.86 100.94 100.93 101.07 101.13 101.22 101.29 101.33 101.34 101.31 101.45 101.55 101.46 101.61 101.53 101.55 101.37 101.60 101.48 101.42 101.45 101.46 101.67 101.46 101.56 101.36 101.24 101.15 100.99 101.02 100.97 100.95 100.97 101.07 100.92 100.98 100.74 100.94 100.86 100.83 100.77 100.75 100.68 100.63 100.57 100.50 100.44 100.44 100.22
100.91 100.68 100.73 100.84 100.85 100.93 100.90 101.04 101.10 101.23 101.32 101.36 101.28 101.41 101.52 101.46 101.49 101.63 101.62 101.41 101.40 101.58 101.59 101.87 101.37 101.35 101.33 101.46 101.29 101.27 101.13 100.96 100.99 101.00 101.00 101.02 101.19 101.03 101.07 101.12 101.21 101.06 100.93 100.89 100.84 100.75 100.67 100.69 100.57 100.54 100.56 100.35
100.53 100.66 100.60 100.65 100.67 100.75 100.88 101.03 101.03 101.18 101.16 101.28 101.30 101.22 101.59 101.36 101.51 101.58 101.74 101.48 101.29 101.55 101.81 101.77 101.38 101.36 101.43 101.53 101.47 101.46 101.27 100.95 100.98 101.22 101.26 101.15 101.14 101.07 101.09 101.12 101.10 101.01 100.92 100.85 100.81 100.79 100.65 100.73 100.68 100.58 100.49 100.51
100.33 100.50 100.41 100.46 100.55 100.67 100.71 100.84 100.93 100.98 101.05 101.07 101.31 101.18 101.22 102.30 101.57 101.47 101.71 101.47 101.45 101.25 101.68 101.58 101.50 101.44 101.33 102.13 101.70 101.28 101.27 101.24 101.28 101.34 101.21 101.17 101.05 100.95 100.82 100.95 100.99 101.03 100.96 100.86 100.82 100.74 100.68 100.71 100.71 100.66 100.60 100.75
99.81 100.73 100.38 100.44 100.54 100.49 100.72 100.73 100.83 101.02 100.96 101.01 101.04 101.09 101.19 101.37 101.35 101.23 101.70 101.33 101.34 101.34 101.35 101.65 101.66 101.94 101.31 101.82 101.64 101.24 101.13 101.22 101.31 101.28 101.19 101.07 100.95 100.89 100.90 100.93 100.97 100.95 100.88 100.89 100.81 100.79 100.71 100.71 100.60 100.73 100.64 100.57
100.23 100.14 100.37 100.40 100.52 100.74 100.68 100.79 100.71 100.81 100.79 100.86 100.92 101.08 101.20 101.31 101.28 101.23 101.17 101.21 101.31 101.31 101.16 101.38 101.58 101.49 101.25 101.00 101.21 101.15 101.13 101.21 101.20 101.15 101.06 100.99 100.91 100.84 100.83 100.85 100.89 100.92 100.74 100.84 100.81 100.75 100.65 100.67 100.76 100.76 100.77 100.68
99.89 100.08 100.30 100.37 100.46 100.47 99.94 100.57 100.62 100.59 100.70 100.79 100.97 101.00 101.10 100.93 100.98 101.22 101.00 101.12 101.29 101.17 101.17 101.02 101.18 101.29 101.11 100.90 101.75 101.05 101.17 101.08 101.11 101.15 101.05 100.93 100.85 101.05 100.71 100.86 100.78 100.86 100.90 100.89 100.88 100.79 100.68 100.71 100.72 100.74 100.74 100.72
99.91 100.25 99.76 100.40 100.40 100.47 100.57 100.45 100.50 100.61 100.68 101.21 100.87 100.90 100.62 100.87 100.71 100.82 101.07 100.97 100.91 100.93 101.15 101.10 100.84 101.14 100.95 100.87 101.52 100.95 101.00 101.14 101.04 101.04 100.81 100.73 100.68 100.63 100.68 100.69 100.71 100.76 100.78 100.79 100.77 100.78 100.76 100.70 100.75 100.73 100.73 100.79
99.79 99.61 99.76 99.78 100.36 100.47 100.38 100.38 100.44 100.67 100.73 101.07 100.69 100.95 100.54 100.70 100.54 100.62 100.81 100.74 100.67 100.79 100.96 100.95 100.92 100.79 100.96 100.97 100.88 100.85 100.93 100.83 100.86 100.73 100.95 100.67 100.78 100.51 100.50 100.54 100.62 100.67 100.73 100.76 100.82 100.78 100.85 100.81 100.82 100.94 100.91 100.81
99.69 99.74 99.73 99.89 100.33 100.29 100.43 100.30 100.50 100.54 100.65 100.51 100.58 100.69 100.82 100.50 100.53 100.60 100.60 100.59 100.66 100.72 100.69 100.82 100.71 100.69 100.76 100.84 100.97 100.69 100.81 100.82 100.83 100.85 100.60 100.62 100.55 100.38 100.36 100.45 100.53 100.72 100.87 100.82 101.23 101.00 100.89 100.95 100.91 100.99 100.93 100.95
99.69 99.57 99.72 99.10 100.08 100.08 100.17 100.35 100.31 100.46 100.37 100.36 100.38 100.46 100.55 100.38 100.35 100.48 100.53 100.58 100.58 100.85 100.86 100.71 100.80 100.66 100.48 100.77 100.76 100.49 100.59 100.57 100.67 100.52 100.40 100.43 100.54 100.38 100.39 100.48 100.48 100.41 100.57 100.71 100.94 101.01 100.99 100.97 100.95 100.96 100.93 100.96
99.57 99.54 99.57 99.94 99.86 100.04 100.00 100.21 100.29 100.37 100.29 100.29 100.24 100.13 100.47 100.23 100.29 100.40 100.48 100.71 100.64 100.72 100.68 100.67 100.67 100.61 100.38 100.37 100.42 100.29 100.51 100.60 100.61 100.39 100.35 100.28 100.32 100.35 100.37 100.35 100.27 100.41 100.36 100.47 100.59 100.60 100.76 100.80 100.89 100.88 100.86 100.88
99.55 99.76 99.64 99.78 99.92 100.01 100.29 100.06 100.08 100.07 100.07 100.03 100.08 100.03 100.16 100.22 100.23 100.44 100.52 100.50 100.73 100.70 100.56 100.66 100.61 100.53 100.40 100.32 100.24 100.16 100.39 100.32 100.49 100.28 100.31 100.26 100.23 100.26 100.22 100.25 100.25 100.32 100.28 100.25 100.37 100.38 100.56 100.47 100.55 100.61 100.78 100.70
99.40 99.44 99.77 99.92 99.74 99.81 99.89 99.85 99.92 99.88 99.94 100.03 99.93 99.85 100.13 100.20 100.28 100.43 100.57 100.81 100.62 100.57 100.59 100.78 100.69 100.47 100.50 100.40 100.18 100.02 100.43 100.37 100.40 100.17 100.18 100.06 100.10 100.08 100.05 100.12 100.16 100.25 100.18 100.14 100.18 100.22 100.44 100.30 100.50 100.56 100.65 100.59
99.73 99.37 99.66 99.63 99.77 99.80 99.79 99.89 99.89 99.80 99.75 99.80 99.75 99.92 100.21 100.21 100.36 100.42 100.52 100.55 100.60 100.61 100.69 100.65 100.26 100.31 100.16 100.22 100.05 99.85 100.12 100.09 100.44 100.04 99.94 100.04 99.92 99.89 99.85 99.89 99.97 100.02 100.05 100.00 100.01 100.10 100.29 100.16 100.23 100.24 100.35 100.37
100.23 99.52 99.28 99.46 99.56 99.66 99.72 99.83 99.72 99.66 99.67 99.57 99.76 100.06 100.37 100.25 100.22 100.37 100.29 100.46 100.60 100.42 100.53 100.16 100.19 99.95 99.85 99.82 99.89 99.60 100.00 100.05 100.05 100.01 99.99 99.94 99.93 99.83 99.69 99.73 99.81 99.84 99.90 99.89 99.97 100.04 100.19 100.13 100.16 100.19 100.22 100.29
99.72 99.63 99.42 99.18 99.62 99.57 99.53 99.69 99.50 99.57 99.68 99.61 99.79 99.99 100.24 100.18 100.12 100.26 100.15 100.58 100.52 100.48 100.21 99.98 99.95 99.82 99.87 99.72 99.60 99.41 100.02 100.40 99.87 99.92 99.97 99.91 99.80 99.71 99.56 99.57 99.69 99.71 99.79 99.81 99.89 99.95 99.98 100.08 99.99 100.09 100.10 100.12
99.61 99.50 99.18 99.15 99.18 99.43 99.47 99.32 99.50 99.63 99.63 99.49 99.56 99.75 99.94 100.07 100.12 100.07 100.19 100.28 100.35 99.99 100.30 99.84 99.86 99.96 99.75 99.61 99.57 99.24 99.40 99.58 99.79 99.81 99.79 99.72 99.69 99.60 99.44 99.44 99.54 99.62 99.82 99.85 99.97 100.45 100.18 99.98 99.91 99.97 100.00 100.01
99.20 99.03 98.95 99.19 99.07 99.22 99.18 99.27 99.56 99.51 99.51 99.50 99.48 99.44 99.78 99.72 99.79 99.95 100.28 100.06 100.04 100.21 100.34 100.42 99.98 100.08 99.98 99.55 99.40 99.07 99.39 99.49 99.50 99.54 99.54 99.54 99.53 99.57 99.64 99.64 99.57 99.69 99.32 99.39 99.45 100.36 100.54 99.93 99.79 99.85 99.85 99.88
98.81 98.82 98.97 99.10 99.11 99.01 99.20 99.13 99.06 99.40 99.53 99.39 99.36 99.43 99.43 99.65 99.71 100.06 99.94 99.79 99.99 100.05 99.97 99.86 99.90 100.03 99.60 99.53 99.56 98.87 98.79 98.93 99.11 99.18 99.22 99.27 99.35 99.38 99.40 99.41 99.40 99.40 98.94 98.54 98.33 100.17 100.33 99.81 99.73 99.73 99.70 99.73
98.56 98.73 98.77 98.89 99.02 99.12 98.89 98.95 99.41 99.26 99.38 99.23 99.36 99.29 99.62 99.61 99.82 99.65 99.68 99.61 99.61 99.94 99.60 99.78 99.75 99.68 99.46 99.48 99.32 98.68 98.78 98.96 98.88 99.21 99.13 99.21 99.33 99.39 99.40 99.35 99.42 99.38 99.08 98.51 98.31 98.93 99.41 99.76 99.57 99.50 99.58 99.60
98.52 98.43 98.64 98.84 98.93 99.00 98.90 98.84 99.08 98.96 99.14 99.28 99.25 99.41 99.31 99.44 99.44 99.56 99.52 99.57 99.38 99.37 99.53 99.58 99.62 99.25 99.10 99.21 98.87 98.46 98.84 99.01 98.86 99.02 99.07 99.13 99.29 99.37 99.39 99.39 99.41 99.38 99.21 99.00 99.02 98.98 98.96 99.79 99.43 99.38 99.40 99.39
98.26 98.44 98.32 98.44 98.86 98.93 98.80 98.71 98.69 98.90 98.96 99.14 99.22 99.28 99.24 99.22 99.48 99.54 99.54 99.44 99.22 99.12 99.54 99.22 99.10 99.01 98.78 98.99 98.88 98.24 98.50 98.82 98.86 98.94 98.93 99.07 99.28 99.33 99.38 99.40 99.30 99.22 99.35 99.23 99.22 99.80 99.83 99.66 99.40 99.14 99.46 99.69
98.11 98.11 98.21 98.26 98.32 98.57 98.62 98.69 98.56 98.63 98.74 98.86 98.93 98.95 98.99 99.26 99.35 99.56 99.43 99.23 99.11 98.90 98.88 98.88 98.97 98.83 98.88 99.20 98.63 98.06 98.33 98.71 98.70 98.90 98.82 98.94 99.10 99.10 99.10 99.10 99.08 99.09 99.06 99.13 99.10 99.16 99.24 99.30 99.29 99.35 99.40 99.43
98.18 97.97 98.01 98.06 98.17 98.39 98.58 98.65 98.51 98.44 98.56 98.72 98.94 98.82 98.97 99.23 99.15 99.19 99.10 98.99 98.94 98.86 98.75 98.80 98.71 98.99 98.68 98.66 98.65 97.88 98.14 98.53 98.69 98.74 98.70 98.77 98.80 98.78 98.86 98.96 98.51 98.74 98.77 98.80 98.85 98.91 99.14 99.28 99.44 99.61 99.51 99.75
99.25 98.02 97.88 97.95 97.99 97.96 98.30 98.25 98.43 98.45 98.27 98.47 98.65 98.67 98.93 98.92 98.92 99.00 98.93 98.90 98.67 98.22 98.25 98.35 98.69 98.65 98.49 98.66 98.50 97.71 97.99 98.34 98.36 98.51 98.65 98.57 98.50 97.74 98.38 98.40 98.44 98.49 98.78 98.97 99.00 98.95 98.76 98.79 98.83 99.04 99.07 99.17
97.61 98.72 97.72 97.68 97.68 97.80 97.82 98.05 98.24 98.35 98.22 98.21 98.66 98.71 98.67 98.77 98.89 98.94 98.88 98.52 98.28 98.25 98.19 98.30 98.42 98.52 98.51 98.26 97.92 97.58 97.73 98.29 98.59 98.54 97.19 98.13 98.09 98.08 98.16 98.45 98.62 98.28 98.43 98.53 98.75 98.76 98.79 98.82 98.76 98.90 99.05 99.06
95.62 99.29 97.70 97.52 97.43 97.58 97.64 97.73 98.01 98.16 98.30 98.04 98.19 98.60 98.45 98.35 98.43 98.79 98.52 96.99 98.29 98.27 98.23 98.05 97.95 98.18 98.06 97.94 97.68 97.54 97.33 97.79 97.90 97.90 97.78 97.79 98.04 98.28 97.95 98.04 98.46 98.30 98.38 98.46 98.58 98.75 98.69 98.84 98.54 98.60 98.82 99.13
94.33 97.15 97.84 97.38 97.27 97.40 97.43 97.47 97.71 97.96 98.02 98.21 97.93 98.17 98.10 98.25 98.29 98.29 98.29 98.24 98.26 98.11 97.95 97.92 97.90 97.82 97.93 97.69 97.53 97.45 97.45 97.43 97.54 97.53 97.71 98.04 97.72 97.77 97.91 98.04 98.45 98.29 98.28 98.34 98.42 98.55 98.55 98.53 98.65 98.72 98.90 99.11
94.18 95.91 99.49 97.06 97.19 97.13 97.26 97.41 97.46 97.72 97.89 97.91 98.06 97.79 98.07 98.15 97.97 97.80 97.83 98.00 98.19 98.04 97.98 97.71 97.96 97.85 97.76 97.48 97.25 97.36 97.29 97.30 97.36 97.72 97.71 97.65 97.74 97.71 97.85 97.89 97.86 98.02 98.16 98.29 98.32 98.29 98.40 98.19 98.69 98.77 98.71 99.05
93.88 93.83 97.17 96.87 97.01 97.11 97.18 97.10 97.17 97.43 97.65 97.86 98.01 97.76 97.60 97.88 97.86 97.68 97.72 97.60 97.71 97.84 97.48 97.47 97.75 97.74 97.65 98.15 97.17 97.07 97.04 97.39 97.65 97.63 97.67 97.70 97.64 97.62 97.62 97.75 97.88 98.25 98.22 98.33 98.24 98.39 98.25 97.98 98.05 98.05 97.94 98.91
93.78 93.72 96.41 98.75 96.78 96.79 96.98 97.02 96.99 97.16 97.34 97.71 97.77 97.75 97.61 97.63 97.69 97.52 97.63 97.27 97.60 97.35 97.47 97.25 97.28 97.68 97.50 96.96 96.87 96.82 97.11 97.26 97.33 97.43 97.68 97.64 97.42 97.42 97.65 97.88 97.78 97.70 97.77 98.04 97.90 97.93 97.87 97.78 97.59 97.99 97.85 97.87
94.15 93.42 94.21 98.23 96.62 96.62 96.88 96.92 96.81 96.85 97.03 97.28 97.57 97.73 97.57 97.36 97.53 97.35 97.19 97.24 97.39 97.46 96.99 97.12 97.70 97.06 96.74 96.68 96.78 96.67 96.70 97.02 97.21 97.25 97.53 97.57 97.60 97.29 97.61 98.04 97.70 97.31 97.71 97.58 97.58 97.52 97.76 97.78 97.61 97.43 97.67 97.71
95.90 93.13 93.08 96.41 96.85 96.47 96.40 96.61 96.58 96.65 96.79 96.88 97.12 97.31 97.33 97.34 97.24 97.08 97.05 97.29 97.46 97.37 97.30 97.09 96.86 96.52 96.51 96.72 96.81 96.45 96.45 96.92 97.09 97.11 97.57 97.82 97.55 97.13 97.34 97.53 97.62 97.40 97.36 97.33 97.30 97.18 97.22 97.35 97.16 97.30 97.62 97.66
96.30 92.99 92.97 95.79 98.56 96.32 96.21 96.35 96.53 96.61 96.85 96.85 96.76 96.92 97.03 97.18 97.26 97.01 97.06 97.12 97.41 97.31 97.07 96.92 96.35 96.36 96.78 96.75 96.81 96.79 96.24 97.07 97.01 96.99 97.23 97.38 97.09 97.01 97.04 97.29 97.37 97.22 97.33 97.22 97.12 97.09 97.03 97.00 96.96 97.10 97.20 97.58
96.10 93.13 92.66 93.81 98.12 96.13 96.05 96.14 96.25 96.44 96.42 96.27 96.43 96.62 96.79 97.50 97.14 96.96 96.78 97.29 97.46 97.64 96.42 96.17 96.15 96.71 96.78 96.76 96.76 96.72 96.08 96.43 96.88 97.06 96.98 96.93 97.02 97.00 96.85 97.23 97.09 97.07 97.36 97.19 96.85 97.29 96.91 96.71 97.07 97.29 97.40 97.41
95.82 94.52 92.36 92.29 96.05 96.25 95.98 96.07 96.05 96.14 96.07 95.89 96.25 96.36 96.57 96.77 97.06 97.13 96.63 96.47 97.14 96.22 96.00 95.96 97.94 96.78 96.88 96.90 96.22 96.13 95.90 96.50 96.90 96.89 96.58 96.79 96.90 96.88 96.69 96.97 96.90 96.97 96.91 97.08 96.59 96.70 96.80 96.47 96.71 97.17 97.27 97.18
95.61 95.31 92.04 92.13 95.38 97.62 95.88 95.96 95.86 95.92 95.74 95.83 95.83 95.99 96.14 96.17 96.82 96.87 96.29 96.09 95.96 95.78 95.75 97.73 95.71 95.74 96.89 96.36 96.38 96.18 95.71 95.96 96.49 96.75 96.68 96.62 96.88 96.79 96.85 96.67 96.82 96.96 96.80 96.52 96.48 96.23 96.35 96.45 96.54 96.78 96.96 97.17
95.78 95.35 91.90 91.86 94.57 98.08 95.65 95.63 95.58 95.62 95.65 95.60 95.65 95.68 95.82 95.93 96.22 95.99 96.20 96.54 95.52 95.50 95.68 95.64 95.66 95.70 95.70 96.40 96.11 95.88 95.54 95.78 96.39 96.73 96.50 96.30 96.60 96.62 96.63 96.52 96.73 96.94 96.50 96.22 96.12 96.10 96.01 96.38 96.57 96.68 96.79 96.97
95.88 95.33 91.57 91.58 93.12 96.93 95.40 95.38 95.35 95.45 95.39 95.44 95.43 95.49 95.49 95.64 95.74 95.86 98.14 95.04 95.24 95.40 95.49 95.53 95.62 95.58 95.58 95.82 95.92 95.82 95.35 96.08 96.80 97.03 96.32 96.15 96.33 96.28 96.29 96.43 96.65 96.63 96.10 96.04 95.95 95.75 95.91 96.06 96.61 96.82 96.78 96.96
95.81 95.18 91.49 91.28 91.68 95.49 95.49 95.14 95.29 95.23 95.24 95.14 95.21 95.30 95.41 95.43 95.69 98.19 94.78 94.94 95.09 95.41 95.51 95.44 95.50 95.37 95.22 95.18 95.87 95.49 95.21 96.03 96.05 96.12 96.15 96.03 96.26 96.14 96.29 96.42 96.55 95.86 95.96 95.94 95.82 95.64 96.05 96.11 96.24 96.65 97.04 96.97
95.73 95.01 92.12 90.99 90.98 94.86 96.24 95.10 95.05 95.05 95.12 95.03 94.94 95.07 95.19 95.38 98.14 94.44 94.57 94.85 95.08 95.41 95.53 95.51 95.42 95.18 95.23 95.21 95.12 95.51 95.07 95.14 95.45 95.34 95.47 95.80 95.83 95.96 95.56 96.45 95.65 95.63 95.57 95.54 95.34 95.83 95.99 96.12 96.06 96.59 96.66 96.99
95.78 95.03 92.82 90.72 90.83 94.74 97.08 94.94 94.87 94.85 94.83 94.85 94.88 94.90 95.08 97.85 94.47 94.16 94.54 95.44 94.84 94.86 95.79 95.36 95.19 95.23 95.23 95.22 95.07 95.44 94.93 94.83 94.96 95.09 95.65 95.73 95.69 95.65 95.49 95.23 95.66 95.52 95.59 95.41 95.30 95.68 95.95 96.09 96.10 96.05 96.65 96.82
95.91 94.93 93.39 90.45 90.65 94.26 97.37 94.75 94.70 94.68 94.71 94.75 94.77 95.37 97.57 94.30 93.71 94.15 94.82 94.92 94.83 94.88 94.85 95.04 95.06 95.08 95.15 95.19 95.07 95.69 94.76 94.17 95.11 95.29 95.25 95.68 95.33 95.33 95.29 95.50 95.16 95.04 95.41 95.01 95.38 95.47 95.96 96.04 96.15 96.04 96.40 96.29
96.10 94.88 93.76 90.25 90.40 93.55 97.04 94.52 94.57 94.49 94.43 94.49 96.51 97.01 93.91 93.24 93.68 94.76 94.90 94.91 94.85 94.85 94.71 94.88 95.31 94.77 95.06 95.04 94.93 94.78 94.57 94.08 95.16 95.21 95.04 94.96 94.93 95.01 95.24 95.10 94.95 94.90 95.13 94.91 95.44 95.44 95.72 95.94 96.06 95.93 95.83 95.94
96.40 94.75 94.11 90.11 90.18 92.68 96.32 94.27 94.33 94.26 94.25 97.43 95.94 92.82 92.72 93.19 94.14 94.72 94.76 94.82 94.83 94.92 94.85 94.74 95.07 94.57 94.54 94.78 94.50 94.31 94.32 94.24 94.58 94.75 94.85 94.99 95.06 94.83 94.97 94.99 94.81 94.76 94.67 95.06 95.33 95.36 95.37 95.57 95.57 95.67 95.72 96.06
96.67 94.64 94.17 89.91 89.96 92.09 95.07 94.17 94.19 95.98 97.37 94.27 91.84 92.19 92.67 94.02 94.10 94.42 94.60 94.68 94.79 94.91 94.92 94.73 94.40 94.33 94.35 94.39 94.38 94.40 94.31 94.18 94.40 94.75 94.76 94.73 94.88 94.76 94.74 94.71 94.68 94.62 94.99 95.08 95.24 95.30 95.24 95.40 95.54 95.76 95.72 95.79
96.71 94.52 94.10 89.69 89.75 91.40 94.26 97.13 97.10 94.57 92.67 91.27 91.69 92.18 93.71 93.90 93.90 94.12 94.38 94.50 94.56 94.81 94.19 94.21 94.10 93.43 93.92 94.16 94.29 94.36 94.24 94.04 94.26 94.56 94.85 94.60 94.65 94.54 94.45 94.44 94.60 94.38 94.75 94.80 94.86 95.17 95.45 95.72 95.50 95.41 95.83 95.94
96.67 94.39 94.03 89.50 89.54 90.01 93.51 93.39 91.67 90.51 90.88 91.30 92.71 93.43 93.57 93.76 93.68 93.86 94.04 94.28 94.38 94.11 93.97 94.51 93.65 93.60 93.56 94.04 93.89 94.18 94.06 93.83 94.04 94.16 94.88 94.38 95.01 94.56 94.18 94.33 94.13 94.12 94.37 94.90 95.07 95.23 95.55 95.63 95.80 95.13 95.71 95.89
96.62 94.21 93.71 89.31 89.37 89.62 89.91 90.01 90.27 90.59 90.94 93.96 95.70 93.42 93.42 93.49 93.49 93.56 93.67 93.67 93.87 93.72 93.50 93.43 93.70 93.56 93.35 93.35 93.93 93.61 93.74 93.55 93.80 93.97 94.20 94.31 94.37 93.92 93.93 93.70 93.92 94.43 94.65 94.93 94.99 95.25 95.29 95.62 95.78 94.89 95.21 96.01
