ncols 52
nrows 52
xllcorner 437248
yllcorner 5715968
cellsize 10
NODATA_value -9999
96.73 96.74 96.71 96.71 96.71 96.70 96.64 96.53 96.43 96.48 95.90 96.54 96.67 96.67 96.61 96.58 96.51 96.51 96.43 96.24 96.18 96.09 95.99 95.93 95.80 95.71 95.56 95.44 95.25 95.14 95.04 94.94 94.83 94.73 94.66 94.61 94.51 94.42 94.35 94.26 94.20 93.99 94.01 93.49 93.36 93.23 93.08 92.93 92.76 92.67 92.54 92.33
96.82 96.83 96.84 96.84 96.83 96.81 96.76 96.61 96.53 96.25 96.46 96.52 96.71 96.99 96.93 96.95 96.84 96.60 96.49 96.34 96.24 96.17 96.09 95.97 95.86 95.72 95.65 95.50 95.33 95.18 95.07 94.98 94.90 94.82 94.72 94.65 94.57 94.48 94.37 94.26 94.17 94.06 93.83 93.56 93.36 93.27 93.10 92.96 92.81 92.66 92.48 92.35
96.92 96.92 96.94 96.93 96.90 96.85 96.79 96.67 96.55 96.63 96.72 97.18 97.27 97.14 97.13 97.05 96.95 96.81 96.57 96.43 96.31 96.25 96.17 96.05 95.92 95.84 95.69 95.57 95.45 95.31 95.20 95.06 94.97 94.90 94.77 94.69 94.63 94.57 94.44 94.32 94.22 94.15 93.69 93.61 93.47 93.20 93.11 92.96 92.79 92.65 92.52 92.33
96.96 96.93 96.92 96.92 96.90 96.89 96.90 96.88 96.86 96.83 96.82 96.99 97.48 97.46 97.19 97.07 97.01 96.90 96.61 96.59 96.44 96.33 96.28 96.17 96.04 95.92 95.82 95.67 95.52 95.40 95.27 95.15 95.03 94.96 94.89 94.78 94.70 94.61 94.49 94.35 94.27 94.20 93.93 93.84 93.51 93.25 93.12 92.93 92.82 92.64 92.47 92.34
96.91 96.96 96.96 97.01 97.07 97.11 97.15 97.18 97.18 97.10 96.67 96.96 97.57 97.79 97.41 97.27 97.13 97.01 96.94 96.71 96.49 96.42 96.29 96.25 96.11 95.99 95.88 95.74 95.60 95.47 95.35 95.28 95.16 95.04 94.95 94.82 94.71 94.58 94.51 94.42 94.31 94.21 94.00 93.84 93.53 93.32 93.11 92.96 92.80 92.65 92.50 92.32
97.08 97.14 97.23 97.23 97.25 97.32 97.37 97.44 97.43 97.34 97.25 97.01 97.38 97.54 97.63 97.61 97.40 97.27 96.99 96.79 96.65 96.51 96.36 96.26 96.18 96.05 95.92 95.86 95.72 95.57 95.43 95.31 95.22 95.06 94.97 94.88 94.76 94.62 94.52 94.45 94.34 94.19 93.95 93.91 93.54 93.29 93.12 92.95 92.83 92.64 92.52 92.41
97.27 97.31 97.35 97.41 97.41 97.47 97.52 97.57 97.57 97.51 97.43 97.17 97.66 97.65 97.71 97.68 97.72 97.51 97.17 96.90 96.73 96.57 96.45 96.34 96.22 96.12 96.04 95.89 95.78 95.65 95.54 95.38 95.26 95.17 95.01 94.90 94.76 94.69 94.54 94.39 94.30 94.18 94.05 93.91 93.71 93.31 93.12 93.01 92.83 92.73 92.58 92.46
97.42 97.44 97.48 97.51 97.53 97.60 97.60 97.65 97.68 97.64 97.60 97.15 97.55 97.72 97.70 97.51 97.42 97.49 97.49 96.91 96.85 96.64 96.53 96.40 96.29 96.20 96.10 95.96 95.84 95.71 95.59 95.45 95.38 95.24 95.03 94.90 94.78 94.68 94.56 94.51 94.33 94.14 93.98 93.88 93.74 93.40 93.15 93.07 92.95 92.78 92.62 92.49
97.54 97.58 97.60 97.59 97.61 97.66 97.65 97.77 97.86 97.89 97.76 97.54 97.32 97.73 97.69 97.54 97.50 97.48 97.63 97.17 96.93 96.74 96.61 96.46 96.38 96.21 96.13 96.07 95.95 95.82 95.60 95.54 95.42 95.26 95.12 94.97 94.80 94.67 94.54 94.42 94.32 94.14 93.99 93.88 93.40 93.44 93.25 93.04 92.92 92.80 92.65 92.50
97.66 97.67 97.69 97.64 97.74 97.81 97.83 97.90 97.99 97.97 97.88 97.80 97.51 97.81 97.77 97.60 97.58 97.62 97.63 97.22 97.02 96.81 96.64 96.54 96.43 96.27 96.14 96.09 95.98 95.86 95.77 95.59 95.44 95.29 95.09 94.95 94.80 94.68 94.56 94.44 94.32 94.21 94.03 93.83 93.64 93.61 93.36 93.06 92.90 92.79 92.71 92.53
97.71 97.82 97.87 97.87 97.92 97.90 97.97 98.01 98.06 98.12 98.08 97.93 97.65 97.75 97.86 97.76 97.73 97.91 97.58 97.34 96.95 96.76 96.69 96.60 96.48 96.36 96.26 96.14 96.03 95.91 95.77 95.61 95.44 95.29 95.12 94.98 94.80 94.69 94.56 94.46 94.37 94.09 94.02 93.86 93.70 93.70 93.43 93.18 92.95 92.84 92.69 92.43
97.94 97.94 97.99 98.00 98.02 98.05 98.10 98.09 98.09 98.17 98.17 98.09 97.44 97.80 97.82 97.69 97.58 97.37 97.32 97.18 97.06 96.93 96.76 96.64 96.53 96.41 96.31 96.19 96.10 95.95 95.81 95.63 95.48 95.28 95.12 94.99 94.79 94.67 94.60 94.47 94.33 94.18 94.04 93.86 93.75 93.38 93.42 92.87 92.87 92.86 92.76 92.61
97.99 98.10 98.08 98.12 98.15 98.13 98.17 98.18 98.22 98.24 98.23 98.13 98.07 97.84 97.83 97.75 97.61 97.49 97.37 97.24 97.08 96.94 96.84 96.72 96.63 96.50 96.40 96.24 96.13 95.97 95.82 95.69 95.42 95.31 95.19 95.02 94.85 94.72 94.59 94.49 94.36 94.24 94.10 93.91 93.76 93.55 93.62 93.35 93.12 92.99 92.87 92.75
98.17 98.17 98.19 98.20 98.23 98.26 98.27 98.27 98.28 98.32 98.35 98.30 98.18 98.05 97.98 97.83 97.70 97.57 97.45 97.33 97.21 97.09 96.98 96.86 96.76 96.65 96.51 96.38 96.19 96.08 95.93 95.74 95.52 95.36 95.20 95.08 94.92 94.79 94.68 94.54 94.45 94.33 94.20 94.00 93.84 93.71 93.85 93.39 93.24 93.12 92.99 92.91
98.29 98.31 98.33 98.33 98.35 98.36 98.34 98.35 98.40 98.42 98.41 98.40 98.38 97.85 98.03 98.01 97.83 97.71 97.60 97.47 97.36 97.24 97.13 96.96 96.99 96.82 96.65 96.47 96.33 96.14 95.98 95.82 95.62 95.44 95.31 95.14 94.99 94.85 94.73 94.63 94.53 94.43 94.31 94.17 94.01 93.90 93.78 93.56 93.42 93.32 93.23 93.12
98.43 98.42 98.44 98.44 98.49 98.47 98.51 98.50 98.49 98.47 98.50 98.51 98.44 98.43 98.17 98.15 98.03 97.94 97.85 97.75 97.67 97.66 97.45 97.29 97.11 96.96 96.79 96.62 96.47 96.28 96.14 95.94 95.74 95.56 95.35 95.18 95.06 94.92 94.80 94.73 94.65 94.57 94.46 94.33 94.16 94.08 93.75 93.80 93.63 93.50 93.40 93.27
98.55 98.58 98.60 98.64 98.62 98.64 98.59 98.59 98.60 98.61 98.57 98.60 98.65 98.62 98.40 98.45 98.33 98.18 98.14 98.04 97.97 98.14 97.70 97.61 97.34 97.18 96.97 96.79 96.62 96.44 96.22 96.05 95.87 95.62 95.46 95.30 95.13 95.01 94.98 94.83 94.76 94.68 94.57 94.44 94.28 94.15 94.03 94.14 93.79 93.65 93.54 93.44
98.73 98.74 98.80 98.77 98.77 98.75 98.74 98.70 98.68 98.70 98.75 98.77 98.80 98.79 98.15 98.55 98.58 98.38 98.37 98.32 98.34 98.04 97.89 97.79 97.50 97.35 97.12 96.98 96.81 96.62 96.38 96.21 95.99 95.74 95.58 95.39 95.24 95.11 95.01 94.93 94.84 94.77 94.68 94.57 94.43 94.29 94.19 94.31 93.93 93.79 93.70 93.60
98.86 98.89 98.94 98.96 98.93 98.93 98.91 98.84 98.86 98.92 98.94 98.95 98.96 98.86 98.92 98.51 98.61 98.60 98.56 98.43 98.26 98.48 98.01 97.99 97.69 97.56 97.36 97.17 97.00 96.79 96.54 96.31 96.08 95.84 95.62 95.44 95.32 95.18 95.10 95.05 94.99 94.93 94.85 94.74 94.54 94.42 94.40 94.08 94.14 94.00 93.87 93.76
99.01 99.06 99.08 99.09 99.09 99.08 99.04 99.01 99.07 99.09 99.13 99.10 99.10 99.04 98.99 98.71 98.63 98.96 98.79 98.52 98.40 99.00 98.14 98.08 97.96 97.68 97.50 97.38 97.22 97.00 96.72 96.45 96.18 95.94 95.71 95.57 95.43 95.33 95.28 95.17 95.12 95.05 94.97 94.85 94.71 94.57 94.49 94.39 94.52 94.21 94.09 94.00
99.15 99.18 99.22 99.23 99.18 99.18 99.18 99.15 99.22 99.30 99.32 99.22 99.14 99.08 99.15 98.74 98.67 99.82 98.80 98.63 98.64 99.09 98.55 99.93 98.32 97.81 97.67 97.53 97.38 97.13 96.86 96.55 96.29 96.08 95.87 95.67 95.58 95.48 95.39 95.33 95.26 95.21 95.12 95.02 94.89 94.76 94.69 94.59 94.67 94.31 94.19 94.10
99.32 99.30 99.31 99.35 99.31 99.30 99.35 99.38 99.36 99.37 99.36 99.30 99.25 99.21 99.24 99.16 98.77 100.58 98.92 98.81 98.79 98.01 98.43 98.51 98.23 97.88 97.74 97.62 97.47 97.24 96.91 96.58 96.39 96.18 95.95 95.82 95.70 95.65 95.55 95.50 95.42 95.34 95.26 95.18 95.05 94.95 94.76 94.74 94.61 94.74 94.41 94.28
99.50 99.52 99.51 99.55 99.56 99.49 99.51 99.51 99.47 99.47 99.44 99.40 99.39 99.36 99.35 99.30 98.80 99.47 99.08 98.81 98.87 98.79 98.52 98.45 98.78 98.00 97.78 97.65 97.52 97.32 97.00 96.69 96.48 96.30 96.10 95.97 95.85 95.79 95.71 95.64 95.56 95.49 95.38 95.30 95.20 95.16 95.07 94.86 94.79 94.69 94.38 94.24
99.80 99.90 99.75 99.70 99.71 99.68 99.67 99.62 99.59 99.58 99.59 99.56 99.50 99.49 99.44 99.42 99.23 98.83 99.21 98.96 98.98 98.82 98.73 98.57 98.25 98.11 97.84 97.72 97.56 97.38 97.11 96.81 96.58 96.40 96.24 96.08 96.01 95.93 95.83 95.74 95.82 95.84 95.69 95.43 95.34 95.20 95.00 94.92 94.74 94.79 94.42 94.31
99.95 99.98 99.91 99.89 99.81 99.79 99.77 99.78 99.77 99.71 99.72 99.69 99.64 99.60 99.51 99.50 99.38 98.90 99.04 99.17 99.15 98.90 98.88 98.65 98.29 98.01 97.85 97.74 97.60 97.41 97.14 96.88 96.68 96.48 96.35 96.27 96.28 96.33 96.20 96.07 95.97 95.82 95.67 95.53 95.35 95.22 95.02 94.92 94.83 94.54 94.50 94.41
100.05 100.01 100.03 99.96 99.94 99.94 99.93 99.91 99.88 99.85 99.82 99.79 99.74 99.68 99.63 99.56 99.54 98.85 99.01 99.29 99.22 99.12 99.00 98.71 98.40 98.09 97.88 97.72 97.54 97.37 97.18 96.99 96.96 96.69 96.45 96.38 96.34 96.29 96.21 96.08 95.93 95.74 95.63 95.49 95.38 95.26 95.11 95.01 94.92 94.65 94.61 94.51
100.12 100.10 100.32 100.12 100.07 100.07 100.06 100.02 99.99 99.96 99.92 99.88 99.86 99.79 99.73 99.67 99.62 99.36 99.03 99.26 99.22 99.09 98.90 98.54 98.37 98.15 98.03 97.88 97.63 97.43 97.09 97.03 96.90 96.69 96.52 96.39 96.30 96.24 96.13 96.07 95.93 95.80 95.65 95.55 95.45 95.32 95.20 95.06 94.94 94.75 94.78 94.56
100.38 100.28 100.38 100.29 100.20 100.17 100.13 100.12 100.08 100.05 100.02 100.01 99.94 99.89 99.79 99.71 99.65 99.51 99.06 99.24 99.19 99.05 98.88 98.54 98.27 97.99 97.82 97.76 97.57 97.44 97.24 97.04 96.87 96.69 96.51 96.43 96.32 96.22 96.17 96.11 95.97 95.83 95.71 95.60 95.49 95.35 95.26 95.11 94.99 94.87 94.60 94.57
100.32 100.34 100.39 100.36 100.31 100.23 100.20 100.18 100.18 100.13 100.12 100.07 100.03 99.97 99.90 99.79 99.68 99.61 98.87 99.12 99.14 98.72 98.59 98.46 98.24 97.99 97.86 97.73 97.56 97.43 97.29 97.13 96.93 96.74 96.60 96.48 96.36 96.26 96.19 96.09 95.98 95.87 95.75 95.63 95.53 95.41 95.29 95.14 95.00 94.88 94.60 94.56
100.40 100.40 100.32 100.59 100.38 100.32 100.27 100.22 100.20 100.18 100.16 100.15 100.10 100.03 99.92 99.85 99.67 99.55 99.35 99.10 98.96 98.79 98.61 98.40 98.17 97.99 97.83 97.71 97.58 97.50 97.43 97.31 97.10 96.90 96.71 96.54 96.40 96.32 96.20 96.12 96.02 95.89 95.76 95.65 95.56 95.42 95.30 95.18 95.01 94.90 94.69 94.71
100.38 100.46 100.40 100.54 100.41 100.34 100.32 100.25 100.22 100.19 100.18 100.13 100.09 100.04 99.93 99.77 99.53 99.41 99.33 99.03 98.86 98.76 98.54 98.37 98.19 98.05 97.85 97.75 97.64 97.57 97.49 97.36 97.21 97.01 96.83 96.65 96.48 96.32 96.21 96.11 96.01 95.90 95.76 95.64 95.54 95.41 95.29 95.16 95.03 94.90 94.74 94.84
100.44 100.44 100.45 100.51 100.46 100.40 100.32 100.25 100.18 100.17 100.11 100.08 100.00 99.87 99.80 99.78 99.66 99.50 99.27 98.54 99.04 98.70 98.56 98.41 98.21 98.06 97.87 97.75 97.68 97.61 97.55 97.47 97.32 97.08 96.85 96.69 96.52 96.35 96.24 96.09 96.01 95.88 95.75 95.62 95.51 95.40 95.26 95.16 95.04 94.87 94.78 94.47
100.48 100.49 100.49 100.41 100.45 100.32 100.26 100.17 100.11 100.04 99.94 99.95 99.91 99.85 99.83 99.77 99.72 99.53 99.40 99.15 99.07 98.68 98.57 98.42 98.27 98.12 97.97 97.85 97.75 97.67 97.56 97.50 97.36 97.14 96.92 96.72 96.55 96.37 96.22 96.08 95.97 95.90 95.74 95.64 95.53 95.37 95.25 95.10 94.97 94.86 94.74 94.49
100.47 100.44 100.43 100.35 100.41 100.26 100.19 100.01 99.98 100.04 100.02 99.88 99.90 99.80 99.85 99.71 99.68 99.51 99.37 99.25 98.81 98.75 98.71 98.47 98.34 98.15 98.02 97.92 97.79 97.71 97.60 97.51 97.38 97.15 96.93 96.72 96.55 96.39 96.23 96.12 95.99 95.88 95.75 95.58 95.44 95.33 95.18 95.03 94.92 94.79 94.64 94.43
100.42 100.35 100.32 100.26 100.33 100.11 100.07 100.07 99.99 100.07 99.91 99.80 99.82 99.77 99.78 99.71 99.59 99.59 99.49 99.53 98.84 99.09 98.74 98.60 98.46 98.27 98.12 97.97 97.85 97.74 97.63 97.53 97.37 97.18 96.93 96.75 96.55 96.39 96.20 96.08 95.90 95.81 95.70 95.55 95.40 95.25 95.08 94.92 94.76 94.61 94.48 94.35
100.34 100.33 100.32 100.24 100.17 100.32 100.12 100.03 100.00 100.03 99.84 99.82 99.79 99.89 99.77 99.72 99.79 99.71 99.62 99.88 99.34 99.00 98.69 98.67 98.54 98.37 98.20 98.06 97.94 97.78 97.66 97.53 97.36 97.16 96.92 96.70 96.55 96.37 96.17 96.00 95.83 95.70 95.57 95.43 95.26 95.12 94.91 94.76 94.58 94.44 94.29 94.15
100.27 100.26 100.24 100.21 100.18 100.21 100.19 100.03 100.03 99.91 99.90 99.92 99.77 99.78 99.68 99.86 99.95 99.80 99.78 99.84 99.59 98.89 98.70 98.74 98.58 98.45 98.28 98.10 97.92 97.76 97.62 97.50 97.34 97.12 96.87 96.65 96.47 96.28 96.09 95.90 95.70 95.54 95.43 95.26 95.13 94.98 94.78 94.60 94.41 94.27 94.07 93.92
100.28 100.29 100.28 100.22 100.19 100.18 100.22 100.10 100.04 99.92 99.93 99.86 99.74 99.75 99.94 99.97 99.92 99.81 99.70 99.70 99.67 99.21 99.02 98.72 98.65 98.50 98.32 98.09 97.90 97.72 97.57 97.42 97.24 97.04 96.80 96.54 96.35 96.15 95.98 95.77 95.55 95.38 95.26 95.14 94.96 94.82 94.66 94.46 94.27 94.12 93.91 93.69
100.28 100.27 100.23 100.19 100.19 100.15 100.18 100.12 100.00 99.99 99.97 99.92 99.89 99.78 99.98 99.96 99.89 99.83 99.65 99.51 99.51 99.38 98.92 98.75 98.65 98.49 98.31 98.11 97.89 97.67 97.47 97.28 97.08 96.88 96.68 96.45 96.22 96.02 95.85 95.61 95.42 95.21 95.09 94.94 94.79 94.64 94.47 94.28 94.10 93.93 93.74 93.53
100.33 100.23 100.25 100.24 100.21 100.18 100.25 100.24 100.11 100.12 99.95 99.92 99.86 99.77 99.74 99.86 99.86 99.87 99.63 99.64 99.68 99.55 98.79 98.63 98.62 98.44 98.28 98.05 97.81 97.58 97.37 97.15 96.94 96.75 96.54 96.31 96.07 95.85 95.67 95.45 95.25 95.03 94.89 94.74 94.60 94.46 94.29 94.10 93.93 93.80 93.60 93.45
100.32 100.22 100.22 100.27 100.24 100.18 100.22 100.19 100.08 100.06 99.92 99.86 99.74 99.68 99.73 99.65 99.79 99.71 99.61 99.58 99.54 99.57 98.28 98.46 98.58 98.39 98.23 97.98 97.74 97.49 97.25 96.98 96.74 96.55 96.33 96.14 95.94 95.72 95.47 95.26 95.07 94.87 94.72 94.60 94.44 94.32 94.20 94.07 93.88 93.76 93.57 93.34
100.29 100.22 100.17 100.15 100.17 100.12 100.08 100.22 100.08 99.97 99.92 99.82 99.74 99.70 99.68 99.63 99.69 99.71 99.54 99.55 99.38 99.37 98.34 98.58 98.48 98.29 98.13 97.88 97.62 97.38 97.10 96.83 96.58 96.31 96.12 95.97 95.76 95.57 95.36 95.15 94.93 94.75 94.61 94.51 94.42 94.27 94.00 93.68 93.93 93.88 93.63 92.79
100.21 100.24 100.17 100.16 100.13 100.13 100.04 100.11 100.04 99.97 99.95 99.84 99.78 99.72 99.61 99.62 99.68 99.59 99.49 99.40 99.33 99.30 98.93 98.57 98.32 98.21 98.04 97.78 97.49 97.22 96.93 96.71 96.44 96.22 96.05 95.86 95.68 95.50 95.35 95.13 94.85 94.55 94.85 94.83 94.60 94.22 93.33 93.77 93.65 93.58 93.47 93.32
100.23 100.23 100.17 100.15 100.12 100.10 100.06 100.03 100.11 99.97 99.97 99.85 99.79 99.66 99.59 99.58 99.55 99.58 99.54 99.36 99.35 99.22 99.03 98.53 98.21 98.14 97.93 97.64 97.34 97.07 96.86 96.62 96.44 96.25 96.00 95.59 95.89 96.08 95.95 95.71 94.94 94.74 94.85 94.64 94.53 94.31 94.22 94.06 93.96 93.86 93.72 93.54
100.28 100.25 100.14 100.10 100.07 100.10 100.10 100.03 100.02 100.02 99.92 99.85 99.76 99.71 99.62 99.56 99.45 99.50 99.46 99.44 99.38 99.38 99.18 98.43 98.17 98.01 97.76 97.53 97.22 96.93 96.52 97.03 97.09 96.92 96.52 95.62 96.00 95.86 95.72 95.61 95.46 95.27 95.11 94.93 94.76 94.57 94.39 94.25 94.14 94.04 93.89 93.78
100.29 100.15 100.13 100.09 100.11 100.03 100.09 100.01 100.10 100.01 99.85 99.83 99.72 99.70 99.62 99.49 99.38 99.45 99.51 99.40 99.43 99.35 99.05 98.19 97.68 97.62 97.75 97.76 97.54 96.72 96.89 97.10 97.03 96.83 96.69 96.57 96.33 96.21 96.03 95.78 95.62 95.50 95.35 95.10 94.93 94.73 94.56 94.43 94.30 94.24 94.13 94.01
100.27 100.15 100.15 100.14 100.08 100.03 100.01 99.98 99.99 99.99 99.88 99.81 99.65 99.61 99.50 99.40 99.33 99.35 99.50 99.26 99.23 98.95 98.68 98.38 98.05 98.16 97.95 97.99 97.75 97.74 97.42 97.44 97.25 97.14 96.88 96.74 96.58 96.36 96.21 95.99 95.80 95.66 95.50 95.38 95.15 94.97 94.82 94.64 94.51 94.46 94.36 94.21
100.28 100.18 100.11 100.00 99.99 99.90 99.90 99.89 99.90 99.91 99.84 99.70 99.67 99.52 99.44 99.29 99.24 99.25 99.19 99.12 98.80 98.43 98.44 98.15 98.31 98.29 98.35 98.21 98.05 97.89 97.75 97.69 97.50 97.43 97.14 96.95 96.76 96.59 96.40 96.19 96.03 95.81 95.71 95.58 95.36 95.17 95.03 94.89 94.74 94.65 94.52 94.39
100.26 100.21 100.11 99.96 99.96 99.94 99.89 99.85 99.86 100.10 99.77 99.56 99.43 99.39 99.46 99.48 99.24 98.95 98.79 98.79 98.68 98.60 98.58 98.46 98.38 98.60 98.54 98.48 98.32 98.08 98.09 97.91 97.79 97.65 97.33 97.12 96.92 96.72 96.57 96.39 96.18 95.99 95.87 95.74 95.54 95.37 95.22 95.06 94.93 94.77 94.64 94.47
100.30 100.28 100.10 100.03 99.98 99.93 99.90 99.94 99.93 100.06 99.80 100.05 99.81 99.45 99.29 99.28 99.22 99.12 99.02 98.96 98.89 98.82 98.76 98.66 98.41 98.62 98.54 98.51 98.40 98.32 98.42 98.24 97.96 97.89 97.58 97.29 97.04 96.83 96.67 96.54 96.35 96.18 96.06 95.89 95.69 95.49 95.36 95.20 95.06 94.91 94.75 94.58
100.45 100.40 100.33 100.26 100.10 100.18 100.03 100.44 100.34 99.97 99.86 99.85 99.71 99.58 99.48 99.43 99.35 99.32 99.25 99.14 99.07 99.00 98.92 98.86 98.29 98.51 98.40 98.60 98.65 98.59 98.54 98.48 98.22 98.18 97.81 97.45 97.18 96.97 96.76 96.64 96.48 96.30 96.17 96.04 95.83 95.63 95.51 95.36 95.18 95.04 94.86 94.71
100.62 100.38 100.13 100.71 100.61 100.35 100.21 100.16 100.11 99.97 99.92 99.89 99.79 99.71 99.63 99.55 99.51 99.47 99.40 99.32 99.24 99.17 99.07 99.04 98.30 98.57 98.48 98.76 98.87 98.74 98.59 98.56 98.26 98.34 98.26 97.76 97.33 97.06 96.88 96.77 96.57 96.38 96.28 96.16 96.00 95.83 95.65 95.50 95.31 95.18 95.00 94.82
