ncols 52
nrows 52
xllcorner 437760
yllcorner 5717504
cellsize 10
NODATA_value -9999
82.40 82.33 82.35 82.37 82.33 82.29 82.19 82.13 82.09 82.03 81.85 81.80 81.76 81.70 81.74 81.65 81.62 81.58 81.53 81.51 81.48 81.45 81.43 81.43 81.40 81.42 81.46 81.28 81.24 81.21 81.14 81.07 81.01 80.91 80.82 80.75 80.69 80.64 80.60 80.23 80.49 79.54 79.79 79.93 80.01 79.95 79.82 79.69 79.54 79.39 79.29 79.19
82.58 82.55 82.45 82.35 82.24 82.36 82.15 82.06 81.95 81.88 81.80 81.74 81.69 81.64 81.68 81.62 81.63 81.58 81.53 81.51 81.48 81.42 81.41 81.38 81.41 81.39 81.48 81.27 81.26 81.21 81.12 81.06 80.98 80.88 80.81 80.73 80.68 80.58 80.56 80.33 80.52 79.35 79.60 79.78 79.93 79.85 79.75 79.61 79.46 79.29 79.18 79.07
82.56 82.53 82.51 82.35 82.30 82.18 82.08 81.99 81.89 81.83 81.78 81.74 81.68 81.67 81.68 81.62 81.60 81.57 81.51 81.46 81.49 81.39 81.38 81.31 81.36 81.40 81.37 81.25 81.26 81.18 81.13 81.04 80.97 80.85 80.76 80.70 80.64 80.56 80.51 80.55 80.46 79.70 79.42 79.67 79.82 79.82 79.69 79.57 79.39 79.24 79.07 78.95
82.64 82.48 82.32 82.22 82.13 82.04 81.99 81.97 81.92 81.83 81.80 81.75 81.70 81.68 81.65 81.59 81.59 81.56 81.48 81.44 81.43 81.40 81.38 81.36 81.33 81.35 81.34 81.37 81.21 81.15 81.07 81.01 80.93 80.82 80.72 80.64 80.57 80.51 80.46 80.41 80.46 80.51 79.28 79.52 79.76 79.74 79.65 79.47 79.32 79.12 78.98 78.84
82.48 82.40 82.31 82.21 82.10 82.04 81.99 81.99 81.93 81.85 81.82 81.75 81.66 81.71 81.62 81.59 81.54 81.52 81.46 81.40 81.39 81.36 81.35 81.31 81.34 81.30 81.28 81.33 81.16 81.12 81.06 80.96 80.87 80.81 80.69 80.60 80.51 80.43 80.37 80.35 80.30 80.55 79.20 79.33 79.58 79.63 79.53 79.41 79.21 79.04 78.89 78.75
82.49 82.43 82.35 82.24 82.14 82.05 82.01 82.00 81.94 81.86 81.83 81.77 81.70 81.66 81.63 81.58 81.51 81.44 81.42 81.35 81.33 81.31 81.28 81.26 81.22 81.19 81.24 81.24 81.05 81.07 81.00 80.90 80.83 80.73 80.63 80.51 80.46 80.39 80.30 80.26 80.29 80.56 79.04 79.18 79.37 79.51 79.44 79.32 79.16 78.97 78.82 78.65
82.53 82.44 82.36 82.25 82.17 82.01 82.05 81.99 81.96 81.88 81.83 81.79 81.72 81.64 81.62 81.60 81.48 81.42 81.37 81.29 81.24 81.25 81.19 81.15 81.07 81.13 81.14 81.11 80.94 80.97 80.92 80.85 80.75 80.66 80.53 80.43 80.36 80.28 80.21 80.20 80.21 80.49 79.86 78.99 79.22 79.40 79.35 79.24 79.06 78.88 78.65 78.50
82.53 82.45 82.33 82.30 82.17 82.09 82.03 81.98 81.98 81.90 81.83 81.79 81.70 81.65 81.60 81.54 81.45 81.36 81.31 81.22 81.16 81.15 81.12 81.08 81.03 81.05 81.06 81.05 81.00 80.88 80.79 80.70 80.63 80.56 80.46 80.35 80.25 80.23 80.18 80.15 80.11 80.43 80.52 78.89 79.12 79.25 79.21 79.09 78.96 78.73 78.50 78.45
82.55 82.46 82.38 82.26 82.20 82.09 82.03 81.99 81.98 81.91 81.82 81.78 81.68 81.59 81.55 81.48 81.42 81.31 81.25 81.14 81.07 81.05 81.02 80.96 80.91 80.94 80.92 80.89 80.94 80.77 80.73 80.68 80.57 80.47 80.40 80.27 80.17 80.14 80.09 80.00 79.95 80.13 80.57 78.93 78.92 79.04 78.96 78.92 79.12 78.64 78.89 77.62
82.55 82.47 82.40 82.30 82.21 82.12 82.04 82.00 81.97 81.92 81.80 81.72 81.65 81.57 81.49 81.43 81.35 81.24 81.15 81.05 80.98 80.94 80.92 80.88 80.84 80.78 80.77 80.76 80.75 80.66 80.64 80.55 80.48 80.40 80.28 80.15 80.08 80.04 79.99 80.06 79.99 80.04 80.58 78.65 78.82 79.16 78.98 79.01 77.91 78.85 79.15 79.09
82.54 82.48 82.39 82.32 82.22 82.14 82.04 81.99 81.96 81.90 81.80 81.68 81.62 81.50 81.42 81.39 81.29 81.16 81.07 80.97 80.85 80.80 80.77 80.73 80.69 80.60 80.60 80.54 80.57 80.46 80.57 80.46 80.38 80.30 80.21 80.12 80.05 79.99 79.94 79.92 80.01 80.20 80.53 80.54 79.93 78.44 78.52 78.84 78.90 79.18 79.29 79.36
82.59 82.49 82.41 82.33 82.25 82.15 82.04 81.97 81.93 81.84 81.78 81.65 81.56 81.45 81.36 81.31 81.18 81.07 80.93 80.86 80.71 80.65 80.63 80.56 80.52 80.44 80.47 80.47 80.46 80.38 80.43 80.36 80.31 80.26 80.24 80.26 80.23 80.13 79.93 79.55 78.22 77.72 80.40 80.61 78.44 77.86 77.95 79.15 79.21 79.43 79.47 79.60
82.60 82.51 82.40 82.33 82.22 82.14 82.01 81.93 81.86 81.81 81.72 81.59 81.47 81.37 81.27 81.21 81.08 80.97 80.84 80.75 80.64 80.63 80.65 80.64 80.62 80.56 80.54 80.45 80.50 80.57 80.51 80.46 80.06 79.24 78.22 78.32 78.85 79.12 78.89 79.02 79.36 78.55 80.17 80.67 79.05 78.01 79.41 79.40 79.52 79.69 79.65 79.77
82.60 82.51 82.41 82.35 82.24 82.10 81.97 81.88 81.81 81.73 81.62 81.48 81.35 81.26 81.16 81.07 81.01 80.91 80.85 80.84 80.74 80.67 80.71 80.68 80.59 80.56 80.02 78.92 78.54 79.06 79.77 79.71 79.51 79.46 79.35 79.53 79.56 79.56 78.84 78.94 79.56 79.58 79.30 80.67 78.47 79.14 79.55 79.59 79.75 79.81 79.78 79.85
82.58 82.49 82.39 82.31 82.21 82.07 81.89 81.76 81.70 81.61 81.49 81.36 81.22 81.14 81.10 81.03 80.96 80.79 80.93 80.82 79.92 78.87 79.01 79.68 79.68 79.57 79.73 79.77 79.16 79.04 79.88 79.81 79.69 79.68 79.34 79.40 79.48 79.34 79.32 79.40 79.48 79.44 79.54 80.60 79.82 79.28 79.63 79.83 79.94 79.90 79.90 79.89
82.56 82.50 82.34 82.24 82.12 81.94 81.76 81.63 81.55 81.48 81.36 81.23 81.12 81.09 81.00 80.95 80.86 80.03 79.62 80.31 80.17 80.27 80.28 80.24 80.21 79.17 79.60 79.92 79.88 79.71 79.72 79.72 79.66 79.60 79.56 79.55 79.52 79.49 79.49 79.52 79.57 79.55 79.60 80.59 80.70 79.53 79.85 80.16 80.25 80.07 80.07 79.93
82.51 82.36 82.25 82.12 82.00 81.78 81.60 81.46 81.39 81.35 81.24 81.13 81.09 81.00 80.83 79.50 80.35 80.27 80.26 80.24 80.55 80.62 80.48 80.39 80.38 80.24 80.30 80.10 79.94 79.83 79.76 79.76 79.72 79.67 79.66 79.61 79.58 79.56 79.56 79.60 79.67 79.70 79.80 80.34 80.78 79.79 80.07 80.02 80.11 80.14 80.27 79.94
82.29 82.18 82.05 81.94 81.83 81.62 81.44 81.30 81.27 81.18 81.15 80.96 79.47 80.41 80.33 80.33 80.31 80.32 80.40 80.50 80.61 81.07 80.75 80.62 80.57 80.12 80.36 80.21 80.10 79.95 79.82 79.83 79.81 79.74 79.73 79.70 79.68 79.68 79.68 79.69 79.81 79.92 80.00 79.84 80.84 79.76 80.09 80.09 80.18 80.23 80.17 80.10
82.02 81.87 81.83 81.70 81.61 81.48 81.25 81.26 81.25 79.77 80.68 80.44 80.33 80.38 80.40 80.46 80.48 80.50 80.59 80.66 80.73 80.30 80.98 80.72 80.74 80.33 80.51 80.39 80.27 80.12 80.01 79.97 79.92 79.86 79.82 79.83 79.79 79.79 79.77 79.83 79.95 80.08 80.16 80.10 80.92 80.43 80.26 80.37 80.28 80.35 80.28 80.09
81.67 81.55 81.54 81.48 81.57 81.29 80.39 80.51 80.67 80.58 80.54 80.47 80.46 80.54 80.60 80.60 80.71 80.73 80.78 80.83 80.90 81.14 81.17 80.86 80.80 80.44 80.58 80.49 80.35 80.19 80.07 80.10 80.07 80.02 79.98 79.95 79.94 79.95 79.96 79.99 80.07 80.19 80.24 80.25 80.81 80.81 80.45 80.60 80.41 80.36 80.28 80.14
81.54 81.51 81.65 81.14 81.06 80.87 80.82 80.86 80.86 80.73 80.66 80.61 80.63 80.76 80.84 80.89 80.89 80.90 80.94 80.98 81.00 80.97 81.06 80.93 80.90 80.54 80.65 80.54 80.43 80.34 80.21 80.21 80.19 80.15 80.12 80.11 80.08 80.10 80.13 80.14 80.19 80.28 80.35 80.42 80.74 80.90 80.47 81.56 80.44 80.36 80.23 80.14
81.58 80.35 81.33 81.32 81.08 80.90 80.85 80.97 81.08 80.94 80.83 80.84 80.85 80.94 81.04 81.06 81.00 81.04 81.04 81.10 81.11 81.01 81.21 80.97 80.93 80.65 80.72 80.56 80.44 80.37 80.27 80.30 80.32 80.30 80.29 80.29 80.25 80.24 80.24 80.28 80.32 80.35 80.39 80.50 80.45 80.99 79.59 83.39 80.46 80.33 80.24 80.14
81.50 81.50 81.48 81.42 81.27 81.09 81.00 81.11 81.25 81.12 81.06 81.04 81.04 81.10 81.19 81.17 81.16 81.12 81.10 81.14 81.17 81.06 81.06 81.06 80.90 80.70 80.74 80.58 80.45 80.37 80.32 80.41 80.45 80.44 80.43 80.43 80.39 80.39 80.37 80.39 80.40 80.39 80.48 80.52 80.08 81.11 80.81 82.35 80.61 80.28 80.17 80.07
81.67 81.72 81.75 81.65 81.51 81.34 81.26 81.27 81.37 81.33 81.22 81.25 81.21 81.23 81.26 81.27 81.24 81.18 81.15 81.16 81.19 81.12 81.01 80.53 81.08 80.75 80.83 80.67 80.53 80.46 80.49 80.54 80.59 80.60 80.56 80.55 80.48 80.48 80.46 80.43 80.45 80.46 80.51 80.61 80.34 81.04 80.92 80.81 81.89 80.52 80.18 80.07
81.91 81.89 81.91 81.85 81.71 81.59 81.52 81.52 81.53 81.40 81.37 81.38 81.39 81.35 81.34 81.31 81.26 81.15 81.19 81.20 81.19 81.12 81.04 81.19 81.77 80.80 80.71 80.91 80.60 80.58 80.67 80.64 80.75 80.74 80.69 80.71 80.65 80.60 80.57 80.61 80.57 80.52 80.56 80.57 80.40 80.93 81.08 79.56 82.82 80.40 80.13 80.03
82.12 82.04 82.03 81.95 81.88 81.80 81.75 81.69 81.63 81.56 81.53 81.49 81.48 81.46 81.43 81.36 81.26 81.20 81.20 81.20 81.15 81.10 81.03 80.93 80.75 80.93 80.77 80.86 80.92 80.88 80.97 80.86 80.77 80.77 80.76 80.77 80.75 80.88 80.72 80.62 80.57 80.58 80.57 80.56 80.46 80.34 81.23 80.89 81.83 80.54 80.20 80.12
82.27 82.21 82.15 82.09 81.98 81.93 81.88 81.80 81.70 81.63 81.65 81.58 81.54 81.55 81.50 81.40 81.32 81.23 81.15 81.16 81.13 81.06 80.97 80.86 80.98 81.41 80.89 80.85 81.04 81.01 80.92 80.92 80.86 80.88 80.87 80.89 80.88 80.87 80.95 80.67 80.61 80.59 80.59 80.57 80.47 80.18 81.29 81.06 80.31 81.93 80.34 80.20
82.42 82.30 82.21 82.16 82.09 82.00 81.97 81.89 81.77 81.68 81.76 81.65 81.62 81.62 81.54 81.48 81.39 81.31 81.26 81.19 81.18 81.14 81.04 80.97 80.98 81.68 80.95 80.95 81.02 81.02 80.94 81.03 80.96 81.03 80.98 81.01 81.00 80.94 81.03 80.79 80.62 80.63 80.63 80.60 80.51 80.33 81.18 81.25 80.43 83.08 80.18 80.00
82.53 82.42 82.31 82.24 82.18 82.11 82.04 81.97 81.87 81.75 81.78 81.77 81.68 81.67 81.60 81.50 81.46 81.37 81.32 81.25 81.21 81.18 81.12 81.06 81.06 80.74 81.05 81.06 81.13 81.09 81.09 81.11 81.10 81.13 81.10 81.11 81.14 81.22 80.93 80.81 80.76 80.72 80.73 80.67 80.48 80.51 80.39 81.45 81.10 80.90 81.32 79.72
82.63 82.51 82.40 82.32 82.26 82.19 82.12 82.05 81.94 81.83 81.85 81.77 81.74 81.72 81.65 81.55 81.46 81.43 81.34 81.23 81.25 81.21 81.15 81.11 81.08 81.19 81.52 81.14 81.22 81.40 81.27 81.18 81.21 81.15 81.18 81.29 81.48 81.31 81.21 81.12 81.06 80.96 80.82 80.71 80.62 80.67 81.01 81.43 81.28 79.45 83.33 79.05
82.71 82.59 82.49 82.41 82.33 82.29 82.23 82.12 82.00 81.93 81.86 81.87 81.82 81.76 81.68 81.60 81.50 81.44 81.39 81.33 81.28 81.24 81.19 81.19 81.11 81.08 81.59 81.18 81.21 81.28 81.35 81.49 81.39 81.36 81.61 81.69 81.62 81.24 81.17 81.29 81.18 81.02 80.82 80.76 80.87 80.91 80.90 80.84 81.50 81.20 81.40 80.10
82.79 82.68 82.55 82.49 82.43 82.38 82.28 82.19 82.08 81.98 81.93 81.87 81.88 81.80 81.72 81.65 81.55 81.50 81.44 81.38 81.29 81.28 81.26 81.26 81.21 81.15 81.24 81.28 81.16 81.30 81.47 81.56 81.58 81.39 81.42 81.60 81.71 81.44 81.38 81.39 81.29 81.06 80.89 80.90 80.85 80.85 80.58 80.42 81.64 81.39 80.35 79.89
82.79 82.74 82.65 82.58 82.50 82.46 82.37 82.25 82.17 82.07 82.01 81.94 81.93 81.84 81.80 81.71 81.60 81.50 81.48 81.42 81.39 81.34 81.30 81.33 81.24 81.29 81.36 81.46 81.58 81.48 81.38 81.61 81.33 81.38 81.51 81.77 81.70 81.54 81.43 81.63 81.50 81.17 81.10 80.90 80.78 80.43 80.37 80.29 81.40 81.60 81.26 80.07
82.86 82.81 82.74 82.63 82.59 82.53 82.46 82.34 82.21 82.15 82.10 81.99 81.99 81.94 81.83 81.75 81.68 81.55 81.50 81.47 81.44 81.37 81.38 81.43 81.51 81.76 81.68 81.47 81.48 81.44 81.34 81.42 81.42 81.48 81.61 81.71 81.57 81.43 81.54 81.67 81.60 81.32 81.38 80.80 80.86 80.53 80.37 80.35 79.92 81.77 81.49 80.54
82.93 82.86 82.82 82.73 82.65 82.62 82.53 82.40 82.30 82.23 82.16 82.07 82.04 81.93 81.88 81.77 81.71 81.63 81.54 81.51 81.51 81.60 81.86 81.93 81.37 81.60 81.57 81.52 81.46 81.46 81.43 81.53 81.91 81.63 81.80 81.69 81.50 81.49 81.38 81.58 81.43 81.46 81.25 81.17 80.88 80.78 80.57 80.21 80.13 81.55 81.71 81.49
82.96 82.92 82.89 82.81 82.74 82.68 82.59 82.47 82.37 82.32 82.19 82.14 82.07 82.03 81.93 81.81 81.72 81.70 81.82 81.93 82.13 81.56 81.84 81.73 81.60 81.48 81.48 81.47 81.46 81.44 81.47 81.56 81.67 81.86 81.82 81.69 81.57 81.43 81.28 81.26 81.26 81.14 81.13 80.95 80.79 80.47 80.44 80.37 80.17 79.75 81.92 81.63
83.08 82.99 82.96 82.92 82.84 82.75 82.65 82.54 82.45 82.35 82.29 82.20 82.14 82.17 82.00 82.02 82.12 82.35 82.14 81.96 81.88 81.87 81.73 81.63 81.53 81.54 81.53 81.54 81.54 81.54 81.56 81.61 81.74 82.07 81.83 81.71 81.48 81.32 81.30 81.31 81.23 81.11 80.99 80.93 80.65 80.54 80.47 80.18 79.96 79.70 81.45 81.86
83.17 83.08 83.04 83.03 82.94 82.82 82.72 82.58 82.51 82.46 82.42 82.44 82.48 82.48 82.46 82.48 81.91 82.11 82.03 81.90 81.81 81.79 81.75 81.69 81.67 81.65 81.62 81.63 81.61 81.61 81.65 81.69 81.78 81.93 81.76 81.62 81.57 81.54 81.38 81.21 81.13 81.00 81.03 80.82 80.44 80.41 80.28 79.99 79.81 78.83 78.29 82.00
83.30 83.20 83.15 83.13 83.02 82.90 82.79 82.68 82.73 82.75 82.78 82.80 82.81 81.99 82.34 82.22 82.12 81.97 81.92 81.86 81.85 81.87 81.88 81.85 81.81 81.77 81.75 81.72 81.73 81.72 81.76 81.78 81.82 81.84 81.64 81.58 81.58 81.50 81.33 81.32 81.27 81.03 80.86 80.76 80.52 80.42 80.11 79.90 79.67 79.59 80.83 81.63
83.41 83.31 83.22 83.20 83.17 83.06 83.07 83.06 83.12 83.16 82.63 82.61 82.83 82.39 82.26 82.22 82.11 82.06 82.00 81.99 82.00 82.02 82.02 81.97 81.95 81.88 81.89 81.86 81.87 81.84 81.86 81.87 81.86 81.85 81.93 81.63 81.54 81.38 81.34 81.33 81.09 81.00 80.93 80.71 80.34 80.17 80.03 79.90 78.15 80.96 80.98 80.75
83.48 83.40 83.35 83.39 83.43 83.43 83.40 83.32 82.92 82.96 82.77 82.73 82.65 82.34 82.34 82.28 82.24 82.20 82.15 82.15 82.17 82.17 82.18 82.10 82.09 82.06 82.02 82.01 81.97 81.95 81.93 81.89 81.86 81.77 81.75 81.61 81.52 81.43 81.32 81.17 81.03 81.00 80.77 80.50 80.36 80.17 79.90 79.35 80.53 80.97 80.96 81.00
83.68 83.67 83.68 83.70 83.75 82.78 83.21 83.12 83.04 82.86 82.76 82.71 82.65 82.75 82.54 82.50 82.44 82.38 82.32 82.30 82.32 82.32 82.36 82.28 82.24 82.21 82.17 82.10 82.07 82.04 82.01 81.98 81.87 81.77 81.73 81.54 81.48 81.43 81.23 81.03 80.97 80.74 80.55 80.39 80.27 79.95 79.92 78.85 80.82 80.94 81.03 81.15
84.04 84.14 83.37 83.69 83.51 83.39 83.20 83.07 82.97 82.96 82.87 82.81 82.78 82.57 82.74 82.67 82.62 82.54 82.49 82.45 82.46 82.50 82.50 82.45 82.40 82.35 82.29 82.25 82.19 82.14 82.07 82.00 81.90 81.79 81.71 81.55 81.41 81.25 81.13 80.97 80.78 80.55 80.44 80.29 80.05 79.93 78.91 80.76 80.93 80.99 81.17 81.16
84.03 83.97 83.81 83.68 83.49 83.39 83.24 83.15 83.12 83.08 83.02 82.94 82.90 82.85 82.93 82.81 82.76 82.71 82.65 82.62 82.62 82.65 82.64 82.60 82.57 82.50 82.44 82.38 82.30 82.21 82.13 82.03 81.93 81.81 81.70 81.58 81.44 81.26 81.02 80.79 80.64 80.51 80.35 80.13 79.95 79.37 80.21 80.78 80.86 81.03 81.15 81.32
84.03 83.86 83.72 83.64 83.67 83.58 83.39 83.29 83.27 83.22 83.15 83.12 83.01 82.96 82.95 82.92 82.87 82.82 82.74 82.76 82.74 82.76 82.78 82.75 82.67 82.62 82.58 82.47 82.41 82.29 82.19 82.07 81.93 81.82 81.71 81.52 81.33 81.13 80.96 80.75 80.55 80.33 80.15 80.06 79.78 78.96 80.49 80.74 80.90 81.11 81.33 81.52
84.06 83.99 83.89 83.84 83.77 83.74 83.56 83.46 83.43 83.35 83.27 83.23 83.15 83.07 83.01 82.96 82.94 82.92 82.87 82.88 82.84 82.85 82.85 82.80 82.75 82.70 82.66 82.57 82.44 82.32 82.19 82.07 81.93 81.78 81.68 81.47 81.27 81.09 80.79 80.59 80.44 80.28 80.13 79.91 79.67 80.32 80.60 80.82 81.05 81.29 81.53 81.76
84.21 84.13 84.06 83.99 83.94 83.92 83.74 83.60 83.56 83.48 83.43 83.36 83.26 83.18 83.15 83.27 83.09 83.02 83.00 82.99 82.95 82.93 82.90 82.84 82.81 82.76 82.70 82.62 82.49 82.35 82.23 82.04 81.91 81.77 81.62 81.38 81.15 81.01 80.72 80.51 80.38 80.13 79.74 79.65 80.01 80.47 80.76 81.00 81.26 81.52 81.74 81.94
84.38 84.29 84.21 84.14 84.10 84.00 83.90 83.76 83.68 83.62 83.53 83.49 83.39 83.29 83.27 83.15 83.21 83.15 83.11 83.10 83.09 83.01 82.99 82.92 82.86 82.82 82.76 82.71 82.57 82.43 82.28 82.12 81.90 81.74 81.56 81.28 81.02 80.87 80.60 80.39 80.31 79.07 79.87 79.92 80.40 80.66 80.91 81.18 81.43 81.73 82.07 82.41
84.54 84.43 84.35 84.32 84.23 84.12 84.04 83.91 83.80 83.73 83.67 83.58 83.54 83.44 83.36 83.34 83.45 83.29 83.23 83.22 83.19 83.12 83.05 83.00 82.87 82.87 82.84 82.79 82.68 82.52 82.38 82.20 82.00 81.76 81.57 81.25 80.92 80.71 80.53 80.28 79.75 80.14 80.24 80.43 80.64 80.93 81.17 81.43 81.82 82.15 82.24 82.37
84.70 84.58 84.50 84.45 84.35 84.26 84.14 84.06 83.95 83.86 83.79 83.71 83.66 83.57 83.51 83.47 83.47 83.43 83.38 83.34 83.26 83.21 83.15 83.08 83.04 82.99 82.95 82.88 82.75 82.59 82.44 82.24 82.05 81.81 81.57 81.26 80.89 80.69 80.47 80.23 78.97 80.25 80.45 80.65 80.94 81.30 81.53 81.76 81.97 82.18 82.25 82.39
84.86 84.74 84.65 84.58 84.50 84.40 84.25 84.19 84.10 83.98 83.90 83.82 83.78 83.70 83.67 83.60 83.54 83.45 83.46 83.45 83.40 83.32 83.26 83.19 83.15 83.11 83.06 82.94 82.82 82.65 82.49 82.31 82.03 81.82 81.59 81.25 80.88 80.67 80.35 79.60 80.36 80.45 80.64 80.86 81.15 81.46 81.76 82.24 82.25 82.42 82.47 82.61
85.06 84.93 84.84 84.76 84.66 84.51 84.37 84.29 84.24 84.11 84.01 83.95 83.89 83.82 83.78 83.71 83.70 83.74 83.58 83.54 83.51 83.44 83.35 83.31 83.26 83.23 83.18 83.04 82.88 82.72 82.53 82.33 82.06 81.82 81.57 81.19 80.85 80.65 79.49 80.38 80.46 80.68 80.83 81.07 81.31 81.61 82.05 82.27 82.38 82.53 82.64 82.67
