ncols 52
nrows 52
xllcorner 437760
yllcorner 5715968
cellsize 10
NODATA_value -9999
92.33 92.18 92.06 91.89 91.78 91.61 91.53 91.37 91.25 91.10 90.94 90.86 90.72 90.66 90.54 90.43 90.36 90.25 90.18 90.04 89.93 89.82 89.90 89.79 89.60 89.64 89.40 89.26 89.17 89.23 88.74 88.59 88.58 88.47 88.46 88.43 88.40 88.37 88.37 88.42 88.46 88.43 88.43 88.40 88.38 88.38 88.38 88.30 88.26 88.18 88.10 88.07
92.33 92.18 92.04 91.92 91.75 91.60 91.45 91.32 91.17 91.02 90.90 90.78 90.71 90.65 90.60 90.52 90.43 90.37 90.24 90.14 90.03 89.89 89.80 89.78 89.77 89.78 89.63 89.38 89.28 88.95 88.75 88.60 88.59 88.63 88.60 88.57 88.57 88.55 88.57 88.57 88.57 88.55 88.50 88.48 88.44 88.40 88.38 88.38 88.29 88.23 88.17 88.12
92.32 92.17 91.98 91.87 91.71 91.55 91.42 91.27 91.15 91.03 90.94 90.85 90.78 90.73 90.64 90.62 90.53 90.40 90.29 90.15 90.04 89.92 89.83 89.78 89.71 89.76 89.67 89.53 89.32 88.94 88.78 88.66 88.72 88.77 88.72 88.70 88.71 88.69 88.72 88.71 88.71 88.65 88.60 88.56 88.52 88.49 88.43 88.40 88.40 88.28 88.22 88.20
92.31 92.14 91.98 91.83 91.69 91.54 91.43 91.34 91.21 91.11 90.99 90.95 90.89 90.80 90.72 90.63 90.57 90.44 90.31 90.15 90.02 89.96 89.90 89.87 89.74 89.63 89.21 89.79 89.26 89.03 88.90 88.93 88.87 88.86 88.86 88.83 88.82 88.83 88.84 88.84 88.82 88.76 88.70 88.67 88.64 88.57 88.48 88.42 88.39 88.42 88.26 88.20
92.31 92.15 92.01 91.90 91.76 91.63 91.50 91.40 91.31 91.19 91.09 90.99 90.94 90.88 90.77 90.69 90.57 90.49 90.37 90.25 90.04 89.89 89.74 89.74 89.83 89.73 89.72 89.63 89.52 89.16 89.12 89.05 89.06 89.00 88.96 88.97 88.94 88.94 88.96 88.96 88.92 88.86 88.82 88.79 88.72 88.65 88.55 88.49 88.40 88.35 88.35 88.22
92.37 92.21 92.09 91.97 91.84 91.68 91.53 91.39 91.30 91.22 91.12 91.05 90.96 90.92 90.90 90.81 90.68 90.52 90.30 90.08 90.08 90.03 89.99 89.92 89.85 89.74 89.66 89.61 89.56 89.57 89.28 89.26 89.17 89.10 89.08 89.06 89.07 89.07 89.07 89.11 89.03 88.96 88.92 88.86 88.79 88.70 88.64 88.51 88.44 88.39 88.32 88.29
92.43 92.29 92.10 91.97 91.85 91.69 91.58 91.47 91.35 91.29 91.22 91.14 91.10 90.96 90.89 90.61 90.62 90.59 90.51 90.36 90.19 90.06 89.99 89.91 89.84 89.73 89.71 89.65 89.59 89.53 89.61 89.35 89.37 89.24 89.23 89.18 89.16 89.17 89.20 89.18 89.16 89.05 89.01 88.94 88.85 88.76 88.66 88.58 88.49 88.42 88.31 88.14
92.47 92.32 92.19 92.02 91.88 91.74 91.65 91.54 91.47 91.34 91.26 90.97 90.94 90.95 90.92 90.79 90.70 90.60 90.51 90.36 90.23 90.09 90.02 89.98 89.90 89.84 89.77 89.70 89.63 89.60 89.56 89.60 89.48 89.43 89.30 89.29 89.28 89.26 89.32 89.31 89.24 89.17 89.05 88.98 88.90 88.80 88.70 88.61 88.55 88.40 88.26 88.09
92.46 92.34 92.21 92.10 91.98 91.80 91.65 91.41 91.32 91.35 91.32 91.21 91.08 91.01 90.90 90.76 90.68 90.59 90.52 90.42 90.30 90.22 90.11 90.03 89.97 89.88 89.82 89.75 89.68 89.62 89.61 89.60 89.70 89.53 89.49 89.41 89.41 89.42 89.41 89.43 89.33 89.17 89.10 88.98 88.91 88.81 88.74 88.65 88.55 88.41 88.22 88.03
92.50 92.33 92.18 91.95 91.84 91.82 91.75 91.65 91.53 91.44 91.32 91.22 91.13 91.05 90.91 90.80 90.73 90.69 90.63 90.52 90.38 90.26 90.18 90.08 90.04 89.95 89.88 89.79 89.71 89.69 89.67 89.67 89.64 89.70 89.61 89.58 89.53 89.53 89.51 89.48 89.38 89.22 89.09 89.04 88.92 88.85 88.78 88.69 88.56 88.39 88.22 87.97
92.37 92.33 92.26 92.18 92.06 91.91 91.79 91.69 91.58 91.49 91.35 91.26 91.20 91.12 91.03 90.93 90.85 90.77 90.74 90.62 90.48 90.35 90.26 90.18 90.09 90.00 89.90 89.84 89.79 89.71 89.67 89.67 89.70 89.70 89.81 89.72 89.68 89.59 89.59 89.54 89.40 89.25 89.12 89.01 88.97 88.86 88.76 88.63 88.53 88.37 88.17 87.90
92.60 92.46 92.37 92.26 92.12 92.02 91.88 91.78 91.69 91.58 91.48 91.38 91.32 91.26 91.18 91.06 90.97 90.91 90.85 90.75 90.61 90.47 90.36 90.24 90.15 89.99 89.90 89.84 89.79 89.74 89.78 89.75 89.78 89.83 89.77 90.05 89.75 89.66 89.60 89.59 89.44 89.27 89.14 89.06 88.93 88.83 88.65 88.56 88.44 88.28 88.04 87.75
92.74 92.60 92.49 92.36 92.27 92.16 92.06 91.94 91.82 91.70 91.61 91.53 91.45 91.38 91.29 91.20 91.13 91.05 90.99 90.90 90.75 90.58 90.46 90.31 90.19 90.07 90.00 89.90 89.85 89.85 89.86 89.83 89.93 90.01 89.96 89.88 89.90 89.71 89.62 89.54 89.45 89.30 89.15 89.05 88.88 88.71 88.64 88.46 88.31 88.13 87.86 87.57
92.88 92.81 92.70 92.59 92.46 92.32 92.19 92.08 91.94 91.83 91.76 91.64 91.58 91.50 91.42 91.30 91.18 91.10 91.06 90.97 90.84 90.70 90.57 90.43 90.34 90.25 90.15 90.07 90.04 90.15 90.22 90.15 90.11 89.98 89.85 89.78 89.77 90.12 89.65 89.54 89.43 89.32 89.15 88.97 88.83 88.66 88.48 88.39 88.15 87.92 87.66 87.36
93.11 92.99 92.91 92.73 92.61 92.47 92.35 92.20 92.10 91.97 91.86 91.76 91.64 91.56 91.47 91.35 91.23 91.18 91.12 91.06 90.96 90.81 90.72 90.63 90.56 90.56 90.61 90.56 90.42 90.32 90.18 90.08 90.03 89.92 89.77 89.68 89.72 89.66 89.76 89.57 89.49 89.30 89.14 88.93 88.75 88.60 88.39 88.16 87.93 87.66 87.42 87.18
93.25 93.16 93.04 92.86 92.77 92.60 92.48 92.34 92.18 92.06 91.96 91.86 91.74 91.66 91.58 91.47 91.36 91.29 91.24 91.20 91.08 90.89 90.86 90.73 90.68 90.62 90.51 90.38 90.31 90.29 90.28 90.23 90.14 89.98 89.84 89.71 89.63 89.69 89.57 89.46 89.51 89.34 89.09 88.90 88.71 88.47 88.28 88.02 87.71 87.45 87.19 87.03
93.43 93.31 93.18 93.07 92.91 92.75 92.60 92.46 92.29 92.19 92.10 91.99 91.86 91.76 91.67 91.59 91.47 91.49 91.43 91.31 91.10 90.89 90.73 90.63 90.60 90.51 90.45 90.38 90.35 90.33 90.33 90.33 90.24 90.05 89.87 89.68 89.68 89.49 89.61 89.45 89.37 89.39 89.15 88.86 88.64 88.42 88.19 87.89 87.62 87.28 87.05 86.93
93.59 93.45 93.30 93.20 93.03 92.90 92.78 92.62 92.46 92.33 92.26 92.12 92.00 91.93 91.91 91.87 91.71 91.54 91.39 91.18 90.95 90.82 90.73 90.69 90.61 90.54 90.48 90.42 90.39 90.34 90.31 90.28 90.23 90.08 89.90 89.75 89.65 89.57 89.44 89.41 89.39 89.38 89.19 88.92 88.61 88.38 88.11 87.82 87.56 87.25 87.00 86.93
93.74 93.62 93.51 93.37 93.24 93.10 92.97 92.81 92.66 92.52 92.51 92.50 92.33 92.15 91.95 91.80 91.60 91.45 91.37 91.22 91.03 90.88 90.74 90.69 90.66 90.58 90.51 90.46 90.38 90.38 90.34 90.29 90.22 90.07 89.94 89.79 89.69 89.52 89.41 89.21 89.33 89.22 89.24 88.97 88.80 88.31 88.06 87.79 87.51 87.22 87.00 86.96
93.99 93.86 93.74 93.61 93.47 93.30 93.34 93.16 92.92 92.77 92.58 92.36 92.17 92.10 91.98 91.82 91.65 91.46 91.35 91.25 91.05 90.85 90.73 90.65 90.64 90.57 90.53 90.45 90.42 90.36 90.31 90.25 90.20 90.06 89.96 89.75 89.66 89.58 89.45 89.33 89.16 89.18 89.12 88.91 88.65 88.32 87.99 87.77 87.51 87.15 87.01 86.93
94.11 93.96 93.91 93.87 93.65 93.45 93.26 93.06 92.81 92.66 92.56 92.39 92.28 92.15 91.99 91.88 91.75 91.54 91.39 91.26 91.05 90.86 90.69 90.62 90.60 90.56 90.48 90.46 90.36 90.30 90.21 90.18 90.18 90.09 89.93 89.79 89.70 89.54 89.46 89.28 89.18 89.03 89.03 88.97 88.59 88.34 88.01 87.68 87.51 87.19 87.05 86.95
94.24 94.16 93.99 93.84 93.68 93.46 93.27 93.08 92.91 92.70 92.66 92.47 92.29 92.21 92.06 91.90 91.79 91.61 91.47 91.33 91.09 90.85 90.71 90.60 90.58 90.54 90.41 90.39 90.36 90.26 90.19 90.17 90.14 90.04 89.92 89.77 89.68 89.53 89.43 89.29 89.13 89.04 88.96 88.88 88.65 88.32 87.96 87.67 87.34 87.15 87.04 86.95
94.23 94.10 93.97 93.89 93.72 93.55 93.39 93.26 93.06 92.79 92.78 92.52 92.36 92.24 92.09 91.97 91.83 91.68 91.51 91.35 91.13 90.89 90.70 90.62 90.57 90.56 90.46 90.39 90.31 90.24 90.15 90.12 90.07 90.01 89.92 89.79 89.63 89.54 89.41 89.26 89.11 88.98 88.93 88.78 88.60 88.35 87.95 87.66 87.33 87.12 87.01 86.97
94.28 94.20 94.07 93.99 93.83 93.66 93.51 93.40 93.22 92.97 92.76 92.69 92.49 92.29 92.14 91.98 91.85 91.67 91.47 91.36 91.15 90.97 90.77 90.64 90.57 90.56 90.49 90.36 90.26 90.18 90.11 90.07 90.06 89.97 89.91 89.70 89.59 89.48 89.35 89.21 89.06 88.93 88.81 88.61 88.38 88.20 87.98 87.53 87.31 87.07 86.96 87.03
94.41 94.29 94.16 94.06 93.90 93.75 93.61 93.46 93.28 93.02 92.82 92.71 92.52 92.35 92.17 91.98 91.83 91.71 91.55 91.33 91.17 91.04 90.79 90.68 90.54 90.52 90.42 90.32 90.23 90.14 90.12 90.05 90.00 89.94 89.84 89.67 89.54 89.41 89.27 89.11 88.94 88.80 88.68 88.50 88.29 88.02 87.88 87.55 87.23 87.09 86.94 87.00
94.46 94.36 94.21 94.10 93.97 93.80 93.64 93.46 93.29 93.09 92.76 92.80 92.57 92.41 92.18 91.99 91.82 91.71 91.50 91.36 91.19 91.01 90.82 90.67 90.54 90.46 90.42 90.27 90.19 90.12 90.04 89.99 89.88 89.83 89.77 89.59 89.51 89.32 89.19 89.01 88.83 88.68 88.50 88.29 88.10 87.94 87.66 87.51 87.20 86.98 87.08 86.97
94.54 94.42 94.26 94.13 93.99 93.83 93.65 93.46 93.39 93.13 92.86 92.71 92.52 92.41 92.21 92.01 91.82 91.63 91.46 91.32 91.19 91.01 90.82 90.67 90.49 90.41 90.33 90.24 90.11 90.05 89.99 89.88 89.81 89.75 89.67 89.56 89.37 89.21 89.04 88.88 88.69 88.57 88.37 88.21 88.02 87.82 87.57 87.22 87.11 86.81 86.71 86.97
94.56 94.42 94.26 94.11 93.99 93.82 93.65 93.43 93.32 93.13 92.86 92.64 92.57 92.38 92.17 91.99 91.81 91.59 91.43 91.33 91.18 91.01 90.81 90.62 90.46 90.32 90.28 90.22 90.10 90.00 89.93 89.87 89.77 89.65 89.53 89.38 89.21 89.08 88.94 88.77 88.59 88.40 88.24 88.08 87.92 87.65 87.32 87.10 86.89 86.73 86.02 86.93
94.52 94.42 94.24 94.07 93.94 93.77 93.60 93.41 93.26 93.09 92.83 92.54 92.61 92.38 92.15 91.98 91.75 91.56 91.42 91.23 91.15 90.98 90.80 90.61 90.46 90.35 90.27 90.24 90.12 90.05 89.92 89.76 89.63 89.54 89.46 89.30 89.11 88.94 88.79 88.62 88.45 88.30 88.00 87.71 87.56 87.30 87.10 86.98 86.66 87.02 86.11 86.40
94.60 94.35 94.13 93.97 93.86 93.71 93.50 93.38 93.24 93.06 92.80 92.54 92.47 92.37 92.18 91.94 91.75 91.52 91.41 91.27 91.11 91.01 90.79 90.62 90.43 90.37 90.27 90.17 90.02 89.97 89.88 89.70 89.55 89.44 89.30 89.18 89.03 88.84 88.63 88.47 88.24 87.97 87.78 87.55 87.29 86.88 87.36 87.21 86.80 87.05 86.21 85.93
94.74 94.33 94.07 93.91 93.80 93.67 93.46 93.34 93.19 93.02 92.81 92.54 92.36 92.26 92.08 91.89 91.71 91.57 91.40 91.25 91.10 90.95 90.77 90.58 90.42 90.28 90.20 90.13 90.04 89.89 89.77 89.62 89.46 89.29 89.16 89.07 88.90 88.68 88.46 88.25 88.07 87.82 87.62 87.45 87.76 86.62 87.39 87.17 87.06 86.90 85.94 85.94
94.42 94.31 94.12 93.89 93.72 93.63 93.47 93.34 93.16 92.97 92.81 92.52 92.25 92.28 92.02 91.85 91.70 91.52 91.33 91.19 91.03 90.85 90.71 90.54 90.36 90.24 90.13 90.09 90.01 89.85 89.69 89.52 89.37 89.24 89.09 88.92 88.71 88.50 88.26 88.04 87.53 88.06 87.88 87.96 87.87 87.71 87.54 87.32 87.09 86.82 85.78 86.57
94.40 94.37 94.17 93.92 93.69 93.57 93.46 93.28 93.06 92.91 92.71 92.47 92.20 92.08 91.93 91.74 91.54 91.38 91.28 91.17 90.97 90.82 90.67 90.50 90.32 90.18 90.04 89.94 89.89 89.82 89.63 89.53 89.29 89.10 89.02 88.87 88.64 88.30 88.21 88.36 87.33 88.29 88.61 89.21 88.62 87.93 87.67 87.32 87.14 86.64 86.03 86.73
94.37 94.39 94.15 93.90 93.67 93.49 93.34 93.15 92.94 92.76 92.57 92.39 92.10 91.93 91.81 91.68 91.44 91.29 91.17 91.05 90.90 90.74 90.60 90.43 90.29 90.16 89.99 89.94 89.84 89.69 89.49 89.37 89.21 89.07 88.88 89.17 88.85 88.51 88.41 88.71 88.83 88.68 88.60 88.78 88.35 88.14 87.81 87.45 87.21 86.61 86.60 86.57
94.27 94.17 93.98 93.79 93.57 93.35 93.17 92.96 92.74 92.53 92.39 92.24 91.99 91.75 91.68 91.54 91.29 91.15 91.02 90.87 90.76 90.63 90.52 90.40 90.24 90.07 89.96 89.78 89.65 89.63 89.47 89.33 89.11 89.09 89.25 87.88 88.81 88.87 88.97 89.04 89.00 89.09 89.07 88.88 88.49 88.17 87.80 87.62 87.14 86.60 86.81 87.24
94.14 93.81 93.76 93.65 93.41 93.25 92.99 92.82 92.59 92.33 92.16 92.07 91.87 91.57 91.56 91.38 91.19 91.00 90.90 90.70 90.61 90.47 90.32 90.25 90.09 89.96 89.88 89.78 89.71 89.52 88.95 89.56 89.18 88.97 89.49 89.21 89.07 89.09 89.13 89.21 89.28 89.39 88.99 88.87 88.78 88.23 87.85 87.47 86.97 86.70 86.60 87.33
93.88 93.72 93.78 93.49 93.29 93.04 92.84 92.63 92.36 92.12 91.93 91.81 91.68 91.48 91.41 91.20 91.01 90.85 90.69 90.60 90.51 90.43 90.33 90.22 90.10 89.94 89.82 89.37 89.63 89.75 88.54 89.19 89.67 89.77 89.71 89.49 89.40 89.49 89.62 89.13 89.44 89.27 89.18 88.96 88.79 88.28 87.89 87.62 86.96 86.67 86.96 87.47
93.68 93.57 93.65 93.30 93.10 92.85 92.66 92.46 92.18 91.93 91.75 91.63 91.48 91.40 91.27 91.07 90.93 90.81 90.65 90.54 90.15 90.24 90.42 90.46 90.31 90.03 89.88 89.08 89.58 89.49 89.74 89.51 89.69 89.69 89.95 89.74 89.72 89.72 89.65 89.41 89.22 89.46 89.42 88.83 88.50 88.15 87.94 87.74 87.13 86.74 87.21 87.58
93.51 93.51 93.20 93.05 92.91 92.73 92.47 92.25 92.07 91.87 91.76 91.67 91.52 91.09 91.38 91.12 91.22 91.14 90.99 90.30 89.71 89.87 89.71 89.72 89.78 89.79 89.86 89.85 90.00 89.90 89.81 89.76 89.78 89.76 89.85 90.19 90.64 89.94 89.58 89.51 89.30 89.26 89.19 88.75 88.40 88.04 87.84 87.04 86.55 86.96 87.44 87.73
93.44 93.36 93.24 93.24 92.88 92.75 92.56 91.99 91.99 92.07 91.99 91.82 91.32 91.21 90.56 90.40 90.40 90.38 90.32 90.26 90.19 90.14 90.07 90.07 90.10 90.11 90.06 90.07 90.15 90.10 90.05 89.99 90.00 89.99 89.96 90.08 90.29 90.18 89.58 89.54 89.43 89.23 89.11 88.78 88.28 87.93 87.75 87.37 86.90 87.01 87.40 87.72
93.29 92.87 93.19 93.14 93.00 92.78 91.87 91.42 91.52 91.40 91.31 91.21 91.14 91.07 90.94 90.88 90.77 90.67 90.61 90.54 90.48 90.43 90.40 90.40 90.37 90.37 90.37 90.36 90.33 90.44 90.26 90.19 90.19 90.04 90.08 89.99 90.35 90.17 90.01 89.46 89.38 89.22 89.00 88.71 88.31 87.73 87.67 87.04 86.93 87.08 87.32 87.73
92.56 92.69 92.79 92.69 92.56 92.35 92.16 92.04 91.93 91.79 91.69 91.50 91.41 91.31 91.22 91.11 91.06 90.96 90.88 90.82 90.76 90.67 90.64 90.62 90.60 90.56 90.55 90.51 90.48 90.43 90.40 90.29 90.21 90.11 90.00 89.93 89.95 90.27 90.41 89.90 89.32 89.14 88.63 88.33 88.20 87.99 87.40 87.06 86.97 87.18 87.32 87.80
93.31 93.23 93.23 92.98 93.00 92.62 92.47 92.34 92.24 92.12 91.97 91.81 91.66 91.52 91.44 91.33 91.28 91.22 91.12 91.06 91.00 90.89 90.83 90.81 90.81 90.74 90.72 90.62 90.64 90.56 90.49 90.33 90.22 90.14 90.00 89.82 89.77 89.84 89.88 89.58 89.12 88.99 88.29 87.90 87.48 87.94 87.37 87.19 87.17 87.15 87.49 87.96
93.54 93.40 93.31 93.19 93.14 92.77 92.65 92.47 92.42 92.33 92.19 92.03 91.86 91.72 91.63 91.54 91.46 91.40 91.32 91.24 91.16 91.10 91.05 90.98 90.90 90.88 90.84 90.72 90.68 90.68 90.71 90.40 90.21 90.10 89.92 89.75 89.67 89.58 88.99 88.90 89.22 88.51 88.07 87.10 87.35 87.65 87.50 87.38 87.66 87.52 87.85 88.32
93.75 93.60 93.52 93.39 93.16 92.96 92.90 92.73 92.66 92.49 92.37 92.22 92.08 91.96 91.85 91.80 91.69 91.57 91.49 91.42 91.31 91.17 91.12 91.06 91.03 90.95 90.88 90.77 90.64 90.68 90.61 90.43 90.25 90.03 89.85 89.65 89.49 89.18 89.10 88.82 88.69 88.16 87.81 87.62 87.74 87.53 87.71 88.12 88.19 88.02 88.20 88.60
94.00 93.83 93.75 93.63 93.52 93.46 93.30 93.06 92.91 92.70 92.53 92.40 92.29 92.16 92.04 91.96 91.88 91.77 91.65 91.51 91.38 91.24 91.14 91.10 91.07 91.03 90.93 90.83 90.73 90.67 90.66 90.52 90.28 90.03 89.82 89.54 89.31 89.03 88.71 88.59 88.53 87.59 87.95 87.59 87.65 87.67 87.96 88.54 88.69 88.40 89.19 88.48
94.19 94.05 93.93 93.80 93.75 93.81 93.45 93.28 93.08 92.86 92.69 92.56 92.44 92.28 92.21 92.13 92.01 91.90 91.76 91.62 91.47 91.30 91.18 91.15 91.13 91.06 90.98 90.90 90.81 90.69 90.71 90.82 90.32 90.01 89.84 89.37 89.06 88.93 88.72 88.44 87.77 87.68 87.72 87.67 87.87 87.98 88.22 88.57 88.95 88.97 88.81 88.81
94.33 94.24 94.09 93.98 93.90 93.70 93.62 93.46 93.24 93.06 92.83 92.70 92.56 92.43 92.33 92.23 92.14 91.99 91.84 91.68 91.54 91.40 91.32 91.21 91.20 91.10 91.03 90.94 90.84 90.74 90.66 90.48 90.38 90.04 89.78 89.46 89.02 88.93 88.66 88.29 87.89 87.79 87.69 87.00 88.00 88.29 88.60 89.35 89.19 89.17 88.98 88.76
94.47 94.35 94.22 94.11 94.01 93.78 93.89 93.68 93.37 93.21 93.03 92.85 92.66 92.51 92.44 92.33 92.23 92.03 91.89 91.76 91.62 91.49 91.36 91.29 91.20 91.14 91.07 90.97 90.82 90.67 90.55 90.48 90.33 90.10 89.79 89.45 89.14 88.92 88.56 88.04 87.88 87.78 87.81 87.99 88.28 89.01 89.01 89.75 89.33 89.21 89.25 88.12
94.55 94.46 94.33 94.22 94.10 93.99 94.01 93.72 93.47 93.33 93.14 92.97 92.76 92.65 92.52 92.39 92.25 92.10 91.96 91.81 91.69 91.53 91.43 91.31 91.22 91.15 91.09 90.96 90.81 90.64 90.58 90.51 90.39 90.04 89.76 89.42 89.15 88.83 88.37 88.15 87.99 87.88 87.41 88.20 88.66 89.01 89.82 89.70 89.65 89.40 89.85 90.37
94.68 94.56 94.46 94.31 94.17 94.07 93.92 93.72 93.54 93.34 93.19 93.05 92.91 92.77 92.61 92.46 92.27 92.11 91.93 91.79 91.68 91.53 91.44 91.31 91.23 91.17 91.07 90.95 90.82 90.70 90.60 90.40 90.15 89.93 89.65 89.42 89.07 88.81 88.38 88.27 88.04 87.90 88.11 88.43 88.78 89.26 89.68 89.65 89.90 89.91 90.72 90.80
94.79 94.65 94.55 94.35 94.25 94.10 93.88 93.87 93.61 93.44 93.20 93.04 92.93 92.80 92.63 92.43 92.22 92.07 91.90 91.77 91.63 91.56 91.48 91.39 91.27 91.20 91.11 91.03 90.95 90.85 90.73 90.50 89.98 89.81 89.52 89.28 88.99 88.40 88.43 88.27 88.16 88.14 88.18 88.51 89.04 89.43 89.87 89.91 90.43 90.12 89.85 92.07
