ncols 52
nrows 52
xllcorner 437760
yllcorner 5716480
cellsize 10
NODATA_value -9999
90.95 90.92 90.91 90.93 91.03 90.95 90.84 90.57 90.43 90.31 90.25 90.13 89.99 89.88 89.69 89.55 89.42 89.29 89.21 89.07 88.92 88.79 88.63 88.47 88.33 88.19 88.06 88.00 87.88 87.65 87.44 87.25 87.22 87.21 87.15 87.08 87.06 87.07 87.02 86.98 86.90 86.85 86.81 86.72 86.65 86.54 86.38 86.21 85.83 85.39 84.92 84.54
91.16 91.28 91.30 91.21 91.01 90.87 90.77 90.65 90.55 90.43 90.35 90.22 90.07 89.93 89.76 89.60 89.45 89.32 89.15 89.08 88.94 88.79 88.63 88.48 88.36 88.18 88.05 87.95 87.85 87.65 87.42 87.24 87.16 87.16 87.13 87.04 87.01 87.00 86.97 86.90 86.82 86.76 86.73 86.67 86.57 86.50 86.34 86.20 85.96 85.46 84.93 84.56
91.48 91.36 91.26 91.17 91.06 90.99 90.95 90.83 90.67 90.54 90.43 90.30 90.13 89.97 89.78 89.57 89.46 89.28 89.17 89.05 88.96 88.79 88.64 88.47 88.32 88.14 87.98 87.88 87.79 87.65 87.42 87.23 87.15 87.13 87.12 87.06 86.98 86.94 86.90 86.85 86.76 86.69 86.65 86.58 86.53 86.42 86.31 86.14 85.92 85.52 85.04 84.56
91.40 91.35 91.33 91.32 91.24 91.14 91.07 90.97 90.81 90.65 90.50 90.33 90.15 89.94 89.78 89.61 89.44 89.30 89.16 89.04 88.93 88.79 88.63 88.45 88.27 88.11 87.97 87.83 87.74 87.62 87.43 87.24 87.13 87.09 87.12 87.03 86.95 86.89 86.85 86.78 86.72 86.63 86.55 86.51 86.40 86.34 86.20 86.03 85.88 85.68 85.00 84.61
91.56 91.54 91.49 91.43 91.33 91.27 91.13 91.04 90.88 90.71 90.55 90.36 90.14 89.96 89.79 89.61 89.44 89.33 89.18 89.06 88.93 88.79 88.61 88.44 88.26 88.10 87.94 87.81 87.69 87.56 87.42 87.24 87.10 87.07 87.09 87.06 86.92 86.87 86.79 86.73 86.65 86.56 86.48 86.39 86.31 86.23 86.09 85.96 85.75 85.54 85.02 84.57
91.72 91.67 91.63 91.54 91.44 91.31 91.14 90.97 90.85 90.65 90.54 90.35 90.16 89.96 89.81 89.65 89.46 89.31 89.18 89.02 88.92 88.78 88.61 88.43 88.25 88.09 87.95 87.78 87.62 87.50 87.37 87.24 87.11 87.04 87.04 87.02 86.90 86.81 86.76 86.64 86.56 86.46 86.36 86.28 86.19 86.08 85.96 85.82 85.62 85.44 85.22 84.54
91.89 91.84 91.78 91.68 91.56 91.39 91.15 90.94 90.80 90.64 90.49 90.36 90.19 89.99 89.82 89.65 89.49 89.33 89.22 89.04 88.90 88.79 88.64 88.45 88.25 88.10 87.94 87.77 87.60 87.43 87.32 87.19 87.09 87.01 86.97 86.99 86.88 86.76 86.65 86.56 86.43 86.35 86.26 86.14 86.03 85.92 85.78 85.61 85.43 85.29 85.10 84.38
92.02 91.97 91.86 91.79 91.60 91.44 91.15 90.93 90.77 90.62 90.46 90.32 90.18 90.01 89.83 89.68 89.51 89.36 89.21 89.06 88.90 88.76 88.61 88.40 88.21 88.04 87.91 87.75 87.53 87.37 87.23 87.16 87.07 86.99 86.92 86.90 86.85 86.67 86.56 86.43 86.29 86.20 86.10 85.97 85.84 85.71 85.61 85.46 85.31 85.07 84.85 84.58
92.01 91.96 91.87 91.73 91.59 91.40 91.16 90.92 90.75 90.62 90.44 90.31 90.19 90.03 89.85 89.67 89.49 89.33 89.15 89.00 88.84 88.68 88.53 88.36 88.15 87.98 87.85 87.67 87.48 87.29 87.18 87.10 87.01 86.92 86.86 86.83 86.77 86.63 86.42 86.26 86.09 85.97 85.88 85.77 85.68 85.52 85.41 85.37 85.30 85.15 84.60 84.35
92.01 91.90 91.80 91.66 91.50 91.34 91.15 90.89 90.71 90.59 90.46 90.28 90.14 89.97 89.77 89.60 89.41 89.26 89.12 88.95 88.80 88.64 88.46 88.31 88.08 87.92 87.77 87.64 87.44 87.25 87.08 87.00 86.93 86.88 86.78 86.71 86.65 86.50 86.24 86.04 85.90 85.74 85.61 85.54 85.50 85.43 85.39 85.17 83.94 83.50 84.36 84.60
92.00 91.90 91.76 91.62 91.46 91.30 91.12 90.93 90.71 90.60 90.44 90.25 90.10 89.93 89.75 89.51 89.36 89.17 89.06 88.90 88.76 88.57 88.44 88.26 88.09 87.90 87.74 87.58 87.41 87.22 87.04 86.91 86.85 86.76 86.67 86.56 86.49 86.34 86.10 85.83 85.60 85.43 85.28 85.33 85.41 83.91 83.71 83.69 84.31 84.64 84.73 84.74
92.04 91.90 91.76 91.58 91.44 91.29 91.10 90.89 90.70 90.55 90.40 90.24 90.05 89.90 89.71 89.51 89.33 89.16 89.02 88.88 88.73 88.57 88.38 88.23 88.05 87.86 87.69 87.54 87.37 87.19 86.97 86.81 86.71 86.62 86.53 86.42 86.31 86.21 85.96 85.67 85.43 85.17 84.88 84.35 84.42 84.99 85.14 85.49 85.25 85.02 85.01 84.90
92.03 91.88 91.72 91.57 91.42 91.29 91.07 90.92 90.69 90.54 90.40 90.22 90.06 89.89 89.69 89.49 89.30 89.15 89.00 88.86 88.69 88.51 88.33 88.18 88.02 87.81 87.63 87.47 87.28 87.09 86.85 86.68 86.58 86.51 86.39 86.23 86.13 86.05 85.85 85.60 84.30 84.64 84.80 85.07 85.02 85.28 85.35 85.18 85.29 85.27 85.25 84.83
92.04 91.88 91.71 91.54 91.42 91.23 91.08 90.87 90.70 90.48 90.37 90.24 90.07 89.88 89.70 89.50 89.32 89.14 88.95 88.81 88.61 88.44 88.21 88.07 87.91 87.75 87.51 87.32 87.15 86.95 86.75 86.55 86.42 86.37 86.30 86.22 86.17 85.14 85.10 84.90 84.98 85.16 85.43 85.54 85.42 85.38 85.54 85.61 85.51 85.55 85.25 84.71
92.02 91.85 91.70 91.52 91.40 91.22 91.04 90.85 90.71 90.52 90.35 90.24 90.06 89.89 89.68 89.48 89.29 89.10 88.90 88.71 88.54 88.34 88.12 87.92 87.76 87.59 87.40 87.16 86.98 86.76 86.53 86.38 86.37 86.41 86.24 85.32 85.38 85.25 85.29 85.65 85.94 85.97 86.00 86.06 85.80 85.71 85.66 85.67 85.96 85.79 85.52 85.24
91.99 91.86 91.68 91.51 91.34 91.21 91.02 90.85 90.66 90.52 90.33 90.19 90.04 89.88 89.67 89.43 89.25 89.09 88.86 88.64 88.42 88.19 87.92 87.73 87.59 87.38 87.20 87.04 86.84 86.65 86.45 86.29 85.39 85.65 85.50 85.49 85.58 85.86 86.27 86.42 86.51 86.56 86.53 86.43 86.18 86.07 86.10 86.15 86.10 86.06 85.99 85.82
91.97 91.83 91.65 91.48 91.32 91.16 91.01 90.84 90.66 90.50 90.32 90.18 90.03 89.85 89.63 89.41 89.21 89.00 88.77 88.48 88.24 88.00 87.77 87.58 87.28 86.73 86.43 86.26 86.31 86.28 86.29 86.00 85.84 85.92 85.83 86.12 86.44 86.62 86.69 86.68 86.70 86.68 86.64 86.60 86.54 86.47 86.56 86.50 86.54 86.51 86.39 86.24
91.96 91.81 91.64 91.45 91.28 91.13 90.97 90.79 90.65 90.46 90.30 90.10 89.97 89.81 89.57 89.35 89.11 88.85 88.56 88.35 88.08 87.85 87.08 87.38 87.37 87.26 87.14 87.10 87.09 86.34 86.66 86.57 86.53 86.38 86.11 86.52 86.75 86.79 86.78 86.84 86.83 86.76 86.80 86.76 86.87 86.59 86.72 86.74 86.68 86.58 86.60 86.43
91.88 91.74 91.57 91.39 91.24 91.08 90.93 90.74 90.57 90.43 90.26 90.04 89.87 89.68 89.45 89.24 89.00 88.73 88.45 88.01 87.68 87.76 87.70 87.68 87.58 87.46 87.34 87.24 87.33 87.13 86.88 86.76 86.64 86.47 86.25 86.59 86.83 86.85 86.92 86.97 86.91 86.95 86.92 86.93 86.93 86.77 86.78 86.79 86.76 86.70 86.65 86.54
91.85 91.67 91.49 91.32 91.18 91.01 90.83 90.65 90.49 90.31 90.15 89.92 89.72 89.51 89.32 89.11 88.91 88.22 88.27 88.21 88.14 88.00 87.90 87.89 87.82 87.68 87.57 87.44 87.33 87.24 86.94 86.85 86.71 86.58 86.37 86.73 86.91 86.95 87.07 86.97 86.87 87.02 87.09 87.04 87.04 86.98 86.82 86.85 86.87 86.76 86.72 86.53
91.79 91.59 91.34 91.17 91.01 90.89 90.71 90.51 90.31 90.16 89.97 89.80 89.59 89.39 89.14 88.28 88.56 88.59 88.56 88.43 88.31 88.22 88.15 88.04 87.98 87.82 87.68 87.53 87.34 87.34 86.94 86.90 86.79 86.54 86.50 86.88 86.97 86.92 87.18 87.00 87.08 87.15 87.21 87.22 87.17 87.23 86.97 86.78 86.85 86.81 86.72 86.64
91.69 91.48 91.23 91.04 90.92 90.77 90.63 90.40 90.26 90.02 89.88 89.71 89.32 88.94 89.20 89.11 88.97 88.89 88.77 88.64 88.49 88.41 88.28 88.19 88.03 87.90 87.78 87.60 87.41 87.35 87.32 86.99 86.76 86.66 86.74 87.08 87.13 87.29 87.27 87.37 87.33 87.39 87.39 87.35 87.23 87.10 86.91 86.82 86.82 86.77 86.68 86.58
91.57 91.35 91.18 91.09 90.99 90.85 90.72 90.60 90.46 90.22 89.84 89.60 89.57 89.51 89.42 89.33 89.24 89.14 88.95 88.80 88.65 88.51 88.40 88.26 88.05 87.99 87.82 87.68 87.49 87.33 87.26 86.86 87.03 87.07 87.11 87.21 87.32 87.37 87.37 87.37 87.39 87.42 87.40 87.32 87.24 87.16 86.99 86.82 86.73 86.67 86.54 86.48
91.51 91.41 91.29 91.22 91.13 91.00 90.90 90.80 90.57 90.13 90.10 90.00 89.82 89.78 89.68 89.57 89.44 89.28 89.07 88.90 88.74 88.63 88.46 88.30 88.19 88.05 87.89 87.71 87.53 87.35 87.23 87.20 87.08 87.04 87.10 87.23 87.28 87.43 87.47 87.50 87.49 87.46 87.39 87.33 87.25 87.17 87.03 86.82 86.67 86.48 86.35 86.32
91.67 91.52 91.46 91.40 91.29 91.17 90.99 90.74 90.58 90.39 90.28 90.20 90.09 89.96 89.83 89.69 89.55 89.36 89.15 89.00 88.82 88.66 88.50 88.36 88.24 88.07 87.93 87.76 87.53 87.28 87.37 87.25 87.21 87.18 87.24 87.34 87.44 87.52 87.57 87.57 87.52 87.46 87.44 87.36 87.25 87.15 87.02 86.82 86.58 86.35 86.22 86.15
91.76 91.68 91.59 91.49 91.31 91.29 91.08 90.80 90.73 90.63 90.47 90.40 90.28 90.10 89.96 89.81 89.63 89.43 89.26 89.08 88.88 88.72 88.56 88.43 88.27 88.12 87.92 87.72 87.46 87.53 87.49 87.44 87.38 87.37 87.39 87.47 87.53 87.62 87.59 87.55 87.52 87.51 87.45 87.36 87.28 87.12 86.99 86.77 86.50 86.32 86.17 86.07
91.89 91.69 91.63 91.67 91.38 91.25 91.10 91.10 90.87 90.79 90.72 90.52 90.38 90.23 90.08 89.89 89.69 89.50 89.31 89.11 88.94 88.78 88.62 88.43 88.33 88.12 87.89 87.63 87.60 87.62 87.62 87.61 87.59 87.54 87.56 87.60 87.65 87.65 87.61 87.51 87.49 87.47 87.43 87.37 87.21 87.04 86.89 86.72 86.50 86.30 86.12 85.95
92.03 91.90 91.66 91.53 91.40 91.30 91.17 91.10 91.00 90.88 90.84 90.69 90.49 90.35 90.17 89.97 89.75 89.52 89.31 89.13 88.99 88.82 88.65 88.50 88.31 88.08 87.83 87.73 87.81 87.79 87.76 87.75 87.75 87.71 87.71 87.71 87.71 87.70 87.62 87.50 87.45 87.41 87.38 87.31 87.18 87.01 86.82 86.68 86.49 86.24 86.06 85.94
92.01 91.81 91.65 91.45 91.37 91.33 91.26 91.17 91.04 90.97 90.83 90.79 90.53 90.40 90.25 90.04 89.81 89.53 89.27 89.13 88.99 88.85 88.70 88.50 88.27 88.02 87.82 87.95 87.94 87.92 87.87 87.88 87.88 87.83 87.82 87.80 87.80 87.74 87.67 87.51 87.43 87.33 87.30 87.22 87.14 86.98 86.80 86.66 86.47 86.21 86.01 85.94
91.86 91.72 91.69 91.50 91.44 91.34 91.29 91.20 91.07 90.98 90.89 90.71 90.65 90.48 90.28 90.12 89.87 89.58 89.29 89.19 89.07 88.90 88.70 88.46 88.20 87.85 88.09 88.07 88.06 88.02 88.01 87.99 87.99 87.93 87.91 87.88 87.85 87.83 87.70 87.52 87.36 87.29 87.21 87.19 87.08 86.97 86.82 86.66 86.50 86.24 86.06 86.03
91.83 91.85 91.62 91.81 91.50 91.33 91.29 91.18 91.06 90.96 90.84 90.73 90.53 90.46 90.29 90.06 89.89 89.65 89.47 89.29 89.11 88.92 88.68 88.40 88.07 88.30 88.28 88.25 88.22 88.19 88.15 88.11 88.10 88.06 88.01 87.97 87.93 87.86 87.73 87.51 87.38 87.30 87.23 87.15 87.07 87.00 86.85 86.71 86.53 86.33 86.15 86.14
91.88 91.70 91.72 91.48 91.68 91.36 91.24 91.07 90.99 90.89 90.80 90.63 90.51 90.33 90.26 90.06 89.83 89.71 89.53 89.31 89.14 88.89 88.60 88.35 88.46 88.52 88.36 88.45 88.36 88.31 88.26 88.21 88.16 88.10 88.06 88.03 87.96 87.89 87.71 87.53 87.42 87.31 87.25 87.18 87.11 87.01 86.90 86.75 86.57 86.38 86.27 86.21
91.84 91.75 91.62 91.67 91.40 91.59 91.24 91.00 90.86 90.79 90.70 90.59 90.43 90.33 90.12 90.03 89.82 89.65 89.50 89.32 89.08 88.79 88.51 88.61 88.55 88.50 88.54 88.46 88.50 88.31 88.33 88.28 88.21 88.09 88.06 88.01 87.97 87.89 87.75 87.58 87.44 87.36 87.25 87.18 87.11 87.00 86.91 86.76 86.58 86.40 86.37 86.08
91.90 91.79 91.65 91.45 91.52 91.25 91.53 91.02 90.82 90.67 90.57 90.49 90.38 90.21 90.12 89.89 89.85 89.72 89.46 89.24 88.96 88.68 88.70 88.70 88.60 88.58 88.59 88.60 88.51 88.52 88.43 88.36 88.23 88.12 88.04 88.02 87.97 87.93 87.79 87.60 87.52 87.39 87.29 87.19 87.09 87.00 86.85 86.70 86.51 86.51 86.53 86.13
91.86 91.74 91.63 91.47 91.29 91.31 91.12 91.18 90.85 90.62 90.47 90.39 90.26 90.14 89.98 89.87 89.69 89.67 89.43 89.10 88.87 88.63 88.81 88.78 88.77 88.74 88.67 88.65 88.62 88.52 88.50 88.34 88.30 88.19 88.08 88.02 88.00 87.95 87.81 87.66 87.54 87.44 87.32 87.19 87.14 87.01 86.85 86.67 86.60 86.40 86.79 86.11
91.80 91.71 91.57 91.45 91.34 91.16 91.18 91.01 91.07 90.67 90.44 90.29 90.17 90.03 89.91 89.77 89.61 89.46 89.41 89.05 88.66 88.86 88.91 88.89 88.88 88.86 88.76 88.71 88.61 88.58 88.49 88.49 88.38 88.24 88.16 88.08 88.03 87.95 87.83 87.65 87.57 87.48 87.39 87.28 87.17 87.02 86.85 86.76 86.78 86.16 86.59 86.71
91.75 91.60 91.51 91.44 91.34 91.21 91.01 91.07 90.87 90.90 90.48 90.25 90.08 89.95 89.83 89.70 89.58 89.51 89.35 88.78 88.96 88.99 89.03 89.03 89.04 88.93 88.85 88.77 88.67 88.55 88.57 88.46 88.46 88.28 88.20 88.10 87.99 87.94 87.84 87.69 87.61 87.51 87.42 87.29 87.15 87.07 86.95 86.84 86.58 86.58 86.68 86.74
91.76 91.60 91.49 91.43 91.32 91.18 91.03 90.90 90.93 90.72 90.72 90.26 90.07 89.94 89.79 89.64 89.62 89.57 88.96 89.04 89.10 89.15 89.16 89.17 89.12 89.05 88.96 88.82 88.72 88.61 88.54 88.51 88.43 88.36 88.21 88.07 88.00 87.94 87.85 87.75 87.63 87.56 87.43 87.30 87.22 87.10 86.75 86.68 86.71 86.80 86.87 86.89
91.75 91.62 91.49 91.43 91.34 91.19 91.07 90.94 90.81 90.81 90.61 90.45 90.13 89.98 89.83 89.71 89.71 89.36 89.20 89.15 89.19 89.28 89.29 89.28 89.20 89.13 89.03 88.93 88.80 88.68 88.61 88.50 88.48 88.34 88.31 88.09 88.01 87.91 87.84 87.74 87.66 87.55 87.44 87.34 87.22 86.46 86.79 86.80 86.90 86.97 87.05 87.02
91.82 91.69 91.59 91.47 91.33 91.24 91.10 90.97 90.85 90.75 90.67 90.24 90.14 90.08 89.90 89.85 89.65 89.33 89.23 89.25 89.30 89.35 89.33 89.32 89.27 89.20 89.10 89.03 88.90 88.79 88.68 88.59 88.48 88.44 88.22 88.21 88.00 87.91 87.81 87.68 87.62 87.55 87.46 87.40 86.51 86.91 86.92 87.04 87.11 87.13 87.18 87.12
91.86 91.75 91.66 91.51 91.41 91.30 91.14 90.98 90.84 90.75 90.58 90.42 90.13 89.99 90.00 89.95 89.49 89.42 89.32 89.32 89.36 89.34 89.33 89.32 89.26 89.21 89.14 89.06 88.98 88.89 88.74 88.65 88.54 88.39 88.33 88.12 88.09 87.90 87.76 87.66 87.58 87.55 87.55 86.99 87.07 87.06 87.15 87.23 87.28 87.27 87.23 87.21
91.94 91.81 91.71 91.53 91.42 91.35 91.19 91.01 90.83 90.69 90.54 90.34 90.28 90.07 89.85 89.68 89.58 89.51 89.48 89.44 89.39 89.33 89.31 89.31 89.26 89.22 89.15 89.10 89.00 88.90 88.83 88.71 88.57 88.43 88.25 88.19 87.95 87.92 87.68 87.60 87.56 87.54 87.10 87.15 87.20 87.28 87.36 87.36 87.41 87.38 87.34 87.27
91.99 91.88 91.77 91.64 91.53 91.39 91.26 91.03 90.88 90.73 90.54 90.38 90.28 90.25 90.07 89.79 89.81 89.64 89.64 89.51 89.43 89.32 89.29 89.32 89.30 89.24 89.15 89.08 89.02 88.94 88.84 88.73 88.61 88.46 88.26 88.09 87.99 87.85 87.78 87.68 87.60 87.17 87.27 87.33 87.42 87.48 87.47 87.47 87.44 87.46 87.43 87.36
92.04 91.94 91.84 91.70 91.56 91.45 91.31 91.14 90.98 90.81 90.63 90.48 90.38 90.24 90.21 90.03 89.80 89.82 89.66 89.60 89.49 89.37 89.35 89.37 89.34 89.26 89.17 89.10 89.04 88.94 88.84 88.75 88.62 88.46 88.27 88.04 88.07 88.07 87.89 87.80 87.33 87.33 87.43 87.52 87.59 87.62 87.60 87.54 87.50 87.46 87.46 87.40
92.08 91.97 91.86 91.74 91.60 91.50 91.35 91.20 91.03 90.85 90.70 90.56 90.45 90.35 90.24 90.19 90.09 89.82 89.88 89.75 89.57 89.47 89.44 89.43 89.38 89.31 89.21 89.11 89.05 88.97 88.86 88.74 88.60 88.44 88.26 88.20 88.18 88.13 88.03 87.48 87.43 87.50 87.63 87.68 87.76 87.74 87.73 87.68 87.60 87.52 87.47 87.44
92.14 92.02 91.91 91.76 91.67 91.54 91.40 91.21 90.99 90.83 90.72 90.61 90.49 90.35 90.22 90.01 90.04 90.03 89.90 89.77 89.68 89.53 89.51 89.46 89.44 89.34 89.25 89.15 89.04 88.97 88.87 88.74 88.62 88.48 88.39 88.32 88.27 87.76 87.57 87.62 87.64 87.68 87.78 87.85 87.87 87.88 87.85 87.82 87.73 87.64 87.56 87.50
92.17 92.04 91.93 91.79 91.67 91.56 91.40 91.21 91.04 90.88 90.74 90.52 90.55 90.43 90.33 90.23 90.15 90.10 89.93 89.86 89.74 89.65 89.53 89.46 89.45 89.36 89.29 89.16 89.05 88.92 88.82 88.72 88.67 88.58 88.50 88.44 87.94 87.74 87.66 87.68 87.78 87.94 87.95 87.98 87.97 87.96 87.97 87.92 87.87 87.79 87.71 87.64
92.17 92.06 91.96 91.81 91.69 91.57 91.41 91.15 91.15 91.02 90.90 90.76 90.63 90.41 90.33 90.21 90.07 90.04 89.92 89.89 89.86 89.71 89.53 89.45 89.34 89.37 89.26 89.15 88.98 88.87 88.76 88.76 88.73 88.63 88.54 88.09 87.85 87.76 87.69 87.75 87.93 88.02 88.12 88.08 88.06 88.06 88.04 88.02 87.93 87.88 87.78 87.72
92.22 92.12 92.00 91.80 91.74 91.64 91.50 91.37 91.26 91.05 90.98 90.82 90.61 90.48 90.32 90.22 90.13 90.07 89.96 89.94 89.82 89.92 89.74 89.51 89.41 89.31 89.25 89.11 88.96 88.88 88.83 88.86 88.76 88.77 88.19 88.00 87.88 87.78 87.83 87.93 88.02 88.16 88.18 88.22 88.16 88.14 88.14 88.11 88.04 87.92 87.85 87.78
92.27 92.21 92.06 91.96 91.83 91.63 91.53 91.38 91.25 91.15 91.00 90.88 90.73 90.54 90.39 90.30 90.21 90.10 89.96 89.80 89.89 89.82 89.85 89.74 89.56 89.33 89.19 89.08 89.02 88.98 88.99 88.90 89.02 88.35 88.18 88.02 88.00 88.01 88.03 88.11 88.19 88.20 88.26 88.26 88.32 88.25 88.23 88.19 88.11 88.04 87.92 87.89
92.34 92.19 92.06 91.93 91.79 91.62 91.51 91.40 91.26 91.14 91.05 90.95 90.77 90.64 90.46 90.36 90.25 90.15 90.07 89.92 89.78 89.96 89.83 89.81 89.71 89.43 89.22 89.13 89.11 89.07 89.04 89.06 88.47 88.31 88.26 88.23 88.17 88.20 88.21 88.28 88.34 88.31 88.28 88.31 88.35 88.37 88.29 88.24 88.18 88.10 88.03 87.98
92.39 92.16 92.06 91.90 91.76 91.64 91.50 91.40 91.25 91.13 90.96 90.88 90.75 90.63 90.53 90.40 90.32 90.25 90.14 90.04 89.93 89.83 89.93 89.78 89.86 89.63 89.40 89.21 89.14 89.15 88.92 88.60 88.55 88.44 88.45 88.40 88.38 88.32 88.38 88.40 88.44 88.43 88.40 88.34 88.39 88.38 88.37 88.29 88.24 88.17 88.07 88.03
