ncols 52
nrows 52
xllcorner 437760
yllcorner 5714432
cellsize 10
NODATA_value -9999
96.03 95.96 96.03 95.91 96.07 96.16 96.08 96.15 96.19 96.20 96.12 96.16 96.16 95.94 95.77 95.78 95.83 96.08 96.18 96.38 96.48 96.34 96.30 96.40 96.57 96.36 96.47 96.96 97.03 97.12 97.04 97.27 97.43 97.72 97.89 98.49 98.76 98.58 99.09 99.57 99.79 99.63 99.72 100.90 100.82 100.97 101.12 101.46 101.25 101.14 101.43 101.71
95.94 95.95 95.93 96.03 95.88 96.10 96.14 96.20 96.15 96.17 96.16 96.17 96.17 96.07 95.86 95.75 95.75 95.83 95.83 96.05 96.21 96.21 96.26 96.33 96.47 96.51 96.49 96.68 97.00 97.02 97.17 97.27 97.29 98.03 98.62 98.86 98.65 98.44 99.37 99.61 99.60 99.67 99.72 100.56 100.88 100.85 101.07 101.20 101.34 101.53 101.90 101.79
95.92 95.98 95.99 95.92 96.06 95.93 96.00 96.18 96.20 96.16 96.08 96.18 96.15 96.08 96.04 96.04 95.71 95.69 95.76 95.66 95.89 96.10 96.31 96.32 96.42 96.43 96.94 96.70 96.79 97.14 97.32 97.45 97.46 98.56 98.79 98.82 98.69 98.87 99.38 99.45 99.63 99.83 100.00 100.57 101.10 100.87 101.26 101.30 101.39 101.57 101.73 101.83
95.85 95.90 95.96 95.97 95.87 96.04 95.92 96.06 96.14 96.13 96.10 96.11 96.13 96.12 96.13 96.02 95.92 95.75 95.68 95.83 95.67 95.86 96.20 96.31 96.36 96.40 96.83 97.02 96.97 96.99 97.29 97.72 97.89 98.57 98.72 98.71 98.43 98.44 99.00 99.54 99.60 99.95 100.27 100.31 101.02 100.93 101.37 101.51 101.75 101.57 102.00 102.15
95.83 95.82 95.92 95.96 95.96 95.84 95.97 95.92 95.99 96.11 96.14 96.04 96.10 96.15 96.12 96.11 95.96 95.86 95.71 95.67 95.80 95.74 95.95 96.30 96.37 96.70 96.97 97.04 97.10 97.20 97.23 97.69 97.90 98.35 98.64 98.59 98.31 99.08 99.20 99.11 99.41 100.01 100.04 100.99 101.07 100.95 101.12 101.39 101.51 101.65 102.31 102.26
95.82 95.79 95.85 95.90 95.95 95.96 95.87 96.04 95.88 96.04 96.10 96.07 96.06 96.01 96.14 96.10 95.96 95.95 95.76 95.69 95.70 95.50 96.21 96.24 96.47 96.81 97.04 96.95 97.12 97.46 97.50 97.56 98.12 98.40 97.58 98.44 98.56 99.36 99.32 99.49 99.46 99.68 100.58 100.99 101.02 101.48 101.38 101.50 101.69 101.85 102.42 102.29
95.72 95.82 95.80 95.94 95.92 96.00 95.85 95.94 96.00 95.86 95.97 96.04 96.07 96.12 96.08 95.96 95.91 95.89 95.84 95.71 95.66 95.77 95.93 96.35 96.61 96.77 96.98 96.95 97.40 97.67 97.73 97.82 97.90 98.35 98.42 98.37 99.16 99.43 99.45 99.61 99.48 99.97 100.03 100.93 100.97 101.05 100.17 101.69 101.72 101.96 102.25 102.28
95.71 95.76 95.82 95.90 97.38 95.92 95.94 95.94 95.98 95.96 95.78 96.03 96.01 96.05 95.87 96.05 95.97 95.82 95.80 95.80 95.70 95.77 95.92 96.36 96.65 96.82 96.99 97.36 97.54 97.71 97.66 97.84 98.32 98.20 98.45 98.59 98.80 99.16 99.47 99.40 99.96 100.25 100.24 100.69 100.76 101.33 101.46 101.63 101.90 102.01 101.98 102.20
95.60 95.74 95.74 95.94 95.75 95.85 95.93 95.95 96.00 96.08 95.92 95.91 95.99 95.85 96.10 96.18 96.11 95.90 95.78 95.77 95.73 95.77 95.99 96.48 96.99 97.04 97.37 97.38 97.58 97.62 97.60 98.10 98.21 98.64 98.57 98.75 98.89 99.24 99.53 99.67 99.97 100.30 100.31 100.93 100.81 101.65 101.85 101.86 101.88 102.10 102.06 102.16
95.73 95.67 95.88 95.75 95.83 95.94 95.91 95.92 96.06 96.03 96.05 96.08 95.99 96.02 96.21 96.30 96.16 95.94 95.73 95.65 95.63 95.93 96.17 96.55 96.47 97.17 97.34 97.42 97.51 97.61 97.90 98.00 98.76 98.94 98.83 98.90 99.11 99.40 99.62 99.95 100.10 100.68 100.57 100.79 100.87 101.90 101.96 101.90 101.96 101.93 101.93 102.12
95.77 95.75 95.74 95.87 95.83 95.90 95.89 95.97 95.98 96.11 96.01 96.11 95.95 96.08 96.26 96.26 96.10 95.86 95.68 95.56 95.82 96.06 96.22 96.65 96.84 96.84 97.28 97.40 97.57 97.75 97.84 98.21 98.77 98.84 98.97 99.16 99.19 99.41 99.86 100.01 100.36 100.81 100.98 100.88 101.16 101.49 100.09 101.79 101.97 102.01 101.91 101.91
95.78 95.74 95.83 95.97 95.88 95.89 95.99 95.96 95.97 95.94 96.06 96.06 96.03 96.12 96.23 96.14 95.96 95.73 95.61 95.80 96.05 96.18 96.83 96.75 96.93 97.10 97.07 97.46 97.44 97.65 97.76 97.98 98.44 98.83 99.04 99.23 99.43 99.49 99.93 100.08 100.49 100.58 100.94 100.44 101.10 101.54 101.59 101.65 101.79 102.04 102.34 102.29
96.06 96.89 96.22 95.93 95.84 95.92 95.93 95.93 95.84 95.98 96.07 96.14 96.19 96.19 96.18 96.12 95.92 95.81 97.33 96.64 96.16 97.56 98.25 98.06 97.66 97.20 97.25 97.32 97.56 97.63 97.86 98.11 98.46 98.68 99.14 99.36 99.56 99.65 99.78 100.15 100.64 100.72 100.79 100.57 101.23 101.46 101.57 101.63 101.82 102.13 102.25 102.22
95.91 95.95 95.84 96.14 95.95 95.90 95.87 95.85 95.96 96.11 96.14 96.08 96.36 96.40 96.28 96.18 96.54 97.18 97.71 97.08 96.32 98.34 99.76 97.01 99.36 99.65 97.36 97.46 97.55 97.78 98.00 98.20 98.43 98.79 99.18 99.69 99.62 99.65 100.15 100.13 100.40 100.71 100.75 100.81 101.38 101.52 101.62 101.74 101.91 102.20 102.25 102.21
95.60 95.93 96.44 95.92 95.92 95.87 95.86 95.89 96.07 96.13 96.24 96.98 96.92 96.63 96.51 96.47 96.54 96.47 96.67 96.43 97.48 102.42 100.10 97.05 100.98 99.84 97.37 97.55 97.89 98.02 98.11 98.33 98.54 98.74 99.04 99.29 99.50 99.73 100.15 100.17 100.38 100.48 100.54 100.86 101.42 101.34 101.91 101.73 101.78 102.15 102.09 101.98
95.71 96.18 95.96 95.74 95.80 95.88 95.92 95.96 96.09 96.20 96.77 96.85 96.94 96.79 96.99 96.86 96.78 97.47 96.66 97.48 102.60 100.23 97.57 98.10 97.98 97.74 97.63 97.60 97.71 98.10 98.22 98.56 98.54 98.81 98.98 99.21 99.56 99.73 99.99 100.24 100.52 100.61 100.53 101.00 101.54 101.48 101.73 101.72 101.84 102.07 102.08 102.03
95.53 95.69 95.78 95.74 95.79 95.93 96.00 96.12 96.16 96.77 96.85 96.91 96.96 96.90 96.83 97.10 97.13 97.12 97.09 98.61 100.53 96.95 97.15 97.25 99.47 97.64 97.62 97.71 97.79 97.93 98.27 98.50 98.65 98.81 99.02 99.27 99.51 99.82 100.01 100.32 100.58 100.60 100.36 101.45 102.10 101.59 101.88 101.76 101.86 101.91 102.01 101.99
95.92 95.65 95.67 95.86 95.88 95.96 96.05 96.04 96.80 96.86 96.91 96.96 97.00 96.99 96.93 97.04 97.21 97.24 97.15 97.04 97.07 97.23 97.66 97.54 98.18 97.68 97.66 97.84 97.92 98.09 98.38 98.63 98.70 98.78 99.10 99.29 99.50 99.79 100.19 100.35 100.54 100.61 100.27 100.73 101.40 101.52 101.64 101.69 102.04 101.93 101.92 101.80
96.06 95.87 95.61 95.54 95.79 96.07 96.00 96.79 96.85 96.90 96.95 97.03 97.04 97.06 97.07 96.94 97.62 97.34 97.30 98.79 97.61 97.60 98.69 97.93 97.79 97.63 98.14 98.30 98.13 98.17 98.47 98.62 98.79 98.94 99.13 99.42 99.57 100.01 100.30 100.43 100.32 100.38 100.15 100.74 101.14 101.32 101.41 101.48 101.70 101.85 101.83 101.65
96.00 96.08 95.96 95.63 95.80 95.86 96.79 96.85 96.90 96.94 96.99 97.09 97.05 97.07 97.08 97.10 97.03 97.69 97.35 97.40 97.62 97.42 97.41 97.67 97.47 97.75 97.75 98.13 98.23 98.36 98.61 98.55 98.86 99.26 99.32 99.54 99.64 100.07 100.00 100.01 100.11 100.11 100.10 100.77 101.35 101.27 101.31 101.48 101.74 102.00 101.71 101.68
96.28 96.06 96.10 96.21 95.94 96.81 96.75 96.94 96.93 96.93 96.99 97.03 97.05 97.07 97.11 97.12 97.15 97.06 97.76 97.43 97.38 97.48 97.54 97.52 97.52 97.59 97.75 97.87 98.26 98.60 98.52 98.79 99.08 99.52 99.64 99.53 99.80 100.03 100.12 100.22 100.18 100.01 100.01 100.72 100.83 101.20 101.26 101.32 101.43 101.71 101.63 101.46
96.32 96.25 96.22 96.18 96.41 96.45 96.20 97.22 96.84 96.94 96.99 97.00 97.06 97.15 97.13 97.17 97.21 97.19 97.10 97.74 97.44 97.40 97.81 97.81 97.73 97.66 97.96 98.18 98.28 98.41 98.68 99.06 99.26 99.40 99.56 100.12 100.21 100.21 100.04 100.15 100.32 99.86 100.48 100.84 100.97 100.97 101.15 101.31 101.39 101.82 101.61 101.32
96.26 96.21 96.23 96.37 96.29 96.38 96.57 97.39 97.29 96.87 97.01 97.01 97.06 97.15 97.22 97.18 97.22 97.24 97.18 97.15 97.71 97.46 97.60 97.75 97.73 97.83 98.01 98.26 98.38 98.56 98.95 99.49 99.31 99.39 99.33 99.77 100.18 100.22 100.02 100.27 100.13 99.58 100.15 100.61 100.75 101.17 101.23 101.39 101.48 101.54 101.56 101.29
96.25 96.26 96.36 96.35 96.40 96.35 96.42 96.76 96.25 97.24 96.92 97.04 97.06 97.12 97.17 97.23 97.26 97.24 97.23 97.27 97.22 97.26 97.43 97.68 97.87 97.96 98.08 98.37 98.54 99.03 99.08 99.10 99.28 99.93 99.15 99.60 100.19 100.10 99.90 99.99 99.81 99.36 100.12 100.43 100.82 100.86 100.99 101.19 101.41 101.53 101.54 101.35
96.23 96.23 96.30 96.40 96.46 96.44 96.43 96.38 96.57 96.14 97.23 96.94 97.08 97.11 97.15 97.21 97.28 97.29 97.27 97.18 97.20 97.35 97.40 97.69 97.77 97.91 98.16 98.31 98.46 99.04 99.06 99.10 98.94 99.04 99.42 99.32 99.45 99.60 99.90 100.12 99.54 99.18 99.82 100.21 100.51 100.65 100.72 101.10 101.26 101.32 101.47 101.37
96.33 96.34 96.36 96.44 96.44 96.42 96.43 96.48 96.37 96.52 96.71 97.48 97.09 97.13 97.16 97.19 97.23 97.30 97.22 97.14 97.25 97.40 97.39 97.58 97.77 98.26 98.18 98.47 98.96 98.95 99.03 99.10 99.11 98.93 99.06 99.32 99.42 99.50 99.53 99.41 99.39 98.97 99.22 100.10 100.28 100.35 100.53 100.95 101.22 101.82 101.58 101.46
96.43 96.37 96.46 96.39 96.42 96.44 96.35 96.33 96.49 96.44 96.53 96.73 97.44 97.11 97.18 97.20 97.24 97.17 97.20 97.29 97.45 97.38 98.01 97.31 97.63 98.44 98.26 98.81 98.90 98.81 98.88 98.88 98.84 98.73 98.96 99.21 99.53 99.43 99.49 99.43 99.32 98.81 99.51 99.85 100.13 100.32 100.50 101.20 101.42 101.26 101.34 101.45
96.31 96.38 96.41 96.40 96.37 96.41 96.38 96.39 96.49 96.54 96.50 96.56 96.78 97.48 97.14 97.21 97.20 97.27 97.32 97.45 97.40 98.23 97.25 97.07 97.13 98.07 98.36 98.74 98.92 98.69 98.72 99.13 98.85 98.78 98.86 98.90 98.84 99.08 99.28 99.21 99.17 98.61 99.71 100.31 100.25 100.41 100.63 102.02 101.67 101.45 101.51 101.38
96.37 96.31 96.33 96.36 96.43 96.36 96.44 96.54 96.52 96.60 96.65 96.70 96.64 96.85 98.10 97.19 97.19 97.40 97.50 97.45 97.40 97.44 97.07 97.20 97.33 97.97 98.31 98.57 98.60 98.53 98.33 98.39 98.42 98.63 98.81 98.84 98.73 98.90 98.92 99.17 98.67 98.52 99.54 100.02 99.81 100.10 100.34 102.11 101.84 101.31 101.46 101.53
96.17 96.14 96.19 96.39 96.42 96.46 96.48 96.50 96.54 96.54 96.62 96.67 96.72 96.74 96.90 97.91 97.29 97.40 97.40 97.59 97.24 97.28 97.46 97.34 97.63 97.82 98.10 98.33 98.33 98.23 98.25 98.26 98.35 98.81 98.72 98.65 98.62 98.82 98.79 98.93 98.46 98.26 99.21 99.49 99.63 99.72 100.01 100.26 100.40 100.18 100.35 100.57
96.28 96.16 96.16 96.21 96.18 96.44 96.45 96.44 96.54 96.57 96.58 96.60 96.62 96.76 96.89 97.17 97.26 97.29 97.38 97.38 97.51 97.32 97.33 96.97 95.99 97.77 98.13 98.15 98.06 98.19 98.21 98.05 98.34 98.79 98.58 98.44 98.61 98.64 98.73 98.53 98.25 98.17 98.78 98.99 99.37 99.59 100.07 100.15 100.49 99.73 99.90 100.10
96.40 96.52 96.31 96.52 96.32 96.21 96.18 96.46 96.53 96.51 96.51 96.58 96.66 96.72 96.89 97.21 97.37 97.22 97.26 97.39 97.54 97.48 97.45 97.44 97.46 98.00 98.37 98.25 96.19 97.73 98.15 97.84 98.43 98.45 98.48 98.48 98.57 98.65 98.69 98.16 98.13 97.94 98.26 98.82 99.15 99.03 99.10 99.25 99.40 99.68 99.96 99.98
96.31 96.41 96.47 96.49 96.49 96.48 96.45 96.41 96.92 96.86 96.55 96.56 96.62 96.73 97.02 97.23 97.40 97.42 97.58 97.60 97.34 97.21 97.18 97.25 97.35 97.93 98.36 97.68 96.13 97.65 97.69 97.96 98.24 98.40 98.52 98.49 99.03 98.61 97.11 97.83 97.88 97.79 98.05 98.86 99.01 99.14 99.26 99.39 99.74 100.05 100.08 100.05
96.52 97.41 96.99 96.43 96.54 96.52 96.70 96.62 97.14 97.07 97.09 97.14 96.73 96.78 96.97 97.13 97.26 97.42 97.41 97.28 97.31 97.39 97.35 97.16 97.14 97.53 97.58 97.56 97.58 97.58 97.45 97.82 97.98 98.07 98.50 98.40 98.97 98.73 97.74 98.33 97.69 97.78 98.43 98.56 98.90 99.01 99.15 99.34 99.82 100.70 100.58 100.39
96.36 96.39 96.47 97.26 97.43 96.42 96.60 96.56 96.69 97.00 96.96 96.94 96.95 96.98 96.83 97.09 97.23 97.24 97.47 97.29 97.32 97.19 97.10 97.42 97.32 97.48 97.30 97.13 97.26 97.24 97.36 97.63 97.73 97.75 98.23 98.30 98.46 98.54 98.48 98.38 97.50 97.71 98.20 98.44 98.75 99.07 99.57 99.80 99.94 100.46 100.65 100.43
94.35 96.52 96.43 96.53 96.74 97.52 97.52 96.50 96.52 96.68 96.62 96.71 96.89 96.85 96.99 97.10 97.06 97.35 97.31 97.12 97.08 96.87 96.87 97.15 97.61 97.59 97.75 97.65 97.34 97.18 97.06 97.15 97.32 97.48 97.66 98.30 98.62 98.60 98.04 98.00 97.35 97.65 98.22 98.31 98.69 99.09 99.32 99.58 99.74 99.93 100.16 100.36
95.18 96.01 96.61 96.81 97.02 96.45 96.50 97.64 97.60 97.29 96.58 96.56 96.68 96.77 97.01 97.00 96.98 97.04 97.12 97.03 97.13 96.97 97.08 97.10 97.51 97.65 97.65 97.55 97.39 97.24 97.15 97.32 97.22 97.04 96.93 97.68 98.38 98.05 97.79 97.61 97.22 97.61 98.55 98.75 98.99 99.23 99.49 99.68 99.89 100.07 100.37 100.58
95.21 96.11 96.57 96.76 96.94 97.03 97.07 96.50 96.62 97.58 97.62 97.56 96.55 96.81 96.72 96.73 96.96 96.93 96.81 96.71 96.90 97.11 97.42 97.04 97.09 97.62 97.71 97.48 97.43 97.18 97.23 97.21 97.24 97.48 97.34 97.18 96.96 96.98 97.11 97.22 97.13 98.50 98.87 98.96 99.01 99.30 99.49 99.77 100.03 100.29 100.39 100.59
95.39 96.10 96.24 96.43 96.62 96.67 96.96 97.09 97.14 96.98 96.63 96.81 97.67 97.61 96.80 96.60 96.74 96.78 96.88 94.07 94.85 96.00 96.90 96.90 96.97 97.08 97.19 97.42 97.13 97.13 97.19 97.29 97.60 97.60 97.65 97.62 97.57 97.59 97.43 97.24 97.71 98.71 98.99 98.88 99.00 99.38 99.60 99.78 100.01 100.16 100.37 100.56
95.57 95.89 95.96 96.12 96.29 96.39 96.60 96.77 96.87 97.05 97.16 97.14 96.57 96.64 97.66 97.68 97.59 96.71 96.67 96.83 93.43 95.76 95.62 97.31 97.15 97.17 97.19 97.30 96.89 97.07 97.13 97.16 97.60 97.69 97.73 97.73 97.67 97.65 97.51 97.18 98.51 98.79 98.86 99.03 99.24 99.38 99.55 99.77 99.96 100.18 100.33 100.51
95.63 95.60 95.63 95.78 95.92 96.12 96.27 96.37 96.55 96.91 97.26 97.21 96.98 97.27 96.95 96.62 97.24 97.61 97.63 96.74 96.68 96.86 96.91 97.43 97.33 97.33 97.31 97.24 97.10 97.07 97.02 97.04 97.65 97.61 97.65 97.68 97.67 97.66 97.49 97.13 98.58 98.70 98.91 99.01 99.12 99.31 99.50 99.69 99.95 100.18 100.35 100.62
95.32 95.24 95.26 95.44 95.59 95.76 95.93 96.01 96.29 96.64 96.86 96.78 96.76 97.14 97.29 97.44 97.56 96.67 96.75 97.68 97.64 97.21 96.75 96.81 96.91 97.38 97.37 97.31 97.38 97.19 97.17 97.12 97.56 97.61 97.67 97.62 97.71 97.72 97.60 97.20 97.89 98.59 98.77 98.89 98.99 99.20 99.37 99.82 99.93 100.18 100.36 100.48
95.16 95.08 95.10 95.15 95.24 95.40 95.52 95.67 96.02 96.32 96.38 96.32 96.19 96.72 96.97 97.00 97.28 97.45 97.33 96.68 96.80 97.71 97.74 97.74 96.78 96.73 96.95 97.37 97.54 97.32 97.38 97.76 97.57 97.24 97.70 97.63 97.68 97.72 97.76 97.40 97.10 98.64 98.74 98.79 98.96 99.14 99.40 99.51 99.84 100.07 100.27 100.43
94.99 94.90 94.89 94.97 95.02 95.14 95.25 95.42 95.74 95.83 95.89 95.95 95.61 96.29 96.40 96.37 96.60 97.03 97.30 97.53 97.41 97.40 96.72 97.08 97.56 97.02 96.85 96.80 96.98 97.06 97.41 97.80 97.30 97.46 97.58 97.47 97.84 97.58 97.55 97.43 97.38 97.24 97.23 97.79 99.02 99.14 99.21 99.49 99.78 99.92 100.18 100.48
94.80 94.73 94.71 94.79 94.79 94.97 95.12 95.25 95.41 95.41 95.40 95.46 95.35 95.61 95.74 96.08 96.23 96.53 96.78 97.09 97.36 97.47 97.50 97.63 96.71 96.84 97.76 97.77 97.45 96.88 96.95 97.07 97.17 97.44 97.52 97.66 97.81 97.81 97.77 97.75 97.76 97.66 97.50 97.42 97.39 97.36 97.53 99.01 99.73 99.94 100.05 100.31
94.63 94.56 94.53 94.58 94.61 94.72 94.87 95.00 95.31 95.19 95.21 95.24 95.22 95.32 95.47 95.62 95.96 96.07 96.25 96.51 96.74 96.97 97.02 97.35 97.44 97.60 96.96 96.86 97.51 97.77 97.87 96.94 96.97 97.09 97.13 97.65 97.71 97.88 97.93 98.00 97.85 97.97 98.01 97.99 97.99 98.03 97.72 97.57 97.54 97.61 98.26 100.18
92.52 94.39 94.34 94.40 94.44 94.47 94.58 95.42 95.14 94.94 94.84 94.94 94.97 95.18 95.30 95.49 95.72 95.80 95.87 96.00 96.18 96.33 96.44 96.79 97.37 97.19 97.63 97.35 97.36 96.86 96.89 97.85 97.90 97.02 97.00 97.11 97.19 97.82 97.97 97.93 98.03 98.04 98.00 98.02 98.04 98.11 97.95 97.89 98.00 97.95 97.68 97.49
92.75 92.53 92.63 94.19 94.17 94.14 95.39 95.33 94.97 94.64 94.44 94.52 94.89 95.02 95.00 95.32 95.55 95.63 95.64 95.74 95.90 96.07 96.19 96.30 96.36 96.54 96.87 96.79 96.92 97.29 97.38 96.84 96.93 97.90 97.93 97.71 97.07 97.12 97.33 97.50 97.82 97.93 98.04 98.10 98.14 98.24 98.08 98.10 98.03 98.02 98.12 97.96
92.70 92.71 92.73 92.50 92.81 93.62 93.82 93.90 94.02 94.12 94.03 94.35 94.68 94.76 94.74 95.15 95.10 95.41 95.53 95.72 95.88 96.18 96.37 96.43 96.50 96.38 96.29 96.29 96.30 96.53 96.64 97.12 97.42 97.14 96.94 97.40 98.01 98.08 97.13 97.31 97.45 97.54 97.92 97.99 98.11 98.35 98.05 98.29 98.19 98.26 98.46 98.49
92.65 92.65 92.57 92.60 92.64 92.88 93.17 93.82 93.85 93.89 93.78 93.93 94.32 94.53 94.40 94.63 94.45 94.70 94.73 95.00 95.57 95.67 95.89 96.13 96.17 96.26 96.34 96.10 95.93 95.97 96.06 96.23 96.33 96.86 97.37 97.49 96.93 97.06 98.02 97.42 97.25 97.40 97.55 97.65 97.90 98.10 98.25 98.42 98.48 98.50 98.68 98.62
92.53 92.49 92.52 92.68 92.90 92.67 92.82 93.12 93.35 93.75 93.75 93.67 93.88 94.31 94.05 93.83 94.08 94.16 94.22 94.36 94.58 95.04 95.56 95.75 95.79 95.76 95.72 95.69 95.61 95.67 95.75 95.82 95.95 96.08 96.39 96.77 96.90 97.43 96.99 97.14 97.22 97.38 97.26 97.41 97.66 97.86 97.98 98.25 98.40 98.45 98.64 98.63
92.84 93.00 92.15 92.44 92.82 92.52 92.64 92.99 93.25 93.56 93.75 93.71 93.61 93.90 93.74 92.80 93.78 93.81 93.94 94.18 94.43 94.64 94.86 95.24 95.15 95.29 95.22 95.28 95.35 95.52 95.52 95.60 95.72 95.85 95.99 96.18 96.22 96.59 96.94 97.48 97.13 97.06 97.22 97.25 97.29 97.36 97.90 98.04 98.14 98.08 98.36 98.59
