ncols 52
nrows 52
xllcorner 437760
yllcorner 5714944
cellsize 10
NODATA_value -9999
99.88 99.74 99.65 99.56 99.50 99.40 99.36 99.40 99.56 99.63 99.79 99.86 99.96 99.97 100.15 100.28 100.38 100.49 100.61 100.78 100.94 101.07 101.19 101.42 101.39 101.40 101.50 101.60 101.73 101.94 102.16 102.18 102.12 102.05 101.97 101.93 101.95 102.03 102.06 102.06 102.06 102.04 102.03 102.02 101.99 101.92 101.88 101.94 101.90 101.54 101.51 101.53
100.10 99.94 99.83 99.80 99.67 99.63 99.58 99.59 99.73 99.79 99.96 100.12 100.22 100.32 100.47 100.61 100.69 100.78 100.86 101.01 101.11 101.29 101.49 101.70 101.74 101.74 101.79 101.89 102.05 102.18 102.32 102.38 102.36 102.25 102.15 102.14 102.15 102.21 102.25 102.24 102.22 102.20 102.18 102.17 102.16 102.06 102.02 102.00 101.79 101.62 101.86 102.26
100.25 100.11 100.00 99.96 99.90 99.88 99.82 99.80 99.85 99.99 100.18 100.32 100.48 100.61 100.75 100.88 100.96 101.04 101.10 101.22 101.31 101.48 101.68 101.85 102.00 101.93 102.03 102.11 102.22 102.33 102.46 102.50 102.51 102.43 102.34 102.32 102.36 102.38 102.40 102.39 102.38 102.35 102.32 102.30 102.27 102.18 102.18 102.10 101.58 101.29 101.29 101.34
100.26 100.19 100.12 100.13 100.14 100.08 100.03 99.99 99.99 100.13 100.34 100.60 100.70 100.85 100.96 101.09 101.15 101.25 101.37 101.45 101.54 101.68 101.84 101.92 102.26 102.19 102.18 102.28 102.37 102.46 102.54 102.61 102.64 102.61 102.53 102.49 102.50 102.51 102.53 102.53 102.52 102.51 102.47 102.43 102.39 102.25 102.35 102.13 101.64 100.78 101.23 101.49
100.48 100.35 100.26 100.28 100.32 100.25 100.22 100.19 100.14 100.25 100.44 100.75 100.93 101.07 101.19 101.33 101.36 101.46 101.58 101.70 101.79 101.87 101.99 102.15 102.34 102.37 102.32 102.40 102.47 102.57 102.63 102.69 102.72 102.71 102.63 102.59 102.61 102.63 102.64 102.62 102.61 102.57 102.54 102.49 102.42 102.29 102.47 101.92 101.79 99.01 99.79 101.45
100.85 100.54 100.44 100.43 100.44 100.42 100.44 100.39 100.39 100.44 100.60 100.86 101.03 101.27 101.38 101.54 101.56 101.65 101.75 101.85 101.98 102.05 102.16 102.26 102.45 102.47 102.41 102.49 102.58 102.65 102.70 102.76 102.80 102.74 102.66 102.64 102.67 102.69 102.70 102.69 102.68 102.64 102.60 102.55 102.48 102.35 102.48 101.83 101.77 101.77 101.61 101.44
100.65 100.57 100.58 100.55 100.58 100.61 100.65 100.62 100.64 100.68 100.78 100.98 101.21 101.37 101.50 101.65 101.72 101.76 101.85 101.96 102.07 102.16 102.22 102.29 102.30 102.48 102.49 102.48 102.58 102.65 102.73 102.79 102.82 102.79 102.73 102.74 102.76 102.79 102.79 102.77 102.73 102.69 102.65 102.58 102.51 102.37 102.46 101.75 101.99 101.66 101.40 101.51
100.69 100.71 100.69 100.69 100.73 100.77 100.81 100.85 100.89 100.91 101.02 101.12 101.29 101.46 101.60 101.65 101.80 101.80 101.89 101.98 102.04 102.14 102.21 102.28 102.36 102.57 102.50 102.43 102.56 102.65 102.72 102.81 102.87 102.89 102.86 102.82 102.82 102.82 102.82 102.80 102.75 102.70 102.64 102.57 102.50 102.37 102.46 101.77 101.82 101.54 101.73 101.44
100.72 100.82 100.82 100.82 100.85 100.90 100.95 101.03 101.06 101.15 101.22 101.28 101.38 101.49 101.60 101.70 101.82 101.80 101.85 101.93 101.96 102.08 102.15 102.25 102.32 102.50 102.53 102.44 102.54 102.60 102.68 102.76 102.84 102.93 102.89 102.82 102.79 102.79 102.79 102.78 102.75 102.72 102.67 102.61 102.53 102.43 102.51 101.84 102.13 101.46 101.34 101.44
100.78 100.90 100.86 100.91 100.93 101.01 101.07 101.15 101.23 101.29 101.36 101.42 101.51 101.56 101.61 101.70 101.82 101.82 101.83 101.90 101.94 102.05 102.10 102.17 102.23 102.27 102.40 102.43 102.44 102.54 102.60 102.68 102.76 102.83 102.85 102.82 102.81 102.81 102.85 102.83 102.80 102.76 102.71 102.64 102.56 102.44 102.52 101.96 102.16 101.43 101.34 101.43
100.82 100.87 100.96 101.01 101.00 101.05 101.12 101.22 101.32 101.41 101.43 101.52 101.54 101.63 101.68 101.74 101.79 101.89 101.86 101.88 101.93 101.98 102.03 102.05 102.12 102.22 102.46 102.44 102.36 102.47 102.57 102.64 102.73 102.83 102.84 102.81 102.79 102.79 102.81 102.80 102.77 102.77 102.71 102.65 102.57 102.43 102.47 102.06 102.33 101.61 101.33 101.42
100.93 100.94 100.99 101.07 101.06 101.10 101.18 101.26 101.35 101.44 101.49 101.54 101.57 101.66 101.70 101.79 101.83 101.89 101.82 101.81 101.85 101.90 101.93 101.93 101.99 102.13 102.32 102.38 102.35 102.42 102.49 102.59 102.70 102.78 102.80 102.76 102.73 102.78 102.78 102.76 102.72 102.70 102.70 102.63 102.53 102.42 102.47 102.18 102.50 101.48 101.35 101.51
100.96 101.01 101.06 101.14 101.17 101.21 101.24 101.33 101.41 101.49 101.51 101.51 101.53 101.64 101.69 101.76 101.84 101.86 101.79 101.71 101.74 101.78 101.83 101.82 101.88 101.96 102.02 102.26 102.35 102.30 102.40 102.50 102.60 102.71 102.75 102.70 102.68 102.70 102.72 102.70 102.65 102.66 102.65 102.61 102.49 102.36 102.40 102.29 102.47 102.09 101.32 101.39
100.89 101.00 101.04 101.07 101.25 101.31 101.34 101.40 101.44 101.49 101.49 101.44 101.48 101.51 101.61 101.66 101.75 101.75 101.75 101.67 101.64 101.70 101.71 101.72 101.72 101.83 101.93 102.23 102.29 102.19 102.28 102.37 102.46 102.57 102.63 102.58 102.58 102.61 102.64 102.67 102.68 102.67 102.64 102.57 102.48 102.31 102.38 102.42 102.43 102.25 101.35 101.64
100.73 100.82 100.87 101.03 101.18 101.27 101.31 101.37 101.38 101.39 101.35 101.33 101.36 101.38 101.43 101.50 101.58 101.62 101.65 101.58 101.56 101.57 101.61 101.64 101.63 101.73 101.86 102.08 102.13 102.06 102.15 102.26 102.36 102.46 102.52 102.50 102.49 102.54 102.58 102.60 102.62 102.63 102.57 102.51 102.38 102.31 102.42 102.54 102.69 102.46 101.40 95.92
100.61 100.68 100.97 100.82 101.00 101.10 101.17 101.21 101.25 101.25 101.21 101.18 101.21 101.22 101.25 101.27 101.35 101.41 101.46 101.45 101.43 101.47 101.48 101.54 101.53 101.63 101.75 101.86 102.07 101.99 102.07 102.15 102.25 102.37 102.42 102.42 102.42 102.44 102.47 102.51 102.53 102.52 102.50 102.43 102.35 102.40 102.57 102.57 102.75 102.29 101.93 101.31
100.42 100.47 100.51 100.52 100.73 100.90 100.95 100.98 101.01 101.03 101.05 101.05 101.03 101.04 101.01 101.10 101.08 101.17 101.21 101.28 101.27 101.28 101.35 101.43 101.45 101.54 101.62 101.68 102.03 102.04 101.99 102.08 102.16 102.26 102.31 102.30 102.27 102.31 102.36 102.42 102.47 102.49 102.48 102.40 102.57 102.81 102.74 102.59 102.60 102.49 102.38 102.30
100.29 100.34 100.35 100.41 100.52 100.70 100.77 100.77 100.81 100.79 100.83 100.87 100.87 100.87 100.82 100.86 100.86 100.93 101.01 101.09 101.08 101.11 101.17 101.28 101.32 101.40 101.49 101.63 101.93 101.96 101.86 101.92 102.03 102.15 102.21 102.23 102.24 102.28 102.32 102.47 102.57 102.54 102.58 102.60 102.58 102.54 102.45 102.41 102.33 102.44 102.44 102.43
100.17 100.19 100.20 100.24 100.30 100.53 100.56 100.60 100.57 100.59 100.65 100.68 100.68 100.68 100.69 100.67 100.69 100.71 100.81 100.89 100.92 100.92 100.96 101.03 101.17 101.36 101.48 101.60 101.89 101.87 101.79 101.89 101.97 102.13 102.10 102.18 102.25 102.37 102.38 102.42 102.42 102.42 102.40 102.53 102.60 102.65 102.28 102.31 103.14 105.65 105.95 105.51
100.08 100.03 100.11 100.12 100.21 100.28 100.39 100.37 100.38 100.42 100.43 100.48 100.49 100.48 100.48 100.49 100.56 100.51 100.61 100.75 100.88 100.96 100.96 101.01 101.08 101.22 101.33 101.38 101.45 101.64 101.70 101.82 101.89 101.93 101.98 102.03 102.19 102.38 102.46 102.58 103.00 103.57 103.69 103.43 102.73 102.62 102.44 102.36 105.75 102.35 102.47 102.47
99.91 99.88 99.95 99.92 100.02 100.12 100.18 100.16 100.17 100.18 100.19 100.24 100.32 100.31 100.36 100.43 100.46 100.51 100.54 100.64 100.70 100.69 100.85 101.12 101.15 101.28 101.33 101.37 101.42 101.48 101.65 101.85 102.03 102.55 103.13 103.69 103.66 103.10 102.48 102.53 102.96 102.40 102.49 102.54 102.36 102.33 102.35 102.49 104.33 102.42 102.57 102.51
99.71 99.78 99.77 99.81 99.85 99.96 99.97 99.94 100.06 100.10 100.11 100.16 100.25 100.29 100.35 100.32 100.41 100.70 100.80 100.84 100.89 100.90 100.94 100.96 101.16 101.32 101.42 101.64 101.59 101.68 102.40 103.39 102.54 102.07 102.29 102.57 102.60 102.57 102.56 102.51 102.51 102.53 102.60 102.59 102.43 102.45 102.19 103.44 103.07 102.36 102.82 102.45
99.57 99.60 99.63 99.65 99.71 99.83 99.98 99.93 99.99 99.98 100.02 100.30 100.38 100.44 100.50 100.52 100.54 100.55 100.65 100.86 100.97 101.01 100.98 101.37 101.06 101.07 101.11 101.18 101.25 101.35 101.61 102.40 101.75 101.74 101.80 102.58 102.58 102.55 102.57 102.53 102.49 102.42 102.44 102.48 102.40 102.69 102.12 102.23 102.19 102.11 102.34 102.35
99.39 99.51 99.61 99.58 99.52 99.93 100.04 100.10 100.17 100.16 100.18 100.21 100.28 100.46 100.58 100.69 100.46 100.48 100.51 100.57 100.65 100.68 100.72 100.74 100.73 101.13 101.23 101.38 101.45 101.59 101.61 102.66 101.52 101.54 101.72 102.56 102.50 102.32 102.29 102.54 102.49 102.46 102.51 102.48 102.37 102.70 102.02 102.19 102.16 102.08 102.25 102.36
99.71 99.76 99.74 99.79 99.81 99.85 99.90 100.12 100.21 100.33 100.16 99.93 100.11 100.21 100.26 100.25 100.27 100.30 100.38 100.43 100.55 100.63 100.73 100.69 100.66 100.94 101.22 101.26 101.33 101.42 101.54 102.09 101.59 101.42 101.80 102.57 102.47 102.24 101.71 102.57 102.50 102.51 102.49 102.45 102.40 102.54 101.92 102.18 102.17 101.99 102.10 102.18
99.44 99.71 99.82 99.93 99.74 99.68 99.72 99.80 99.85 99.85 99.82 99.85 99.97 100.03 100.12 100.32 100.28 100.46 100.50 100.54 100.63 100.71 100.69 100.74 100.76 100.60 101.07 101.12 101.06 101.17 101.43 101.37 101.94 101.51 102.03 101.01 101.29 101.25 101.29 101.47 101.54 101.72 102.09 102.21 102.50 102.03 101.88 102.17 102.08 101.98 102.09 102.19
99.73 99.44 99.39 99.40 99.42 99.45 99.52 99.69 99.81 99.68 99.84 99.97 100.11 100.15 100.21 100.25 100.33 100.37 100.39 100.44 100.43 100.19 100.22 100.32 100.53 100.43 100.79 100.82 101.05 101.04 101.46 101.36 102.53 101.48 101.29 100.98 101.01 100.93 101.18 101.19 101.19 101.23 101.38 101.52 101.66 101.88 101.88 101.95 102.12 102.07 102.10 102.11
99.17 99.21 99.30 99.32 99.56 99.63 99.71 99.82 99.88 99.55 99.88 99.93 99.93 100.05 100.00 99.93 100.11 100.03 100.04 100.07 100.12 100.15 100.15 100.26 100.23 100.40 100.92 100.91 101.06 101.04 101.28 101.23 102.17 101.30 101.06 101.03 101.02 101.04 101.03 101.06 101.04 101.81 101.96 101.94 102.16 101.82 101.69 101.66 101.69 101.83 101.99 101.95
99.06 99.18 99.37 99.49 99.55 99.62 99.69 99.65 99.61 99.41 99.56 99.52 99.60 99.57 99.64 99.80 99.90 99.99 99.79 100.07 99.96 100.03 100.10 100.04 100.32 100.15 100.35 100.83 100.93 100.39 100.37 100.57 100.78 101.15 101.03 100.93 100.93 100.92 101.06 101.09 101.41 102.22 102.17 102.10 102.14 101.68 101.73 101.73 101.82 101.70 101.85 101.86
99.12 99.17 99.00 99.18 99.18 99.18 99.42 99.58 99.51 99.22 99.43 99.41 99.52 99.57 99.56 99.59 99.66 99.72 99.56 99.64 99.74 99.84 99.92 99.93 99.98 100.06 100.15 100.22 100.26 100.37 100.50 100.49 100.49 101.11 100.94 100.85 100.84 100.84 100.90 100.89 101.18 102.07 101.84 101.99 101.99 101.57 101.68 102.24 101.80 101.62 101.76 101.74
99.14 98.99 98.92 98.99 99.13 99.04 99.23 99.31 99.08 99.04 99.25 99.28 99.25 99.47 99.55 99.46 99.44 99.43 99.59 99.75 99.89 99.89 100.07 100.01 100.04 99.94 100.12 100.16 100.20 100.31 100.50 100.51 100.43 101.88 101.10 101.06 101.04 100.95 100.79 101.00 100.96 101.07 101.23 101.41 101.56 101.47 101.67 101.67 101.75 101.73 101.81 102.00
99.07 99.10 98.90 98.81 98.95 98.94 98.95 99.10 99.09 98.89 99.03 99.23 99.28 99.35 99.27 99.34 99.37 99.52 99.71 99.86 99.87 99.94 99.93 100.00 100.01 99.91 100.04 100.00 100.01 100.22 100.29 100.54 100.21 100.30 101.11 100.85 100.92 100.95 100.80 100.93 101.01 100.96 100.94 100.80 102.12 101.35 101.44 101.58 101.58 101.62 101.40 101.31
98.92 98.85 98.83 98.66 98.74 98.85 98.77 99.03 98.97 98.77 99.00 99.08 99.15 99.41 99.42 99.42 99.48 99.57 99.62 99.38 99.31 99.25 99.67 99.59 99.47 99.79 99.76 100.04 100.07 99.91 100.14 99.96 100.05 100.03 101.53 100.72 100.85 100.89 100.71 100.69 100.96 101.04 100.79 100.79 101.76 101.22 101.15 101.27 101.24 101.43 101.51 101.38
97.89 98.80 98.89 98.57 98.55 98.74 98.79 98.98 98.93 98.55 99.13 99.15 99.16 99.18 99.56 99.47 99.53 99.52 99.30 99.11 99.08 99.02 99.11 99.25 99.37 99.46 99.75 99.51 99.85 99.79 99.90 99.90 100.01 100.00 100.80 100.81 100.96 100.92 100.82 100.80 101.02 101.01 100.93 100.77 101.53 101.10 101.29 101.40 101.43 101.41 101.49 101.45
97.72 98.10 98.44 98.63 98.50 98.65 98.75 98.74 98.61 98.41 99.08 99.10 99.14 99.07 99.46 99.38 99.33 98.85 98.57 98.59 98.71 98.79 98.85 99.00 99.60 99.28 99.38 99.58 99.83 99.82 99.79 99.72 99.66 99.97 100.18 100.82 100.92 100.92 100.79 100.82 100.84 100.75 100.87 101.03 101.49 100.99 101.19 101.19 101.37 101.34 101.40 101.50
97.64 97.66 98.37 98.49 98.50 98.33 98.54 98.53 98.47 98.31 98.57 98.15 98.44 98.66 98.92 99.07 98.67 98.45 98.50 98.55 98.71 98.76 98.80 99.07 98.94 99.20 99.35 99.46 99.40 99.48 99.53 99.53 99.51 99.89 99.94 101.12 100.82 100.49 100.56 100.60 100.61 100.59 101.06 100.90 101.40 100.95 100.99 101.12 101.00 101.07 101.36 101.33
97.56 97.55 97.99 98.48 98.44 98.37 98.35 98.32 98.17 98.24 98.36 98.03 98.20 98.10 98.14 98.28 98.43 98.56 98.44 98.38 98.38 98.49 98.51 99.00 98.95 99.12 99.06 99.24 99.25 99.44 99.38 99.53 99.46 100.01 100.04 100.15 100.64 100.26 100.25 100.21 100.17 101.86 101.07 100.75 100.83 100.98 100.82 101.03 101.29 101.22 101.38 101.55
97.51 97.56 97.45 98.31 98.53 98.31 98.12 98.10 97.93 98.29 98.33 98.03 98.19 98.09 98.10 98.29 98.12 98.28 98.23 98.39 98.38 98.37 98.38 98.86 99.06 98.80 98.78 98.69 98.79 99.40 99.33 99.31 99.38 99.44 99.37 99.77 100.27 100.11 100.12 100.02 100.22 100.15 100.24 100.68 100.83 100.93 101.14 101.12 101.32 101.27 102.33 101.57
97.21 97.54 97.49 97.54 98.06 98.10 98.09 97.96 97.75 97.78 97.94 97.99 98.06 98.06 98.04 98.12 98.21 98.35 98.12 98.22 98.23 98.40 98.42 98.45 98.61 98.52 98.59 98.57 98.61 98.86 99.08 99.24 99.07 98.99 99.01 99.10 100.46 100.29 100.20 99.65 99.76 100.13 100.56 100.81 100.83 100.84 100.95 101.10 101.17 101.33 101.48 101.70
97.20 97.54 97.49 97.40 98.02 98.06 97.87 97.85 97.62 98.08 98.08 97.87 98.64 98.00 97.81 98.28 98.31 98.35 98.19 98.22 98.22 98.43 98.35 98.53 98.42 98.30 98.47 98.58 98.67 98.61 98.80 98.86 99.27 99.04 98.78 98.99 99.13 99.33 99.32 99.66 99.91 99.85 100.58 101.21 100.71 100.80 100.99 100.98 101.28 101.39 101.78 101.78
96.95 97.18 97.38 97.24 97.68 97.70 97.84 97.64 97.44 98.07 98.07 97.77 98.46 97.75 97.55 97.80 97.74 97.68 98.20 98.11 98.15 98.55 98.42 98.40 98.11 98.11 98.26 98.39 98.65 98.60 98.68 98.73 98.85 98.93 98.89 98.96 98.84 99.12 99.48 99.72 100.03 99.85 100.33 100.59 100.71 100.77 101.13 101.46 101.54 101.54 102.00 101.68
96.91 97.01 97.06 97.19 97.49 97.49 97.54 97.41 97.28 97.68 97.61 97.35 97.33 97.21 97.35 97.47 97.49 97.53 97.48 97.89 98.00 96.60 97.70 97.86 97.94 97.98 97.88 98.34 98.45 98.41 98.46 98.63 98.74 98.78 98.87 98.64 98.81 99.36 99.74 99.65 99.78 99.73 100.00 100.43 101.08 100.71 100.96 101.32 101.57 101.49 101.42 101.41
96.93 96.81 96.97 97.28 97.06 97.32 97.31 96.97 96.91 97.10 97.21 97.11 97.17 96.97 96.91 96.95 97.18 97.32 97.24 97.66 97.56 96.44 97.46 97.72 97.64 97.96 97.81 98.07 98.57 98.32 98.30 98.34 98.60 98.73 98.38 98.43 98.80 99.48 99.36 99.48 99.62 100.30 100.00 100.79 100.91 100.68 100.92 101.36 101.49 101.46 101.47 101.96
97.01 96.93 96.87 97.16 97.02 96.70 96.88 96.89 96.79 96.93 97.24 96.92 97.03 96.99 96.96 97.00 96.73 96.82 96.96 97.23 97.53 97.72 96.40 97.70 97.58 97.71 97.80 97.87 98.09 98.26 98.35 98.35 98.28 98.17 98.22 98.64 98.85 98.91 98.91 99.04 99.42 99.68 100.10 100.62 100.86 100.64 100.76 101.09 101.39 101.39 101.43 101.58
96.78 96.74 96.44 96.45 96.65 96.34 96.27 96.18 96.78 96.65 96.69 97.00 96.81 96.88 97.02 96.93 97.08 96.81 96.77 97.07 97.29 97.47 97.59 97.32 97.41 97.52 97.60 97.51 97.81 98.41 98.23 98.17 97.99 97.93 98.27 98.51 98.75 98.97 98.90 98.99 99.29 99.56 100.05 100.69 100.94 100.62 100.72 100.88 100.99 101.10 101.45 101.72
96.23 96.12 96.27 96.46 96.20 96.12 96.01 96.01 95.99 96.79 96.43 96.62 96.79 96.79 97.09 97.01 97.13 97.09 96.77 96.64 97.01 97.49 97.37 97.16 97.29 97.34 97.35 97.46 97.49 97.79 97.99 97.76 97.73 98.02 98.27 98.61 98.83 98.90 99.03 98.88 99.19 99.62 99.90 100.61 100.79 100.62 100.84 101.12 101.07 101.11 101.57 101.66
96.01 96.18 96.36 96.18 96.11 96.01 96.39 96.22 95.86 95.88 96.59 96.38 96.55 96.99 97.04 97.02 97.07 96.95 96.85 96.75 96.53 96.83 97.14 96.93 97.03 97.24 97.26 97.40 97.34 97.46 97.58 97.51 97.74 97.70 98.39 98.85 98.81 98.84 99.01 98.79 99.14 99.48 99.84 100.72 100.79 100.62 100.82 100.95 101.07 101.16 101.63 101.92
96.11 96.03 96.08 96.11 96.04 96.19 96.24 96.23 96.21 95.85 95.86 96.22 96.30 96.65 96.81 96.99 96.94 96.84 96.80 96.88 96.66 96.40 96.75 96.97 96.94 97.04 97.16 97.25 97.50 97.21 97.28 97.52 97.68 97.90 98.19 98.57 98.73 99.35 99.29 98.99 99.11 99.55 99.96 100.49 100.86 100.76 100.74 100.85 101.15 101.40 101.52 101.90
95.80 95.94 96.08 96.13 96.16 96.16 96.19 96.21 96.19 96.40 96.08 95.81 96.03 96.15 97.11 96.75 96.82 96.68 96.76 96.75 96.68 96.51 96.30 96.53 96.69 96.85 96.97 97.22 97.00 97.07 97.33 97.31 97.30 97.29 97.96 98.19 98.84 99.38 99.51 98.82 99.03 100.17 99.92 100.28 100.56 100.78 101.02 101.32 101.47 101.38 101.49 101.66
95.95 96.01 96.10 96.15 96.13 96.16 96.16 96.19 96.14 96.18 96.10 95.94 95.83 95.85 95.74 97.11 96.62 96.66 96.71 96.64 96.52 96.55 96.47 96.16 96.40 96.65 96.75 96.77 96.87 97.13 97.71 97.23 97.30 97.40 97.76 98.42 98.24 98.47 98.67 98.87 99.10 99.19 99.58 100.30 100.82 100.85 101.08 101.34 101.37 101.53 101.61 101.64
95.93 96.04 95.99 96.10 96.08 96.12 96.14 96.14 96.16 96.18 96.17 96.12 95.97 95.81 95.82 95.76 96.42 96.44 96.53 96.43 96.43 96.55 96.47 96.36 96.18 96.54 96.73 96.70 96.82 97.08 97.31 97.27 97.38 97.52 97.73 98.14 98.62 98.46 98.75 99.03 99.12 99.28 99.67 100.94 101.14 100.93 101.14 101.18 101.31 101.79 101.54 101.57
96.01 95.97 96.00 96.01 96.07 96.13 96.08 96.14 96.19 96.19 96.14 96.14 96.12 95.89 95.76 95.82 95.85 95.92 96.24 96.34 96.49 96.38 96.29 96.38 96.63 96.30 96.49 96.98 97.05 97.15 97.03 97.35 97.44 97.77 97.83 98.50 98.82 98.59 99.00 99.52 99.73 99.60 99.69 101.02 101.07 100.94 101.11 101.57 101.07 101.15 101.35 101.57
