ncols 52
nrows 52
xllcorner 437760
yllcorner 5713920
cellsize 10
NODATA_value -9999
92.74 92.87 91.46 92.35 92.68 92.47 92.61 92.98 93.20 93.51 93.74 93.69 93.57 93.84 93.70 92.64 93.71 93.74 93.93 94.22 94.44 94.62 94.82 95.10 95.06 95.13 95.16 95.22 95.38 95.61 95.49 95.67 95.72 95.80 95.95 96.13 96.23 96.34 97.16 97.00 97.65 97.05 97.15 97.22 97.26 97.43 97.75 97.93 98.16 98.10 98.31 98.52
92.75 92.63 91.98 92.38 92.68 92.57 92.48 92.90 93.11 93.25 93.38 93.51 93.51 93.55 93.54 92.05 93.33 93.43 93.65 94.24 94.38 94.55 94.62 94.56 94.72 94.78 95.15 95.22 95.15 95.38 95.62 95.72 95.96 95.62 95.76 96.21 96.57 96.26 96.38 96.45 96.96 97.02 97.72 97.07 97.22 97.33 97.43 97.40 97.52 98.13 98.32 98.36
90.54 92.79 92.60 92.72 92.61 92.47 92.19 92.56 92.74 92.86 93.10 93.17 93.35 93.35 91.88 92.54 93.08 93.29 93.86 94.17 94.21 94.12 94.18 94.32 94.86 94.68 95.17 95.36 95.54 95.82 95.61 95.63 96.19 95.36 95.54 95.96 96.38 96.59 96.42 96.45 96.28 96.11 96.54 97.10 97.17 97.26 97.26 97.39 97.42 97.60 97.56 98.38
90.61 90.62 90.79 92.68 92.60 92.54 91.67 92.05 92.30 92.49 92.64 92.88 93.04 93.26 90.53 93.78 93.81 93.83 93.76 94.10 93.80 94.13 93.87 94.23 94.74 95.42 95.62 95.81 95.79 94.92 94.61 94.29 94.70 95.22 95.70 96.07 96.25 96.57 96.37 96.53 96.68 96.18 96.00 95.80 96.04 97.57 97.36 97.36 97.33 97.44 97.50 97.65
91.70 91.17 90.64 90.74 90.89 91.10 91.32 91.67 91.92 92.06 92.24 92.54 92.80 93.10 90.21 93.38 93.44 93.51 93.54 93.57 93.35 93.54 93.80 94.12 94.51 95.26 95.20 95.84 95.29 94.85 94.62 94.63 94.68 94.99 95.48 96.25 96.35 96.40 96.54 95.97 96.85 96.87 96.88 95.91 95.69 95.52 95.61 97.07 97.61 97.56 97.58 97.55
91.75 91.57 91.00 90.76 90.76 90.99 91.46 91.31 91.47 91.80 92.07 92.34 92.43 92.99 92.76 92.94 93.25 93.11 92.91 92.74 93.29 93.99 93.88 94.24 94.34 94.56 95.18 94.93 95.04 94.57 94.31 94.81 94.84 94.85 96.30 96.46 96.72 96.37 96.40 96.36 96.92 96.91 96.59 96.55 96.64 95.65 95.44 95.26 95.36 96.37 97.70 97.71
91.65 91.42 90.99 91.06 90.75 90.81 90.91 91.04 91.35 91.65 91.82 92.03 92.09 90.68 92.19 92.46 92.61 92.71 92.87 93.03 93.12 93.65 93.65 94.48 94.28 94.48 94.70 94.57 94.79 94.15 94.58 95.21 95.00 94.70 95.99 96.22 96.52 96.53 95.94 96.46 97.09 96.89 96.74 96.53 96.41 96.81 95.25 95.26 95.18 95.04 95.30 96.06
91.15 91.06 90.82 90.80 90.42 90.71 90.58 90.71 90.80 91.46 91.72 91.74 91.87 91.21 91.90 91.96 92.29 92.96 93.29 93.30 92.93 93.53 93.54 93.86 94.08 94.26 94.56 94.21 93.98 94.62 94.69 94.78 94.73 94.58 96.23 96.36 96.88 96.70 96.46 96.38 97.25 97.11 96.95 96.67 96.25 96.23 96.14 95.10 95.04 95.08 94.99 95.07
90.70 90.54 90.42 90.10 90.59 90.96 90.72 90.31 90.57 91.03 91.39 91.30 91.30 91.48 91.58 91.73 92.72 93.43 93.70 93.39 93.11 93.02 93.53 93.54 93.77 93.87 93.79 93.68 94.67 94.48 94.70 94.85 94.65 95.15 96.25 96.66 97.03 96.83 97.09 96.44 96.90 96.60 96.82 96.90 97.06 96.81 95.25 94.87 94.77 95.04 95.02 95.04
90.44 90.15 89.71 90.17 90.61 90.82 90.56 90.48 90.27 90.43 90.97 90.87 91.04 91.13 91.42 91.99 92.61 93.60 93.78 93.40 93.04 92.95 93.50 93.59 93.45 93.52 93.46 94.85 94.63 94.51 94.68 94.72 94.49 94.61 95.75 96.50 96.97 97.23 97.03 96.35 95.84 94.39 94.54 94.75 94.93 95.63 95.18 94.71 94.52 94.90 95.28 95.15
89.47 89.32 89.45 90.22 90.93 90.82 90.61 89.89 90.38 90.25 90.41 90.71 90.83 91.09 91.71 92.19 92.67 93.40 93.91 93.10 92.97 92.99 93.10 93.32 93.20 93.24 93.67 94.49 94.79 94.90 94.83 94.58 93.82 94.63 96.27 96.46 96.54 96.51 96.57 96.78 96.72 95.41 94.02 94.13 94.19 94.59 94.46 94.59 94.19 94.76 95.03 95.50
88.86 89.01 89.60 90.04 90.01 90.93 90.79 90.07 89.98 90.17 90.20 90.46 90.76 91.08 91.74 92.18 92.44 92.74 93.09 93.15 92.90 92.77 92.86 92.98 93.02 93.62 94.53 94.75 94.90 94.73 94.61 94.62 93.60 93.94 95.06 96.29 96.41 96.34 96.53 96.29 95.91 95.01 95.56 94.99 94.37 94.06 94.62 94.44 93.81 94.59 95.32 95.83
88.63 88.57 88.45 89.51 89.24 89.88 90.57 87.85 89.79 89.88 90.15 90.20 90.62 91.16 91.75 92.19 92.47 92.21 92.79 92.78 92.52 92.77 92.86 93.02 93.20 93.39 94.92 94.82 95.04 94.09 94.18 94.82 93.39 93.30 93.93 95.36 96.12 96.17 96.10 95.32 94.68 94.10 93.52 93.46 93.74 94.01 94.52 94.51 93.42 93.98 94.77 95.53
88.35 88.43 88.65 89.04 89.18 89.28 89.35 89.74 89.56 89.64 90.03 90.12 90.97 90.99 91.58 91.41 91.88 92.07 92.08 92.40 92.69 92.97 93.26 93.23 93.11 94.21 95.03 94.93 94.78 94.32 93.64 93.21 92.98 93.21 93.01 93.49 94.94 94.90 95.34 94.28 93.36 93.03 93.80 94.42 94.35 94.21 93.87 93.79 93.21 93.55 94.31 95.79
87.49 88.30 88.93 89.19 89.10 89.11 89.38 89.35 89.32 89.75 89.86 90.01 90.83 91.75 91.38 91.31 91.44 91.97 92.65 93.22 93.56 93.07 93.34 93.21 93.04 94.07 95.11 94.67 94.49 93.90 93.01 92.41 92.47 92.69 92.76 93.19 93.43 93.44 93.33 92.67 92.81 93.04 94.81 94.93 94.61 93.86 93.94 93.32 93.01 93.27 93.54 94.42
87.42 88.03 88.89 89.10 89.04 88.99 88.98 88.94 89.21 89.73 89.82 89.97 90.18 90.47 90.71 92.00 92.02 92.22 92.85 93.76 93.85 93.07 90.32 93.11 93.08 93.60 93.99 94.43 94.57 91.88 92.26 92.23 92.24 92.76 92.84 92.94 92.86 92.68 92.26 92.09 92.23 92.91 94.71 94.57 94.71 93.94 93.76 93.22 92.74 92.86 93.10 93.67
87.28 87.54 88.33 88.62 88.88 88.78 88.78 88.69 89.17 89.58 89.75 89.89 90.10 90.68 91.64 92.47 92.74 92.82 93.33 93.97 94.06 94.01 93.88 93.67 93.14 93.10 93.19 93.31 93.01 91.82 91.70 91.63 92.36 92.69 92.99 93.07 92.67 92.32 92.02 91.70 91.44 91.72 94.18 94.46 94.35 93.89 93.62 93.62 92.29 92.57 92.98 93.27
87.15 87.68 87.95 88.46 88.54 88.49 88.53 88.93 89.35 89.71 89.72 90.02 90.09 90.66 91.08 92.69 93.10 93.21 93.33 94.39 94.11 93.88 93.97 93.96 92.97 93.05 92.72 92.46 92.90 92.08 91.27 91.59 92.13 92.92 93.09 92.71 92.74 92.67 91.76 91.49 91.38 92.11 93.07 93.25 93.14 93.26 92.67 92.47 91.78 92.22 92.63 93.25
87.16 88.45 88.61 88.46 88.46 88.31 88.46 88.58 89.11 89.82 89.95 90.31 90.48 90.66 91.29 92.20 92.98 93.66 93.69 93.74 93.83 94.03 94.04 93.96 92.78 92.73 92.40 92.04 91.54 91.17 91.59 91.75 92.46 93.32 92.87 92.16 92.44 92.79 90.75 91.94 90.93 92.35 92.43 92.50 92.37 92.45 92.17 91.82 91.27 92.14 92.13 92.19
87.65 88.08 88.57 88.38 88.32 88.20 88.45 88.14 88.94 89.92 90.08 90.66 90.90 91.23 91.58 92.50 92.77 93.23 93.84 93.85 93.40 93.14 92.98 92.53 92.56 92.65 91.65 91.69 91.30 91.02 91.60 92.05 92.18 92.21 92.19 91.67 91.90 92.04 90.51 90.56 90.36 91.92 91.73 91.16 91.46 90.86 90.86 90.82 91.06 91.50 91.88 92.01
87.68 87.72 87.96 88.33 88.09 88.26 88.07 88.24 89.11 89.94 90.07 90.65 91.01 91.51 92.18 92.43 92.75 93.18 93.44 93.11 92.55 92.85 92.83 92.28 92.36 92.29 91.80 90.97 90.50 90.96 91.29 91.59 92.32 92.04 91.64 91.18 91.35 90.59 90.25 90.19 90.14 89.91 90.54 90.16 90.26 90.35 90.35 90.66 90.90 91.46 91.01 92.33
87.07 88.02 88.12 87.92 87.96 87.85 87.94 88.05 88.78 89.89 90.19 90.96 91.04 91.60 91.96 92.52 92.87 92.51 92.29 92.04 91.91 92.11 92.28 92.26 91.85 91.54 91.14 90.47 89.96 90.30 91.15 91.15 91.87 92.04 91.13 90.68 90.98 89.98 89.96 89.94 89.57 89.49 89.64 89.73 89.87 90.22 90.38 90.39 90.61 90.72 91.22 92.15
85.69 87.65 87.97 87.82 87.81 87.90 87.62 88.00 88.79 89.88 90.12 90.71 90.81 91.29 90.91 91.32 91.85 91.97 90.95 91.24 91.68 91.72 92.38 92.53 91.80 91.18 91.13 90.44 90.01 90.11 90.54 90.89 90.99 90.94 90.75 90.17 90.19 89.93 90.05 89.43 89.24 89.05 89.44 89.86 90.15 90.33 90.22 90.12 90.21 91.16 90.77 91.33
87.30 86.93 87.91 87.79 87.23 87.13 87.30 87.10 87.54 89.80 90.19 90.26 90.26 90.38 90.38 90.56 90.75 90.30 90.62 90.47 90.23 90.40 91.34 92.19 91.14 90.62 90.24 89.97 89.77 90.06 90.26 90.38 90.53 90.35 90.18 89.56 89.90 89.94 89.95 89.42 89.15 89.05 89.82 89.96 90.38 90.46 90.02 89.83 89.87 90.13 90.62 91.12
87.85 88.14 87.76 87.83 86.95 86.68 87.01 88.13 89.32 89.74 89.82 90.13 90.37 90.11 89.87 89.81 89.71 89.80 89.98 89.65 89.06 88.76 88.89 89.72 89.50 89.64 89.39 89.20 89.21 89.41 89.54 89.67 89.63 89.73 89.84 88.86 89.50 89.83 89.26 89.11 88.60 88.81 89.09 89.90 89.09 89.27 89.41 89.61 89.71 89.93 90.58 91.18
88.46 88.02 87.67 86.68 86.51 86.63 86.60 86.66 89.13 89.50 89.50 89.65 89.97 89.90 89.62 89.48 89.40 89.19 89.31 89.00 88.80 88.75 88.66 88.67 88.73 88.77 88.71 88.48 88.56 88.69 88.82 88.94 89.01 89.02 88.52 88.37 88.46 88.85 88.82 88.42 88.48 88.77 88.79 88.96 89.13 89.03 89.21 89.49 89.57 89.82 90.31 90.70
88.02 87.87 87.62 86.92 86.64 86.59 86.68 86.62 89.00 89.34 89.19 89.54 89.88 89.76 89.62 89.56 89.50 89.18 89.00 88.76 88.81 88.67 88.53 88.54 88.51 88.47 88.35 87.75 87.81 87.86 87.93 87.99 88.04 88.11 88.26 88.18 88.42 88.22 88.43 88.26 88.64 88.86 89.00 89.15 89.04 88.90 89.10 89.20 89.51 89.70 89.98 90.24
88.39 88.24 87.67 87.55 86.88 86.45 86.58 88.38 88.99 89.26 88.74 89.21 89.50 89.64 89.54 89.47 89.40 88.97 88.92 88.73 88.43 88.50 88.40 88.39 88.38 88.36 88.22 87.72 87.69 87.66 87.65 87.64 87.64 88.19 88.12 88.21 88.17 88.16 88.24 88.62 88.78 88.96 88.90 89.02 89.01 88.98 88.87 89.21 89.40 89.65 90.16 90.28
87.94 88.62 88.02 87.49 87.53 87.32 86.60 88.13 88.98 88.68 88.66 89.10 89.45 89.49 89.49 89.52 89.46 88.76 88.34 88.27 88.42 88.14 88.03 88.15 88.03 87.96 87.85 87.71 87.70 87.68 87.67 87.64 87.78 87.98 88.06 88.14 88.12 88.21 88.38 88.60 88.76 88.68 88.74 89.22 88.96 88.90 89.64 89.28 89.40 89.59 90.11 90.35
88.97 88.99 88.25 88.00 87.40 87.17 87.26 88.04 88.62 88.58 88.47 89.02 89.01 89.13 89.28 89.42 89.28 88.60 88.24 88.13 88.12 88.07 87.79 87.73 87.82 87.85 87.76 87.65 87.68 87.65 87.69 87.73 87.84 87.94 87.98 88.03 88.00 88.36 88.65 88.64 88.77 88.53 88.72 88.93 89.00 89.08 89.08 89.34 89.39 89.50 90.03 90.26
89.33 89.40 89.77 89.43 87.60 87.46 87.15 87.08 87.25 88.60 88.62 87.63 87.80 87.83 88.29 88.76 89.18 88.31 88.11 88.18 88.12 87.91 87.82 87.66 87.64 87.70 87.62 87.44 87.59 87.75 87.67 87.74 88.02 88.21 88.14 88.08 88.02 88.36 88.61 88.51 88.49 88.56 88.70 88.81 88.89 88.94 89.15 89.27 89.35 89.40 89.98 90.15
89.44 89.64 89.64 89.73 89.08 87.85 87.43 87.19 87.09 87.14 87.26 87.32 87.38 87.56 87.88 88.33 88.91 88.26 88.01 88.12 88.12 87.69 87.76 87.71 87.74 87.64 87.81 87.62 87.68 87.79 87.90 87.64 88.01 88.15 88.10 88.12 87.90 88.54 88.56 88.36 88.58 88.58 88.64 88.75 88.60 88.91 89.04 89.17 89.43 89.46 89.38 89.31
89.41 89.48 89.64 89.22 88.82 88.34 87.99 88.04 87.46 87.23 87.16 87.11 87.33 87.77 87.63 88.04 88.63 88.61 88.06 88.13 87.96 87.80 87.59 87.75 87.81 87.75 87.85 87.76 87.78 87.85 87.92 87.82 87.87 87.92 88.11 87.14 87.02 87.07 87.40 87.79 88.21 88.20 88.44 88.32 88.65 88.92 89.18 89.10 89.71 89.25 89.28 89.22
90.36 89.60 89.37 89.61 89.67 88.77 88.53 88.54 87.99 87.62 87.49 87.43 87.30 87.24 87.48 87.79 87.96 88.02 88.10 87.99 87.85 87.75 87.81 87.80 87.76 87.74 87.90 87.85 87.84 87.93 88.21 87.97 87.61 86.95 87.32 88.28 88.40 88.39 88.63 88.73 88.35 87.67 88.19 88.36 88.47 89.00 89.07 89.06 89.01 89.16 89.37 89.26
90.59 90.44 89.89 89.42 89.72 89.81 89.86 89.24 88.84 88.33 87.91 87.73 87.96 87.75 87.46 87.38 87.51 87.75 87.83 87.96 87.90 87.87 87.82 87.90 87.99 87.94 87.84 87.88 87.27 87.07 87.29 87.32 87.72 88.21 88.20 88.52 88.51 88.53 88.45 88.73 88.79 88.70 88.56 88.21 88.45 88.64 88.74 89.13 89.09 88.98 89.47 89.33
91.79 91.31 91.01 90.03 89.49 89.74 89.87 89.77 89.61 89.18 88.64 88.55 88.26 88.01 87.84 87.72 87.64 87.60 87.88 88.00 87.97 87.95 87.83 87.90 87.94 86.31 87.09 87.07 87.56 88.17 88.15 88.04 88.11 88.68 88.41 88.52 88.74 88.67 88.53 88.69 88.82 88.67 88.98 88.58 88.10 88.25 88.51 88.73 89.12 89.51 89.78 89.51
91.68 92.03 91.33 90.77 90.41 89.79 89.67 89.78 89.84 89.65 89.40 88.91 88.96 88.71 88.15 88.01 88.24 88.07 87.88 88.26 88.19 88.03 86.97 86.89 87.54 87.92 88.02 88.12 88.26 88.36 88.68 88.74 88.80 88.89 88.76 88.68 88.92 88.81 88.71 88.62 88.68 88.96 89.24 88.86 88.74 87.94 88.46 88.37 88.68 89.32 89.59 88.84
91.36 91.65 91.56 91.49 90.54 91.01 89.92 89.66 89.57 89.68 89.37 89.22 89.30 89.06 88.84 88.87 88.59 88.85 88.04 88.37 88.57 88.35 88.41 88.25 88.73 88.36 88.19 88.51 88.51 88.71 88.87 88.95 88.99 89.02 89.07 89.31 89.29 89.10 88.85 88.63 88.82 88.92 88.74 88.85 88.83 89.09 87.63 88.42 88.59 88.56 88.47 88.61
91.41 91.37 91.48 91.43 91.24 90.74 90.71 90.42 89.91 89.63 89.44 89.44 89.34 89.26 89.23 88.89 88.72 89.16 89.28 88.49 88.74 88.60 88.41 88.84 88.79 88.51 88.25 88.65 88.99 89.25 89.11 89.22 89.31 89.32 89.54 89.67 89.70 89.62 89.10 88.71 88.81 88.86 88.87 88.90 89.40 88.57 88.89 87.57 88.65 86.82 87.30 88.71
91.80 91.52 91.35 91.46 91.47 91.54 91.56 90.79 90.62 89.68 89.85 89.57 89.24 89.36 89.37 89.23 88.98 89.32 89.49 88.78 89.00 88.85 88.81 88.82 88.74 88.43 88.46 88.80 89.17 89.24 89.36 89.34 89.46 90.54 90.71 90.26 89.89 89.76 88.95 88.88 88.89 89.03 89.08 89.63 89.41 89.53 89.14 87.35 88.94 88.85 88.98 88.92
92.31 92.34 92.31 91.26 91.40 91.41 91.29 91.12 90.61 90.48 90.33 90.32 90.25 89.41 89.38 89.19 89.31 89.84 89.95 89.07 89.33 89.24 89.00 88.86 88.73 88.63 88.75 88.79 89.00 89.11 89.32 89.68 89.78 90.73 91.28 90.62 90.06 90.00 88.91 88.91 89.00 89.20 89.45 89.69 89.89 89.36 88.99 88.59 87.23 88.88 88.94 88.94
92.54 92.59 92.62 92.67 91.06 91.13 91.08 90.99 90.61 90.50 89.85 89.88 90.35 89.58 89.91 89.68 89.48 89.43 89.38 89.36 89.32 89.21 88.98 89.04 89.38 88.69 88.77 88.78 89.05 89.17 89.52 89.79 90.06 90.75 91.18 90.39 90.14 90.47 88.96 89.14 89.21 89.41 89.44 89.18 89.27 88.94 88.74 88.57 88.60 88.00 88.95 89.06
92.58 92.63 92.62 92.67 92.76 91.74 90.81 90.64 90.35 90.28 89.94 89.88 89.72 89.95 90.29 90.21 90.16 90.04 89.59 89.70 89.46 89.33 89.41 89.57 89.97 90.00 89.03 89.41 89.10 89.43 89.62 89.88 90.04 90.99 90.62 90.27 90.04 90.48 89.12 89.29 89.25 89.32 89.11 88.84 88.72 88.78 88.59 88.57 88.68 87.23 88.88 88.52
92.67 92.65 92.66 92.63 92.96 92.09 91.41 90.86 90.99 91.01 91.10 90.04 89.91 90.17 90.12 90.25 90.36 89.85 89.96 90.00 89.70 89.66 89.73 89.73 89.77 90.16 89.89 89.63 89.45 89.46 89.74 89.82 90.12 90.30 90.51 90.55 89.96 89.64 90.90 90.25 90.02 89.67 89.19 89.12 88.87 89.01 88.91 89.08 89.18 88.88 87.54 88.34
92.60 92.65 92.72 92.78 92.04 92.17 91.84 91.19 91.44 92.57 92.60 91.03 90.01 90.11 90.17 90.28 90.70 91.65 90.18 90.08 89.89 90.02 89.86 90.16 90.24 90.28 90.04 89.91 89.74 89.68 89.83 89.90 90.09 90.02 90.14 90.05 89.81 89.58 90.53 90.25 90.76 90.92 90.15 90.33 90.45 89.74 89.39 89.27 89.30 89.01 88.85 88.79
92.69 92.77 93.19 93.40 92.30 92.37 92.07 91.86 92.43 92.65 92.74 92.60 90.55 90.15 90.49 91.91 91.73 91.75 90.96 91.06 90.24 90.19 89.99 90.14 90.24 90.45 90.27 90.11 89.96 89.80 90.05 90.22 90.35 90.43 90.32 90.02 89.86 89.94 90.15 90.32 90.44 90.47 90.39 90.41 90.43 90.31 88.79 89.23 89.73 89.14 89.32 89.25
93.43 93.31 93.50 93.01 92.43 92.53 92.25 92.56 93.12 93.09 92.91 92.75 91.86 91.60 90.54 91.73 91.72 91.03 91.46 91.46 90.55 90.20 90.32 90.06 90.12 90.39 90.38 90.29 90.23 90.01 90.18 90.46 90.60 90.60 90.43 90.20 90.32 90.29 90.42 90.48 90.35 90.33 90.31 90.40 90.40 89.09 88.81 88.80 89.05 89.16 89.24 89.12
94.81 93.96 93.77 93.10 93.16 92.96 92.80 93.24 93.32 93.21 93.08 93.00 92.17 92.30 90.72 92.04 92.10 91.75 91.69 91.48 90.97 90.48 90.60 90.30 90.20 90.43 90.38 90.33 90.35 90.40 90.58 90.62 90.73 90.75 90.49 90.51 90.92 90.64 90.67 90.44 90.34 90.36 90.36 90.37 90.34 88.78 88.77 88.78 88.81 88.79 89.06 89.11
94.35 94.12 93.41 93.37 93.28 93.06 93.24 93.54 93.55 93.44 93.31 93.14 93.00 91.90 91.28 91.13 91.83 91.98 91.54 91.40 91.19 90.82 90.95 90.76 90.51 90.36 90.48 90.55 90.63 90.56 90.70 90.82 90.96 90.90 90.72 90.83 90.90 90.75 90.62 90.27 90.44 90.46 90.55 90.30 88.76 88.75 88.78 88.79 88.81 88.78 88.92 89.29
94.62 94.55 94.20 93.50 93.51 93.44 93.41 93.13 93.41 93.60 93.53 93.31 93.10 92.93 91.53 92.09 92.11 91.62 91.81 91.84 91.62 91.32 91.11 90.98 90.72 90.54 90.54 90.63 90.87 90.81 90.94 91.02 91.18 91.05 90.90 90.85 90.82 91.10 90.88 90.29 90.38 90.28 90.18 90.32 88.78 89.27 88.79 88.94 89.19 89.49 88.79 89.25
94.54 94.57 94.40 94.22 93.92 93.61 94.29 93.82 93.69 93.21 93.40 93.47 93.32 92.98 92.45 92.54 92.24 91.85 91.97 92.31 91.84 91.61 91.34 91.56 91.05 90.87 90.63 90.73 90.90 90.98 91.10 91.16 91.06 91.23 91.18 91.37 91.34 90.88 90.87 90.44 90.87 90.29 88.78 88.79 88.79 88.78 89.51 89.55 89.67 89.25 89.52 89.26
94.60 94.64 94.69 94.61 94.65 94.13 94.00 93.93 93.91 94.02 93.09 93.52 93.60 93.33 92.93 92.71 92.51 92.20 93.10 92.54 92.10 91.95 91.64 91.49 91.48 91.36 91.23 90.85 90.88 90.96 90.99 91.22 91.40 91.49 91.49 91.71 91.44 91.19 91.18 90.80 90.18 88.80 88.79 88.84 88.77 90.45 90.54 89.77 89.60 89.64 89.66 89.37
