ncols 52
nrows 52
xllcorner 437760
yllcorner 5715456
cellsize 10
NODATA_value -9999
94.82 94.68 94.57 94.38 94.25 94.11 93.93 93.90 93.62 93.43 93.16 93.04 92.92 92.75 92.63 92.43 92.24 92.07 91.90 91.74 91.63 91.56 91.51 91.38 91.36 91.25 91.14 91.08 91.00 90.86 90.87 90.33 89.96 89.79 89.51 89.25 88.96 88.38 88.43 88.31 88.18 88.29 88.23 88.64 89.03 89.50 89.91 90.01 90.41 90.19 89.90 91.68
94.91 94.76 94.65 94.47 94.31 94.15 94.03 94.05 93.66 93.38 93.18 93.06 92.88 92.75 92.61 92.48 92.30 92.06 91.90 91.78 91.74 91.68 91.65 91.68 91.55 91.34 91.11 91.02 90.83 90.70 90.50 90.21 89.72 89.60 89.38 89.12 88.78 88.55 88.45 88.35 87.44 88.46 88.61 88.76 89.18 89.64 90.03 90.36 90.57 90.41 90.08 89.46
95.02 94.85 94.73 94.57 94.39 94.23 94.07 93.76 93.70 93.46 93.26 93.13 92.97 92.82 92.72 92.62 92.44 92.21 91.96 91.71 91.54 91.43 91.44 91.43 91.35 91.21 91.06 90.97 90.79 90.64 90.46 90.07 89.73 89.49 89.19 89.09 88.68 88.60 88.46 88.24 88.71 88.78 88.96 89.12 89.39 89.83 89.94 90.01 90.50 90.36 90.42 90.43
95.11 94.95 94.79 94.68 94.46 94.31 94.05 93.78 93.80 93.57 93.51 93.25 92.96 92.68 92.50 92.38 92.24 92.07 91.89 91.73 91.54 91.45 91.50 91.45 91.36 91.21 91.00 90.93 90.72 90.53 90.34 90.06 89.72 89.54 89.32 88.78 88.76 88.67 88.59 88.71 88.93 89.01 89.14 89.33 89.64 89.99 90.27 90.49 90.71 90.78 90.66 90.68
95.17 95.03 94.83 94.66 94.50 94.30 94.07 93.85 93.77 93.52 93.31 93.11 92.89 92.65 92.43 92.27 92.18 91.94 91.81 91.68 91.57 91.49 91.46 91.48 91.30 91.15 90.99 90.85 90.58 90.36 90.17 89.90 89.76 89.44 89.07 88.87 88.84 88.61 88.83 88.96 89.04 89.19 89.39 89.62 89.90 90.13 90.51 90.74 90.94 91.08 91.21 91.33
95.19 95.02 94.83 94.60 94.41 94.22 94.03 93.77 93.47 93.45 93.20 93.00 92.75 92.53 92.38 92.20 92.11 91.87 91.70 91.63 91.54 91.48 91.48 91.40 91.26 91.12 90.91 90.65 90.44 90.15 89.92 89.73 89.64 89.40 88.70 88.81 88.75 87.91 89.11 89.11 89.19 89.41 89.61 89.82 90.10 90.32 90.61 90.85 91.11 91.31 91.47 91.56
95.13 94.93 94.72 94.52 94.32 94.12 93.97 93.71 93.38 93.65 93.14 92.94 92.72 92.50 92.25 92.10 92.00 91.82 91.68 91.60 91.51 91.46 91.41 91.24 91.10 90.91 90.68 90.45 90.20 90.02 89.74 89.61 89.43 88.90 88.65 88.83 88.32 89.12 89.24 89.33 89.47 89.69 89.90 90.15 90.34 90.51 90.82 91.04 91.30 91.52 91.71 91.84
95.05 94.84 94.69 94.47 94.31 94.09 93.90 93.68 93.48 93.45 93.16 92.88 92.69 92.47 92.20 91.94 92.00 91.75 91.56 91.43 91.35 91.30 91.26 91.06 90.91 90.67 90.43 90.19 90.02 89.84 89.69 89.47 89.20 89.03 88.91 89.00 89.14 89.25 89.33 89.46 89.72 90.02 90.24 90.47 90.61 90.84 91.03 91.21 91.50 91.70 91.92 92.10
95.01 94.82 94.69 94.54 94.30 94.11 93.89 93.69 93.49 93.24 93.08 92.83 92.57 92.37 92.15 91.93 91.75 91.55 91.47 91.34 91.22 91.13 91.02 90.88 90.69 90.49 90.25 90.05 89.89 89.75 89.53 89.22 89.20 89.15 89.51 89.49 89.39 89.28 89.39 89.60 89.88 90.20 90.49 90.73 90.93 91.11 91.25 91.47 91.68 91.89 92.12 92.30
95.00 94.84 94.68 94.52 94.33 94.12 93.85 93.67 93.43 93.06 93.17 92.81 92.54 92.27 92.08 91.86 91.61 91.47 91.30 91.10 90.99 90.92 90.74 90.70 90.49 90.29 90.06 89.86 89.71 89.57 89.48 88.91 89.81 89.89 89.65 89.68 89.67 89.59 89.49 89.69 89.97 90.31 90.61 90.83 91.10 91.29 91.52 91.76 91.91 92.10 92.27 92.45
95.00 94.84 94.65 94.51 94.29 94.10 93.83 93.65 93.41 93.18 93.10 92.77 92.51 92.21 91.93 91.75 91.45 91.33 91.10 90.90 90.80 90.73 90.64 90.52 90.31 90.11 89.94 89.74 89.59 88.59 90.02 89.79 90.90 89.90 89.90 89.85 89.86 90.00 89.81 89.75 90.00 90.28 90.62 90.93 91.16 91.33 91.67 91.87 92.08 92.29 92.47 92.67
95.01 94.87 94.67 94.49 94.29 94.04 93.82 93.60 93.39 93.19 92.97 92.75 92.45 92.11 91.85 91.53 91.27 91.07 90.96 90.74 90.65 90.63 90.52 90.36 90.17 89.89 89.67 88.68 90.12 90.18 90.40 90.37 90.57 90.08 90.16 90.17 90.20 90.24 90.32 90.11 90.04 90.22 90.56 90.92 91.15 91.42 91.66 91.91 92.21 92.46 92.66 92.91
95.02 94.86 94.68 94.46 94.24 93.99 93.78 93.55 93.36 93.11 92.83 92.86 92.49 92.15 91.74 91.38 91.18 90.97 90.79 90.57 90.40 90.38 90.24 90.00 89.80 89.29 90.17 90.12 90.19 90.35 90.37 90.31 91.04 91.03 90.50 90.47 90.51 90.58 90.66 90.65 90.36 90.35 90.57 90.88 91.17 91.43 91.70 91.93 92.26 92.54 92.79 93.08
95.04 94.86 94.65 94.43 94.19 93.91 93.74 93.46 93.29 93.08 92.84 92.76 92.38 92.13 91.74 91.32 91.08 90.86 90.61 90.42 90.16 90.07 90.01 89.87 90.13 90.16 90.24 91.90 90.49 90.68 90.74 90.60 92.55 91.99 90.85 90.77 90.79 90.87 90.97 90.99 90.87 90.65 90.78 91.00 91.25 91.50 91.74 92.09 92.35 92.64 92.96 93.28
95.06 94.86 94.65 94.39 94.15 93.88 93.63 93.38 93.17 92.98 92.77 92.49 92.30 91.95 91.65 91.24 90.98 90.65 90.28 90.10 89.98 89.99 90.27 90.25 90.29 90.30 90.39 90.62 90.57 90.78 91.00 90.86 91.75 91.20 91.21 91.10 91.13 91.19 91.24 91.33 91.21 91.03 91.13 91.30 91.52 91.71 91.92 92.17 92.49 92.71 93.10 93.43
95.03 94.79 94.60 94.38 94.11 93.82 93.56 93.26 93.01 92.83 92.57 92.11 92.36 91.84 91.34 91.02 90.79 90.48 90.14 90.13 90.01 90.19 90.42 90.44 90.50 90.50 90.58 90.77 90.81 90.81 90.90 91.52 91.30 91.31 91.33 91.50 91.46 91.47 91.53 91.63 91.58 91.41 91.45 91.62 91.78 91.92 92.11 92.37 92.58 92.88 93.25 93.58
94.99 94.74 94.56 94.33 94.06 93.76 93.46 93.18 92.84 92.62 92.42 92.10 92.18 91.53 91.15 90.92 90.68 90.42 89.84 90.45 90.60 90.57 90.61 90.72 90.77 90.75 90.85 90.91 90.93 91.04 91.18 91.38 91.57 91.72 91.67 91.72 91.76 91.74 91.82 91.89 91.92 91.76 91.73 91.81 91.92 92.03 92.21 92.43 92.77 93.07 93.25 93.53
94.89 94.69 94.47 94.28 93.96 93.69 93.36 93.04 92.71 92.44 92.18 91.93 91.82 91.33 90.99 90.73 89.94 90.92 90.85 90.83 90.83 90.89 90.90 90.93 91.00 91.04 91.04 91.01 91.18 91.49 91.46 91.65 91.83 92.07 91.96 92.05 92.06 92.04 92.09 92.14 92.19 92.13 92.07 92.05 92.14 92.26 92.43 92.65 92.94 93.26 93.36 93.70
94.78 94.61 94.37 94.15 93.88 93.57 93.21 92.89 92.60 92.26 92.07 91.90 91.23 91.28 90.17 91.19 91.24 91.20 91.18 91.18 91.15 91.17 91.15 91.22 91.26 91.21 91.28 91.34 91.37 91.60 91.79 91.88 92.06 92.20 92.19 92.22 92.33 92.37 92.41 92.43 92.49 92.51 92.43 92.40 92.48 92.56 92.74 92.96 93.25 93.38 93.66 93.90
94.63 94.48 94.25 94.00 93.71 93.40 93.07 92.75 92.48 92.16 91.85 91.60 90.43 91.56 91.31 91.41 91.42 91.51 91.45 91.37 91.40 91.42 91.43 91.41 91.52 91.55 91.58 91.66 91.67 91.79 92.01 92.11 92.26 92.43 92.45 92.51 92.74 92.67 92.69 92.77 92.84 92.89 92.83 92.81 92.86 92.94 93.03 93.32 93.53 93.75 94.05 94.12
94.45 94.28 94.07 93.83 93.58 93.30 93.00 92.69 92.31 92.00 90.68 91.97 92.27 91.94 91.72 91.70 91.77 91.73 91.74 91.67 91.64 91.58 91.67 91.72 91.78 91.85 91.95 91.94 92.02 92.12 92.32 92.47 92.49 92.62 92.71 92.79 92.94 92.99 92.99 93.07 93.13 93.22 93.22 93.25 93.27 93.35 93.45 93.67 93.88 94.09 94.37 94.36
94.32 94.10 93.90 93.68 93.46 93.21 92.80 92.49 91.03 92.15 92.30 92.06 91.62 91.90 92.18 92.07 92.06 92.03 92.03 91.83 91.89 91.84 91.96 91.96 92.15 92.10 92.14 92.21 92.29 92.45 92.60 92.63 92.76 92.92 92.97 93.00 93.14 93.27 93.32 93.40 93.43 93.51 93.61 93.61 93.62 93.70 93.81 94.00 94.23 94.46 94.50 94.74
94.15 93.99 93.74 93.53 93.27 92.94 91.66 92.75 92.74 92.68 92.63 92.56 92.56 92.60 92.57 92.40 92.40 92.19 92.23 92.20 92.20 92.11 92.23 92.28 92.39 92.40 92.49 92.58 92.63 92.62 92.85 92.94 93.09 93.22 93.28 93.34 93.42 93.76 93.65 93.70 93.78 93.88 93.96 93.97 93.96 94.06 94.14 94.30 94.56 94.74 94.87 95.10
94.06 93.83 93.54 93.29 92.12 93.16 93.02 92.88 92.85 92.82 92.78 92.85 92.98 93.92 92.89 92.69 92.65 92.60 92.64 92.50 92.49 92.43 92.47 92.49 92.60 92.72 92.77 92.90 92.95 92.97 93.21 93.25 93.35 93.52 93.64 93.69 93.77 93.79 93.97 93.98 94.08 94.18 94.32 94.33 94.35 94.43 94.51 94.67 94.90 95.08 95.24 95.43
93.95 93.56 92.87 93.69 93.60 93.40 93.25 93.13 93.05 93.04 93.04 93.03 93.28 93.65 93.10 93.06 93.00 92.94 92.93 92.82 92.70 92.68 92.72 92.79 92.84 92.90 92.98 93.09 93.18 93.29 93.43 93.67 93.67 93.76 93.85 93.88 93.90 94.10 94.28 94.27 94.41 94.50 94.61 94.65 94.68 94.75 94.87 95.01 95.23 95.41 95.56 95.63
93.34 94.30 94.20 94.03 93.93 93.70 93.68 93.48 93.39 93.40 93.40 93.42 93.71 93.83 93.57 93.60 93.31 93.24 93.15 93.00 92.92 92.89 92.96 93.10 93.17 93.27 93.37 93.48 93.54 93.64 93.69 93.83 93.93 93.94 94.09 94.11 94.27 94.31 94.60 94.65 94.74 94.85 94.94 94.96 94.95 95.05 95.22 95.33 95.48 95.71 95.85 95.96
94.60 94.66 94.55 94.25 94.22 94.14 94.03 93.81 93.73 93.82 93.75 93.72 93.83 93.85 94.67 94.03 93.63 93.44 93.35 93.33 93.29 93.34 93.38 93.46 93.53 93.62 93.66 93.75 93.82 93.90 94.04 94.15 94.23 94.27 94.39 94.53 94.51 94.67 94.69 94.99 95.04 95.17 95.22 95.29 95.28 95.40 95.55 95.67 95.78 96.00 96.16 96.31
94.90 94.86 94.82 94.44 94.47 94.35 94.27 94.07 93.99 94.11 94.04 94.07 94.26 94.23 94.86 94.30 94.06 93.82 93.67 93.60 93.56 93.58 93.67 93.77 93.85 93.93 93.97 94.01 94.08 94.25 94.30 94.47 94.57 94.64 94.67 94.75 94.85 94.89 95.13 95.36 95.37 95.45 95.49 95.58 95.64 95.77 95.87 95.97 96.11 96.37 96.56 96.62
95.19 95.15 95.05 94.87 94.73 94.69 94.57 94.42 94.31 94.35 94.36 94.35 94.47 94.51 95.22 94.04 94.46 94.15 93.99 93.92 93.89 93.89 93.96 94.04 94.15 94.22 94.28 94.35 94.41 94.57 94.61 94.78 94.77 94.78 94.98 95.09 95.16 95.33 95.42 95.67 95.73 95.73 95.78 95.85 95.99 96.06 96.17 96.31 96.42 96.67 96.78 96.92
95.51 95.33 95.35 95.12 94.99 94.96 94.83 94.72 94.63 94.63 94.65 94.61 94.76 94.79 95.07 95.38 94.88 94.41 94.31 94.25 94.23 94.19 94.27 94.36 94.46 94.54 94.61 94.67 94.74 94.82 95.06 95.12 95.19 95.23 95.37 95.43 95.53 95.71 95.88 96.01 96.00 95.97 96.06 96.17 96.29 96.37 96.48 96.68 96.77 96.96 97.38 97.74
95.76 95.73 95.62 95.45 95.26 95.24 95.15 95.04 94.85 95.01 94.94 94.90 95.08 95.00 95.07 96.44 95.30 94.82 94.54 94.52 94.51 94.52 94.59 94.71 94.82 94.87 94.90 95.18 95.12 95.21 95.32 95.43 95.48 95.64 95.69 95.83 95.88 96.12 96.22 96.17 96.29 96.22 96.30 96.44 96.59 96.67 96.83 97.01 97.13 97.25 98.19 98.38
96.07 95.97 95.94 95.75 95.50 95.51 95.46 95.41 95.25 95.28 95.33 95.36 95.46 95.49 95.56 95.57 95.39 95.24 94.83 94.79 94.85 94.90 94.91 95.00 95.23 95.26 95.27 95.41 95.41 95.43 95.50 95.71 95.72 95.95 96.08 96.12 96.23 96.34 96.42 96.41 96.55 96.53 96.60 96.71 96.82 96.97 97.10 97.27 97.41 97.50 98.92 99.04
96.33 96.28 96.16 96.01 95.90 95.90 95.89 95.87 95.76 95.77 95.77 95.70 95.76 95.71 95.60 95.59 96.18 95.61 95.19 95.09 95.14 95.23 95.23 95.36 95.50 95.58 95.64 95.56 95.65 95.79 95.90 96.17 96.09 96.21 96.49 96.51 96.60 96.62 96.80 96.69 96.89 96.85 96.87 96.99 97.17 97.28 97.37 97.51 97.68 97.73 99.24 99.27
96.51 96.44 96.33 96.19 96.19 96.13 96.15 96.07 95.93 95.90 95.89 95.89 95.83 95.84 95.82 95.64 96.11 95.87 95.62 95.50 95.46 95.55 95.56 95.69 95.76 95.89 95.91 96.08 96.03 96.09 96.23 96.35 96.52 96.54 96.71 96.82 96.76 96.88 96.88 96.81 97.01 97.15 97.15 97.26 97.42 97.58 97.65 97.78 97.93 98.02 99.22 99.37
96.63 96.52 96.51 96.31 96.31 96.30 96.25 96.24 96.10 96.06 96.10 96.07 96.02 95.98 95.99 95.98 96.03 95.63 96.06 95.84 95.91 95.89 95.89 95.99 96.12 96.17 96.18 96.27 96.35 96.44 96.52 96.66 96.89 96.97 96.89 96.99 97.11 97.13 97.18 97.11 97.34 97.45 97.46 97.55 97.69 97.84 97.93 98.07 98.20 98.29 99.36 99.36
96.76 96.63 96.65 96.51 96.56 96.54 96.51 96.43 96.27 96.26 96.28 96.29 96.27 96.19 96.26 96.18 96.12 96.58 96.31 96.12 96.02 96.15 96.15 96.25 96.28 96.39 96.54 96.65 96.69 96.78 96.89 97.11 97.26 97.24 97.25 97.35 97.36 97.35 97.42 97.41 97.71 97.79 97.86 97.87 98.02 98.15 98.30 98.38 98.53 98.77 99.38 99.42
96.97 96.90 96.75 96.67 96.76 96.79 96.70 96.60 96.47 96.45 96.47 96.48 96.53 96.46 96.42 96.43 96.43 97.00 96.57 96.46 96.35 96.41 96.49 96.58 96.71 96.80 96.96 96.97 97.08 97.21 97.29 97.39 97.48 97.62 97.51 97.72 97.76 97.81 97.83 97.83 98.20 98.04 98.24 98.32 98.52 98.74 98.91 99.03 99.13 99.41 99.52 99.53
97.17 97.15 96.95 96.89 96.94 96.97 96.93 96.84 96.73 96.67 96.65 96.65 96.67 96.62 96.60 96.64 96.58 96.94 96.61 96.86 96.69 96.81 96.89 96.86 96.97 97.08 97.12 97.27 97.41 97.53 97.57 97.70 97.79 97.75 97.89 97.88 98.06 98.08 98.88 98.40 98.43 98.62 98.78 98.96 99.22 99.36 99.39 99.37 99.36 99.59 99.77 99.65
97.33 97.31 97.24 97.18 97.12 97.06 97.01 96.92 96.98 96.92 96.84 96.78 96.86 96.85 96.83 96.89 96.81 97.28 97.15 97.25 97.03 96.95 97.08 97.12 97.26 97.38 97.50 97.71 97.79 97.92 97.96 97.99 98.10 98.22 98.25 98.39 98.52 98.78 98.96 98.98 98.97 98.94 98.78 99.10 99.25 99.33 99.44 99.56 99.70 99.93 100.35 99.44
97.53 97.47 97.41 97.35 97.26 97.25 97.19 97.15 97.19 97.17 97.02 97.03 97.04 97.12 97.08 97.15 97.00 97.12 98.26 97.60 97.42 97.32 97.44 97.52 97.67 97.70 97.90 98.08 98.35 98.55 98.61 98.79 98.73 98.85 98.85 98.79 98.57 98.96 99.03 99.06 99.13 99.13 99.23 99.32 99.26 99.34 99.46 99.61 99.69 100.12 98.66 98.53
97.69 97.60 97.61 97.60 97.50 97.44 97.41 97.41 97.43 97.42 97.33 97.25 97.30 97.33 97.34 97.36 97.27 97.25 98.24 97.73 97.99 97.72 98.01 98.24 98.17 98.57 98.70 98.78 98.79 98.65 98.48 98.93 98.97 99.02 99.07 99.10 99.13 99.15 99.13 99.19 99.26 99.29 99.31 99.44 99.51 99.55 99.69 99.75 99.91 100.25 100.05 99.27
97.85 97.82 97.79 97.77 97.68 97.74 97.66 97.66 97.65 97.57 97.60 97.58 97.65 97.66 97.75 97.85 97.82 97.91 98.17 98.22 98.36 98.45 98.41 98.29 98.54 98.96 99.05 99.04 98.96 98.97 98.92 98.98 99.04 99.09 99.23 99.28 99.39 99.41 99.50 99.59 99.65 99.66 99.64 99.74 99.77 99.82 99.85 99.98 100.07 100.41 100.40 100.46
98.08 98.06 98.07 97.98 97.92 97.81 97.89 97.90 97.91 98.04 98.07 98.08 98.32 98.36 98.34 98.31 98.19 98.06 97.94 98.36 98.68 98.65 98.70 98.79 98.87 98.98 99.04 99.04 98.99 99.08 99.07 99.21 99.31 99.44 99.60 99.68 99.77 99.83 99.89 100.00 100.05 100.03 100.07 100.07 100.10 100.10 100.15 100.26 100.37 100.50 100.36 100.52
98.36 98.39 98.33 98.25 98.16 98.13 98.30 98.46 98.46 98.46 98.35 98.18 97.98 98.43 98.54 98.64 98.65 98.71 98.76 98.87 98.98 98.85 98.88 98.93 99.06 99.21 99.18 99.26 99.29 99.36 99.43 99.55 99.72 99.80 100.04 100.06 100.19 100.22 100.28 100.36 100.41 100.41 100.43 100.47 100.44 100.43 100.45 100.53 100.61 100.63 100.34 100.20
98.77 98.75 98.61 98.48 98.33 98.02 98.07 98.36 98.33 98.49 98.51 98.56 98.58 98.65 98.76 98.83 98.81 98.84 98.89 99.05 99.15 99.20 99.16 99.19 99.25 99.38 99.48 99.55 99.60 99.67 99.79 99.92 100.08 100.18 100.32 100.36 100.44 100.50 100.57 100.63 100.67 100.73 100.71 100.76 100.75 100.75 100.69 100.75 100.71 100.95 100.57 100.49
98.47 98.49 98.42 98.42 98.40 98.43 98.41 98.43 98.44 98.51 98.54 98.56 98.62 98.72 98.83 98.92 98.97 99.03 99.13 99.26 99.41 99.66 99.46 99.45 99.57 99.62 99.67 99.77 99.89 99.97 100.10 100.25 100.37 100.52 100.63 100.62 100.64 100.71 100.82 100.84 100.87 100.81 100.84 100.88 100.92 100.91 100.87 100.90 100.77 101.24 100.74 100.58
98.79 98.70 98.64 98.55 98.45 98.40 98.44 98.46 98.55 98.61 98.68 98.74 98.83 98.92 99.00 99.07 99.13 99.23 99.31 99.49 99.67 99.90 99.67 99.68 99.81 99.88 99.93 100.15 100.29 100.41 100.46 100.58 100.73 100.79 100.85 100.83 100.89 100.96 101.00 101.02 100.98 100.94 100.97 101.04 101.10 100.99 100.93 101.02 100.94 101.13 101.18 101.35
98.86 98.81 98.73 98.67 98.60 98.53 98.54 98.66 98.71 98.79 98.86 98.93 98.97 99.07 99.16 99.24 99.31 99.45 99.56 99.72 99.88 100.04 99.94 99.98 100.04 100.18 100.29 100.44 100.67 100.81 100.84 100.87 101.01 101.07 101.11 101.04 101.15 101.18 101.17 101.15 101.16 101.14 101.26 101.26 101.22 101.10 101.03 101.05 101.24 102.32 102.01 101.67
99.13 99.02 98.97 98.86 98.78 98.71 98.71 98.85 98.93 99.04 99.07 99.16 99.12 99.22 99.32 99.42 99.55 99.68 99.83 99.99 100.13 100.24 100.38 100.29 100.45 100.48 100.57 100.72 100.94 101.11 101.14 101.16 101.24 101.26 101.26 101.29 101.36 101.38 101.36 101.38 101.42 101.37 101.41 101.35 101.39 101.38 101.36 101.35 101.56 101.34 101.17 101.17
99.37 99.25 99.21 99.07 98.99 98.91 98.89 99.03 99.13 99.23 99.31 99.37 99.38 99.42 99.52 99.65 99.80 99.94 100.11 100.23 100.37 100.54 100.67 100.54 100.69 100.75 100.80 100.97 101.14 101.34 101.44 101.44 101.48 101.46 101.44 101.46 101.54 101.61 101.58 101.64 101.63 101.61 101.58 101.60 101.65 101.64 101.60 101.72 101.75 101.66 101.44 101.40
99.64 99.50 99.40 99.30 99.21 99.12 99.10 99.20 99.36 99.43 99.50 99.59 99.63 99.68 99.79 99.93 100.05 100.17 100.37 100.49 100.63 100.78 100.96 100.88 100.99 101.07 101.08 101.19 101.35 101.55 101.69 101.73 101.73 101.76 101.76 101.77 101.78 101.87 101.90 101.87 101.84 101.80 101.81 101.79 101.79 101.80 101.74 101.83 101.85 101.67 101.58 101.46
99.85 99.69 99.60 99.53 99.47 99.37 99.32 99.35 99.53 99.61 99.76 99.82 99.91 99.93 100.08 100.21 100.32 100.44 100.57 100.75 100.90 101.02 101.12 101.29 101.32 101.33 101.45 101.58 101.68 101.93 102.04 102.11 102.11 102.02 101.94 101.89 101.94 102.01 102.03 102.04 102.02 102.00 102.01 101.99 101.96 101.90 101.85 101.92 101.90 101.52 101.48 101.54
