ncols 52
nrows 52
xllcorner 437760
yllcorner 5716992
cellsize 10
NODATA_value -9999
85.10 84.96 84.87 84.78 84.67 84.55 84.40 84.33 84.28 84.15 84.06 83.97 83.92 83.84 83.82 83.76 83.74 83.78 83.60 83.57 83.54 83.45 83.39 83.32 83.26 83.25 83.20 83.04 82.88 82.72 82.53 82.33 82.07 81.83 81.57 81.20 80.85 80.61 79.54 80.43 80.51 80.75 80.89 81.14 81.35 81.65 82.04 82.29 82.44 82.61 82.61 82.66
85.21 85.12 85.01 84.91 84.79 84.67 84.51 84.42 84.40 84.30 84.15 84.12 84.03 83.98 83.94 83.90 83.87 83.87 83.75 83.71 83.62 83.57 83.49 83.43 83.36 83.32 83.26 83.13 82.91 82.76 82.56 82.36 82.10 81.83 81.55 81.17 80.86 80.53 79.24 80.57 80.71 80.90 81.18 81.48 81.68 81.88 82.07 82.29 82.44 82.55 82.62 82.70
85.35 85.23 85.15 85.03 84.91 84.76 84.65 84.55 84.55 84.46 84.31 84.25 84.19 84.09 84.08 84.03 84.00 83.96 83.98 83.80 83.74 83.67 83.58 83.50 83.43 83.41 83.32 83.18 82.98 82.79 82.61 82.40 82.13 81.84 81.54 81.17 80.90 80.58 80.08 80.53 80.79 81.00 81.34 81.64 81.95 82.18 82.37 82.43 82.50 82.63 82.74 82.85
85.43 85.33 85.22 85.10 85.01 84.87 84.76 84.67 84.67 84.60 84.48 84.40 84.35 84.25 84.21 84.18 84.15 84.10 83.87 83.92 83.85 83.74 83.67 83.59 83.52 83.52 83.42 83.26 83.07 82.88 82.68 82.42 82.16 81.87 81.60 81.22 80.93 80.82 80.48 80.53 80.80 81.07 81.43 81.79 82.08 82.35 82.54 82.69 82.73 82.81 82.88 82.98
85.47 85.43 85.32 85.22 85.14 85.00 84.89 84.82 84.77 84.77 84.66 84.55 84.50 84.42 84.34 84.32 84.29 84.21 84.15 84.04 83.97 83.88 83.79 83.71 83.63 83.59 83.52 83.35 83.17 82.96 82.79 82.53 82.25 81.93 81.61 81.22 81.00 79.74 80.50 80.50 80.74 81.08 81.40 81.76 82.06 82.40 82.64 82.86 82.89 82.96 83.02 83.14
85.62 85.54 85.47 85.33 85.25 85.13 84.99 84.93 84.93 84.93 84.82 84.71 84.65 84.58 84.54 84.49 84.48 84.38 84.34 84.34 84.16 84.06 83.92 83.79 83.74 83.67 83.60 83.46 83.29 83.09 82.89 82.64 82.34 82.03 81.64 81.29 81.02 80.88 80.72 79.57 80.73 80.98 81.32 81.69 82.00 82.31 82.60 82.83 83.03 83.07 83.17 83.30
85.79 85.64 85.58 85.47 85.35 85.25 85.13 85.06 85.04 85.05 85.01 84.88 84.81 84.78 84.69 84.71 84.65 84.57 84.49 84.43 84.30 84.19 84.05 83.92 83.85 83.81 83.71 83.56 83.40 83.19 82.94 82.72 82.40 82.07 81.72 81.35 81.09 80.90 80.86 80.61 80.56 80.81 81.13 81.47 81.87 82.13 82.50 82.74 83.01 83.13 83.27 83.42
85.93 85.74 85.67 85.59 85.49 85.39 85.26 85.20 85.19 85.18 85.19 85.09 84.99 84.93 84.87 84.83 84.81 84.73 84.63 84.54 84.56 84.32 84.17 84.11 84.04 83.93 83.84 83.67 83.46 83.26 83.01 82.74 82.45 82.07 81.75 81.40 81.15 80.98 80.79 79.56 80.38 80.44 80.90 81.32 81.71 82.02 82.35 82.65 82.90 83.15 83.30 83.45
86.07 85.90 85.79 85.72 85.60 85.50 85.40 85.31 85.32 85.31 85.30 85.27 85.19 85.12 85.04 84.99 84.93 84.85 84.72 84.60 84.38 84.42 84.35 84.24 84.18 84.04 83.91 83.74 83.49 83.29 83.03 82.68 82.43 82.10 81.82 81.52 81.24 81.00 81.01 79.92 80.28 80.35 79.72 80.50 81.54 81.83 82.16 82.48 82.74 83.04 83.31 83.53
86.17 86.04 85.87 85.82 85.72 85.61 85.55 85.43 85.43 85.49 85.44 85.43 85.35 85.25 85.19 85.11 85.01 84.93 84.80 84.66 84.56 84.50 84.44 84.37 84.22 84.08 83.91 83.72 83.52 83.23 82.94 82.68 82.41 82.13 81.86 81.54 81.15 81.01 80.10 80.65 80.81 80.74 80.79 80.45 80.98 81.65 81.90 82.21 82.56 82.89 83.30 83.57
86.27 86.20 86.02 85.95 85.86 85.78 85.71 85.59 85.55 85.60 85.62 85.55 85.49 85.43 85.31 85.21 85.12 85.02 84.92 84.75 84.67 84.65 84.54 84.43 84.29 84.07 83.89 83.69 83.49 83.24 83.00 82.65 82.36 82.07 81.72 80.91 80.52 81.39 81.34 81.26 81.17 81.17 81.12 80.87 80.47 81.40 81.53 81.89 82.28 82.61 83.07 83.45
86.43 86.33 86.18 86.04 86.01 85.92 85.83 85.74 85.67 85.74 85.72 85.70 85.64 85.56 85.44 85.33 85.22 85.13 85.01 84.85 84.73 84.64 84.57 84.50 84.32 84.04 83.92 83.76 83.57 83.18 82.85 82.47 80.99 80.68 81.86 81.85 81.81 81.75 81.57 81.42 81.29 81.30 81.31 81.14 80.61 80.97 81.24 81.52 81.88 82.28 82.73 83.20
86.56 86.45 86.36 86.18 86.17 86.09 86.01 85.89 85.83 85.89 85.90 85.81 85.79 85.70 85.53 85.43 85.32 85.22 85.08 84.95 84.81 84.70 84.71 84.50 84.34 84.16 83.97 83.70 83.40 82.44 81.15 82.91 82.59 82.43 82.41 82.26 82.04 81.95 81.80 81.62 81.51 81.51 81.45 81.26 80.99 80.78 80.45 81.30 81.54 81.90 82.35 82.85
86.71 86.61 86.53 86.39 86.31 86.27 86.17 86.04 85.96 85.97 86.00 85.94 85.89 85.84 85.68 85.53 85.44 85.30 85.16 85.03 84.87 84.75 84.53 84.56 84.46 84.13 83.87 82.75 81.41 83.07 82.95 82.90 82.84 82.79 82.71 82.52 82.39 82.23 82.03 81.88 81.73 81.65 81.63 81.54 81.36 81.04 80.88 80.82 81.39 81.61 82.08 82.51
86.91 86.75 86.66 86.57 86.40 86.42 86.35 86.22 86.13 86.13 86.14 86.10 85.99 85.93 85.81 85.61 85.47 85.38 85.22 85.07 84.93 84.76 84.62 84.56 84.33 84.00 81.79 82.29 83.41 83.46 83.27 83.14 83.04 82.99 82.99 82.82 82.68 82.46 82.27 82.08 81.98 81.85 81.82 81.75 81.67 81.47 81.27 80.61 79.76 81.29 81.89 82.18
87.01 86.86 86.78 86.72 86.57 86.60 86.51 86.40 86.26 86.27 86.28 86.22 86.10 86.04 85.93 85.76 85.58 85.44 85.28 85.11 84.94 84.75 84.59 84.54 84.24 82.33 83.39 83.58 83.68 83.61 83.58 83.53 83.44 83.33 83.30 83.12 82.93 82.72 82.48 82.34 82.24 82.14 82.04 81.96 81.86 81.76 81.47 81.15 80.69 80.54 80.28 81.93
87.10 87.01 86.91 86.84 86.76 86.69 86.70 86.57 86.46 86.42 86.39 86.36 86.20 86.10 86.00 85.83 85.61 85.47 85.30 85.14 84.91 84.71 84.47 84.38 84.32 82.62 83.70 83.84 83.91 83.95 83.93 83.85 83.75 83.61 83.52 83.48 83.21 82.96 82.73 82.62 82.49 82.39 82.27 82.24 82.14 82.06 81.93 81.73 80.96 80.71 80.54 79.94
87.25 87.16 87.07 87.01 86.94 86.83 86.82 86.75 86.64 86.59 86.52 86.45 86.31 86.14 86.07 85.86 85.65 85.46 85.26 85.03 84.85 84.57 84.40 84.41 83.06 83.83 83.99 84.12 84.27 84.24 84.18 84.09 84.01 83.87 83.74 83.74 83.44 83.23 83.01 82.88 82.81 82.68 82.55 82.51 82.44 82.35 82.29 81.96 81.26 80.79 80.64 80.49
87.45 87.32 87.23 87.17 87.10 86.99 86.95 86.88 86.80 86.74 86.65 86.51 86.37 86.19 86.07 85.91 85.68 85.40 85.18 84.90 84.64 84.47 84.29 84.03 84.03 84.14 84.28 84.47 84.51 84.46 84.40 84.28 84.21 84.10 83.97 83.85 83.77 83.52 83.31 83.16 83.06 82.98 82.90 82.82 82.80 82.69 82.46 82.30 82.01 81.13 80.81 80.71
87.61 87.50 87.46 87.34 87.27 87.20 87.05 87.07 86.97 86.89 86.76 86.60 86.40 86.21 86.05 85.91 85.66 85.34 85.03 84.81 84.51 84.30 83.92 84.23 84.40 84.45 84.69 84.78 84.74 84.66 84.57 84.47 84.38 84.32 84.19 84.05 83.96 83.79 83.59 83.42 83.39 83.32 83.27 83.20 83.15 82.98 82.75 82.54 82.17 81.53 81.09 80.80
87.80 87.70 87.62 87.51 87.43 87.35 87.21 87.19 87.12 87.02 86.86 86.63 86.44 86.20 86.04 85.86 85.63 85.34 84.98 84.62 84.32 84.43 84.60 84.68 84.74 84.84 84.94 84.99 84.90 84.85 84.76 84.67 84.57 84.48 84.35 84.21 84.20 83.97 83.87 83.74 83.71 83.72 83.67 83.57 83.48 83.32 83.00 82.75 82.50 82.13 81.45 80.94
88.01 87.93 87.78 87.71 87.59 87.46 87.39 87.24 87.22 87.10 86.93 86.66 86.45 86.25 86.06 85.91 85.63 85.27 84.48 84.61 84.78 84.90 85.00 85.02 85.14 85.11 85.09 85.12 85.06 85.00 84.92 84.83 84.73 84.62 84.51 84.35 84.27 84.26 84.11 84.06 84.06 84.08 83.99 83.93 83.75 83.64 83.35 83.00 82.70 82.30 81.66 81.13
88.22 88.08 87.99 87.84 87.70 87.55 87.46 87.28 87.24 87.13 86.95 86.71 86.45 86.27 86.10 85.93 84.78 84.86 84.97 85.04 85.15 85.22 85.30 85.34 85.37 85.28 85.25 85.23 85.19 85.12 85.08 84.98 84.88 84.75 84.64 84.50 84.43 84.47 84.39 84.38 84.29 84.34 84.32 84.21 84.05 83.87 83.66 83.24 82.94 82.54 82.14 81.43
88.37 88.22 88.11 87.94 87.78 87.61 87.49 87.34 87.25 87.09 86.93 86.82 86.54 86.32 85.53 85.42 85.32 85.27 85.29 85.43 85.59 85.65 85.62 85.60 85.51 85.44 85.37 85.32 85.27 85.23 85.21 85.11 85.00 84.87 84.76 84.66 84.56 84.65 84.65 84.58 84.52 84.56 84.53 84.46 84.26 84.14 83.88 83.49 83.13 82.73 82.40 81.89
88.53 88.35 88.19 88.01 87.84 87.63 87.53 87.39 87.30 87.18 87.04 86.88 86.23 86.13 85.91 85.75 85.64 85.72 85.79 85.88 85.92 85.91 85.87 85.77 85.65 85.58 85.48 85.42 85.40 85.34 85.32 85.25 85.11 84.99 84.89 84.80 84.77 84.81 84.94 84.84 84.81 84.78 84.76 84.62 84.47 84.30 84.11 83.76 83.36 82.94 82.66 82.24
88.68 88.44 88.28 88.07 87.86 87.70 87.63 87.50 87.29 87.20 86.85 86.61 86.47 86.34 86.18 86.12 86.12 86.13 86.15 86.18 86.09 86.04 86.01 85.91 85.82 85.70 85.61 85.55 85.51 85.49 85.42 85.33 85.24 85.12 85.01 84.97 84.89 84.93 85.08 85.07 85.09 84.99 84.96 84.80 84.68 84.49 84.31 84.00 83.53 83.16 82.79 82.51
88.79 88.56 88.36 88.23 88.04 87.86 87.74 87.46 87.31 87.22 87.00 86.69 86.55 86.51 86.53 86.54 86.51 86.43 86.40 86.33 86.29 86.25 86.14 86.03 85.97 85.79 85.71 85.64 85.60 85.56 85.50 85.44 85.35 85.26 85.14 85.09 85.07 85.04 85.13 85.36 85.28 85.22 85.16 85.01 84.87 84.71 84.44 84.18 83.79 83.39 82.97 82.72
88.90 88.80 88.56 88.39 87.84 87.92 87.65 87.42 87.37 87.24 86.94 86.76 86.71 86.71 86.72 86.76 86.73 86.65 86.61 86.52 86.47 86.37 86.26 86.23 86.15 85.95 85.87 85.79 85.72 85.68 85.60 85.51 85.50 85.39 85.31 85.23 85.19 85.19 85.28 85.47 85.48 85.44 85.32 85.25 85.12 84.93 84.64 84.33 84.00 83.59 83.14 82.81
88.95 88.53 88.60 88.35 88.11 87.86 87.49 87.32 87.31 87.26 87.11 86.94 86.86 86.88 86.89 86.90 86.92 86.82 86.74 86.68 86.60 86.54 86.46 86.38 86.26 86.15 85.98 85.93 85.86 85.77 85.68 85.61 85.58 85.53 85.45 85.36 85.34 85.32 85.38 85.60 85.61 85.61 85.52 85.42 85.27 85.14 84.82 84.50 84.18 83.78 83.34 82.99
89.08 88.82 88.47 88.20 87.94 87.69 87.51 87.38 87.31 87.38 87.35 87.17 87.05 87.01 87.02 87.05 87.10 87.00 86.91 86.87 86.80 86.71 86.63 86.57 86.44 86.30 86.15 86.07 85.96 85.88 85.81 85.71 85.69 85.66 85.56 85.48 85.48 85.47 85.50 85.61 85.86 85.79 85.72 85.57 85.47 85.22 84.97 84.65 84.30 83.97 83.52 83.07
88.99 88.71 88.33 88.10 87.90 87.69 87.58 87.48 87.44 87.47 87.53 87.39 87.25 87.19 87.17 87.22 87.22 87.17 87.11 87.04 86.97 86.87 86.77 86.67 86.58 86.45 86.32 86.21 86.09 85.99 85.92 85.81 85.78 85.75 85.68 85.64 85.62 85.61 85.66 85.76 85.94 85.89 85.89 85.68 85.58 85.38 85.12 84.77 84.48 84.08 83.60 83.20
88.90 88.56 88.32 88.07 87.91 87.82 87.72 87.69 87.62 87.67 87.67 87.54 87.37 87.32 87.35 87.36 87.40 87.39 87.26 87.18 87.12 87.00 86.93 86.84 86.72 86.60 86.50 86.29 86.21 86.10 85.99 85.92 85.86 85.86 85.81 85.76 85.73 85.76 85.81 85.88 86.07 86.12 85.99 85.82 85.70 85.47 85.24 84.92 84.51 84.18 83.76 83.32
88.76 88.55 88.28 88.14 88.03 87.97 87.90 87.84 87.80 87.74 87.77 87.74 87.57 87.48 87.50 87.52 87.54 87.53 87.42 87.34 87.29 87.18 87.11 86.97 86.84 86.75 86.61 86.45 86.31 86.21 86.11 86.01 85.95 85.94 85.94 85.89 85.89 85.90 85.94 86.01 86.14 86.24 86.01 85.96 85.81 85.60 85.32 84.97 84.61 84.29 83.91 83.46
88.75 88.57 88.41 88.27 88.20 88.15 88.07 88.04 87.94 87.90 87.91 87.89 87.71 87.67 87.64 87.65 87.70 87.68 87.59 87.50 87.42 87.32 87.22 87.10 87.00 86.90 86.75 86.62 86.45 86.33 86.21 86.10 86.04 86.03 86.05 86.01 86.03 86.03 86.08 86.15 86.27 86.27 86.13 86.07 85.96 85.71 85.44 85.13 84.69 84.36 84.04 83.53
88.81 88.71 88.57 88.48 88.36 88.28 88.24 88.16 88.11 88.01 88.03 88.00 87.94 87.79 87.81 87.83 87.85 87.82 87.75 87.63 87.53 87.44 87.34 87.25 87.18 87.06 86.89 86.75 86.54 86.44 86.31 86.21 86.15 86.13 86.14 86.11 86.13 86.17 86.20 86.27 86.33 86.39 86.40 86.21 86.12 85.86 85.54 85.21 84.85 84.49 84.07 83.67
88.93 88.83 88.77 88.65 88.55 88.43 88.37 88.30 88.25 88.17 88.14 88.14 88.08 87.99 87.93 87.99 88.00 87.97 87.89 87.79 87.69 87.61 87.49 87.40 87.26 87.13 87.00 86.88 86.74 86.57 86.43 86.33 86.26 86.24 86.21 86.23 86.22 86.28 86.30 86.37 86.38 86.57 86.57 86.38 86.28 86.00 85.67 85.36 84.96 84.56 84.14 83.69
88.99 88.93 88.89 88.77 88.68 88.54 88.49 88.43 88.37 88.33 88.27 88.28 88.24 88.15 88.11 88.15 88.15 88.14 88.06 87.92 87.81 87.69 87.60 87.49 87.36 87.28 87.12 86.98 86.86 86.68 86.54 86.42 86.34 86.31 86.32 86.29 86.32 86.33 86.38 86.44 86.54 86.73 86.78 86.62 86.35 86.15 85.85 85.44 85.07 84.62 84.15 83.74
89.16 89.04 88.98 88.86 88.79 88.68 88.60 88.58 88.51 88.46 88.43 88.35 88.31 88.33 88.28 88.27 88.30 88.25 88.17 88.10 87.92 87.81 87.72 87.61 87.49 87.37 87.21 87.10 86.96 86.79 86.65 86.50 86.43 86.43 86.37 86.36 86.41 86.49 86.58 86.71 86.82 87.00 87.06 86.82 86.46 86.15 85.85 85.52 85.04 84.64 84.21 83.80
89.30 89.15 89.06 88.98 88.90 88.83 88.73 88.71 88.63 88.61 88.56 88.48 88.41 88.43 88.40 88.36 88.43 88.37 88.31 88.20 88.06 87.93 87.83 87.68 87.57 87.44 87.31 87.20 87.04 86.90 86.74 86.61 86.48 86.47 86.42 86.57 86.73 86.78 86.97 87.00 86.87 86.91 87.05 86.85 86.52 86.25 85.92 85.50 85.10 84.64 84.17 83.81
89.46 89.22 89.16 89.11 89.01 88.97 88.86 88.83 88.77 88.75 88.72 88.63 88.58 88.52 88.50 88.47 88.53 88.52 88.39 88.29 88.15 88.06 87.89 87.76 87.64 87.51 87.40 87.28 87.10 86.96 86.76 86.69 86.71 86.74 86.76 86.83 86.99 86.87 86.85 86.79 86.76 86.76 86.94 87.07 86.65 86.33 85.98 85.55 85.10 84.66 84.23 83.79
89.56 89.42 89.26 89.20 89.13 89.11 89.06 88.97 88.93 88.89 88.86 88.76 88.68 88.66 88.67 88.63 88.63 88.65 88.45 88.35 88.22 88.16 88.01 87.90 87.76 87.60 87.45 87.31 87.22 87.15 87.00 87.01 87.05 87.12 87.01 86.89 86.81 86.76 86.77 86.79 86.79 86.83 86.96 87.02 86.79 86.39 85.97 85.56 85.15 84.69 84.28 83.87
89.68 89.55 89.36 89.29 89.31 89.21 89.20 89.06 89.06 89.04 89.00 88.89 88.82 88.79 88.83 88.79 88.72 88.72 88.57 88.45 88.32 88.22 88.07 87.92 87.78 87.66 87.60 87.50 87.45 87.36 87.20 87.31 87.10 86.97 86.82 86.75 86.74 86.80 86.83 86.84 86.85 86.88 86.96 87.03 86.79 86.45 86.04 85.60 85.18 84.73 84.29 83.90
89.76 89.74 89.53 89.44 89.40 89.39 89.33 89.24 89.19 89.14 89.15 89.02 88.94 88.89 88.90 88.93 88.88 88.78 88.65 88.49 88.39 88.22 88.10 88.05 88.03 87.93 87.84 87.66 87.64 87.41 87.27 87.09 86.93 86.87 86.84 86.80 86.83 86.86 86.88 86.90 86.90 86.93 86.93 87.01 86.93 86.53 86.08 85.65 85.21 84.77 84.30 83.96
89.85 89.82 89.70 89.55 89.54 89.53 89.50 89.41 89.30 89.28 89.21 89.16 89.02 89.00 88.99 89.03 89.00 88.79 88.66 88.53 88.40 88.37 88.35 88.25 88.14 88.06 87.97 87.77 87.57 87.39 87.29 87.12 86.99 86.93 86.90 86.88 86.87 86.91 86.95 86.94 86.99 86.96 86.95 86.90 86.86 86.54 86.09 85.67 85.24 84.83 84.41 84.04
89.95 89.95 89.86 89.65 89.65 89.70 89.60 89.57 89.44 89.42 89.34 89.22 89.13 89.07 89.07 89.03 89.02 88.86 88.77 88.71 88.60 88.55 88.39 88.43 88.24 88.05 87.82 87.65 87.51 87.45 87.37 87.24 87.07 86.98 86.94 86.90 86.93 86.96 86.99 87.01 87.02 87.00 86.95 86.85 86.86 86.68 86.17 85.72 85.25 84.87 84.45 84.10
90.04 90.07 90.05 89.91 89.81 89.80 89.78 89.66 89.62 89.56 89.48 89.33 89.23 89.11 89.07 89.10 89.14 89.04 88.97 88.86 88.79 88.63 88.48 88.31 88.12 87.99 87.85 87.70 87.56 87.46 87.41 87.32 87.16 87.07 87.01 86.99 86.98 87.00 87.04 87.04 87.05 87.01 86.96 86.87 86.82 86.65 86.25 85.79 85.37 84.92 84.52 84.16
90.14 90.16 90.15 90.08 89.93 89.93 89.90 89.83 89.74 89.64 89.57 89.43 89.33 89.32 89.33 89.29 89.16 89.21 89.15 88.90 88.70 88.52 88.38 88.29 88.16 88.05 87.92 87.75 87.58 87.50 87.44 87.40 87.27 87.15 87.09 87.04 87.04 87.03 87.06 87.07 87.08 87.05 87.01 86.90 86.81 86.70 86.24 85.82 85.40 85.02 84.65 84.27
90.30 90.26 90.28 90.26 90.11 90.04 90.02 89.91 89.88 89.77 89.77 89.68 89.64 89.51 89.43 89.47 89.37 89.19 88.99 88.77 88.64 88.58 88.47 88.37 88.26 88.10 87.96 87.79 87.66 87.53 87.44 87.43 87.32 87.21 87.13 87.08 87.10 87.09 87.12 87.11 87.14 87.10 87.02 86.96 86.80 86.68 86.45 85.94 85.49 85.10 84.74 84.37
90.43 90.38 90.38 90.36 90.28 90.15 90.15 90.08 90.06 90.07 90.03 89.90 89.79 89.69 89.60 89.42 89.27 89.16 89.04 88.87 88.74 88.64 88.52 88.37 88.25 88.14 88.01 87.86 87.71 87.58 87.48 87.42 87.38 87.26 87.19 87.18 87.16 87.17 87.17 87.15 87.15 87.13 87.09 86.97 86.82 86.60 86.46 86.01 85.58 85.23 84.81 84.46
90.57 90.51 90.50 90.46 90.47 90.28 90.35 90.34 90.28 90.24 90.18 90.08 89.82 89.62 89.53 89.36 89.28 89.21 89.10 88.98 88.80 88.69 88.53 88.36 88.26 88.14 88.05 87.91 87.76 87.61 87.48 87.40 87.38 87.31 87.22 87.20 87.21 87.18 87.17 87.16 87.14 87.10 87.01 86.92 86.78 86.57 86.43 86.24 85.71 85.29 84.86 84.45
90.70 90.64 90.60 90.74 90.71 90.60 90.64 90.56 90.52 90.37 90.18 89.94 89.80 89.70 89.61 89.43 89.33 89.26 89.16 89.01 88.87 88.75 88.59 88.43 88.31 88.17 88.04 87.97 87.83 87.65 87.47 87.35 87.33 87.28 87.17 87.15 87.14 87.16 87.14 87.09 87.03 86.98 86.92 86.82 86.73 86.56 86.41 86.21 85.79 85.32 84.90 84.43
90.88 90.87 90.88 90.93 90.97 90.90 90.84 90.60 90.44 90.26 90.20 90.10 89.95 89.83 89.69 89.52 89.40 89.29 89.18 89.07 88.91 88.79 88.63 88.46 88.36 88.18 88.07 88.00 87.86 87.67 87.43 87.27 87.22 87.22 87.15 87.10 87.09 87.06 87.05 86.99 86.92 86.88 86.82 86.75 86.66 86.56 86.39 86.22 85.75 85.36 84.91 84.54
