ncols 52
nrows 52
xllcorner 438272
yllcorner 5717504
cellsize 10
NODATA_value -9999
79.16 79.06 78.94 78.82 78.71 78.60 78.49 78.35 78.25 78.13 77.94 77.77 77.71 77.68 77.66 77.59 77.49 77.41 77.33 77.21 77.31 77.57 77.51 76.91 77.30 78.16 78.31 78.46 78.57 78.52 78.69 78.39 78.14 77.88 77.69 77.68 77.71 77.75 77.81 77.96 77.90 77.78 77.63 77.48 77.51 77.47 77.44 77.42 77.40 77.40 77.42 77.45
79.04 78.97 78.86 78.73 78.58 78.47 78.32 78.21 78.13 77.98 77.80 77.68 77.62 77.56 77.53 77.47 77.36 77.38 77.45 77.58 76.94 77.68 77.71 77.72 77.88 77.74 78.74 78.62 78.24 78.57 78.52 78.35 78.14 77.93 77.49 77.73 77.82 77.76 77.76 77.89 77.96 77.87 77.71 77.54 77.56 77.53 77.51 77.47 77.48 77.46 77.47 77.55
78.93 78.83 78.73 78.60 78.47 78.35 78.21 78.09 77.99 77.88 77.76 77.72 77.68 77.59 77.50 77.89 77.67 77.54 76.78 77.43 77.61 77.58 77.76 77.88 77.96 78.17 78.04 77.80 78.04 78.24 78.43 78.40 78.08 77.85 77.96 78.03 77.96 77.95 77.84 77.92 77.91 77.82 77.67 77.56 77.60 77.62 77.54 77.54 77.53 77.52 77.59 77.63
78.82 78.72 78.62 78.50 78.35 78.21 78.07 77.94 77.87 77.85 77.77 77.79 78.17 77.93 77.98 77.11 77.81 77.63 76.62 77.56 77.81 77.95 78.06 78.11 78.18 78.17 78.24 78.19 78.24 78.22 78.37 78.31 78.15 78.19 78.15 78.10 78.10 78.06 78.04 77.97 77.90 77.83 77.68 77.60 77.63 77.64 77.61 77.60 77.62 77.60 77.66 77.68
78.71 78.62 78.51 78.35 78.20 78.07 78.01 77.96 77.93 78.21 78.10 78.01 77.21 77.89 77.76 77.62 77.57 78.04 77.72 77.70 77.88 78.08 78.24 78.28 78.39 78.34 78.27 78.32 78.33 78.34 78.64 78.27 78.17 78.13 78.10 78.11 78.14 78.01 78.03 78.03 77.94 77.86 77.68 77.61 77.63 77.68 77.65 77.67 77.67 77.64 77.72 77.71
78.62 78.48 78.29 78.19 78.12 78.12 78.40 78.33 78.21 77.16 78.15 78.00 77.90 77.78 77.67 77.63 77.48 77.93 77.79 77.91 78.13 78.41 78.46 78.43 78.45 78.50 78.57 78.58 78.53 78.59 78.69 78.38 78.35 78.27 78.26 78.24 78.25 78.21 78.15 78.08 77.99 77.91 77.74 77.66 77.68 77.69 77.71 77.68 77.67 77.68 77.72 77.69
78.45 78.25 78.19 78.40 78.50 78.51 77.42 78.57 78.49 78.32 78.13 78.00 77.87 77.74 77.67 77.67 77.79 77.88 77.98 78.17 78.33 78.45 78.52 78.50 78.51 78.58 78.65 78.68 78.74 78.82 78.70 78.46 78.40 78.33 78.31 78.32 78.33 78.28 78.18 78.15 78.06 77.95 77.82 77.72 77.77 77.78 77.79 77.76 77.73 77.74 77.77 77.69
78.43 78.55 78.80 77.37 78.96 78.85 78.80 78.69 78.54 78.39 78.23 78.07 77.91 77.78 77.75 76.96 77.97 78.06 78.25 78.44 78.55 78.64 78.65 78.67 78.68 78.70 78.76 78.71 78.73 78.82 78.65 78.51 78.43 78.41 78.34 78.37 78.33 78.32 78.24 78.18 78.09 78.01 77.94 77.89 77.92 77.90 77.92 77.90 77.85 77.90 77.88 77.79
77.54 78.98 78.99 78.97 78.98 78.93 78.87 78.78 78.66 78.53 78.33 78.10 77.95 77.87 77.17 77.89 78.19 78.33 78.53 78.68 78.76 78.80 78.83 78.82 78.88 78.87 78.86 78.84 78.96 79.07 78.70 78.54 78.53 78.46 78.45 78.43 78.40 78.48 78.29 78.25 78.18 78.08 78.03 78.02 78.04 78.03 78.03 78.00 77.97 77.99 77.96 77.89
79.13 79.19 79.19 79.22 79.22 79.12 79.00 78.84 78.64 78.45 78.27 78.07 78.01 77.69 78.06 78.21 78.43 78.64 78.82 78.96 79.02 79.10 79.06 79.06 79.01 78.98 78.96 78.93 79.05 79.07 78.75 78.60 78.56 78.53 78.51 78.49 78.48 78.40 78.39 78.32 78.23 78.14 78.08 78.12 78.11 78.10 78.10 78.05 78.04 78.06 78.01 77.99
79.38 79.44 79.36 79.33 79.27 79.16 79.01 78.84 78.71 78.54 78.39 78.25 78.10 78.06 78.19 78.40 78.62 78.85 79.05 79.14 79.21 79.23 79.22 79.21 79.22 79.21 79.18 79.33 79.39 79.06 78.78 78.67 78.61 78.55 78.54 78.55 78.54 78.46 78.44 78.39 78.31 78.23 78.19 78.20 78.20 78.19 78.15 78.12 78.14 78.13 78.05 78.02
79.58 79.58 79.48 79.44 79.32 79.15 79.00 78.84 78.68 78.57 78.54 78.15 78.37 78.32 78.40 78.57 78.81 79.04 79.20 79.29 79.32 79.38 79.35 79.35 79.33 79.32 79.32 79.42 79.43 79.06 78.86 78.78 78.74 78.66 78.62 78.63 78.66 78.56 78.52 78.47 78.39 78.31 78.28 78.30 78.26 78.26 78.21 78.15 78.20 78.18 78.10 78.09
79.81 79.69 79.59 79.49 79.34 79.21 79.05 78.88 78.71 78.67 78.71 77.09 77.86 78.57 78.58 78.78 79.05 79.35 79.38 79.48 79.51 79.51 79.51 79.46 79.42 79.41 79.46 79.49 79.43 79.05 78.96 78.90 78.87 78.81 78.75 78.78 78.65 78.62 78.58 78.51 78.45 78.36 78.40 78.37 78.34 78.32 78.26 78.23 78.24 78.22 78.17 78.11
79.84 79.83 79.69 79.57 79.43 79.28 79.08 78.91 78.74 78.71 78.85 78.20 78.65 78.67 78.78 79.05 79.29 79.46 79.62 79.67 79.68 79.68 79.64 79.58 79.56 79.56 79.64 79.56 79.39 79.16 79.04 78.99 78.93 78.93 78.90 78.85 78.77 78.71 78.68 78.61 78.56 78.46 78.46 78.43 78.42 78.37 78.30 78.28 78.30 78.27 78.22 78.16
79.89 79.77 79.70 79.53 79.41 79.28 79.14 78.96 78.79 78.77 78.83 77.89 78.82 78.83 78.99 79.29 79.52 79.67 79.78 79.81 79.83 79.76 79.75 79.71 79.69 79.72 79.85 79.82 79.61 79.60 79.42 79.18 79.08 79.04 78.98 78.97 78.86 78.81 78.74 78.65 78.58 78.53 78.56 78.51 78.49 78.42 78.34 78.38 78.37 78.30 78.28 78.22
79.93 79.80 79.74 79.60 79.46 79.31 79.16 79.03 78.84 78.83 78.15 78.74 78.89 79.00 79.21 79.42 79.67 79.77 79.86 79.86 79.84 79.85 79.86 79.83 79.83 79.91 80.04 79.98 79.60 79.60 79.44 79.61 79.53 79.27 79.11 78.99 78.90 78.84 78.81 78.73 78.67 78.64 78.60 78.58 78.53 78.46 78.42 78.43 78.38 78.35 78.32 78.28
79.91 79.80 79.74 79.67 79.48 79.32 79.19 78.97 79.04 78.93 77.13 78.91 79.13 79.17 79.31 79.55 79.73 79.89 79.96 79.98 80.01 80.01 80.02 80.04 80.03 80.17 80.13 79.92 79.76 79.68 79.61 79.53 79.64 79.60 79.52 79.28 79.17 79.00 78.93 78.85 78.73 78.71 78.71 78.67 78.60 78.50 78.46 78.48 78.42 78.42 78.33 78.34
80.06 79.89 79.76 79.72 79.69 79.42 79.15 79.03 78.83 78.89 78.36 78.46 79.15 79.32 79.62 79.89 80.00 80.15 80.26 80.29 80.28 80.25 80.24 80.20 80.19 80.32 80.33 80.07 79.96 79.86 79.81 79.71 79.64 79.57 79.48 79.47 79.48 79.45 79.22 79.04 78.90 78.82 78.80 78.74 78.67 78.56 78.56 78.53 78.46 78.45 78.39 78.37
80.05 79.97 79.87 79.84 79.61 79.43 79.10 78.93 78.87 78.42 78.56 78.82 79.47 79.66 79.95 80.13 80.37 80.28 80.31 80.34 80.25 80.19 80.15 80.17 80.27 80.43 80.48 80.21 80.08 80.00 79.93 79.72 79.61 79.58 79.56 79.48 79.43 79.42 79.40 79.46 79.29 79.06 78.94 78.79 78.73 78.65 78.63 78.61 78.54 78.51 78.45 78.40
80.11 80.00 79.88 79.71 79.53 79.35 79.15 79.02 78.90 77.30 78.91 79.18 79.46 79.66 79.90 80.09 80.44 80.45 80.41 80.43 80.37 80.36 80.47 80.44 80.59 80.76 80.59 80.29 80.17 80.10 79.99 79.84 79.73 79.68 79.61 79.57 79.53 79.45 79.37 79.31 79.31 79.37 79.43 79.17 78.97 78.82 78.78 78.69 78.66 78.55 78.54 78.47
80.15 80.01 79.91 79.73 79.53 79.33 79.18 79.04 78.87 78.17 79.04 79.46 79.74 79.92 80.14 80.37 80.50 80.47 80.54 80.59 80.61 80.54 80.51 80.54 80.64 80.75 80.57 80.40 80.28 80.21 80.05 79.93 79.90 79.81 79.75 79.66 79.63 79.61 79.52 79.47 79.36 79.34 79.35 79.34 79.47 79.33 79.11 78.90 78.79 78.72 78.67 78.63
80.11 79.99 79.90 79.69 79.52 79.35 79.22 79.17 79.21 78.99 79.35 79.69 79.99 80.20 80.30 80.53 80.61 80.61 80.62 80.70 80.57 80.58 80.56 80.62 80.78 80.89 80.58 80.46 80.33 80.26 80.09 80.03 79.99 79.92 79.85 79.81 79.80 79.79 79.68 79.62 79.51 79.43 79.37 79.28 79.26 79.27 79.26 79.46 79.19 78.98 78.86 78.82
80.06 79.94 79.82 79.67 79.49 79.39 79.26 79.15 78.10 79.03 79.55 79.82 80.07 80.31 80.48 80.81 80.69 80.64 80.75 80.90 80.90 80.74 80.76 80.83 80.94 80.98 80.60 80.43 80.35 80.22 80.13 80.15 80.07 80.02 79.95 79.93 79.93 79.87 79.81 79.70 79.55 79.49 79.41 79.34 79.25 79.20 79.19 79.18 79.23 79.45 79.34 79.15
80.06 79.97 79.81 79.65 79.36 79.31 79.24 79.26 78.26 78.79 79.17 79.52 80.03 80.29 80.51 80.71 80.56 80.65 80.82 80.82 80.93 81.06 81.00 80.97 80.92 80.82 80.64 80.54 80.42 80.31 80.24 80.19 80.16 80.11 80.06 80.08 80.05 79.98 79.92 79.75 79.68 79.63 79.53 79.45 79.37 79.32 79.20 79.25 79.15 79.15 79.18 79.22
79.99 79.90 79.76 79.65 79.37 79.35 79.32 79.17 78.34 78.54 78.81 78.98 79.15 79.44 79.81 80.43 80.49 80.67 80.73 80.86 81.07 80.99 81.04 80.96 80.99 80.82 80.69 80.57 80.49 80.38 80.38 80.32 80.28 80.24 80.20 80.23 80.19 80.10 80.00 79.82 79.74 79.71 79.64 79.54 79.49 79.44 79.37 79.30 79.18 79.21 79.16 79.10
80.10 79.96 79.75 79.65 79.50 79.47 79.29 78.72 78.51 78.49 78.74 78.98 79.09 79.32 79.72 80.06 80.33 80.47 80.68 80.85 80.92 80.96 81.04 81.01 81.08 80.87 80.74 80.60 80.53 80.48 80.43 80.39 80.37 80.35 80.35 80.33 80.29 80.24 80.09 80.01 79.91 79.85 79.77 79.71 79.65 79.60 79.53 79.44 79.39 79.28 79.25 79.18
80.11 79.90 79.76 79.72 79.59 79.40 79.01 78.46 78.35 78.55 78.77 78.93 79.22 79.22 79.58 79.82 80.11 80.35 80.47 80.82 81.10 80.92 80.94 80.96 81.20 80.93 80.81 80.71 80.59 80.61 80.56 80.51 80.46 80.43 80.48 80.45 80.42 80.35 80.19 80.08 80.02 79.98 79.90 79.86 79.79 79.74 79.67 79.54 79.52 79.43 79.37 79.31
79.95 79.76 79.61 79.55 78.34 78.60 78.68 77.95 77.80 78.58 78.81 78.99 79.19 79.37 79.53 79.86 80.17 80.37 80.54 80.64 81.75 81.04 81.05 81.17 81.25 81.08 80.89 80.81 80.72 80.69 80.65 80.61 80.55 80.59 80.57 80.54 80.51 80.42 80.35 80.24 80.14 80.09 80.04 79.99 79.93 79.87 79.78 79.76 79.66 79.58 79.56 79.45
79.58 79.07 79.32 79.11 77.98 79.04 78.60 78.00 77.26 78.80 79.02 79.12 79.31 79.38 79.51 79.73 80.31 80.42 80.48 80.67 81.89 80.99 81.02 81.38 81.31 81.15 81.06 80.92 80.93 80.86 80.82 80.76 80.71 80.73 80.71 80.66 80.64 80.55 80.42 80.33 80.26 80.20 80.16 80.12 80.05 80.00 79.89 79.83 79.78 79.71 79.65 79.61
79.06 79.32 79.10 78.06 77.73 79.00 78.91 77.12 78.49 79.07 79.18 79.29 79.39 79.50 79.39 79.68 80.32 80.39 80.55 80.75 80.97 81.07 81.02 81.57 81.42 81.26 81.13 81.05 81.03 80.98 80.94 80.91 80.92 80.86 80.80 80.78 80.72 80.70 80.52 80.45 80.37 80.34 80.28 80.25 80.17 80.08 80.07 79.99 79.90 79.86 79.77 79.74
79.22 79.10 79.06 78.74 78.87 78.99 78.93 79.34 79.69 80.14 80.21 80.40 80.43 79.80 79.77 79.90 80.40 80.51 80.54 80.90 80.97 81.09 81.00 81.58 81.56 81.38 81.26 81.24 81.21 81.17 81.10 81.06 81.06 80.99 80.92 80.88 80.85 80.76 80.64 80.56 80.49 80.46 80.40 80.33 80.30 80.18 80.15 80.09 80.04 79.97 79.90 79.87
79.27 79.14 79.08 79.06 79.50 78.98 79.17 79.49 79.79 80.16 80.25 80.37 80.49 80.51 80.59 80.53 80.45 80.59 80.55 80.96 81.05 81.06 81.31 81.65 81.59 81.45 81.42 81.39 81.33 81.31 81.26 81.24 81.18 81.11 81.00 80.94 80.94 80.86 80.77 80.70 80.65 80.60 80.54 80.48 80.39 80.39 80.29 80.25 80.23 80.11 80.06 80.03
80.89 79.44 79.33 79.18 78.50 79.11 79.36 79.58 79.82 79.99 80.07 80.24 80.54 80.57 80.68 80.71 80.82 80.72 80.81 80.92 81.03 80.99 81.58 81.82 81.70 81.57 81.57 81.55 81.51 81.45 81.42 81.43 81.35 81.25 81.13 81.09 81.06 80.98 80.88 80.80 80.77 80.73 80.65 80.65 80.56 80.50 80.44 80.39 80.32 80.25 80.19 80.14
79.44 79.69 79.50 79.42 79.63 79.31 79.28 78.75 79.32 79.50 80.04 80.19 80.32 80.49 80.61 80.67 80.65 80.81 80.85 81.20 81.22 81.39 81.86 81.91 81.73 81.71 81.68 81.64 81.60 81.57 81.59 81.52 81.46 81.37 81.26 81.23 81.18 81.06 80.97 80.92 80.90 80.85 80.79 80.68 80.71 80.64 80.60 80.55 80.46 80.38 80.33 80.26
81.57 80.84 79.80 79.65 79.53 79.26 79.00 79.18 79.37 79.40 79.53 79.85 80.15 80.24 80.35 80.43 80.47 80.54 80.68 80.95 81.22 81.81 81.94 81.94 81.89 81.88 81.86 81.79 81.73 81.71 81.73 81.68 81.63 81.51 81.43 81.36 81.30 81.18 81.09 81.04 80.98 80.92 80.92 80.86 80.78 80.74 80.68 80.63 80.52 80.46 80.39 80.35
81.58 79.90 79.67 79.61 79.82 79.52 78.71 79.78 79.27 79.44 79.54 79.61 79.89 79.90 79.99 80.07 80.33 80.44 80.61 80.89 81.61 81.91 82.18 82.04 82.01 82.00 81.97 81.92 81.91 81.90 81.87 81.86 81.84 81.69 81.56 81.48 81.39 81.31 81.25 81.18 81.12 81.12 80.96 80.99 80.92 80.87 80.83 80.74 80.64 80.58 80.49 80.43
81.79 81.28 80.13 79.88 79.74 79.67 79.03 79.86 79.33 79.39 79.47 79.52 79.58 79.60 79.75 80.58 79.49 80.64 80.69 81.46 82.07 82.24 82.22 82.11 82.14 82.12 82.10 82.07 82.08 82.10 82.06 82.07 82.02 81.86 81.68 81.62 81.55 81.47 81.41 81.33 81.25 81.23 81.19 81.09 81.03 80.97 80.94 80.83 80.74 80.64 80.58 80.51
82.01 81.77 80.28 79.91 79.71 79.58 79.70 79.71 79.26 79.31 79.40 79.48 79.53 79.61 80.96 81.28 81.42 81.92 80.94 81.59 82.10 82.37 82.23 82.23 82.21 82.22 82.18 82.15 82.20 82.15 82.14 82.18 82.11 81.96 81.81 81.72 81.65 81.59 81.54 81.48 81.41 81.29 81.31 81.22 81.18 81.12 81.06 80.94 80.87 80.77 80.69 80.60
81.87 82.00 81.79 80.18 79.91 80.09 79.76 79.61 80.14 79.32 79.22 79.47 79.52 79.72 81.52 81.66 81.98 82.89 82.10 81.85 82.20 82.33 82.28 82.31 82.33 82.31 82.31 82.30 82.32 82.29 82.32 82.31 82.21 82.08 81.96 81.89 81.83 81.76 81.68 81.59 81.57 81.53 81.44 81.39 81.30 81.24 81.18 81.06 80.94 80.89 80.81 80.72
80.65 82.14 81.97 80.40 80.52 80.67 80.38 80.27 80.30 79.51 80.59 80.88 80.69 80.75 81.85 81.84 82.20 82.48 82.34 82.07 82.50 82.34 82.40 82.38 82.40 82.41 82.39 82.42 82.41 82.37 82.40 82.40 82.34 82.18 82.07 82.01 81.96 81.92 81.83 81.81 81.67 81.68 81.60 81.54 81.49 81.39 81.32 81.22 81.09 81.00 80.92 80.86
80.93 81.89 82.17 81.92 81.33 80.69 80.69 80.92 80.79 80.56 80.51 81.00 81.20 81.39 81.79 82.01 82.14 82.16 82.34 82.38 82.46 82.44 82.51 82.51 82.53 82.55 82.55 82.58 82.53 82.51 82.55 82.53 82.44 82.31 82.24 82.15 82.12 82.02 81.96 81.91 81.89 81.81 81.75 81.68 81.63 81.56 81.44 81.32 81.24 81.15 81.06 80.99
81.15 81.62 82.30 82.14 80.71 80.83 80.68 80.98 80.88 80.82 80.18 80.67 80.92 81.17 81.37 81.86 81.98 82.18 82.33 82.52 82.49 82.58 82.60 82.62 82.65 82.67 82.68 82.65 82.64 82.64 82.67 82.62 82.53 82.41 82.32 82.29 82.25 82.18 82.13 82.01 82.01 81.94 81.87 81.83 81.78 81.70 81.63 81.49 81.36 81.30 81.21 81.14
81.31 81.75 82.30 82.35 82.13 80.84 80.84 81.13 81.18 80.99 80.63 80.49 80.22 81.07 81.28 81.63 81.82 82.00 82.15 82.57 82.60 82.65 82.67 82.74 82.76 82.83 82.83 82.80 82.81 82.78 82.83 82.76 82.66 82.53 82.45 82.45 82.38 82.29 82.23 82.23 82.12 82.07 82.02 81.93 81.90 81.82 81.72 81.64 81.54 81.46 81.38 81.29
81.41 81.65 81.35 82.51 82.33 80.35 81.18 81.24 81.39 81.23 81.06 80.99 80.79 80.95 81.21 80.49 81.27 81.90 82.10 82.43 82.59 82.68 82.73 82.79 82.84 82.88 82.88 82.90 82.87 82.89 82.92 82.87 82.73 82.63 82.59 82.55 82.49 82.47 82.38 82.35 82.27 82.20 82.14 82.08 82.04 81.98 81.90 81.78 81.72 81.65 81.57 81.48
81.58 81.87 81.91 82.52 82.50 82.32 81.32 81.26 81.67 81.89 81.77 81.75 81.76 81.69 81.60 81.78 81.95 81.88 81.89 82.28 82.50 82.68 82.73 82.79 82.90 82.97 82.92 82.96 82.96 83.02 83.02 82.99 82.89 82.82 82.76 82.70 82.67 82.57 82.57 82.49 82.42 82.35 82.26 82.21 82.14 82.09 82.00 81.90 81.83 81.78 81.68 81.58
81.79 81.95 82.18 82.02 82.80 82.48 81.12 81.61 81.93 82.03 82.17 82.30 82.25 82.10 82.15 82.36 82.39 82.43 82.39 82.64 82.69 82.68 82.49 82.74 82.82 82.92 82.95 83.01 82.99 83.01 83.06 83.03 82.94 82.94 82.90 82.84 82.82 82.76 82.71 82.65 82.57 82.49 82.42 82.34 82.26 82.21 82.09 82.04 81.99 81.94 81.84 81.75
81.98 82.06 82.34 82.36 81.81 82.64 82.50 82.25 82.31 82.57 82.38 82.42 82.58 82.39 83.10 82.63 82.69 82.70 82.69 83.08 83.12 83.26 83.26 83.08 82.15 82.83 83.01 83.00 83.08 83.06 83.09 83.02 83.01 83.00 82.98 82.95 82.90 82.96 82.88 82.78 82.72 82.65 82.57 82.47 82.39 82.30 82.18 82.10 82.09 82.01 81.92 81.86
82.38 82.36 82.35 82.58 82.60 82.67 82.70 81.90 82.22 82.51 82.54 82.62 82.58 82.62 82.63 82.63 82.86 83.01 83.16 83.25 83.40 83.37 83.23 83.35 83.21 83.22 83.13 82.72 83.10 83.18 83.18 83.09 83.10 83.14 83.06 83.07 83.10 83.07 82.98 82.91 82.84 82.79 82.73 82.61 82.55 82.40 82.33 82.25 82.21 82.14 82.11 81.99
82.40 82.59 82.60 82.77 82.79 82.74 82.88 82.69 82.49 82.61 82.78 82.77 82.83 82.83 82.82 82.92 84.23 83.04 83.43 83.35 83.36 83.33 83.50 83.46 83.35 83.35 83.26 83.29 83.29 82.99 83.22 83.43 83.27 83.27 83.26 83.19 83.27 83.15 83.06 83.01 82.93 82.87 82.80 82.74 82.67 82.50 82.41 82.39 82.32 82.25 82.20 82.14
82.42 82.63 82.75 82.93 82.98 82.91 82.56 82.88 81.90 82.62 82.61 82.85 82.86 82.96 83.03 83.17 83.12 83.25 83.41 83.32 83.47 83.43 83.48 83.42 83.50 83.42 83.37 83.29 83.32 83.42 83.45 83.52 82.72 83.60 83.65 83.48 83.42 83.26 83.19 83.11 83.04 82.98 82.89 82.84 82.74 82.66 82.61 82.57 82.49 82.43 82.34 82.29
82.64 82.82 82.78 82.83 82.89 83.02 83.11 83.07 82.92 82.21 82.60 83.05 83.24 83.17 83.21 83.30 83.31 83.51 83.35 83.39 83.58 83.51 83.56 83.56 83.58 83.47 83.44 83.46 83.47 83.52 83.47 83.55 83.64 83.69 83.60 83.79 83.83 83.58 83.39 83.25 83.15 83.04 83.00 82.96 82.83 82.79 82.78 82.71 82.62 82.58 82.49 82.42
82.67 82.73 82.78 82.83 82.94 83.08 83.10 83.01 83.14 82.51 82.54 82.92 83.16 83.35 83.31 83.35 83.43 83.55 83.52 83.67 83.70 83.55 83.57 83.71 83.59 83.57 83.56 83.56 83.61 83.63 83.64 83.68 83.71 83.67 83.75 83.72 83.82 83.16 83.81 83.71 83.46 83.37 83.24 83.11 83.00 82.98 82.93 82.86 82.80 82.71 82.65 82.59
