ncols 52
nrows 52
xllcorner 438272
yllcorner 5713920
cellsize 10
NODATA_value -9999
98.57 98.79 98.70 98.83 98.72 98.78 98.93 98.64 98.66 99.08 95.44 94.77 94.90 95.06 95.15 95.35 95.60 95.93 96.28 96.64 97.23 98.81 98.96 99.97 99.96 99.94 99.51 100.24 100.19 100.07 100.10 99.68 99.90 99.88 99.91 99.95 100.07 99.99 100.14 100.11 99.97 100.20 100.94 101.39 101.68 102.06 102.58 102.68 102.30 101.30 100.35 100.77
98.36 98.54 98.77 98.96 99.06 98.70 98.76 98.97 98.94 99.05 97.13 94.42 94.55 95.84 97.64 98.93 99.82 100.15 100.13 99.97 99.78 100.26 100.29 100.27 100.22 100.17 99.84 100.02 100.06 100.08 100.10 100.26 100.03 99.90 99.89 99.96 99.97 100.16 100.12 102.09 104.01 104.97 105.98 106.66 106.93 107.18 107.40 107.51 107.39 106.54 105.70 105.10
98.38 98.56 98.60 98.79 98.76 98.83 98.94 98.87 99.02 99.14 96.93 94.16 95.99 99.65 99.84 99.90 100.02 100.14 100.00 99.99 99.85 100.50 100.49 100.31 100.22 100.29 99.91 99.92 99.90 99.91 100.00 100.01 99.93 99.93 100.02 100.04 100.15 100.25 101.51 105.07 107.75 109.57 110.85 111.69 112.03 112.33 112.54 112.65 112.35 111.62 110.79 110.14
97.67 97.66 98.65 98.65 98.74 98.97 98.84 99.09 99.21 99.03 94.77 93.76 98.04 99.51 99.82 100.11 100.06 100.11 100.04 99.97 100.12 100.18 100.26 100.26 100.28 100.34 99.84 99.83 99.82 99.87 99.88 99.94 99.92 100.04 100.07 100.10 100.19 100.29 103.53 107.50 110.60 111.04 111.43 111.67 111.98 112.49 112.68 112.77 112.80 112.67 112.48 112.50
97.54 97.57 97.58 97.87 98.50 98.78 98.96 99.11 99.28 96.94 93.56 95.28 99.26 99.37 99.78 99.80 99.81 100.01 100.06 100.07 100.40 100.22 100.21 100.22 100.01 99.84 99.81 99.86 99.85 99.92 99.94 100.06 100.09 100.14 100.19 100.24 100.27 100.58 103.74 108.33 110.15 111.88 112.53 111.99 112.04 112.23 112.40 112.56 112.45 112.31 112.27 112.00
97.74 97.61 97.64 97.67 97.79 97.92 98.21 99.14 99.10 94.60 93.56 97.21 99.74 99.53 99.51 99.60 99.64 99.72 99.66 99.90 99.95 100.23 100.12 99.96 99.93 99.89 99.90 99.93 99.93 100.04 100.09 100.14 100.20 100.25 100.30 100.32 100.35 100.40 103.65 108.51 109.92 112.69 111.96 111.42 111.88 111.89 111.77 111.30 110.55 109.68 108.72 107.49
96.03 97.58 97.88 97.77 97.77 97.83 97.82 98.04 96.86 93.37 94.19 99.20 99.49 99.74 99.71 99.76 99.69 99.74 99.86 100.03 99.74 99.82 99.88 99.71 99.76 99.96 100.03 100.03 100.03 100.14 100.17 100.24 100.30 100.33 100.35 100.33 100.33 100.66 103.49 108.43 109.55 110.41 110.70 110.94 109.60 108.54 107.48 106.49 105.65 104.94 104.61 104.13
95.11 95.16 95.93 97.71 98.38 98.06 97.87 97.88 94.45 93.24 96.10 99.09 99.25 99.26 99.84 100.39 100.31 99.74 99.83 99.86 99.89 99.99 100.16 100.21 100.18 100.07 100.11 100.09 100.08 100.15 100.18 100.17 100.23 100.35 100.28 100.28 100.33 100.44 102.84 107.83 109.00 108.83 107.19 105.99 104.64 104.08 103.61 102.88 102.08 101.36 100.63 100.03
95.01 94.83 94.98 95.25 95.25 97.16 98.17 96.92 93.24 93.28 97.92 98.04 98.21 99.20 99.24 99.35 100.26 101.31 101.69 101.18 100.12 99.92 99.92 100.03 100.29 100.09 100.16 100.12 100.15 100.16 100.10 100.08 100.09 100.17 100.19 100.24 100.33 100.52 101.07 105.05 105.01 103.88 102.72 101.84 101.07 100.23 99.88 99.90 99.74 100.10 99.99 100.10
95.11 94.97 94.89 94.74 94.90 94.99 94.85 94.89 93.34 95.22 98.06 98.12 98.13 98.18 98.33 99.13 99.27 99.42 100.90 102.27 102.31 102.60 101.90 99.97 99.89 100.05 100.19 100.12 100.24 100.22 100.12 99.98 99.99 100.03 100.21 100.32 100.37 100.24 100.18 100.14 99.96 99.97 100.04 99.96 99.99 100.03 99.94 99.98 100.08 100.07 100.15 100.07
95.49 95.21 95.04 94.90 94.71 94.69 94.58 94.04 93.73 94.90 97.72 98.05 98.08 98.04 98.31 98.30 98.51 98.78 99.32 99.56 100.70 102.45 101.95 101.58 101.32 100.65 99.90 100.00 100.14 100.14 100.06 100.03 99.93 99.88 99.85 99.78 99.77 99.92 99.87 99.80 99.94 99.89 100.10 100.42 100.82 100.76 100.82 100.79 100.71 100.19 100.16 100.01
95.75 95.42 95.41 95.10 94.81 94.75 94.59 94.46 94.14 95.15 95.91 97.66 97.93 97.99 98.18 97.97 98.48 98.53 98.62 98.56 99.24 99.57 99.43 100.44 101.21 100.71 100.54 100.32 100.10 99.82 99.73 99.78 99.94 99.81 99.57 99.59 99.60 99.57 99.56 99.65 99.61 99.66 99.69 99.83 99.92 99.83 99.75 99.67 99.76 99.89 100.09 100.16
95.60 95.65 95.61 95.58 95.29 94.90 94.76 94.67 94.54 94.83 95.15 95.69 96.99 97.83 97.93 98.34 98.49 97.90 98.02 98.73 98.71 98.76 98.97 99.28 99.65 99.68 99.69 100.45 100.11 99.99 99.96 99.99 99.84 99.72 99.65 99.62 99.72 99.63 99.58 99.61 99.47 99.38 99.53 99.79 99.68 99.80 99.82 99.84 99.86 99.71 99.90 99.74
95.82 95.72 95.72 95.74 95.60 95.18 94.90 94.85 94.77 94.76 94.96 95.13 95.55 96.33 97.84 98.22 98.33 98.35 98.45 98.14 97.98 98.06 98.90 98.90 98.79 98.96 99.16 99.44 99.72 99.82 99.97 100.03 99.87 99.79 99.65 99.64 99.62 99.61 99.65 99.66 99.35 99.33 99.97 99.33 99.33 99.59 99.22 99.28 99.50 99.59 99.58 99.60
94.61 95.26 95.98 95.81 95.77 95.45 95.29 95.23 94.90 94.93 94.99 95.08 95.35 95.61 96.16 96.66 97.89 98.00 98.08 98.36 98.17 98.12 97.96 97.97 98.34 99.03 99.01 98.76 99.10 99.64 99.77 99.76 99.78 99.82 99.78 99.97 99.80 99.73 99.69 99.63 99.66 99.54 99.18 99.32 99.42 99.31 98.89 99.07 99.34 99.23 99.15 99.24
93.83 94.32 95.45 95.65 95.46 95.36 95.43 95.41 95.30 95.36 95.11 95.21 95.14 95.52 95.80 96.10 96.46 97.20 97.94 98.16 97.98 97.85 97.88 97.97 97.97 97.84 97.99 98.90 99.21 99.06 98.96 99.88 99.99 99.82 99.75 99.80 99.71 99.81 99.93 99.74 99.86 99.90 99.72 99.69 99.72 100.62 98.80 98.97 98.79 99.00 99.57 99.50
93.50 93.36 93.54 93.53 94.44 95.42 95.40 95.32 95.61 95.62 95.40 95.25 95.27 95.32 95.61 95.99 96.29 96.74 97.03 98.10 97.99 98.00 97.95 97.88 97.83 97.93 97.99 97.87 97.96 98.68 99.11 99.37 99.22 99.06 99.36 99.77 99.69 99.64 99.72 99.65 99.80 99.80 99.64 99.56 99.81 99.81 100.69 99.07 99.08 99.79 99.71 99.62
93.19 93.29 93.40 93.46 94.25 94.60 95.42 95.40 95.54 95.75 95.35 95.43 95.46 95.54 95.50 95.71 96.19 96.56 96.86 97.23 97.99 98.04 98.05 97.83 98.07 97.87 97.86 97.91 98.06 97.89 97.94 98.48 99.11 99.07 99.45 99.40 99.22 99.06 99.19 99.54 99.60 99.71 99.80 99.90 99.96 100.10 99.79 99.79 99.86 99.48 100.73 100.82
92.27 93.17 93.45 93.56 93.96 94.32 95.00 95.19 95.67 95.50 95.33 95.41 95.57 95.63 95.66 95.68 95.70 96.31 96.82 97.06 97.36 97.92 97.98 97.96 97.95 97.96 97.91 98.06 97.83 97.89 97.96 98.06 97.94 98.00 99.03 98.98 99.05 99.53 99.48 99.42 99.26 99.08 99.41 99.36 99.66 99.90 100.06 99.89 99.88 99.78 99.74 99.80
92.09 92.77 93.30 93.57 93.78 94.01 94.51 94.89 95.13 94.95 95.34 95.40 95.53 95.59 95.76 95.86 95.69 95.75 96.17 97.09 97.33 97.58 97.66 97.93 98.04 97.98 97.90 97.97 97.90 97.97 97.96 98.19 98.27 98.22 98.22 97.94 98.08 99.20 99.10 99.13 98.97 99.53 99.50 99.57 99.46 99.17 99.29 99.37 99.49 99.75 99.86 99.91
92.37 92.35 92.74 93.36 93.78 93.93 94.26 94.45 95.00 95.28 95.31 95.57 95.55 95.45 95.60 95.71 95.52 95.78 95.89 96.09 96.81 96.77 97.35 97.73 97.87 97.96 98.01 97.88 98.19 97.84 98.18 98.23 98.12 98.17 98.22 98.26 98.17 98.06 97.94 98.17 99.06 99.03 99.08 99.14 99.13 99.27 99.60 99.51 99.61 99.48 99.31 99.21
92.44 92.21 92.29 92.93 93.46 93.52 93.93 94.11 94.93 95.42 95.40 95.25 95.30 95.29 95.13 94.81 95.57 92.02 95.99 96.00 96.02 96.53 97.14 97.19 97.81 97.79 97.94 98.00 97.89 97.95 98.94 98.84 98.31 98.20 98.13 98.14 98.12 98.18 98.25 98.28 98.08 98.01 98.05 98.35 98.79 98.89 99.04 99.17 99.30 99.30 99.10 99.43
91.29 91.68 92.14 92.16 92.30 93.30 93.74 93.87 94.06 94.13 95.19 94.63 94.61 94.82 94.73 94.60 95.82 95.71 96.00 96.18 96.05 96.03 97.17 97.01 97.10 97.22 97.80 97.82 97.96 98.17 98.37 98.43 98.38 98.34 98.27 98.17 98.11 98.44 98.14 98.10 98.21 98.40 98.43 98.38 98.45 98.69 98.68 98.51 99.04 99.25 99.10 99.06
91.26 91.86 92.30 92.29 92.27 93.24 93.31 93.50 93.57 93.13 93.26 93.38 93.33 93.64 93.99 94.69 95.76 95.83 95.52 95.83 96.16 96.05 96.08 96.92 97.10 97.11 97.19 97.31 98.06 97.84 97.93 98.05 98.71 98.26 98.59 98.42 98.26 98.14 98.15 98.09 98.51 98.53 98.51 98.48 98.49 98.51 98.44 98.49 98.70 98.83 99.24 99.09
91.17 91.58 91.98 92.32 92.36 92.96 93.08 93.89 92.93 92.75 92.85 92.78 93.43 93.93 93.88 94.89 95.69 95.15 95.29 95.47 95.65 96.33 96.21 96.21 96.82 96.98 97.11 97.20 97.29 97.45 97.87 97.88 97.93 98.14 99.03 99.22 98.74 98.35 98.22 98.21 98.53 98.53 98.56 98.59 98.49 98.46 98.48 98.58 98.15 98.25 98.75 100.21
90.68 91.29 91.37 91.82 92.24 92.68 93.41 92.99 92.76 93.45 92.37 92.61 92.95 93.40 93.20 94.55 94.93 94.76 93.86 94.32 94.34 94.07 95.29 96.42 96.21 96.37 96.91 97.04 97.17 97.28 97.37 97.95 97.93 97.94 98.01 98.22 99.11 98.31 98.18 98.24 98.51 98.51 98.54 98.48 98.52 98.53 98.50 98.10 98.17 98.37 98.36 98.24
90.31 90.58 90.84 91.14 91.25 91.85 91.67 91.92 92.20 91.87 91.97 92.30 92.65 93.01 93.47 93.96 94.48 93.57 93.65 93.89 94.07 94.45 95.02 95.84 96.35 96.26 96.30 96.75 97.04 97.10 97.27 97.37 97.44 98.18 97.92 97.95 98.01 98.11 98.05 98.05 98.13 98.47 98.47 98.48 98.50 98.52 98.58 97.99 98.18 98.44 98.29 98.33
90.31 90.46 90.63 90.87 91.02 91.21 91.26 91.54 91.53 91.64 91.69 91.92 92.39 92.85 93.05 93.41 94.31 93.60 94.06 94.42 94.79 95.04 95.38 95.66 96.06 96.07 96.46 96.38 96.71 96.95 97.09 97.22 97.32 97.41 97.50 98.00 97.91 97.89 97.90 97.92 98.09 98.11 98.15 98.33 98.49 98.57 98.04 97.94 98.08 98.58 98.37 98.35
90.37 90.71 90.72 90.71 91.06 91.35 91.43 91.48 91.46 91.33 91.60 91.85 92.22 92.57 93.14 93.28 93.42 93.91 94.21 94.50 94.79 95.06 95.32 95.50 95.97 96.12 96.01 96.56 96.40 96.43 96.74 97.48 97.16 97.35 97.36 97.46 97.61 97.92 97.78 97.82 97.85 97.80 98.19 98.17 98.25 98.57 98.04 98.15 98.03 97.93 98.19 98.32
90.31 90.81 90.74 90.53 90.91 91.13 91.31 91.49 91.46 91.33 91.86 91.89 92.29 92.25 93.04 93.25 93.42 93.59 94.03 94.32 94.55 94.61 95.00 95.09 95.65 96.55 96.23 96.28 96.26 96.65 96.55 96.70 97.02 97.12 97.24 97.33 97.45 97.62 97.60 98.19 97.91 97.78 97.96 98.45 98.15 98.08 98.11 98.19 98.14 98.12 97.97 98.23
90.14 90.41 90.64 90.76 90.85 91.06 91.42 91.55 91.54 91.24 91.90 91.94 92.22 92.66 93.07 93.17 93.39 93.57 93.83 94.04 94.10 94.15 94.68 94.84 94.99 96.33 95.82 95.88 95.85 95.72 96.55 96.53 96.66 96.94 97.18 97.23 97.38 97.40 98.08 100.12 98.49 98.17 98.05 98.18 98.33 98.58 97.96 98.11 98.15 98.14 98.02 98.17
89.31 89.48 90.49 90.83 90.64 91.11 91.40 91.61 91.48 91.28 91.46 91.68 91.96 92.24 92.48 92.72 92.95 93.23 93.55 93.82 93.85 93.89 94.48 94.78 94.94 95.40 95.26 95.32 95.66 95.81 96.82 96.69 96.63 96.63 96.92 97.09 97.12 97.79 98.50 100.02 98.15 98.04 98.20 98.78 98.40 98.46 98.54 98.13 97.99 98.02 98.24 98.24
89.17 89.31 90.63 90.86 90.91 91.32 91.01 90.86 91.08 91.46 92.24 92.01 92.79 93.55 93.36 92.96 93.12 93.39 93.53 93.76 93.83 93.84 94.45 94.86 94.93 95.11 95.24 95.78 96.06 96.20 97.04 96.92 96.85 96.79 96.75 96.85 97.06 98.25 98.03 98.43 99.81 98.35 98.28 98.33 98.51 98.71 98.54 98.50 98.35 98.18 98.28 98.43
89.25 89.32 90.67 90.97 90.66 90.43 90.65 91.17 91.88 92.00 93.29 93.39 93.79 93.95 93.93 93.88 93.86 93.79 93.79 94.03 93.79 93.96 94.88 95.15 95.32 95.48 95.76 96.04 96.56 96.93 97.06 97.02 97.45 97.34 96.93 96.84 96.93 97.33 97.72 98.10 98.42 98.79 98.40 98.48 99.10 99.10 99.13 98.61 98.46 98.53 98.32 98.29
89.29 89.25 90.74 90.85 91.02 90.11 91.20 91.29 92.46 92.83 93.54 93.64 94.26 94.37 94.42 94.77 93.92 94.12 94.43 94.26 93.98 94.09 95.26 95.49 95.88 96.19 96.74 97.08 96.76 96.96 97.12 97.44 97.56 97.49 97.94 97.58 97.09 97.05 97.44 97.77 98.05 98.67 98.44 98.96 99.36 99.28 99.02 98.79 98.94 98.51 98.55 98.49
89.45 89.17 89.29 90.60 89.60 90.91 91.26 91.54 93.05 93.24 93.62 93.72 94.54 94.62 94.91 95.01 94.22 94.48 95.10 94.24 93.87 94.12 95.68 95.89 96.10 96.51 96.96 97.01 96.87 96.93 97.10 97.50 97.26 97.21 97.70 98.04 97.66 97.31 97.24 97.57 97.71 98.11 98.78 99.01 99.35 99.18 99.10 99.14 98.82 98.80 98.72 98.54
88.83 88.94 89.15 89.20 89.39 91.46 91.37 91.65 93.18 93.35 93.64 94.33 94.72 94.56 94.77 94.99 94.75 94.74 95.51 94.44 94.57 94.62 95.77 95.93 96.10 96.52 96.83 97.13 97.26 97.23 97.25 97.21 97.08 97.07 97.09 97.84 97.62 97.61 97.54 97.42 97.56 97.90 98.39 98.86 98.97 99.17 99.12 99.19 99.04 99.00 99.02 98.77
88.64 88.82 89.08 89.18 89.17 90.73 91.76 91.93 92.72 93.25 93.65 94.80 94.60 94.71 94.73 94.85 94.81 94.72 95.69 95.84 95.78 95.79 95.85 95.96 96.31 96.65 97.11 97.04 97.03 97.04 97.12 97.13 96.96 96.93 96.93 97.38 97.49 97.47 97.58 97.41 97.64 97.77 98.35 98.57 99.13 98.94 99.10 99.42 99.21 99.24 99.15 98.92
88.65 88.84 89.20 89.09 89.04 89.77 90.89 90.52 91.91 93.11 93.52 94.59 94.48 94.51 94.64 94.69 94.60 94.58 95.23 95.39 95.41 95.32 95.60 96.14 96.61 97.24 97.16 97.14 96.99 96.99 96.85 96.85 96.91 96.93 96.79 97.12 97.13 97.04 97.20 97.94 98.11 98.05 98.01 98.32 98.74 99.13 99.19 99.40 99.32 99.29 99.26 99.04
88.85 88.90 89.13 89.78 88.98 89.51 89.95 91.54 92.27 92.72 93.40 93.81 94.04 94.26 94.47 94.47 94.38 94.32 94.77 95.42 95.13 95.21 95.62 95.46 96.52 96.83 97.04 96.82 96.65 96.69 96.69 96.79 96.76 96.75 96.68 96.66 96.99 97.65 98.26 98.89 98.70 98.29 98.31 98.25 98.46 98.95 99.33 99.47 99.26 99.36 99.27 99.95
88.94 88.82 88.99 89.47 89.17 89.10 89.55 92.02 92.53 92.38 93.53 93.39 93.26 93.82 94.02 94.11 93.98 95.45 95.39 95.37 95.10 95.12 95.54 95.77 96.47 96.67 96.76 96.50 96.60 96.58 96.61 96.46 96.46 96.65 97.16 97.08 98.48 98.60 99.00 98.74 98.70 98.41 98.35 98.54 98.58 98.73 99.18 99.48 99.71 99.48 100.21 100.63
89.15 89.01 89.13 89.11 88.93 89.02 89.38 90.79 92.35 92.59 93.45 93.60 93.43 92.96 93.22 93.43 93.74 95.25 95.37 95.29 95.10 95.02 95.18 95.43 96.07 95.93 96.13 96.05 96.13 96.24 96.62 96.91 96.56 96.96 97.62 98.00 98.87 98.88 98.58 98.65 98.58 98.59 98.49 98.40 98.81 98.80 99.00 99.28 99.54 99.83 100.67 101.37
88.84 89.29 89.07 89.06 88.82 89.03 89.68 91.16 92.03 92.38 92.65 92.47 92.60 93.27 93.51 93.85 93.93 94.05 94.31 95.18 94.79 94.81 95.03 95.22 95.31 95.53 95.79 96.11 96.49 96.75 97.10 97.15 97.24 96.88 97.56 97.81 98.42 98.38 98.56 98.49 98.54 98.67 98.75 98.68 98.66 99.01 98.98 99.28 99.61 100.07 100.53 100.52
88.51 89.17 90.47 89.83 88.77 89.33 90.44 91.23 91.75 91.83 92.07 92.07 92.79 93.43 94.11 94.33 94.65 94.80 94.43 94.27 94.46 94.65 94.82 95.04 95.56 96.19 96.62 96.90 97.15 97.14 97.20 96.79 96.82 96.81 97.18 97.73 98.14 98.50 98.54 98.48 98.40 98.70 98.37 98.53 98.58 98.87 99.17 99.19 99.55 99.93 100.27 100.43
89.22 89.12 89.11 88.81 89.22 89.77 90.85 91.22 91.68 91.56 91.61 92.26 93.35 94.26 94.26 94.67 94.95 94.73 94.79 94.55 94.76 94.97 94.91 94.94 95.60 96.24 96.76 96.81 96.79 96.63 96.76 96.74 96.79 96.91 97.20 97.69 97.67 98.28 98.18 98.39 98.62 98.12 98.21 98.77 98.69 98.94 99.26 99.35 99.57 99.92 100.14 100.54
89.20 88.41 89.12 88.90 89.11 89.46 90.42 89.67 90.79 91.28 91.08 91.93 93.81 93.97 94.00 94.47 94.89 95.18 94.56 94.62 94.88 94.93 95.77 95.27 95.21 95.59 96.07 96.43 96.41 96.34 96.47 96.47 96.63 96.69 96.76 97.03 97.17 97.80 98.17 98.47 98.18 97.75 98.10 98.24 98.45 98.65 98.88 99.21 99.53 99.78 100.14 100.69
89.06 89.03 89.09 89.06 89.11 89.25 89.79 89.52 90.15 90.89 90.85 91.56 93.64 93.66 93.81 94.36 94.83 95.17 94.65 94.71 95.83 95.43 95.79 95.60 95.47 95.44 95.64 95.79 95.98 96.18 96.33 96.66 96.87 97.12 96.71 97.08 97.20 97.52 97.73 98.04 97.65 97.70 97.88 98.35 98.65 98.65 99.00 99.34 99.49 99.84 100.22 101.04
89.10 89.04 88.06 89.14 89.26 89.04 89.40 89.54 89.78 90.03 90.41 93.18 93.55 93.26 93.57 94.39 95.22 95.24 95.03 94.79 96.09 96.17 95.68 95.72 95.68 95.76 95.90 95.96 96.25 96.72 96.40 97.07 96.85 96.93 96.63 96.60 96.95 97.12 97.21 97.36 97.49 97.77 98.13 98.46 98.93 98.72 99.20 99.29 99.84 99.89 100.31 101.61
89.26 89.13 89.30 89.37 89.41 89.42 89.67 89.90 89.89 90.14 90.38 91.22 93.13 92.57 93.91 94.27 94.71 94.13 94.95 95.57 95.60 95.64 95.66 95.64 95.76 95.77 95.61 95.77 95.71 95.74 95.92 96.26 96.03 96.24 96.37 96.43 96.64 96.90 97.24 97.49 97.76 97.90 98.00 98.57 98.73 98.77 100.15 99.18 99.46 100.53 100.43 101.04
89.18 88.42 89.64 89.69 89.80 89.88 90.04 90.34 91.79 92.08 91.43 91.14 91.33 91.58 93.94 94.13 93.71 92.93 93.75 95.64 95.60 95.60 95.64 95.82 95.77 95.36 95.39 95.59 95.35 95.43 95.58 95.71 95.77 95.97 96.01 96.25 96.67 97.15 97.49 97.82 97.99 98.05 97.75 98.94 99.06 98.81 101.11 99.06 98.99 101.01 100.55 100.83
89.21 88.47 89.91 90.06 90.13 90.24 90.40 91.08 92.36 92.36 91.99 91.60 91.69 92.07 91.99 93.72 93.65 93.39 92.82 93.76 94.51 93.82 94.99 95.43 95.35 95.17 94.91 95.10 95.18 95.25 95.34 95.37 95.55 95.79 96.14 96.34 96.79 96.90 97.51 98.10 98.12 98.11 97.29 99.43 99.11 98.87 100.76 99.08 98.92 100.95 100.79 100.85
89.39 89.92 90.17 90.40 90.49 90.61 90.77 92.43 92.42 92.93 92.54 92.22 92.76 92.27 92.19 92.32 93.67 93.68 93.30 93.57 93.78 93.62 94.79 94.57 94.58 94.60 94.70 94.76 94.79 95.05 95.31 95.44 95.65 96.28 96.42 96.43 96.82 97.10 98.51 98.61 98.30 98.17 98.39 99.32 99.18 98.95 100.26 99.06 98.87 101.01 100.95 100.84
