ncols 52
nrows 52
xllcorner 438272
yllcorner 5714944
cellsize 10
NODATA_value -9999
101.56 101.53 101.48 101.48 101.40 101.43 101.37 101.53 101.23 101.09 100.87 100.67 100.58 100.63 100.68 100.69 100.64 100.34 99.33 100.51 100.92 99.40 98.46 98.43 98.31 98.37 97.85 98.47 98.68 99.14 97.10 97.10 97.04 96.62 96.40 96.41 96.40 96.38 96.01 95.90 95.81 95.83 95.74 95.68 95.40 95.15 95.19 94.50 94.71 94.61 94.36 93.06
102.09 101.94 101.32 101.27 101.21 101.23 101.25 101.27 101.33 101.16 99.93 100.43 100.83 101.04 101.03 100.75 100.67 100.38 99.60 99.21 99.14 98.97 99.60 100.59 100.73 100.45 98.46 98.55 98.75 98.27 97.22 97.21 96.91 96.61 96.57 96.42 96.29 96.29 96.09 96.24 96.30 95.92 95.82 95.75 95.45 95.36 95.20 95.12 94.83 94.72 94.63 93.06
101.34 101.34 101.39 101.42 101.50 101.60 101.53 101.50 101.49 100.51 99.18 98.89 99.45 101.05 101.32 100.79 100.79 100.35 100.03 99.45 101.81 102.21 100.17 99.16 98.40 98.79 98.59 98.59 98.65 100.46 97.27 97.21 96.96 96.78 96.75 96.59 96.43 96.24 96.19 96.24 96.32 96.03 95.97 95.74 95.50 95.44 96.38 95.14 95.11 94.79 94.68 93.08
101.42 101.46 101.41 101.50 101.56 101.54 101.51 101.40 101.40 101.39 101.36 100.83 100.93 100.93 100.95 100.84 100.85 100.45 100.17 102.31 100.08 99.49 98.64 99.28 98.39 99.20 98.66 98.65 98.23 97.72 97.39 97.33 97.06 96.88 96.74 96.64 96.56 96.42 96.28 96.21 96.04 95.88 95.68 95.87 95.51 95.47 97.49 95.26 95.19 95.00 94.92 95.01
101.56 101.44 101.42 101.52 101.52 101.51 101.49 101.44 101.44 101.43 101.55 101.24 100.94 100.91 100.97 100.89 100.83 100.52 100.30 99.25 99.08 98.85 98.62 98.40 98.25 98.24 98.73 98.80 98.14 97.97 97.72 97.39 97.29 97.15 96.99 96.67 96.61 96.56 96.46 96.32 96.26 96.12 95.86 95.95 95.64 95.43 96.37 95.44 95.36 95.12 95.12 95.17
101.45 101.43 101.43 101.44 101.46 101.46 101.44 101.39 101.43 101.44 101.42 101.15 100.81 100.92 100.94 100.96 100.83 100.56 100.46 99.35 100.28 100.26 99.89 98.40 98.34 98.50 98.86 98.93 98.07 97.98 97.74 97.36 97.40 97.40 97.26 97.06 96.92 96.78 96.55 96.36 96.27 96.17 96.07 96.02 95.73 95.86 95.75 95.64 94.28 95.35 95.22 95.33
101.47 101.44 101.42 101.35 101.46 101.43 101.42 101.27 101.42 101.43 101.45 101.21 100.84 101.01 100.93 100.94 100.79 100.65 100.40 99.17 98.84 98.61 98.75 98.47 98.43 98.92 99.00 99.07 98.24 98.10 98.16 97.44 97.43 97.40 97.36 97.35 97.35 97.13 96.79 96.70 96.54 96.42 96.33 95.85 95.80 96.96 95.90 95.77 95.53 95.41 95.54 95.34
101.44 101.43 101.42 101.37 101.44 101.49 101.48 101.30 101.41 101.39 101.43 101.39 100.82 100.96 100.95 100.98 100.77 100.72 100.47 99.56 98.86 98.61 98.75 98.88 98.66 98.85 99.16 99.32 98.54 98.78 97.73 97.37 97.39 97.42 97.37 97.41 97.42 97.15 96.79 96.68 96.32 96.33 96.32 96.21 96.15 96.26 96.05 95.93 95.67 95.71 95.62 95.68
101.44 101.41 101.42 101.33 101.43 101.44 101.46 101.30 101.38 101.47 101.38 101.43 100.97 100.86 100.85 100.85 100.78 100.79 100.46 100.32 98.90 98.64 98.71 98.66 98.63 99.24 99.27 99.45 98.40 98.15 98.03 97.89 97.54 97.36 97.38 97.42 97.40 97.21 96.95 96.75 96.46 96.31 96.57 96.68 96.55 96.34 96.11 95.13 95.92 95.84 95.69 95.79
101.42 101.40 101.42 101.32 101.39 101.46 101.47 101.41 101.28 101.42 101.42 101.43 101.04 100.83 100.83 100.82 100.85 100.82 100.46 100.19 99.27 99.26 98.62 98.76 98.78 99.42 99.38 99.61 98.54 98.28 98.17 98.09 97.97 97.86 97.74 97.45 97.32 97.20 97.03 96.72 96.56 96.39 96.73 96.73 96.69 96.49 96.32 96.06 96.04 95.93 95.94 95.90
101.41 101.40 101.42 101.31 101.44 101.43 101.41 101.40 101.26 101.50 101.46 101.41 101.18 100.81 100.85 100.80 100.88 100.88 100.54 100.45 99.53 98.93 98.96 98.88 99.02 99.71 99.58 99.77 98.64 98.47 98.41 98.24 98.07 97.97 97.86 97.76 97.61 97.46 97.04 97.06 96.90 96.61 96.67 96.68 96.70 96.46 95.25 96.22 96.15 96.01 96.09 96.05
101.45 101.43 101.42 101.37 101.33 101.45 101.42 101.42 101.20 101.29 101.22 101.29 101.21 100.81 100.76 100.76 100.75 100.68 100.71 100.79 99.59 99.33 99.11 99.15 99.75 99.81 99.74 99.96 98.72 98.70 98.55 98.40 98.25 98.16 98.01 97.89 97.72 97.64 97.47 97.23 97.02 96.86 96.71 96.75 96.67 96.61 96.45 96.36 96.21 96.20 96.23 96.11
101.40 101.42 101.44 101.45 101.29 101.44 101.43 101.45 101.31 101.33 101.34 101.32 101.28 100.86 100.78 100.81 100.94 100.94 100.82 100.69 99.58 99.46 99.32 99.93 100.09 100.12 100.00 99.84 98.85 98.81 98.63 98.52 98.36 98.29 98.21 98.10 97.92 97.73 97.63 97.47 97.17 97.11 96.94 96.82 96.58 96.35 97.00 96.67 96.30 96.39 96.32 96.21
101.46 101.53 101.31 101.28 101.29 101.27 101.26 101.28 101.58 101.71 101.92 102.56 101.71 101.02 100.81 100.67 100.56 100.44 100.30 100.09 99.96 99.86 99.92 100.07 100.35 100.33 100.21 99.85 99.81 99.23 98.78 98.65 98.49 98.36 98.28 98.17 98.01 97.86 97.75 97.62 97.63 98.02 97.86 97.57 97.46 96.56 96.49 96.70 96.55 96.41 96.45 96.39
95.58 95.58 95.57 101.31 101.75 101.98 102.00 101.77 101.51 101.40 101.25 101.10 100.97 100.81 100.66 100.65 100.63 100.48 100.37 100.23 100.10 99.93 99.90 100.09 100.28 100.28 100.17 99.84 99.67 99.57 99.49 99.29 98.83 98.41 98.28 98.24 98.09 97.91 97.83 97.68 97.96 98.10 97.99 97.71 97.34 96.80 96.75 96.59 96.54 96.43 96.44 96.42
102.02 102.22 102.20 102.09 101.97 101.83 101.69 101.51 101.36 101.42 101.36 101.34 101.61 102.31 103.16 103.87 104.14 104.12 104.03 103.75 103.83 103.27 102.05 100.08 100.11 100.15 99.97 99.79 99.63 99.35 99.19 99.27 99.29 99.31 99.06 98.31 98.17 98.04 97.86 97.76 98.41 99.00 98.28 97.89 96.90 97.06 96.95 96.78 96.74 96.64 96.68 96.65
102.28 102.17 102.02 101.96 102.02 102.00 102.21 103.07 104.11 104.94 105.00 104.38 103.12 102.17 102.00 101.06 101.12 101.00 101.08 100.89 100.87 100.90 100.79 103.26 99.85 100.02 99.83 102.07 103.43 103.33 101.48 99.96 99.04 99.05 99.15 99.14 98.94 98.08 98.05 97.85 98.95 98.93 98.41 98.10 97.13 97.32 97.15 97.03 97.01 96.90 96.79 96.82
102.48 102.85 103.75 104.91 105.71 105.45 104.24 102.92 102.42 102.15 102.12 102.13 102.15 102.10 102.06 101.07 101.10 101.02 101.01 100.86 100.92 100.89 100.83 103.24 99.97 99.86 99.93 103.29 101.90 100.17 101.31 103.20 102.66 100.38 99.00 98.93 99.05 98.99 98.82 98.50 98.96 98.85 98.56 98.30 97.44 97.48 97.41 97.38 97.25 97.14 97.07 97.00
105.22 104.04 102.81 102.28 102.21 102.28 102.19 102.19 102.15 101.99 101.98 101.98 102.24 102.09 101.97 101.01 100.97 101.02 101.04 101.00 100.78 100.72 100.82 103.65 99.97 99.96 101.43 101.13 99.94 99.87 99.59 99.55 99.57 101.12 103.00 100.86 98.83 98.80 98.94 98.88 98.87 98.76 98.72 98.13 98.18 97.63 97.54 97.47 97.42 97.32 97.22 97.12
102.49 102.25 102.19 102.21 102.18 102.13 102.22 102.20 102.20 102.13 102.07 101.88 101.94 102.05 101.96 100.88 100.92 100.93 101.04 101.05 100.74 100.66 100.60 103.48 100.04 100.10 103.36 100.37 99.95 99.24 99.52 99.58 99.60 99.56 99.73 100.32 102.81 100.60 98.69 98.74 98.84 98.77 98.70 98.07 100.33 100.10 97.61 97.54 97.49 97.41 97.38 97.24
102.52 102.40 102.28 102.18 102.10 102.02 102.14 102.15 102.08 102.02 102.01 101.84 102.04 102.10 102.10 100.92 100.96 100.77 100.95 100.84 100.65 100.62 100.58 100.56 100.19 100.19 101.87 100.28 100.00 99.40 99.42 99.55 99.63 99.46 99.62 99.66 99.76 100.76 102.71 100.67 98.57 98.69 98.73 98.61 98.12 98.96 101.74 99.15 97.57 97.51 97.46 97.36
102.45 102.37 102.32 102.09 101.99 102.13 102.27 102.17 102.16 102.04 102.03 101.80 101.91 101.99 102.03 100.91 100.89 100.73 100.64 100.72 100.72 100.61 100.54 100.48 100.32 100.08 100.15 100.08 99.93 99.54 99.50 99.68 99.49 99.49 99.42 99.23 99.18 99.06 98.97 98.71 98.47 98.58 98.43 98.59 98.60 98.44 97.62 99.25 101.57 98.60 97.55 97.45
102.32 102.15 102.27 102.16 101.98 101.94 102.16 102.02 102.15 102.05 102.02 101.88 101.93 102.04 101.99 101.12 100.98 101.21 100.97 101.05 100.74 100.74 100.86 100.57 100.41 100.10 100.68 99.71 99.55 99.90 99.59 99.79 99.77 99.49 99.50 99.47 99.34 99.17 99.19 99.35 101.84 101.65 100.04 98.54 98.25 98.47 98.52 98.33 97.49 99.56 101.19 98.05
102.32 102.32 102.10 102.05 101.92 101.95 102.10 102.08 102.12 101.99 101.98 101.84 101.81 101.89 101.79 101.52 101.58 101.48 100.87 100.81 100.77 100.75 100.79 100.72 100.51 100.21 100.34 99.85 100.09 100.03 99.79 99.57 99.57 99.39 99.28 99.22 99.13 99.41 99.43 99.31 99.14 99.21 99.46 101.51 99.68 98.28 98.11 98.38 98.42 98.17 97.43 99.92
102.19 102.21 102.07 102.04 101.94 101.93 102.02 101.97 102.03 102.03 101.74 101.80 101.86 102.04 101.89 101.61 101.53 101.42 100.76 100.96 101.24 100.97 100.71 100.59 100.59 100.38 100.57 100.67 100.43 100.18 99.89 99.65 99.67 99.69 99.33 99.67 99.31 99.39 99.41 99.49 99.35 99.22 99.12 99.52 99.23 101.65 101.09 98.45 98.01 98.28 98.30 98.05
102.29 102.15 102.14 102.06 101.93 101.92 101.84 101.82 101.90 102.00 102.16 102.08 102.18 102.36 102.27 101.77 101.54 101.58 101.13 101.02 101.14 100.99 100.80 100.67 100.69 100.85 100.83 100.69 100.36 100.19 100.04 99.69 99.71 99.79 99.68 99.47 99.42 99.44 99.52 99.50 99.25 99.15 99.23 99.22 98.72 98.50 100.33 101.52 101.04 98.21 98.01 98.18
102.06 101.90 101.92 101.95 102.01 102.24 102.17 102.18 102.25 102.31 102.34 102.38 102.29 102.33 102.35 101.81 101.48 101.95 101.41 101.31 101.14 100.96 100.83 100.82 100.69 100.96 100.82 100.72 100.70 100.46 100.48 100.21 99.87 99.85 99.78 99.52 99.40 99.44 99.46 99.32 99.12 99.05 99.17 99.07 98.96 98.76 98.62 98.67 100.86 101.62 100.51 98.00
101.93 101.90 102.28 102.33 102.34 102.33 102.29 102.41 102.28 102.29 102.17 102.11 102.21 102.31 102.06 101.88 101.65 101.35 101.40 101.19 101.13 101.09 100.99 100.78 101.00 101.09 101.12 100.98 100.77 100.86 101.30 100.24 99.89 99.85 99.81 99.49 99.57 99.35 99.35 99.18 99.06 98.96 98.91 98.83 98.95 98.89 98.71 98.66 98.49 98.79 101.49 101.74
101.88 101.90 102.40 102.49 102.36 102.35 102.33 102.14 102.10 101.96 101.90 101.81 102.16 102.12 102.10 102.04 101.58 101.37 101.27 101.17 101.16 101.21 101.14 100.91 101.05 101.19 101.30 101.10 100.78 100.66 100.33 100.15 99.98 99.92 99.61 99.58 99.47 99.35 99.38 99.43 99.04 99.11 98.99 98.83 98.79 98.75 98.70 98.60 98.80 98.74 98.49 99.19
101.75 101.88 102.17 102.08 102.11 102.04 102.19 102.15 102.27 102.18 102.46 102.35 102.49 102.07 101.21 102.01 101.72 101.53 101.31 101.25 101.40 101.40 101.30 101.07 101.21 101.09 101.13 101.07 100.92 101.04 100.59 100.09 100.03 99.82 99.69 99.73 99.56 99.49 99.36 99.36 99.17 99.27 99.17 98.88 98.93 98.67 98.57 98.60 98.59 98.61 98.71 98.32
101.99 102.12 102.15 101.99 101.91 102.07 102.30 101.69 102.36 102.96 102.62 102.41 102.31 102.13 101.16 101.59 101.69 101.58 101.38 101.31 101.38 101.39 101.33 101.20 101.14 101.02 100.93 100.84 101.03 100.98 100.76 100.03 100.01 99.82 99.75 100.11 99.93 99.40 99.44 99.37 99.27 99.22 99.11 98.81 98.84 98.76 98.66 98.53 98.46 98.56 98.42 98.10
101.32 101.65 101.78 101.88 101.96 102.03 101.98 102.79 102.64 102.31 102.76 102.31 102.14 101.86 101.79 101.79 101.77 101.68 101.44 101.41 101.40 101.38 101.33 101.27 101.43 101.47 101.43 100.97 101.07 100.95 100.65 100.31 99.97 99.80 99.82 100.04 99.98 99.39 99.36 99.31 99.11 98.80 98.90 98.95 98.86 98.89 98.78 98.60 98.63 98.38 98.28 98.32
101.38 101.46 101.57 101.91 101.88 102.02 101.97 102.24 102.34 102.21 102.17 102.11 102.19 102.38 102.31 102.17 101.83 101.73 101.61 101.70 101.65 101.60 101.58 101.37 101.48 101.49 101.39 100.79 100.99 100.82 100.72 100.28 99.94 99.97 99.90 100.05 99.96 99.48 99.34 99.09 99.04 98.99 98.61 98.74 98.86 98.81 98.97 98.92 98.70 98.71 98.32 98.71
101.41 101.48 101.65 101.99 101.98 101.94 102.07 102.13 102.39 102.61 102.43 102.36 102.68 102.65 102.62 102.37 101.84 101.77 101.71 102.39 102.47 101.70 101.65 101.61 101.49 101.47 101.42 100.65 100.59 100.69 100.52 100.31 100.20 99.94 100.18 100.07 99.97 99.71 99.14 99.19 98.96 98.87 98.81 98.80 98.86 99.01 99.24 99.15 98.75 98.67 98.50 98.57
101.53 101.54 101.58 101.68 101.79 102.29 102.50 102.45 102.39 102.75 102.55 102.39 102.78 102.79 102.80 102.67 102.18 101.98 101.83 101.83 101.78 101.75 101.65 101.67 101.71 101.73 101.54 100.79 100.77 100.52 100.43 100.37 100.12 99.99 100.15 100.05 99.95 99.82 99.46 99.21 99.34 99.13 98.93 99.21 99.02 98.77 98.96 98.83 98.58 98.48 98.56 98.72
101.46 101.63 101.92 101.99 101.86 102.31 102.75 102.47 102.30 102.59 102.62 102.49 102.56 102.74 102.89 102.64 102.18 102.11 102.03 102.25 102.49 102.14 101.73 101.90 101.96 101.85 101.69 100.69 100.61 100.65 100.67 100.74 100.67 100.15 100.01 100.03 99.95 99.66 99.94 99.82 100.14 99.14 99.28 99.15 99.21 99.17 98.80 98.80 98.80 98.73 98.55 98.50
101.62 101.76 101.91 101.93 101.91 102.22 102.62 102.72 102.54 102.62 102.74 102.69 102.61 102.71 102.89 102.77 102.54 102.19 102.52 102.58 102.62 102.24 101.88 102.19 101.59 101.75 101.75 100.74 100.70 100.64 100.73 100.68 100.72 100.67 100.03 99.94 100.06 99.77 99.59 99.53 99.52 99.52 99.44 99.22 99.17 99.16 98.96 99.25 98.85 98.82 98.87 98.78
101.70 101.73 102.01 102.17 102.00 102.34 102.54 102.78 102.65 102.44 102.71 102.74 102.74 102.65 102.65 102.51 102.32 102.26 102.61 102.58 102.53 102.49 102.00 102.59 101.61 101.68 101.57 100.73 100.61 100.53 100.61 100.63 100.65 100.60 100.59 100.00 99.89 100.04 99.61 99.71 99.65 99.54 99.46 99.47 99.32 99.08 99.08 99.16 99.26 99.04 98.85 98.62
101.72 101.85 101.94 102.28 102.13 102.38 102.59 102.55 102.51 102.65 102.56 102.63 102.84 102.74 102.86 102.89 102.76 102.56 102.43 102.41 102.46 102.31 102.08 102.70 102.04 101.41 101.43 101.54 101.47 100.83 100.96 100.95 100.57 100.63 100.66 100.69 99.96 99.88 99.72 99.70 99.68 99.56 99.53 99.29 99.27 99.17 99.30 99.43 98.90 99.12 99.03 98.36
101.76 102.10 102.04 102.23 102.26 102.29 102.44 102.53 102.44 103.00 102.94 102.72 103.14 103.61 103.43 103.18 102.92 102.76 102.99 103.08 103.00 102.35 102.14 102.30 101.77 101.19 101.24 101.22 101.30 101.02 100.96 101.02 100.86 100.65 100.64 100.53 100.00 99.80 99.82 99.65 99.54 99.47 99.37 99.27 99.19 99.30 99.38 99.30 99.07 99.06 98.31 98.20
101.65 102.21 102.01 102.26 102.35 102.68 103.23 102.93 102.53 102.91 103.24 102.88 103.04 103.65 103.50 103.27 103.01 102.98 103.00 103.08 103.03 102.43 102.48 102.23 101.90 101.56 101.03 101.18 101.09 100.98 101.11 100.97 100.96 100.60 100.62 100.58 100.06 99.95 99.93 99.90 99.67 97.99 99.46 99.39 99.19 99.43 99.37 99.18 98.92 98.50 98.31 98.41
101.47 101.82 101.83 102.07 102.45 102.63 102.97 103.18 102.82 102.86 103.05 103.08 102.89 103.25 103.61 103.36 103.22 103.00 103.04 103.10 103.03 102.42 102.50 102.19 101.85 101.50 101.29 101.42 101.03 100.97 100.87 100.78 100.66 100.60 100.50 100.42 100.16 100.31 100.46 100.18 99.97 99.79 99.26 99.65 99.57 99.19 99.25 99.04 98.63 98.61 98.43 98.18
101.89 101.71 101.82 102.21 102.59 102.72 102.83 103.17 103.00 102.82 103.08 103.32 103.25 103.22 103.76 103.57 103.35 103.21 103.13 103.01 102.99 102.45 102.48 102.16 101.89 101.67 101.57 101.58 101.16 101.24 100.81 101.11 100.96 100.51 100.51 100.38 100.25 100.37 100.41 100.25 100.08 99.92 99.78 99.65 99.43 99.29 99.09 98.80 98.74 99.26 98.47 98.29
101.61 101.76 101.85 102.24 102.56 102.69 102.88 103.22 103.21 103.10 103.55 103.39 103.34 103.31 103.40 103.30 103.30 103.15 103.04 102.96 102.85 102.55 102.76 102.23 101.94 101.54 101.86 101.78 101.29 101.26 100.98 101.08 100.92 100.50 100.49 100.32 100.39 100.37 100.33 100.27 100.17 100.06 99.93 99.78 99.61 99.46 98.97 98.86 99.11 98.41 98.25 98.27
101.74 101.89 102.00 102.42 102.63 102.73 102.97 103.14 103.11 103.19 103.43 103.35 103.38 103.54 103.47 103.42 103.37 103.14 103.13 102.92 102.75 102.63 102.69 102.54 101.96 101.62 101.83 101.84 101.28 101.25 101.10 101.12 100.99 100.89 100.51 100.42 100.43 100.38 100.32 100.21 100.11 99.98 100.07 99.78 99.58 99.18 98.94 99.10 98.81 99.03 98.30 98.14
102.01 101.87 102.02 102.79 102.82 102.78 103.52 103.42 103.12 103.77 103.64 103.43 103.64 103.69 103.57 103.35 103.42 103.27 103.31 103.30 103.05 102.67 102.89 102.47 102.03 101.82 101.73 101.64 101.48 101.36 101.70 101.28 101.24 100.99 100.76 100.52 100.58 100.40 100.29 100.21 99.99 100.05 99.86 99.68 99.40 99.07 99.07 99.11 99.02 98.75 98.72 98.19
101.96 102.39 102.19 102.84 102.80 102.81 103.29 103.70 103.37 103.32 103.84 103.50 103.52 103.65 103.63 103.36 103.36 103.39 103.29 103.90 103.08 102.73 102.88 103.07 102.24 101.96 101.79 101.52 101.50 101.35 101.31 101.19 101.19 101.02 101.04 100.67 100.58 100.39 100.28 100.18 100.15 99.89 99.90 99.66 99.28 99.19 99.07 99.10 99.14 98.98 98.68 98.66
101.88 102.10 102.18 102.95 102.81 102.85 103.14 103.55 103.59 103.40 103.60 103.72 103.40 103.60 103.59 103.58 103.24 103.30 103.40 103.40 102.86 102.87 102.71 102.52 102.16 102.26 102.17 101.96 101.67 101.60 101.39 101.32 101.17 101.07 100.86 100.67 100.61 100.68 100.30 100.35 100.20 99.66 99.64 99.48 99.22 99.22 99.09 99.09 99.10 99.01 98.85 98.62
101.71 102.01 102.25 102.51 102.63 102.80 102.94 102.97 102.95 103.00 103.07 103.15 103.30 103.31 103.31 103.17 103.11 103.05 103.00 103.01 102.80 102.95 102.78 102.52 102.31 102.66 102.50 102.06 101.69 101.60 101.40 101.32 101.14 101.11 100.92 100.72 100.76 100.65 100.40 100.24 100.19 100.05 99.94 99.48 99.35 99.22 99.13 99.12 99.22 99.04 98.83 98.89
101.68 102.25 102.31 102.68 102.75 102.75 103.04 102.77 102.81 102.89 103.25 103.46 103.66 103.42 103.74 103.72 103.53 103.38 103.32 103.40 102.86 102.96 102.91 102.56 102.54 102.44 102.75 102.13 100.62 101.70 101.57 101.47 101.48 101.20 101.07 100.74 100.88 100.87 100.56 100.36 100.23 99.94 99.54 99.51 99.60 99.65 99.28 99.74 99.02 98.88 98.84 98.91
101.62 101.78 102.10 103.07 103.12 102.55 102.85 102.81 102.89 103.00 103.26 103.56 103.57 103.48 103.74 103.72 103.48 103.39 103.36 103.31 102.89 103.02 102.92 102.69 102.33 102.27 102.07 102.06 101.69 101.78 101.78 101.50 101.43 101.26 101.24 100.81 100.89 100.91 100.51 100.34 99.96 99.95 99.69 99.72 99.57 99.67 99.47 99.19 99.12 98.89 98.79 98.93
101.63 101.95 102.16 102.61 102.73 102.47 103.07 102.90 102.93 103.01 103.31 103.52 103.57 103.53 103.69 103.71 103.69 103.31 103.30 103.30 102.90 102.90 102.79 102.61 102.56 102.39 102.10 101.93 101.85 101.85 101.73 101.59 101.56 101.30 101.18 100.91 100.91 100.92 100.42 100.46 100.31 99.43 99.70 99.62 99.52 99.61 99.59 99.12 99.11 99.03 98.83 99.09
