ncols 52
nrows 52
xllcorner 438272
yllcorner 5715968
cellsize 10
NODATA_value -9999
88.06 88.00 87.97 87.88 87.76 87.64 87.43 87.21 86.91 86.63 86.33 85.93 85.47 85.28 85.09 86.82 87.05 87.02 87.09 85.65 86.21 86.23 86.58 86.94 87.30 87.69 88.10 88.58 89.05 89.54 89.93 90.32 90.68 91.06 91.34 91.63 91.79 92.75 92.80 93.39 93.29 93.47 93.86 93.96 94.15 94.41 94.63 94.80 95.02 95.16 95.32 95.31
88.12 88.10 88.03 87.93 87.82 87.67 87.50 87.30 87.04 86.71 86.41 86.00 85.52 85.33 85.04 86.56 86.90 87.07 87.01 85.67 86.31 86.43 86.75 87.11 87.49 87.84 88.24 88.64 89.12 89.60 90.00 90.40 90.82 91.17 91.54 91.84 91.87 92.81 93.00 93.22 93.28 93.65 93.98 94.04 94.28 94.49 94.72 94.90 95.06 95.20 95.34 95.52
88.19 88.15 88.11 88.01 87.85 87.68 87.49 87.29 87.00 86.72 86.35 85.91 85.51 85.33 83.88 86.75 86.99 87.09 87.10 85.87 86.44 86.60 86.93 87.29 87.68 88.08 88.47 88.85 89.29 89.75 90.20 90.62 91.04 91.40 91.74 91.99 92.14 92.88 92.96 93.20 93.43 93.85 94.14 94.15 94.40 94.62 94.81 94.97 95.10 95.19 95.29 95.56
88.18 88.18 88.12 88.04 87.86 87.64 87.40 87.16 86.88 86.58 86.24 85.78 85.50 84.94 86.15 86.71 86.93 86.98 87.10 86.19 86.53 86.72 87.06 87.45 87.86 88.27 88.65 89.04 89.47 89.93 90.40 90.85 91.24 91.59 91.84 92.09 92.25 92.87 93.11 93.38 93.59 94.24 94.35 94.24 94.53 94.71 94.88 95.00 95.10 95.18 95.39 95.61
88.21 88.16 88.12 87.99 87.80 87.53 87.25 86.97 86.65 86.35 86.03 85.75 85.49 85.13 86.62 86.72 86.81 86.91 86.95 86.35 86.63 86.80 87.15 87.57 87.96 88.34 88.75 89.17 89.61 90.08 90.58 91.00 91.41 91.74 91.98 92.17 92.32 92.86 93.17 93.46 93.61 94.11 94.43 94.32 94.59 94.74 94.85 94.93 95.02 95.26 95.59 96.18
88.25 88.13 88.04 87.93 87.68 87.42 87.06 86.71 86.35 86.07 85.82 85.60 84.71 86.43 86.64 86.65 86.79 86.85 86.95 86.43 86.62 86.87 87.24 87.64 88.10 88.54 88.96 89.40 89.87 90.34 90.81 91.22 91.60 91.91 92.13 92.30 92.40 92.85 93.36 93.44 93.81 94.06 94.38 94.45 94.59 94.67 94.72 94.83 95.05 95.45 95.93 96.10
88.13 88.06 87.92 87.76 87.56 87.19 86.86 86.48 86.11 85.87 85.62 84.15 86.28 86.53 86.65 86.66 86.73 86.71 86.73 86.57 86.72 86.97 87.29 87.73 88.19 88.65 89.10 89.55 90.04 90.52 90.95 91.36 91.72 92.04 92.27 92.46 92.49 92.87 93.45 93.35 93.62 93.91 94.18 94.36 94.45 94.48 94.63 94.89 95.28 95.64 96.21 96.36
88.04 87.90 87.81 87.59 87.33 87.01 86.62 86.31 86.05 85.79 84.72 86.15 86.46 86.61 86.70 86.79 86.83 86.83 87.00 86.78 86.91 87.12 87.47 87.89 88.33 88.80 89.25 89.72 90.21 90.68 91.13 91.50 91.85 92.13 92.35 92.57 92.61 92.88 93.46 93.40 93.53 93.75 94.00 94.18 94.28 94.47 94.77 95.16 95.49 96.15 96.35 96.30
87.99 87.80 87.65 87.45 87.14 86.81 86.42 86.17 86.01 85.87 85.99 86.08 86.27 86.41 86.76 86.79 86.90 87.00 87.04 87.12 87.28 87.46 87.81 88.23 88.67 89.07 89.50 89.95 90.40 90.86 91.26 91.64 91.96 92.23 92.42 92.57 92.70 92.91 93.51 93.32 93.40 93.58 93.83 94.03 94.33 94.69 95.03 95.44 95.95 96.24 96.18 96.28
87.93 87.68 87.49 87.22 86.98 86.61 86.25 86.04 85.94 85.89 85.86 85.78 85.82 85.96 86.15 86.35 86.57 86.91 87.16 87.48 87.59 87.87 88.26 88.66 89.05 89.41 89.80 90.23 90.64 91.07 91.42 91.76 92.06 92.34 92.56 92.69 92.82 93.10 93.57 93.17 93.36 93.57 93.84 94.20 94.61 94.98 95.35 95.76 96.07 96.09 96.16 96.38
87.84 87.56 87.25 86.94 86.64 86.43 86.07 85.84 85.33 86.00 85.83 85.90 86.04 86.25 86.45 86.67 86.93 87.22 87.51 87.82 87.94 88.29 88.64 89.09 89.47 89.82 90.15 90.54 90.93 91.29 91.63 91.95 92.25 92.49 92.69 92.85 92.96 93.05 93.63 93.24 93.49 93.78 94.12 94.51 94.91 95.23 95.54 96.02 96.03 96.04 96.20 96.45
87.67 87.35 87.02 86.69 86.48 86.09 85.82 84.80 86.10 85.89 85.96 86.15 86.39 86.63 86.82 87.03 87.27 87.54 87.92 88.09 88.29 88.66 89.03 89.40 89.71 90.00 90.37 90.74 91.06 91.40 91.71 92.04 92.35 92.63 92.84 93.02 93.21 93.11 93.69 93.47 93.76 94.04 94.42 94.76 95.07 95.36 95.90 95.96 96.00 96.07 96.27 96.47
87.53 87.15 86.87 86.53 86.29 86.06 84.97 86.16 86.07 86.16 86.32 86.54 86.79 87.03 87.26 87.49 87.71 87.95 88.25 88.46 88.71 89.08 89.47 89.83 90.10 90.35 90.61 90.95 91.25 91.52 91.79 92.09 92.42 92.65 92.86 93.05 93.26 93.11 93.74 93.70 93.93 94.24 94.67 94.98 95.26 95.70 95.89 95.87 95.96 96.18 96.39 96.56
87.29 87.01 86.69 86.44 86.14 85.87 86.07 86.27 86.30 86.53 86.73 86.99 87.22 87.48 87.71 87.96 88.16 88.33 88.59 88.83 89.09 89.45 89.80 90.15 90.48 90.66 90.90 91.21 91.47 91.71 91.91 92.20 92.51 92.79 93.01 93.18 93.34 93.16 93.78 93.90 94.09 94.40 94.78 95.09 95.48 95.69 95.78 95.79 96.01 96.22 96.47 96.66
87.15 86.84 86.54 86.22 86.09 85.85 86.35 86.36 86.53 86.86 87.10 87.39 87.65 87.93 88.18 88.41 88.61 88.79 89.00 89.20 89.44 89.74 90.10 90.44 90.72 90.92 91.15 91.42 91.66 91.87 92.07 92.34 92.64 92.89 93.11 93.27 93.45 93.03 93.82 93.96 94.15 94.82 94.91 95.22 95.61 95.58 95.62 95.76 95.99 96.22 96.43 96.65
86.96 86.77 86.40 86.27 86.15 84.96 86.58 86.53 86.80 87.12 87.39 87.71 88.03 88.33 88.59 88.83 89.03 89.23 89.46 89.56 89.77 90.08 90.44 90.78 91.01 91.18 91.37 91.63 91.83 92.06 92.23 92.49 92.73 92.99 93.18 93.34 93.53 93.00 93.88 93.96 94.38 94.62 94.96 95.32 95.42 95.45 95.54 95.73 95.98 96.24 96.41 96.57
86.91 86.70 86.47 86.32 86.22 85.76 86.71 86.72 87.05 87.40 87.67 88.08 88.39 88.71 88.98 89.26 89.47 89.62 89.85 89.90 90.08 90.36 90.72 91.00 91.24 91.36 91.55 91.78 91.99 92.21 92.40 92.64 92.85 93.07 93.26 93.42 93.62 93.19 93.92 94.21 94.38 94.55 94.90 95.21 95.31 95.32 95.57 95.73 95.93 96.21 96.35 96.54
86.95 86.68 86.55 86.40 86.26 86.67 86.84 86.99 87.30 87.67 88.03 88.41 88.75 89.08 89.32 89.60 89.83 89.98 90.09 90.19 90.38 90.63 90.92 91.19 91.40 91.55 91.71 91.92 92.10 92.31 92.51 92.74 92.96 93.11 93.28 93.44 93.64 93.43 93.97 94.24 94.56 94.67 94.88 95.14 95.19 95.33 95.56 95.75 95.96 96.12 96.25 96.45
86.85 86.65 86.65 86.39 86.25 86.96 86.96 87.16 87.43 87.77 88.18 88.59 88.94 89.28 89.48 89.73 89.98 90.17 90.34 90.42 90.58 90.80 91.10 91.35 91.53 91.66 91.83 91.99 92.17 92.36 92.53 92.76 92.94 93.14 93.29 93.47 93.63 93.56 94.01 94.10 94.35 94.62 94.90 95.05 95.07 95.23 95.49 95.74 95.91 96.08 96.21 96.38
86.86 86.68 86.47 86.44 85.19 87.12 87.11 87.35 87.61 87.94 88.33 88.71 89.02 89.36 89.61 89.83 90.07 90.32 90.46 90.57 90.79 90.99 91.22 91.44 91.60 91.75 91.89 92.05 92.20 92.41 92.58 92.77 92.97 93.15 93.33 93.46 93.53 93.51 94.07 94.08 94.26 94.65 94.83 94.83 94.95 95.13 95.40 95.67 95.86 96.01 96.18 96.29
86.88 86.72 86.51 86.34 85.81 87.24 87.33 87.58 87.81 88.11 88.46 88.76 89.13 89.49 89.77 89.95 90.22 90.52 90.65 90.77 90.93 91.13 91.31 91.51 91.65 91.79 91.94 92.11 92.27 92.44 92.58 92.76 92.97 93.17 93.32 93.44 93.51 93.56 94.14 94.21 94.12 94.51 94.54 94.74 94.90 95.08 95.36 95.58 95.79 95.95 96.11 96.24
86.93 86.76 86.58 86.43 86.85 87.14 87.40 87.72 87.97 88.24 88.56 88.85 89.18 89.54 89.86 90.08 90.33 90.65 90.73 90.82 90.96 91.14 91.32 91.49 91.69 91.83 91.96 92.14 92.25 92.43 92.57 92.72 92.93 93.12 93.25 93.31 93.50 93.82 94.21 93.88 94.21 94.41 94.56 94.76 94.90 95.07 95.26 95.49 95.67 95.83 95.96 96.10
87.00 86.84 86.70 86.48 86.99 87.08 87.42 87.79 88.04 88.32 88.59 88.90 89.26 89.58 89.87 90.10 90.38 90.68 90.75 90.86 90.94 91.16 91.35 91.56 91.75 91.87 92.00 92.15 92.29 92.45 92.55 92.70 92.87 93.05 93.18 93.27 93.43 93.49 94.28 94.03 94.00 94.18 94.44 94.61 94.85 95.10 95.19 95.34 95.50 95.64 95.76 95.85
86.97 86.93 86.75 85.42 87.03 87.09 87.47 87.79 88.03 88.25 88.60 88.93 89.31 89.65 89.94 90.17 90.43 90.68 90.83 90.94 90.99 91.18 91.44 91.71 91.84 91.97 92.08 92.22 92.33 92.46 92.57 92.68 92.85 92.99 93.13 93.22 93.37 93.72 94.37 93.90 93.88 94.10 94.36 94.58 94.74 94.91 95.06 95.25 95.41 95.49 95.57 95.62
86.98 86.94 86.81 85.86 87.01 87.10 87.41 87.69 87.91 88.19 88.51 88.85 89.18 89.54 89.88 90.14 90.40 90.63 90.84 90.99 91.11 91.34 91.60 91.82 91.93 92.00 92.13 92.24 92.37 92.48 92.55 92.67 92.83 92.98 93.11 93.18 93.33 93.88 94.46 93.83 93.81 94.01 94.31 94.54 94.70 94.85 95.01 95.14 95.24 95.35 95.43 95.56
86.94 86.93 86.84 86.47 87.03 87.12 87.33 87.51 87.77 88.04 88.34 88.61 88.91 89.30 89.71 90.00 90.28 90.61 90.86 91.06 91.26 91.46 91.69 91.89 91.94 92.04 92.16 92.28 92.38 92.49 92.57 92.70 92.83 92.96 93.10 93.18 93.27 94.01 94.52 93.73 93.73 93.97 94.23 94.46 94.62 94.77 94.93 95.05 95.13 95.21 95.26 95.29
87.00 86.88 86.86 86.70 87.11 87.46 87.35 87.43 87.66 87.89 88.18 88.38 88.64 89.06 89.49 89.81 90.12 90.57 90.83 91.06 91.26 91.51 91.71 91.85 91.90 92.00 92.12 92.27 92.38 92.44 92.56 92.65 92.79 92.92 93.04 93.15 93.29 94.14 94.32 93.68 93.68 93.92 94.18 94.38 94.54 94.71 94.83 94.92 95.02 95.09 95.12 95.11
86.94 86.89 85.66 86.74 87.04 86.41 86.53 87.58 87.57 87.76 88.01 88.19 88.45 88.90 89.37 89.74 90.09 90.45 90.72 90.97 91.21 91.47 91.64 91.77 91.81 91.86 92.06 92.17 92.31 92.40 92.49 92.58 92.71 92.79 92.95 93.12 93.35 94.32 93.62 93.64 93.66 93.90 94.12 94.29 94.47 94.61 94.74 94.82 94.90 94.91 94.90 94.92
86.42 86.43 86.87 86.93 87.09 86.40 86.56 87.40 87.43 87.57 87.82 88.04 88.30 88.74 89.21 89.55 89.88 90.18 90.52 90.77 91.03 91.30 91.47 91.58 91.67 91.75 91.92 92.04 92.21 92.31 92.43 92.57 92.62 92.71 92.89 93.09 93.47 94.51 93.46 93.58 93.65 93.88 94.09 94.26 94.42 94.53 94.60 94.67 94.74 94.71 94.69 94.68
86.09 86.61 86.55 87.04 86.46 86.40 87.42 87.32 87.38 87.49 87.74 88.00 88.29 88.65 89.01 89.35 89.63 89.87 90.22 90.53 90.79 91.04 91.23 91.35 91.43 91.58 91.75 91.91 92.11 92.25 92.40 92.56 92.65 92.77 92.93 93.16 93.63 94.57 93.58 93.60 93.67 93.89 94.07 94.24 94.33 94.43 94.53 94.55 94.56 94.51 94.45 94.43
86.07 86.03 86.81 86.95 86.45 87.22 87.39 87.44 87.51 87.61 87.82 88.05 88.29 88.54 88.86 89.17 89.47 89.68 89.99 90.26 90.54 90.74 90.92 91.06 91.23 91.43 91.65 91.82 92.04 92.20 92.37 92.54 92.71 92.88 93.02 93.22 93.81 94.65 93.57 93.54 93.69 93.92 94.04 94.15 94.24 94.35 94.39 94.44 94.40 94.32 94.29 94.26
86.65 86.81 86.95 87.36 87.54 87.33 87.24 87.10 87.60 87.77 87.89 88.12 88.34 88.60 88.81 89.08 89.36 89.55 89.81 90.06 90.27 90.50 90.69 90.88 91.06 91.31 91.56 91.72 91.95 92.13 92.29 92.53 92.73 92.88 93.02 93.24 94.26 94.69 93.52 93.47 93.66 93.87 94.00 94.10 94.19 94.24 94.26 94.27 94.21 94.13 94.11 94.07
86.06 87.14 87.22 87.62 87.98 88.18 88.38 87.32 87.63 87.82 87.94 88.16 88.33 88.56 88.77 89.03 89.30 89.46 89.68 89.92 90.13 90.36 90.58 90.79 90.99 91.20 91.48 91.64 91.86 92.06 92.25 92.47 92.68 92.86 93.00 93.25 94.32 94.71 93.40 93.39 93.57 93.75 93.88 94.01 94.09 94.14 94.17 94.16 94.06 93.98 94.00 93.99
87.10 87.20 87.49 87.91 88.23 88.56 88.76 88.91 88.44 87.68 87.79 88.38 88.40 88.60 88.71 88.97 89.27 89.40 89.61 89.86 90.07 90.29 90.53 90.74 90.96 91.16 91.41 91.64 91.81 91.97 92.13 92.35 92.54 92.77 92.95 93.20 94.48 94.65 93.30 93.22 93.43 93.63 93.75 93.86 93.97 94.05 94.06 94.01 93.99 93.98 93.94 93.90
87.24 87.46 87.88 88.21 88.55 88.80 89.09 89.30 89.02 89.03 87.87 88.37 88.33 88.38 88.79 89.06 89.38 89.45 89.61 89.90 90.12 90.27 90.53 90.77 90.93 91.17 91.49 91.71 91.86 92.00 92.15 92.29 92.49 92.69 92.92 93.23 94.74 94.00 93.15 93.09 93.29 93.49 93.64 93.75 93.84 93.91 93.92 93.93 93.88 93.86 93.83 93.79
87.34 87.59 88.04 88.40 88.76 89.07 89.31 89.59 89.34 89.24 89.33 89.41 88.78 88.18 88.77 89.09 89.33 89.66 89.79 89.96 90.17 90.32 90.53 90.71 90.97 91.27 91.56 91.78 91.93 92.07 92.19 92.36 92.51 92.72 93.01 93.45 94.92 93.04 93.11 93.04 93.20 93.40 93.52 93.60 93.68 93.77 93.79 93.75 93.76 93.77 93.71 93.69
87.47 87.85 88.31 88.64 89.05 89.42 89.67 89.90 89.62 89.49 89.46 89.68 89.51 89.82 89.57 88.92 89.62 89.63 89.16 89.93 90.37 90.64 90.87 91.11 91.19 91.51 91.75 91.99 92.13 92.23 92.39 92.54 92.71 92.87 93.15 93.70 95.00 93.10 93.12 93.02 93.14 93.31 93.43 93.47 93.53 93.59 93.63 93.61 93.58 93.60 93.58 93.53
87.68 88.12 88.50 88.84 89.31 90.18 90.54 90.24 89.94 89.80 89.68 89.91 90.25 90.29 90.37 89.72 90.16 90.53 90.61 90.65 90.66 90.64 90.63 90.38 91.19 91.80 92.11 92.35 92.51 92.55 92.66 92.82 92.99 93.12 93.36 94.25 95.03 93.35 93.19 93.07 93.16 93.31 93.34 93.39 93.39 93.44 93.46 93.43 93.48 93.46 93.44 93.38
87.82 88.26 88.57 89.06 89.48 90.29 90.60 90.83 90.25 90.18 90.05 90.17 90.51 90.82 90.86 90.58 89.79 90.41 91.00 91.06 91.23 91.29 91.51 91.84 91.82 92.02 92.14 92.35 92.05 92.65 93.14 93.35 93.49 93.71 93.69 94.62 95.03 93.51 93.38 93.49 93.25 93.29 93.37 93.35 93.28 93.23 93.29 93.28 93.29 93.31 93.26 93.18
87.81 88.14 88.60 89.11 89.57 90.12 90.88 90.96 90.64 90.48 90.48 90.67 90.75 90.81 91.18 91.02 90.13 90.49 91.12 91.31 91.43 91.70 91.76 92.05 92.09 92.13 92.35 92.49 92.62 92.69 92.81 92.96 93.15 93.10 93.77 94.83 95.02 94.39 93.81 93.79 93.49 93.41 93.40 93.35 93.26 93.21 93.19 93.17 93.19 93.19 93.09 93.02
87.76 88.14 88.66 89.10 89.58 89.99 90.59 90.60 90.85 90.80 90.80 90.83 91.11 91.11 91.47 91.19 90.82 91.50 91.53 91.57 91.67 91.85 92.01 92.23 92.37 92.46 92.50 92.62 92.68 92.80 92.86 93.03 93.18 93.39 93.63 94.86 95.00 93.29 93.91 94.12 93.96 93.70 93.65 93.52 93.37 93.18 93.11 93.11 93.10 93.06 92.96 92.86
87.91 88.42 88.80 89.35 89.72 89.98 90.21 90.39 90.96 90.96 91.09 91.12 91.38 91.34 91.69 91.08 91.11 91.85 91.99 91.95 92.00 92.18 92.36 92.49 92.61 92.72 92.75 92.83 92.91 92.99 93.02 93.20 93.25 93.42 93.77 95.08 95.05 93.52 93.43 93.39 93.40 93.72 93.91 93.84 93.56 93.41 93.14 93.01 92.99 92.93 92.86 92.76
88.04 88.45 88.81 89.30 89.79 89.97 90.27 90.37 90.95 91.09 91.18 91.31 91.56 91.64 91.92 90.93 91.57 92.03 92.19 92.37 92.41 92.57 92.61 92.71 92.81 92.93 92.94 93.00 93.04 93.21 93.25 93.39 93.46 93.65 93.86 95.28 95.09 93.62 93.49 93.51 93.51 93.37 93.26 93.12 93.58 93.72 93.49 93.28 93.14 92.90 92.79 92.67
88.39 88.76 89.08 89.45 89.82 90.03 90.16 90.35 90.76 91.18 91.26 91.43 91.70 91.84 92.04 91.04 91.85 92.33 92.61 92.89 92.87 92.85 92.90 92.92 93.03 93.16 93.18 93.19 93.26 93.43 93.49 93.60 93.68 93.85 93.47 95.38 93.83 93.70 93.49 93.42 93.43 93.35 93.26 93.26 93.16 93.06 92.81 93.48 93.49 93.21 93.11 92.82
88.71 89.06 89.11 89.08 89.53 90.01 90.14 90.46 90.57 91.31 91.38 91.58 91.87 91.98 92.21 90.98 92.63 92.92 92.89 92.93 93.03 93.11 93.25 93.17 93.36 93.43 93.45 93.51 93.58 93.66 93.69 93.79 93.87 94.02 94.02 95.39 93.83 93.68 93.52 93.43 93.39 93.35 93.28 93.26 93.14 93.08 93.07 92.96 92.83 92.50 93.28 93.23
88.52 88.70 88.54 88.75 89.94 89.82 90.23 90.26 90.48 91.05 91.45 91.54 91.83 92.09 92.33 91.09 93.00 92.98 93.01 93.03 93.08 93.16 93.44 93.45 93.59 93.67 93.68 93.76 93.83 93.85 93.92 93.99 94.04 94.14 94.79 95.40 93.85 93.67 93.54 93.46 93.43 93.43 93.36 93.28 93.18 93.07 93.02 92.92 92.89 92.82 92.68 92.44
88.77 88.79 88.96 89.54 90.01 90.21 90.22 90.25 90.53 91.10 91.34 91.65 91.87 92.22 92.37 91.50 93.03 93.14 93.06 93.07 93.17 93.65 93.70 93.69 93.81 93.90 93.88 93.96 94.04 94.05 94.11 94.15 94.22 94.29 95.07 95.43 93.96 93.71 93.59 93.53 93.48 93.48 93.41 93.35 93.25 93.15 93.02 92.87 92.72 92.77 92.64 92.57
88.49 88.12 88.13 88.13 89.48 90.42 90.32 90.29 90.44 90.75 91.49 91.77 91.85 92.32 92.68 91.99 93.17 93.29 93.38 93.47 93.54 93.90 93.90 93.93 94.01 94.06 94.11 94.17 94.23 94.24 94.28 94.31 94.37 94.43 95.19 95.40 94.07 93.83 93.67 93.58 93.55 93.54 93.48 93.38 93.27 93.16 93.08 92.89 92.77 92.69 92.65 92.54
88.13 88.41 88.13 88.11 88.13 90.09 90.49 90.37 90.48 90.72 91.57 91.86 91.90 92.38 92.54 92.54 93.29 93.60 93.70 93.73 93.81 94.08 94.12 94.15 94.22 94.31 94.32 94.35 94.41 94.39 94.46 94.43 94.49 94.57 95.39 95.11 94.10 93.94 93.81 93.68 93.64 93.60 93.47 93.44 93.33 93.21 93.09 92.97 92.82 92.74 92.63 92.48
91.33 92.90 91.55 88.26 88.12 89.92 90.54 90.44 90.47 90.50 91.47 91.95 91.99 92.50 92.56 92.66 93.29 93.60 93.77 93.84 93.94 94.93 94.27 94.39 94.46 94.49 94.44 94.49 94.56 94.55 94.61 94.57 94.61 94.57 95.66 94.08 94.17 94.00 93.91 93.78 93.72 93.65 93.53 93.45 93.37 93.25 93.14 93.00 92.86 92.77 92.62 92.54
92.29 96.03 94.29 90.34 88.11 89.68 90.32 90.36 90.45 90.48 91.65 91.96 92.04 92.46 92.63 92.93 93.28 93.41 93.70 93.97 93.98 95.13 94.48 94.60 94.72 94.66 94.61 94.62 94.68 94.67 94.72 94.68 94.69 94.21 95.80 94.25 94.30 94.14 94.01 93.88 93.79 93.72 93.60 93.52 93.44 93.35 93.23 93.09 92.96 92.80 92.63 92.53
92.85 95.12 93.30 89.36 88.43 90.01 90.39 90.40 90.56 90.82 91.62 91.86 92.07 92.50 92.86 93.01 93.39 93.51 93.88 94.07 94.58 95.22 94.68 94.78 94.93 94.84 94.83 94.85 94.86 94.79 94.78 94.76 94.75 94.39 95.82 94.59 94.43 94.28 94.12 93.96 93.87 93.76 93.69 93.60 93.50 93.43 93.29 93.13 93.04 92.88 92.66 92.52
