ncols 52
nrows 52
xllcorner 438272
yllcorner 5716480
cellsize 10
NODATA_value -9999
84.41 83.97 83.79 83.46 82.43 82.31 82.05 83.06 83.49 83.82 84.31 84.77 85.24 85.68 86.06 86.40 86.65 86.88 87.05 87.17 87.28 87.50 87.69 87.83 87.97 88.09 88.28 88.93 88.74 88.34 88.30 88.36 88.37 88.47 88.69 88.74 88.82 88.55 88.70 89.30 89.64 90.05 88.57 88.36 88.32 88.18 88.12 87.31 87.78 87.66 87.50 87.34
84.48 84.12 83.80 83.14 82.55 82.47 82.27 82.85 83.35 83.70 84.12 84.62 85.10 85.55 85.96 86.31 86.54 86.79 87.04 87.19 87.28 87.44 87.64 87.83 87.94 88.11 88.29 88.80 88.76 88.30 88.62 88.41 88.36 88.40 88.54 88.53 88.58 88.51 88.44 89.43 89.41 91.50 88.98 88.30 87.94 87.88 87.87 87.81 87.70 87.62 87.48 87.40
84.48 84.19 83.79 83.43 82.61 82.51 82.46 82.19 83.20 83.54 84.01 84.49 84.97 85.36 85.78 86.18 86.47 86.68 86.89 87.05 87.23 87.41 87.59 87.73 87.88 88.06 88.33 88.68 88.94 88.29 88.40 88.46 88.36 88.36 88.36 88.43 88.36 88.40 88.33 88.04 89.64 89.49 92.32 88.25 87.66 87.92 87.76 87.68 87.64 87.60 87.54 87.57
84.54 84.14 83.80 83.46 82.67 82.56 82.82 82.37 83.00 83.57 83.93 84.29 84.79 85.23 85.57 85.93 86.21 86.49 86.74 86.96 87.17 87.38 87.51 87.66 87.79 88.00 88.26 88.54 89.02 88.22 88.20 88.17 88.15 88.25 88.36 88.40 88.39 88.22 88.04 88.00 87.96 89.75 89.40 91.68 87.84 87.91 87.80 87.69 87.66 87.65 87.59 87.53
84.46 84.20 83.88 83.25 82.65 81.66 82.39 81.54 81.61 83.44 83.83 84.08 84.48 84.88 85.27 85.63 85.96 86.26 86.58 86.85 87.08 87.29 87.43 87.54 87.75 87.90 88.08 88.42 89.09 88.05 87.96 87.96 88.04 88.20 88.29 88.23 87.95 87.54 88.08 88.07 88.09 89.14 89.83 90.66 90.37 87.74 87.89 87.74 87.72 87.69 87.66 87.58
84.47 84.05 83.81 83.01 82.71 81.61 82.04 82.04 82.04 81.73 83.53 83.80 84.11 84.54 84.93 85.32 85.69 86.07 86.39 86.65 86.87 87.12 87.31 87.54 87.73 87.86 88.04 88.35 89.17 87.66 87.75 87.82 87.99 88.01 87.93 87.89 88.20 88.12 88.08 88.02 88.17 88.18 89.92 89.91 92.04 89.29 87.90 87.91 87.86 87.80 87.74 87.72
84.32 83.96 82.78 82.34 82.84 82.53 82.30 82.08 82.07 82.02 82.85 83.56 83.83 84.22 84.60 85.03 85.43 85.76 86.07 86.40 86.68 86.93 87.23 87.46 87.68 87.85 88.07 88.29 89.04 88.85 87.76 87.63 87.39 88.22 88.28 88.21 88.18 88.12 88.07 88.08 88.14 88.26 87.88 90.14 89.99 92.78 88.54 88.08 88.05 87.93 87.91 87.96
84.46 84.05 83.73 83.29 83.07 83.04 82.29 82.11 82.08 82.02 82.05 82.54 83.61 83.97 84.32 84.78 85.16 85.52 85.82 86.17 86.47 86.79 87.10 87.42 87.66 87.83 88.00 88.31 88.85 89.06 87.28 87.85 88.10 88.18 88.31 88.24 88.21 88.20 88.16 88.14 88.14 88.26 88.41 88.02 90.23 89.92 92.46 88.09 88.25 88.16 88.19 88.24
84.29 84.05 84.01 83.67 83.50 83.21 82.42 82.12 82.06 82.01 81.94 82.04 81.69 83.76 84.28 84.60 84.90 85.21 85.58 85.97 86.33 86.68 87.03 87.33 87.58 87.79 87.96 88.18 88.69 89.16 87.86 88.00 88.17 88.31 88.24 88.32 88.50 88.26 88.22 88.28 88.31 88.33 88.44 88.58 89.25 90.35 90.66 91.54 88.32 88.49 88.46 88.44
84.57 84.24 84.08 84.01 83.84 83.54 82.66 82.14 82.04 82.03 82.08 81.91 81.93 81.55 84.05 84.44 84.68 85.03 85.40 85.81 86.20 86.55 86.93 87.23 87.48 87.72 87.87 88.10 87.84 89.25 87.76 88.10 88.23 88.38 88.43 88.52 88.56 88.42 88.37 88.38 88.35 88.39 88.43 88.61 88.61 90.19 90.43 91.84 90.55 88.58 88.69 88.62
84.69 84.35 84.16 84.28 84.15 83.85 83.16 82.07 82.05 82.23 81.96 81.95 81.97 82.03 81.58 84.23 84.54 84.81 85.21 85.64 86.04 86.44 86.80 87.09 87.33 87.60 87.81 88.00 88.11 89.31 87.28 88.40 88.36 88.56 88.57 88.55 88.57 88.52 88.46 88.43 88.48 88.54 88.56 88.64 88.87 88.67 90.61 90.53 92.89 89.59 89.00 89.01
84.85 84.50 84.25 84.45 84.36 84.10 83.55 82.38 81.99 81.76 82.08 81.99 81.97 81.96 81.82 82.90 84.40 84.76 85.13 85.48 85.86 86.28 86.65 86.95 87.20 87.46 87.67 87.91 88.05 89.19 88.89 88.39 88.32 88.51 88.59 88.60 88.79 88.65 88.55 88.49 88.58 88.60 88.61 88.80 88.91 88.93 88.51 90.74 90.57 93.32 89.48 89.39
84.71 84.68 84.43 84.60 84.49 84.27 83.92 82.02 81.96 82.02 81.95 81.89 81.99 82.05 82.32 82.96 83.38 84.71 85.04 85.33 85.65 86.01 86.37 86.68 86.97 87.24 87.46 87.69 87.84 89.00 89.14 88.32 88.61 88.56 88.81 88.74 88.79 88.89 88.50 88.76 88.79 88.98 89.04 88.95 88.92 88.94 88.99 88.79 90.83 90.54 93.29 89.60
84.68 84.96 84.80 84.70 84.49 84.35 84.13 82.10 81.97 82.00 81.99 82.01 81.98 82.26 82.77 83.00 83.25 83.61 85.18 85.42 85.63 85.86 86.15 86.47 86.73 87.02 87.26 87.45 87.44 89.03 89.26 88.25 88.39 88.43 88.54 87.26 88.28 88.85 88.69 88.85 89.01 88.98 88.99 89.01 89.06 89.10 89.15 89.26 89.60 90.89 90.97 92.82
85.33 85.23 85.32 85.34 85.26 84.37 84.14 82.12 82.06 82.00 82.04 82.03 82.11 81.93 82.92 83.14 83.34 83.51 83.76 84.22 83.92 84.97 85.80 86.42 86.81 86.66 86.09 87.28 88.01 87.89 89.35 88.54 88.46 88.48 88.59 88.74 88.66 88.74 88.76 88.77 88.88 88.95 89.06 89.10 89.18 89.29 89.38 89.50 89.54 90.43 90.95 91.83
85.81 85.90 85.82 85.74 85.28 85.15 84.17 82.25 82.18 82.14 82.00 82.06 82.16 82.48 83.10 83.45 83.77 84.03 84.28 84.60 85.00 85.60 86.25 86.71 86.90 87.16 87.54 87.84 88.21 88.91 89.46 88.89 88.54 88.74 88.65 88.63 88.66 88.52 88.83 88.88 88.95 89.08 89.19 89.26 89.32 89.43 89.54 89.66 89.82 89.74 90.97 91.01
86.27 86.14 86.04 85.89 85.60 84.87 84.13 82.50 82.16 82.04 82.03 82.03 82.23 82.99 83.27 83.74 84.17 84.66 85.19 85.52 85.99 86.40 86.68 86.93 87.07 87.36 87.67 87.94 88.11 89.57 89.46 89.18 88.60 88.57 88.71 88.91 88.63 88.64 88.97 89.00 89.07 89.21 89.36 89.43 89.52 89.64 89.72 89.82 89.95 90.10 90.00 91.20
86.41 86.23 86.08 85.89 85.25 84.04 83.86 83.90 83.86 83.77 83.76 83.76 83.89 83.91 84.23 84.69 85.02 85.41 85.68 86.15 86.44 86.72 86.92 87.08 87.19 87.46 87.75 88.17 88.39 89.04 89.38 89.36 88.94 88.83 89.07 89.06 89.11 89.24 89.12 89.13 89.21 89.36 89.52 89.62 89.68 89.81 89.92 90.05 90.16 90.33 90.48 90.39
86.49 86.28 86.10 85.90 84.22 83.94 83.78 83.92 83.98 83.74 82.65 82.40 82.16 83.78 84.08 84.71 85.12 85.46 85.76 86.12 86.46 86.73 86.94 87.10 87.24 87.51 87.84 88.22 88.51 89.19 89.38 89.49 89.24 88.91 89.00 89.04 89.26 89.12 89.26 89.29 89.36 89.52 89.68 89.82 89.94 90.04 90.14 90.28 90.40 90.49 90.62 90.75
86.50 86.54 85.98 84.69 84.28 84.01 83.78 83.86 83.92 83.81 82.33 82.36 82.18 83.71 84.13 84.94 85.15 85.44 85.81 86.20 86.55 86.85 87.03 87.15 87.33 87.62 87.93 88.20 88.51 88.84 89.39 89.62 89.07 88.70 88.82 88.97 89.35 89.21 89.31 89.42 89.50 89.61 89.79 89.93 90.02 90.11 90.23 90.40 90.55 90.68 90.81 91.00
86.59 86.45 86.21 84.47 84.21 83.95 83.82 83.88 84.02 83.78 82.29 82.33 82.56 83.78 84.35 85.06 85.25 85.49 85.88 86.28 86.63 86.93 87.12 87.26 87.43 87.66 87.97 88.18 88.47 88.75 89.38 89.72 89.54 88.86 88.85 88.98 89.74 89.46 89.48 89.58 89.67 89.74 89.92 90.08 90.15 90.23 90.39 90.60 90.74 90.87 91.02 91.15
86.56 86.38 86.19 84.49 84.15 83.87 83.92 83.95 83.98 83.68 82.33 82.38 82.53 83.93 84.53 85.25 85.31 85.51 85.90 86.31 86.68 86.97 87.20 87.40 87.54 87.72 87.97 88.25 88.48 88.75 89.29 89.75 89.61 89.80 89.82 90.21 89.61 89.61 89.70 89.74 89.81 89.89 90.07 90.22 90.35 90.49 90.62 90.80 90.98 91.10 91.26 91.40
86.49 86.30 85.95 84.84 84.66 84.26 84.05 84.06 83.88 83.82 82.35 82.35 82.52 83.96 84.66 85.12 85.35 85.55 85.94 86.34 86.71 86.99 87.27 87.45 87.60 87.71 87.95 88.22 88.51 88.68 88.82 89.68 89.79 89.92 89.38 89.51 89.57 89.67 89.88 89.89 89.95 90.02 90.17 90.35 90.52 90.64 90.79 90.98 91.14 91.33 91.51 91.67
86.33 86.16 85.26 84.92 85.06 84.47 84.27 84.23 83.67 83.36 82.33 82.38 82.53 84.14 84.79 85.15 85.41 85.58 85.95 86.29 86.68 86.97 87.29 87.50 87.63 87.76 87.98 88.21 88.49 88.68 88.85 89.65 89.88 89.92 89.78 89.48 89.69 89.80 90.04 90.01 90.09 90.16 90.29 90.50 90.67 90.83 91.01 91.20 91.39 91.57 91.81 92.04
86.15 86.00 85.16 85.03 85.26 84.70 84.02 83.49 83.29 83.12 82.33 82.53 82.73 84.09 84.82 85.14 85.45 85.61 85.92 86.25 86.61 86.97 87.33 87.54 87.70 87.85 88.04 88.34 88.56 88.76 88.91 89.38 89.98 89.97 90.55 89.56 89.78 90.01 90.15 90.24 90.30 90.41 90.53 90.76 91.01 91.23 91.40 91.60 91.83 91.98 92.29 92.48
86.04 85.96 85.18 85.21 84.61 84.28 83.78 83.52 83.24 83.21 82.49 82.86 82.81 84.09 84.82 85.10 85.43 85.61 85.92 86.28 86.64 86.99 87.31 87.56 87.75 87.91 88.12 88.43 88.66 88.84 88.99 89.23 90.11 89.97 90.24 89.73 89.86 90.14 90.28 90.43 90.57 90.80 90.98 91.20 91.45 91.70 91.91 92.03 92.21 92.38 92.60 92.91
85.93 85.73 85.50 85.48 84.85 84.00 83.84 83.72 83.50 83.28 83.00 82.58 83.31 84.04 84.80 85.08 85.40 85.59 85.91 86.32 86.68 86.99 87.28 87.54 87.75 87.94 88.16 88.48 88.67 88.87 89.00 89.11 90.21 90.08 90.21 90.18 90.28 90.37 90.49 90.61 90.77 90.94 91.09 91.21 91.33 91.53 91.72 91.91 92.10 92.29 92.62 92.90
85.91 85.83 85.31 85.30 84.88 84.45 84.14 84.07 83.83 83.53 83.27 82.98 83.30 84.18 84.71 85.01 85.22 85.55 85.85 86.24 86.60 86.93 87.22 87.47 87.71 87.89 88.18 88.48 88.74 88.93 89.03 89.17 90.12 90.06 89.68 89.78 89.89 90.08 90.30 90.48 90.62 90.75 90.93 91.11 91.31 91.50 91.69 91.90 92.12 92.38 92.76 93.05
85.97 86.29 84.97 85.00 84.99 84.82 85.04 84.88 84.48 84.00 83.59 83.07 83.01 83.06 84.27 84.94 85.24 85.46 85.73 86.09 86.46 86.79 87.08 87.36 87.62 87.84 88.12 88.45 88.75 88.96 89.08 89.22 90.10 90.38 89.59 89.65 89.79 90.02 90.27 90.48 90.64 90.82 90.97 91.14 91.31 91.51 91.76 92.01 92.29 92.66 93.00 93.25
86.00 85.65 85.30 85.60 85.69 85.62 85.31 84.85 84.52 84.19 82.67 83.25 83.04 83.01 83.35 85.26 85.07 85.34 85.57 85.90 86.25 86.62 86.90 87.19 87.50 87.76 88.05 88.43 88.79 89.00 89.08 89.24 89.88 90.51 89.69 89.68 89.79 90.03 90.31 90.55 90.71 90.88 91.05 91.22 91.41 91.64 91.89 92.17 92.48 92.80 93.14 93.43
86.22 85.53 85.56 85.81 85.97 85.71 85.45 85.11 84.62 84.02 83.57 83.31 83.47 83.02 83.03 84.97 84.87 85.20 85.39 85.73 86.04 86.40 86.69 87.01 87.35 87.67 88.03 88.39 88.79 88.98 89.15 89.32 89.56 90.65 89.85 89.77 89.89 90.09 90.37 90.63 90.85 91.02 91.20 91.39 91.61 91.83 92.08 92.35 92.62 92.94 93.28 93.60
85.91 85.71 85.76 85.93 86.10 85.94 85.53 85.12 84.18 83.97 83.83 83.36 83.77 83.05 83.02 84.71 84.70 85.07 85.24 85.54 85.89 86.20 86.50 86.85 87.25 87.64 88.04 88.42 88.85 89.04 89.21 89.40 89.37 90.75 89.64 89.88 89.92 90.15 90.46 90.73 90.93 91.12 91.34 91.55 91.78 92.04 92.27 92.57 92.81 93.11 93.46 93.74
86.04 85.94 86.00 86.27 86.18 85.87 84.62 84.91 84.67 84.32 83.91 83.46 83.84 83.02 83.02 84.38 84.69 85.00 85.17 85.44 85.75 86.09 86.40 86.78 87.24 87.65 88.06 88.46 88.97 89.24 89.39 89.51 89.52 90.64 90.40 89.97 90.06 90.26 90.52 90.81 91.04 91.27 91.51 91.74 91.97 92.21 92.45 92.72 92.99 93.24 93.56 93.88
86.09 86.11 86.19 85.27 86.08 85.90 85.49 84.99 84.56 84.32 83.84 83.54 83.81 83.03 83.03 84.18 84.68 84.96 85.18 85.41 85.75 86.09 86.43 86.84 87.26 87.69 88.10 88.53 89.00 89.32 89.51 89.64 89.80 90.56 90.84 90.11 90.18 90.32 90.58 90.82 91.03 91.31 91.55 91.80 92.01 92.27 92.54 92.80 93.07 93.32 93.52 93.96
86.06 86.63 86.53 86.51 86.21 85.88 85.44 84.98 84.60 84.33 83.56 83.55 83.70 83.02 83.02 84.54 84.64 85.06 85.24 85.50 85.84 86.22 86.60 86.97 87.36 87.78 88.15 88.58 88.96 89.28 89.47 89.62 89.82 90.43 90.98 90.12 90.19 90.39 90.57 90.81 91.08 91.35 91.59 91.82 92.01 92.23 92.49 92.78 93.07 93.36 93.79 94.23
86.73 86.70 86.61 86.54 86.22 85.82 85.38 84.99 84.70 84.35 83.10 83.46 83.59 83.02 83.21 84.75 84.80 85.07 85.44 85.68 86.04 86.43 86.80 87.19 87.56 87.93 88.31 88.67 89.02 89.33 89.51 89.66 89.87 90.12 91.12 90.32 90.26 90.38 90.58 90.91 91.19 91.45 91.68 91.94 92.14 92.33 92.57 92.88 93.19 93.51 93.99 94.44
86.72 86.69 86.60 86.47 86.30 85.90 85.41 84.95 84.63 84.37 83.74 83.45 83.43 83.54 84.57 84.85 85.02 85.26 85.72 85.96 86.33 86.70 87.10 87.43 87.79 88.12 88.45 88.81 89.13 89.40 89.57 89.73 89.95 90.14 91.26 90.05 90.40 90.49 90.70 90.96 91.27 91.54 91.80 92.06 92.32 92.57 92.81 93.08 93.39 93.75 94.18 94.56
86.91 86.79 86.67 86.45 86.17 85.94 85.39 85.07 84.77 84.42 83.54 83.43 83.40 83.49 84.79 85.09 85.22 85.49 85.94 86.25 86.63 87.00 87.37 87.70 88.04 88.32 88.64 88.94 89.22 89.49 89.65 89.80 90.04 90.27 91.14 90.66 90.49 90.52 90.76 91.08 91.40 91.64 91.96 92.25 92.52 92.81 93.05 93.32 93.61 93.89 94.31 94.67
87.01 86.94 86.72 86.46 86.15 85.79 85.54 85.02 84.83 84.45 83.62 83.50 83.48 83.60 84.81 85.19 85.33 85.62 86.17 86.44 86.85 87.25 87.61 87.93 88.23 88.50 88.75 89.07 89.32 89.54 89.77 89.90 90.13 90.36 91.09 91.44 90.64 90.66 90.88 91.20 91.51 91.82 92.11 92.35 92.62 92.89 93.14 93.41 93.66 93.98 94.41 94.81
87.10 86.99 86.80 86.52 86.17 85.78 85.39 85.15 84.87 84.42 83.39 83.57 83.56 83.64 84.51 85.28 85.41 85.69 86.30 86.59 86.96 87.41 87.76 88.11 88.39 88.60 88.86 89.13 89.42 89.68 89.90 90.04 90.22 90.43 91.10 91.53 90.75 90.86 91.29 91.73 92.10 92.38 92.24 92.51 92.77 93.04 93.29 93.57 93.83 94.13 94.52 94.92
87.19 87.08 86.82 86.54 86.18 85.81 85.42 85.08 84.89 84.61 83.32 83.72 83.64 83.67 84.38 85.26 85.50 85.79 86.32 86.61 86.99 87.43 87.82 88.16 88.46 88.71 88.92 89.23 89.56 89.78 90.03 90.15 90.30 90.48 90.77 91.60 91.42 91.54 91.79 92.05 92.10 92.43 92.64 92.69 92.94 93.21 93.45 93.68 93.97 94.25 94.67 94.96
87.26 87.12 86.93 86.59 86.27 85.90 85.51 85.19 84.93 84.86 84.25 83.88 83.72 83.71 84.26 85.14 85.46 85.75 86.36 86.57 86.93 87.38 87.79 88.15 88.49 88.76 89.02 89.36 89.69 89.94 90.14 90.26 90.35 90.58 90.69 91.65 91.44 91.51 91.75 92.18 92.30 92.59 92.86 92.85 93.08 93.31 93.56 93.79 94.03 94.32 94.75 95.02
87.32 87.17 86.99 86.69 86.33 85.99 85.63 85.34 85.09 84.85 84.75 83.79 83.83 83.74 84.29 84.78 85.43 85.74 86.04 86.52 86.84 87.31 87.73 88.13 88.47 88.79 89.08 89.43 89.80 90.05 90.25 90.36 90.47 90.65 90.79 91.63 91.71 91.51 91.92 92.38 92.43 92.72 92.97 92.96 93.16 93.41 93.67 93.93 94.18 94.43 94.86 95.15
87.37 87.26 87.04 86.79 86.51 86.11 85.78 85.52 85.25 84.99 84.68 84.54 83.81 84.07 84.03 84.76 85.37 85.65 85.93 86.46 86.74 87.19 87.63 88.05 88.37 88.76 89.12 89.48 89.83 90.12 90.32 90.45 90.57 90.76 90.94 91.56 91.94 91.73 92.26 92.34 92.58 92.74 93.10 93.15 93.32 93.54 93.79 94.02 94.29 94.55 94.97 95.23
87.44 87.32 87.14 86.93 86.68 86.36 85.99 85.70 85.45 85.18 84.87 84.56 84.38 83.89 84.00 84.01 85.89 85.60 85.79 86.36 86.60 87.01 87.50 87.91 88.29 88.68 89.12 89.46 89.84 90.14 90.34 90.54 90.65 90.79 91.01 91.65 92.04 91.77 91.99 92.29 92.56 92.81 93.19 93.22 93.41 93.64 93.86 94.09 94.34 94.63 95.04 95.31
87.50 87.43 87.26 87.07 86.84 86.60 86.31 85.99 85.69 85.40 85.08 84.72 84.55 83.85 83.98 83.88 84.40 85.46 85.75 86.27 86.47 86.85 87.29 87.74 88.20 88.63 89.01 89.39 89.75 90.08 90.34 90.57 90.66 90.83 91.04 91.25 92.11 91.97 92.32 92.60 92.69 92.97 93.31 93.28 93.49 93.69 93.91 94.14 94.42 94.68 95.08 95.31
87.63 87.53 87.38 87.21 87.03 86.79 86.58 86.33 85.97 85.63 85.27 84.91 84.59 84.42 84.12 83.89 83.99 84.81 85.56 86.10 86.34 86.66 87.08 87.53 88.04 88.50 88.88 89.28 89.64 90.03 90.31 90.56 90.68 90.84 91.09 91.29 92.17 92.01 92.34 92.62 92.88 93.17 93.41 93.35 93.57 93.78 94.00 94.22 94.51 94.79 95.14 95.33
87.71 87.66 87.51 87.36 87.23 87.05 86.83 86.58 86.29 85.91 85.54 85.16 84.81 84.65 83.92 84.02 83.94 84.02 85.01 85.96 86.17 86.46 86.82 87.26 87.79 88.28 88.69 89.12 89.58 89.97 90.27 90.53 90.69 90.91 91.14 91.29 92.19 92.36 92.47 92.83 93.06 93.28 93.42 93.43 93.65 93.85 94.10 94.35 94.60 94.88 95.24 95.36
87.77 87.76 87.68 87.50 87.39 87.26 87.05 86.76 86.54 86.21 85.82 85.43 85.07 84.87 84.60 84.02 83.87 84.04 84.84 85.64 86.11 86.33 86.66 87.06 87.55 88.06 88.55 88.97 89.44 89.92 90.23 90.55 90.78 90.96 91.21 91.36 92.09 92.46 92.44 92.82 93.16 93.27 93.44 93.51 93.72 93.91 94.14 94.43 94.68 94.94 95.28 95.45
87.87 87.86 87.79 87.68 87.53 87.40 87.21 86.96 86.69 86.42 86.04 85.62 85.20 85.00 84.61 84.03 83.87 83.87 84.26 85.25 86.08 86.35 86.65 87.01 87.47 87.94 88.44 88.87 89.40 89.89 90.24 90.59 90.83 91.09 91.32 91.46 92.12 92.65 92.62 92.82 93.12 93.39 93.43 93.71 93.90 94.12 94.37 94.63 94.87 95.04 95.21 95.44
87.95 87.94 87.88 87.78 87.68 87.53 87.32 87.06 86.80 86.51 86.19 85.78 85.32 85.14 84.74 84.66 85.98 84.96 84.82 85.29 86.13 86.32 86.56 86.90 87.32 87.72 88.19 88.67 89.18 89.63 90.01 90.34 90.73 91.07 91.34 91.40 92.12 92.71 92.70 92.85 93.12 93.34 93.61 93.80 94.00 94.22 94.47 94.66 94.89 95.09 95.24 95.39
88.03 87.99 87.96 87.85 87.76 87.65 87.43 87.18 86.89 86.63 86.31 85.91 85.44 85.25 85.10 86.65 87.06 86.97 87.06 85.68 86.20 86.22 86.57 86.93 87.31 87.69 88.10 88.58 89.07 89.53 89.92 90.30 90.68 91.04 91.35 91.60 91.90 92.75 92.76 93.32 93.27 93.44 93.84 93.94 94.15 94.38 94.61 94.80 94.99 95.15 95.30 95.30
