ncols 52
nrows 52
xllcorner 438272
yllcorner 5716992
cellsize 10
NODATA_value -9999
82.67 82.71 82.77 82.84 82.97 83.07 83.11 83.21 83.16 82.79 82.55 82.91 83.15 83.33 83.33 83.35 83.49 83.51 83.42 83.60 83.72 83.56 83.62 83.71 83.60 83.59 83.59 83.59 83.63 83.66 83.67 83.69 83.70 83.66 83.73 83.74 83.81 83.69 83.63 83.78 83.54 83.42 83.26 83.16 83.08 82.99 82.95 82.90 82.82 82.72 82.65 82.60
82.71 82.81 82.87 82.96 83.04 83.09 83.21 83.32 83.04 83.19 82.28 82.81 83.15 83.32 83.41 83.47 83.53 83.60 83.65 83.61 83.61 83.56 83.61 83.73 83.69 83.71 83.69 83.71 83.72 83.76 83.79 83.82 83.83 83.82 83.82 83.82 83.74 83.69 83.79 83.86 83.36 83.76 83.74 83.49 83.38 83.32 83.20 83.07 82.96 82.88 82.81 82.79
82.85 82.93 83.04 83.08 83.14 83.22 83.31 83.40 83.46 83.39 83.15 82.68 82.95 83.29 83.42 83.55 83.59 83.54 83.68 83.74 83.68 83.62 83.69 83.73 83.78 83.85 83.82 83.82 83.83 83.85 83.89 83.91 83.92 83.93 83.96 83.85 83.90 83.88 83.76 83.76 83.79 83.82 83.92 83.21 83.78 83.58 83.49 83.32 83.20 83.03 82.96 82.93
83.00 83.07 83.16 83.24 83.31 83.35 83.43 83.44 83.51 83.17 83.43 82.21 82.94 83.24 83.43 83.54 83.61 83.68 83.71 83.81 83.91 83.79 84.01 83.88 83.96 84.02 83.98 83.89 83.93 83.95 83.95 84.01 84.02 84.03 84.00 84.01 83.95 83.93 83.90 83.88 83.86 83.82 83.82 83.81 83.82 83.60 83.67 83.71 83.42 83.31 83.15 83.06
83.17 83.26 83.35 83.47 83.49 83.52 83.54 83.55 83.67 83.68 83.60 83.47 82.93 83.22 83.48 83.54 83.61 83.66 83.72 83.77 83.88 84.04 84.06 84.07 84.14 84.15 84.08 83.98 84.00 84.04 84.05 84.10 84.12 84.17 84.09 84.15 84.06 84.05 84.02 84.01 84.04 83.97 83.95 83.88 83.82 83.77 83.73 83.79 82.92 83.63 83.62 83.31
83.33 83.47 83.59 83.68 83.65 83.63 83.63 83.66 83.77 83.82 83.76 83.68 82.46 83.24 83.47 83.62 83.67 83.72 83.75 83.82 83.89 84.00 84.11 84.21 84.27 84.28 84.19 84.12 84.12 84.14 84.18 84.25 84.27 84.26 84.32 84.19 84.16 84.18 84.17 84.18 84.14 84.11 84.07 84.04 83.93 83.89 83.75 83.69 83.69 83.66 83.63 83.41
83.46 83.61 83.74 83.78 83.73 83.73 83.76 83.75 83.86 83.87 83.89 83.82 83.75 83.32 83.56 83.73 83.79 83.80 83.85 83.88 83.96 84.00 84.15 84.26 84.36 84.43 84.33 84.29 84.28 84.30 84.35 84.42 84.46 84.34 84.40 84.31 84.31 84.29 84.29 84.29 84.28 84.24 84.22 84.20 84.07 84.00 83.94 83.81 83.70 83.63 83.59 83.61
83.50 83.68 83.82 83.86 83.81 83.87 83.88 83.84 83.90 83.96 84.03 84.12 83.95 83.00 83.60 83.74 83.92 83.91 83.95 84.02 84.04 84.12 84.23 84.33 84.43 84.58 84.58 84.47 84.47 84.50 84.54 84.60 84.57 84.62 84.51 84.46 84.47 84.43 84.43 84.40 84.39 84.40 84.37 84.35 84.26 84.20 84.06 83.96 83.87 83.75 83.69 83.62
83.58 83.74 83.91 83.98 83.93 83.90 83.88 83.89 83.88 83.98 84.13 84.13 83.80 83.99 83.80 83.86 84.01 84.06 84.10 84.14 84.21 84.28 84.37 84.48 84.56 84.74 84.88 84.79 84.74 84.71 84.75 84.79 84.69 84.69 84.66 84.63 84.62 84.58 84.56 84.55 84.53 84.52 84.52 84.46 84.43 84.40 84.24 84.10 84.03 83.89 83.83 83.75
83.60 83.75 83.90 83.93 83.97 83.98 83.93 83.92 83.95 84.02 84.15 84.35 84.48 84.21 83.76 84.10 84.13 84.23 84.27 84.31 84.38 84.47 84.57 84.66 84.76 84.98 85.18 85.14 85.03 84.93 84.94 84.93 84.99 84.88 84.85 84.83 84.79 84.75 84.68 84.67 84.67 84.66 84.67 84.61 84.63 84.54 84.42 84.29 84.18 84.04 83.94 83.83
83.48 83.68 83.79 83.86 83.99 84.00 84.00 83.99 83.99 84.06 84.19 84.42 84.40 84.07 84.26 83.93 84.34 84.39 84.45 84.53 84.63 84.76 84.90 84.98 85.10 85.27 85.38 85.37 85.27 85.23 85.17 85.12 85.15 85.07 85.04 85.00 84.97 84.92 84.88 84.83 84.83 84.82 84.77 84.75 84.77 84.67 84.60 84.50 84.33 84.20 84.07 83.99
83.28 83.49 83.59 83.79 83.93 83.97 84.01 84.01 84.01 84.10 84.23 84.40 84.53 84.77 84.47 84.24 84.54 84.55 84.69 84.88 85.00 85.15 85.25 85.32 85.37 85.44 85.51 85.55 85.49 85.47 85.42 85.50 85.35 85.28 85.24 85.19 85.18 85.10 85.03 85.04 85.02 85.01 84.93 84.93 84.89 84.85 84.76 84.65 84.50 84.36 84.23 84.14
82.94 83.27 83.45 83.65 83.85 83.91 83.98 84.04 84.11 84.17 84.30 84.42 84.60 84.73 84.46 84.49 84.20 84.82 85.01 85.21 85.29 85.37 85.44 85.49 85.54 85.56 85.65 85.73 85.76 85.69 85.74 85.65 85.56 85.50 85.47 85.41 85.37 85.27 85.21 85.26 85.25 85.15 85.11 85.09 85.03 85.00 84.94 84.78 84.62 84.50 84.40 84.24
82.58 82.96 83.25 83.46 83.65 83.82 83.96 84.09 84.16 84.26 84.37 84.52 84.65 84.82 85.04 84.68 84.56 85.09 85.11 85.32 85.42 85.46 85.55 85.64 85.71 85.76 85.86 85.94 85.98 85.87 85.89 85.83 85.78 85.73 85.68 85.66 85.55 85.47 85.44 85.48 85.43 85.36 85.32 85.24 85.21 85.16 85.06 84.93 84.75 84.64 84.51 84.29
82.26 82.60 83.00 83.23 83.47 83.71 83.92 84.10 84.23 84.35 84.49 84.66 84.79 84.96 85.10 85.40 84.76 84.72 85.32 85.36 85.57 85.59 85.71 85.83 85.94 85.98 86.06 86.14 86.11 86.18 86.07 86.07 86.03 86.00 85.94 85.86 85.79 85.73 85.74 85.73 85.64 85.59 85.53 85.43 85.40 85.35 85.20 85.10 84.97 84.80 84.63 84.36
82.08 82.29 82.69 82.99 83.26 83.58 83.89 84.10 84.31 84.49 84.60 84.78 84.97 85.10 85.27 85.37 84.87 84.79 85.62 85.53 85.72 85.80 85.90 86.02 86.08 86.16 86.25 86.31 86.44 86.37 86.35 86.31 86.28 86.25 86.20 86.11 86.02 86.00 86.00 85.95 85.89 85.84 85.75 85.69 85.59 85.51 85.41 85.26 85.10 84.96 84.73 84.52
80.97 82.12 82.44 82.79 83.08 83.44 83.81 84.09 84.34 84.53 84.66 84.82 85.07 85.24 85.45 85.35 85.81 85.03 84.72 85.81 85.91 86.03 86.07 86.18 86.30 86.38 86.45 86.57 86.60 86.63 86.65 86.58 86.53 86.52 86.45 86.34 86.30 86.28 86.26 86.19 86.15 86.06 85.97 85.93 85.83 85.68 85.61 85.49 85.32 85.14 84.84 84.84
80.44 81.83 82.29 82.60 82.92 83.26 83.63 83.99 84.28 84.55 84.75 84.91 85.15 85.36 85.57 85.61 85.70 85.01 85.08 86.14 86.10 86.22 86.29 86.40 86.49 86.62 86.67 86.76 86.80 86.87 86.93 86.90 86.85 86.77 86.71 86.59 86.56 86.54 86.44 86.40 86.37 86.31 86.21 86.14 86.01 85.92 85.79 85.66 85.51 85.31 85.10 84.62
80.69 80.42 81.35 82.42 82.67 82.99 83.42 83.85 84.22 84.55 84.81 84.99 85.24 85.54 85.73 85.90 85.67 86.03 85.29 84.98 86.29 86.41 86.53 86.62 86.73 86.79 86.92 86.93 87.01 87.12 87.22 87.28 87.22 87.11 86.97 86.86 86.82 86.73 86.64 86.61 86.59 86.56 86.50 86.39 86.24 86.16 86.02 85.82 85.67 85.46 85.42 84.81
80.77 80.75 80.82 81.72 82.47 82.78 83.19 83.72 84.19 84.59 84.86 85.11 85.38 85.68 85.93 86.07 85.46 86.07 85.15 85.35 86.43 86.65 86.72 86.80 86.90 87.00 87.01 87.11 87.24 87.41 87.51 87.60 87.52 87.43 87.29 87.15 87.04 86.92 86.87 86.88 86.80 86.79 86.74 86.60 86.51 86.38 86.19 86.01 85.82 85.65 85.75 84.93
80.88 80.82 80.65 82.19 82.36 82.66 83.09 83.61 84.16 84.57 84.93 85.22 85.49 85.81 86.10 86.26 86.32 85.99 86.18 85.55 85.35 86.79 86.90 86.98 87.08 87.11 87.20 87.37 87.49 87.58 87.71 87.78 87.75 87.68 87.54 87.43 87.28 87.15 87.13 87.09 87.06 87.01 86.94 86.85 86.71 86.54 86.36 86.16 85.95 85.90 85.02 85.07
81.05 80.85 80.85 80.28 82.39 82.65 83.04 83.52 84.07 84.55 84.95 85.29 85.60 85.94 86.23 86.41 86.53 86.01 86.38 85.40 85.59 86.15 87.00 87.18 87.25 87.31 87.45 87.57 87.66 87.71 87.76 87.86 87.90 87.89 87.81 87.68 87.55 87.42 87.36 87.32 87.28 87.24 87.14 87.04 86.88 86.70 86.54 86.35 86.17 86.24 85.33 85.59
81.31 80.96 80.88 80.92 80.38 82.58 82.94 83.38 83.93 84.46 84.92 85.32 85.70 86.02 86.35 86.50 86.62 86.45 86.35 85.76 85.77 85.66 86.96 87.40 87.46 87.47 87.60 87.69 87.73 87.77 87.85 87.95 88.04 88.08 88.01 87.90 87.82 87.69 87.56 87.52 87.51 87.42 87.34 87.21 87.04 86.93 86.72 86.49 86.43 85.40 85.14 85.91
81.63 81.15 80.99 80.94 80.98 82.49 82.81 83.22 83.74 84.30 84.81 85.36 85.75 86.06 86.33 86.58 86.66 86.76 86.33 86.69 86.25 85.85 85.80 87.38 87.60 87.62 87.64 87.70 87.76 87.84 87.95 88.04 88.12 88.21 88.22 88.14 88.05 87.94 87.82 87.75 87.69 87.61 87.54 87.39 87.25 87.09 86.86 86.69 86.14 85.59 86.10 86.19
82.29 81.40 81.10 81.07 80.89 82.35 82.68 83.04 83.54 84.13 84.77 85.34 85.75 86.07 86.32 86.60 86.75 86.76 85.96 86.69 85.26 85.97 85.89 87.49 87.59 87.65 87.59 87.68 87.80 87.90 88.01 88.10 88.23 88.35 88.42 88.35 88.29 88.23 88.09 88.00 87.93 87.83 87.69 87.56 87.44 87.24 86.99 86.93 85.81 86.38 86.44 86.49
82.41 81.88 81.25 81.08 81.11 81.08 82.54 82.88 83.42 84.01 84.69 85.22 85.66 86.01 86.29 86.56 86.81 86.84 86.88 86.60 86.99 87.06 86.12 85.80 87.48 87.68 87.67 87.69 87.82 87.93 88.04 88.20 88.33 88.51 88.58 88.53 88.46 88.42 88.32 88.21 88.11 88.01 87.86 87.74 87.54 87.25 87.10 85.93 86.01 86.63 86.73 86.82
82.61 82.31 81.51 81.19 81.07 81.18 82.41 82.76 83.31 83.94 84.61 85.10 85.51 85.93 86.26 86.54 86.79 86.93 86.96 86.50 87.08 85.81 86.59 86.17 87.36 87.71 87.74 87.78 87.82 87.95 88.11 88.26 88.41 88.56 88.61 88.60 88.57 88.55 88.51 88.45 88.30 88.18 88.03 87.86 87.54 87.35 85.92 85.86 86.91 86.96 87.07 87.03
82.72 82.52 82.11 81.31 81.14 81.18 82.00 82.70 83.23 83.79 84.41 84.96 85.44 85.86 86.22 86.48 86.68 86.83 86.93 87.00 86.98 86.44 87.04 86.39 86.21 87.50 87.79 87.83 87.86 87.98 88.12 88.26 88.42 88.53 88.65 88.75 88.78 88.76 88.75 88.68 88.53 88.35 88.18 87.91 87.60 86.90 86.29 87.23 87.21 87.26 87.32 87.26
82.90 82.69 82.37 81.58 81.21 81.22 80.79 82.72 83.15 83.60 84.24 84.86 85.40 85.83 86.15 86.41 86.60 86.73 86.83 86.94 86.98 87.32 87.04 86.96 86.45 86.71 87.71 87.82 87.91 87.93 88.07 88.26 88.43 88.58 88.77 88.94 89.03 89.02 88.94 88.88 88.74 88.54 88.29 87.96 87.82 86.57 87.61 87.48 87.48 87.49 87.48 87.46
83.02 82.79 82.46 81.97 81.30 81.24 81.28 80.91 83.05 83.55 84.09 84.77 85.29 85.72 86.06 86.36 86.54 86.68 86.76 86.85 86.83 87.39 87.28 86.92 86.63 86.51 87.56 87.81 87.87 87.90 88.04 88.24 88.43 88.62 88.85 89.04 89.19 89.20 89.11 89.03 88.91 88.62 88.32 88.20 86.89 86.92 87.82 87.79 87.78 87.77 87.63 87.58
83.15 82.87 82.65 82.28 81.36 81.24 81.33 81.28 83.07 83.47 84.00 84.60 85.15 85.57 85.93 86.17 86.39 86.57 86.71 86.75 86.91 87.32 87.49 86.89 86.90 86.71 86.41 87.67 87.86 87.94 88.02 88.23 88.44 88.67 88.87 89.04 89.23 89.28 89.21 89.14 88.99 88.68 88.51 87.36 86.97 88.17 88.11 88.09 88.09 88.01 87.89 87.74
83.26 82.97 82.75 82.35 81.50 81.29 81.30 81.40 82.67 83.38 83.90 84.46 85.01 85.44 85.74 85.95 86.18 86.40 86.59 86.68 86.85 87.21 87.71 86.81 86.98 86.79 86.77 87.58 87.86 87.96 88.03 88.19 88.44 88.66 88.84 89.06 89.21 89.29 89.27 89.17 88.96 88.79 88.62 87.40 88.46 88.42 88.34 88.26 88.22 88.14 88.05 87.92
83.43 83.06 82.92 82.48 81.67 81.38 81.38 81.51 82.65 83.24 83.77 84.28 84.78 85.18 85.49 85.70 85.91 86.17 86.36 86.51 86.66 86.89 87.68 86.11 86.86 87.00 86.99 86.85 87.68 87.94 88.06 88.19 88.40 88.61 88.85 89.03 89.20 89.31 89.30 89.11 89.00 88.99 87.74 88.50 88.72 88.61 88.57 88.43 88.34 88.24 88.18 88.06
83.46 83.09 82.88 82.58 81.78 81.44 81.46 81.46 82.83 83.13 83.59 84.11 84.54 84.97 85.26 85.44 85.63 85.91 86.12 86.32 86.49 86.71 87.60 87.93 86.85 87.10 87.20 87.04 86.93 87.86 88.04 88.18 88.36 88.61 88.82 89.01 89.18 89.30 89.25 89.16 89.18 87.99 88.04 88.85 88.82 88.81 88.74 88.62 88.48 88.34 88.23 88.15
83.56 83.19 82.92 82.63 81.97 81.51 81.49 81.57 82.79 82.99 83.43 83.93 84.31 84.69 84.98 85.18 85.38 85.65 85.90 86.15 86.34 86.65 87.43 87.99 86.71 87.11 87.21 87.27 87.11 87.76 88.04 88.18 88.33 88.58 88.80 88.98 89.15 89.22 89.28 89.40 88.12 88.29 88.61 88.99 89.02 88.96 88.88 88.75 88.61 88.44 88.29 88.17
83.62 83.23 82.93 82.66 82.07 81.60 81.53 81.61 82.66 82.91 83.24 83.73 84.03 84.38 84.68 84.91 85.16 85.37 85.72 85.98 85.87 86.60 87.12 87.93 86.92 87.03 87.23 87.42 87.32 87.11 87.92 88.16 88.33 88.57 88.80 88.97 89.08 89.28 89.53 88.25 88.43 89.44 89.36 89.23 89.22 89.15 89.00 88.86 88.71 88.54 88.37 88.18
83.69 83.25 83.06 82.69 82.05 81.66 81.56 81.72 82.64 82.82 83.09 83.54 83.86 84.14 84.36 84.69 84.94 84.76 85.69 85.90 86.52 86.62 86.63 87.87 88.22 87.14 87.21 87.36 87.53 87.40 87.71 88.21 88.41 88.59 88.77 88.94 89.21 89.53 88.38 88.55 90.09 89.87 89.68 89.60 89.36 89.18 89.10 88.91 88.77 88.62 88.46 88.26
83.69 83.33 83.06 82.74 82.09 81.69 81.65 81.69 82.64 82.78 83.07 83.35 83.65 83.90 83.78 84.65 85.15 85.66 85.92 86.10 86.33 86.67 86.94 87.26 88.25 86.76 87.23 87.45 87.42 87.60 87.45 88.13 88.46 88.67 88.84 89.10 89.09 88.43 88.70 90.91 89.97 90.06 89.85 89.70 89.60 89.36 89.20 89.05 88.83 88.68 88.50 88.32
83.73 83.35 83.12 82.78 82.14 81.71 81.75 81.68 82.70 82.82 82.93 82.80 83.65 84.05 84.48 84.89 85.32 85.79 86.08 86.31 86.52 86.66 87.01 87.19 88.18 87.35 87.26 87.43 87.64 87.73 87.69 87.28 88.32 88.62 88.96 87.98 88.41 89.03 90.99 89.93 89.96 89.91 89.85 89.82 89.66 89.48 89.38 89.19 88.93 88.74 88.54 88.36
83.73 83.43 83.18 82.83 82.15 81.76 81.82 81.50 81.80 82.80 83.23 83.60 84.00 84.35 84.73 85.12 85.51 85.94 86.23 86.44 86.62 86.79 87.15 87.35 88.13 88.52 87.34 87.42 87.62 87.67 87.88 87.76 87.61 87.77 88.09 88.32 89.31 90.72 89.72 89.90 89.93 89.93 89.89 90.04 89.74 89.61 89.44 89.25 89.15 88.84 88.67 88.43
83.78 83.47 83.26 82.89 82.10 81.83 81.88 81.43 82.76 83.13 83.51 83.86 84.22 84.60 85.00 85.35 85.71 86.05 86.36 86.57 86.69 86.85 87.26 87.47 87.47 88.55 87.29 87.46 87.50 87.70 87.96 87.99 87.89 88.01 88.15 89.40 90.45 89.75 89.73 90.00 90.00 89.81 89.90 89.93 89.76 89.65 89.43 89.37 89.19 89.01 88.68 88.51
83.85 83.55 83.34 82.97 82.12 81.94 81.89 82.58 82.82 83.23 83.66 84.09 84.50 84.90 85.21 85.49 85.84 86.19 86.53 86.73 86.83 86.94 87.23 87.57 87.61 88.45 87.74 87.47 87.48 87.71 88.18 88.20 88.06 88.00 88.04 90.92 89.63 89.61 89.65 89.68 89.88 89.97 89.96 89.79 89.76 89.65 89.49 89.41 89.29 89.11 88.95 88.53
83.92 83.62 83.42 83.09 82.15 81.96 81.12 82.71 82.93 83.40 83.86 84.33 84.76 85.15 85.42 85.71 86.00 86.32 86.61 86.88 87.00 87.10 87.26 87.75 87.66 88.37 88.05 87.59 87.62 88.46 88.51 88.33 88.26 88.10 88.02 90.34 89.48 89.57 89.52 89.61 89.69 89.88 89.81 89.78 89.82 89.62 89.63 89.44 89.29 89.02 88.85 88.65
83.96 83.75 83.49 83.26 82.18 82.01 81.80 82.69 83.07 83.59 84.08 84.51 84.94 85.31 85.65 85.96 86.24 86.47 86.74 87.00 87.14 87.25 87.39 87.66 87.76 88.19 88.74 87.70 88.18 88.59 88.45 87.49 88.04 88.32 88.17 90.44 89.30 89.46 89.40 89.57 89.65 89.84 89.73 89.79 89.68 89.74 89.69 89.46 89.33 88.93 88.72 88.61
84.07 83.78 83.53 83.24 82.22 82.02 82.45 82.80 83.22 83.73 84.15 84.62 85.08 85.50 85.87 86.16 86.42 86.61 86.85 87.06 87.24 87.33 87.50 87.74 87.77 88.05 88.66 87.78 88.69 88.41 87.99 88.25 88.16 88.32 88.42 88.22 90.02 89.29 89.42 89.39 89.57 89.51 89.77 89.58 89.52 89.43 89.52 89.47 89.17 88.85 88.75 88.61
84.09 83.82 83.53 83.17 82.22 82.01 82.53 82.88 83.25 83.79 84.25 84.75 85.22 85.64 86.01 86.30 86.50 86.65 86.89 87.10 87.28 87.36 87.48 87.60 87.75 88.07 88.64 88.73 88.53 87.78 88.29 88.35 88.44 88.53 88.65 88.49 89.87 89.25 89.33 89.37 89.40 89.48 89.35 89.57 89.52 89.32 89.23 89.18 88.94 88.81 88.63 88.49
84.18 83.85 83.50 82.86 82.22 81.57 82.68 82.95 83.33 83.85 84.32 84.85 85.33 85.78 86.12 86.39 86.51 86.68 86.91 87.15 87.38 87.51 87.60 87.59 87.86 87.46 88.65 88.76 88.39 88.30 88.39 88.56 88.65 88.55 88.64 88.72 88.56 91.24 89.21 89.26 89.29 89.32 89.29 89.18 89.32 89.19 88.98 88.82 88.84 88.60 88.63 88.37
84.24 84.04 83.66 82.94 82.25 81.44 82.69 82.95 83.38 83.90 84.41 84.94 85.43 85.82 86.16 86.43 86.59 86.72 86.94 87.23 87.46 87.59 87.67 87.68 87.74 87.86 88.58 88.69 87.36 88.32 88.47 88.56 88.59 88.59 88.63 88.55 88.79 88.59 90.67 89.26 89.25 89.14 89.15 89.07 89.06 89.08 88.88 88.59 88.61 88.47 88.37 88.05
84.38 84.10 83.78 83.15 82.28 81.85 82.67 83.04 83.43 83.96 84.46 84.95 85.40 85.83 86.21 86.49 86.67 86.76 87.03 87.27 87.44 87.56 87.66 87.71 87.84 88.06 88.50 88.65 87.62 88.42 88.47 88.54 88.51 88.64 88.84 89.01 89.00 88.88 90.12 89.39 89.20 89.03 89.02 88.89 88.81 88.79 88.68 88.60 88.44 88.22 88.12 87.93
84.37 84.07 83.74 83.28 82.35 82.18 82.67 83.10 83.46 83.96 84.40 84.92 85.40 85.88 86.25 86.51 86.75 86.85 87.04 87.25 87.40 87.59 87.73 87.80 87.91 88.26 88.50 88.71 87.99 88.39 88.37 88.47 88.51 88.42 88.57 88.83 88.73 89.12 88.94 91.56 89.07 88.96 88.78 88.77 88.67 88.54 88.49 88.43 88.40 88.12 87.95 87.85
84.37 84.03 83.72 83.36 82.41 82.27 81.24 83.10 83.45 83.90 84.39 84.90 85.41 85.85 86.19 86.49 86.69 86.88 87.09 87.25 87.39 87.59 87.71 87.78 87.93 88.11 88.32 88.79 87.67 88.34 88.39 88.41 88.44 88.63 88.72 88.87 88.83 88.28 89.18 89.02 91.04 88.89 88.66 88.55 88.47 88.43 88.38 88.29 88.13 87.93 87.04 86.83
84.37 84.00 83.77 83.44 82.43 82.33 81.83 83.10 83.50 83.84 84.35 84.81 85.27 85.69 86.06 86.40 86.66 86.90 87.06 87.18 87.25 87.50 87.69 87.88 87.94 88.10 88.28 88.92 88.73 88.51 88.29 88.39 88.38 88.50 88.65 88.76 88.83 88.68 89.16 89.26 90.39 89.33 88.59 88.37 88.36 88.24 88.17 87.79 87.74 87.69 87.53 87.31
