ncols 52
nrows 52
xllcorner 438272
yllcorner 5715456
cellsize 10
NODATA_value -9999
92.45 94.33 92.90 88.92 88.90 90.06 90.40 90.41 90.61 90.85 91.59 91.88 92.06 92.51 92.89 93.05 93.40 93.54 93.90 94.14 94.60 95.07 94.72 94.88 95.00 94.99 94.88 94.90 94.90 94.83 94.80 94.76 94.76 94.54 95.81 94.61 94.45 94.31 94.17 94.00 93.88 93.77 93.72 93.62 93.51 93.44 93.29 93.17 93.07 92.89 92.66 92.51
89.10 90.12 88.94 88.08 90.20 90.94 90.93 90.91 90.96 91.23 91.45 91.98 92.18 92.75 93.32 93.38 93.52 93.80 94.05 94.31 94.48 94.62 94.91 95.23 95.32 95.32 95.14 95.16 95.19 95.12 94.95 94.90 94.88 95.31 95.81 94.68 94.50 94.39 94.28 94.10 93.95 93.82 93.74 93.64 93.54 93.46 93.37 93.22 93.12 92.96 92.75 92.53
90.40 90.00 89.81 90.19 90.70 91.10 91.14 91.54 91.58 91.93 92.15 92.31 92.70 93.30 93.15 93.26 93.53 93.81 94.10 94.32 94.49 94.70 94.89 95.08 95.22 95.30 95.38 95.57 95.67 95.61 95.42 95.22 95.14 95.53 95.79 94.78 94.60 94.48 94.38 94.21 94.10 93.92 93.77 93.64 93.51 93.44 93.39 93.29 93.19 93.03 92.81 92.57
90.73 90.63 90.72 90.83 91.20 91.33 91.56 91.76 92.11 92.27 92.45 92.74 93.12 93.07 93.16 93.29 93.57 93.88 94.18 94.42 94.60 94.76 94.93 95.10 95.19 95.26 95.42 95.55 95.57 95.51 95.40 95.17 95.25 95.71 95.83 94.86 94.65 94.57 94.46 94.34 94.22 94.06 93.90 93.73 93.55 93.45 93.40 93.36 93.24 93.07 92.85 92.61
91.34 91.42 91.46 91.52 91.67 91.86 91.98 92.40 92.52 92.71 93.00 92.91 92.96 93.02 93.17 93.35 93.66 94.00 94.27 94.47 94.64 94.82 94.98 95.15 95.26 95.30 95.38 95.46 95.46 95.40 95.34 95.20 95.06 95.76 95.55 94.90 94.71 94.61 94.53 94.44 94.34 94.18 94.07 93.87 93.62 93.54 93.47 93.40 93.28 93.07 92.82 92.61
91.57 91.64 91.74 91.86 92.04 92.24 92.41 92.63 92.82 92.93 92.94 92.97 92.99 93.13 93.25 93.42 93.69 94.00 94.28 94.54 94.73 94.90 95.09 95.23 95.32 95.36 95.39 95.39 95.36 95.29 95.22 95.08 94.96 96.06 94.74 94.89 94.71 94.60 94.51 94.45 94.37 94.24 94.12 93.96 93.78 93.62 93.56 93.44 93.26 93.00 92.81 92.58
91.88 92.01 92.14 92.28 92.43 92.57 92.71 92.90 93.01 93.02 93.04 93.11 93.18 93.28 93.42 93.58 93.82 94.11 94.37 94.59 94.79 94.96 95.13 95.29 95.34 95.36 95.33 95.30 95.28 95.21 95.14 94.97 94.71 96.15 94.95 94.90 94.71 94.53 94.44 94.43 94.34 94.27 94.14 93.96 93.82 93.68 93.58 93.45 93.23 92.96 92.79 92.61
92.13 92.32 92.44 92.58 92.71 92.83 92.96 93.09 93.18 93.18 93.18 93.26 93.39 93.48 93.63 93.75 93.93 94.18 94.43 94.62 94.81 95.01 95.20 95.32 95.37 95.35 95.32 95.33 95.29 95.19 95.03 94.91 94.75 96.18 95.09 94.93 94.71 94.56 94.43 94.42 94.31 94.27 94.16 93.99 93.85 93.74 93.59 93.45 93.26 93.01 92.85 92.62
92.35 92.52 92.67 92.83 92.96 93.06 93.13 93.26 93.34 93.36 93.43 93.53 93.61 93.72 93.84 93.96 94.11 94.29 94.47 94.65 94.86 95.07 95.24 95.34 95.36 95.35 95.35 95.33 95.26 95.14 94.95 94.89 95.63 96.21 95.62 94.93 94.86 94.82 94.62 94.49 94.36 94.19 94.10 94.01 93.87 93.79 93.64 93.49 93.29 93.07 92.90 92.75
92.49 92.70 92.89 93.10 93.23 93.29 93.36 93.46 93.54 93.59 93.66 93.76 93.86 93.97 94.09 94.21 94.33 94.42 94.59 94.78 94.98 95.17 95.31 95.38 95.38 95.38 95.38 95.34 95.25 95.11 94.96 94.90 96.30 96.24 95.85 95.03 94.83 94.81 94.64 94.57 94.54 94.36 94.12 93.98 93.95 93.82 93.69 93.51 93.29 93.08 92.87 92.76
92.71 92.97 93.20 93.39 93.51 93.55 93.59 93.69 93.73 93.77 93.84 93.96 94.07 94.17 94.32 94.47 94.55 94.61 94.72 94.89 95.04 95.24 95.34 95.38 95.39 95.42 95.41 95.36 95.26 95.14 95.02 94.93 96.36 96.24 95.43 95.09 94.81 94.91 94.61 94.60 94.52 94.38 94.28 94.17 93.98 93.81 93.70 93.46 93.22 93.05 92.88 92.83
92.96 93.21 93.46 93.61 93.68 93.71 93.76 93.85 93.90 93.98 94.09 94.21 94.32 94.44 94.57 94.71 94.80 94.82 94.89 94.99 95.14 95.29 95.38 95.39 95.37 95.42 95.43 95.38 95.26 95.13 95.00 94.99 96.31 96.28 95.04 95.00 94.50 94.87 94.98 94.71 94.37 94.34 94.37 94.20 94.08 93.95 93.75 93.47 93.27 93.06 92.92 92.85
93.13 93.40 93.60 93.74 93.80 93.85 93.89 93.99 94.10 94.21 94.30 94.41 94.55 94.67 94.79 94.91 94.99 95.03 95.06 95.14 95.27 95.40 95.49 95.50 95.50 95.48 95.46 95.40 95.30 95.15 95.05 95.08 96.54 96.26 95.36 94.86 94.53 94.65 95.04 95.07 94.73 94.67 94.22 94.12 94.15 93.99 93.75 93.61 93.38 93.18 93.00 92.86
93.32 93.60 93.77 93.85 93.90 93.97 94.08 94.18 94.25 94.35 94.47 94.62 94.77 94.90 95.02 95.11 95.17 95.24 95.30 95.34 95.40 95.49 95.58 95.60 95.56 95.52 95.48 95.41 95.34 95.19 95.12 95.05 96.57 94.94 95.32 94.82 94.93 94.79 94.72 94.85 94.67 94.46 94.59 94.63 94.46 94.01 93.82 93.64 93.44 93.18 93.07 92.83
93.48 93.71 93.86 93.96 94.05 94.12 94.25 94.35 94.43 94.52 94.68 94.81 94.94 95.09 95.20 95.32 95.39 95.46 95.51 95.53 95.54 95.60 95.68 95.68 95.58 95.54 95.50 95.42 95.37 95.21 95.20 95.07 96.58 95.57 95.24 94.87 95.10 94.76 94.83 94.70 94.65 94.53 94.58 94.65 94.50 94.06 94.46 94.01 93.33 93.35 93.03 92.73
93.62 93.83 93.99 94.11 94.23 94.31 94.42 94.53 94.61 94.72 94.87 95.03 95.14 95.28 95.40 95.51 95.56 95.61 95.65 95.71 95.74 95.75 95.76 95.74 95.67 95.63 95.60 95.52 95.42 95.35 95.29 95.75 96.59 95.78 95.44 95.25 95.19 94.99 94.93 94.72 94.44 94.50 94.46 94.51 94.16 94.16 93.77 93.67 94.55 93.76 93.24 92.89
93.58 93.83 94.05 94.21 94.32 94.51 94.63 94.75 94.89 95.04 95.16 95.31 95.41 95.53 95.62 95.69 95.69 95.71 95.78 95.80 95.80 95.81 95.82 95.82 95.81 95.77 95.71 95.60 95.43 95.37 95.30 96.39 96.61 95.85 95.33 95.50 96.26 95.08 95.64 94.78 94.55 94.52 94.33 94.23 94.04 94.02 93.58 93.62 93.51 93.17 93.23 92.93
93.76 94.01 94.17 94.32 94.49 94.63 94.82 94.93 95.06 95.16 95.33 95.54 95.66 95.73 95.86 95.83 95.84 95.87 95.92 95.92 95.93 95.95 95.93 95.94 95.94 95.88 95.79 95.65 95.52 95.46 95.35 96.48 96.62 95.68 95.35 95.18 95.37 95.03 94.97 94.88 94.68 94.54 94.60 94.29 94.10 93.93 93.72 93.54 93.40 93.21 93.15 92.93
93.93 94.17 94.36 94.52 94.69 94.87 95.01 95.11 95.24 95.32 95.47 95.60 95.72 95.83 96.07 96.00 95.94 96.04 96.09 96.08 96.03 96.00 96.07 96.13 96.05 95.93 95.86 95.80 95.71 95.65 95.45 96.59 96.57 95.65 95.41 95.29 95.11 94.97 94.92 94.60 94.50 94.51 94.50 94.53 94.14 94.02 94.01 93.82 93.38 93.21 93.01 92.87
94.17 94.38 94.56 94.69 94.88 95.07 95.22 95.35 95.46 95.58 95.70 95.83 95.97 96.04 96.18 96.19 96.19 96.24 96.26 96.20 96.10 96.05 96.14 96.14 96.06 95.94 95.84 95.79 95.74 95.65 95.54 96.76 95.92 95.72 95.65 94.93 95.15 95.14 94.96 94.75 94.69 94.61 94.65 94.85 94.17 93.99 94.03 93.96 93.47 93.06 93.21 92.88
94.41 94.63 94.83 95.00 95.15 95.33 95.49 95.64 95.73 95.83 95.95 96.06 96.15 96.24 96.35 96.42 96.34 96.33 96.33 96.23 96.16 96.20 96.29 96.35 96.32 96.21 96.08 95.97 95.87 95.76 95.86 96.92 95.50 95.76 95.58 95.19 95.07 95.14 95.14 95.00 94.66 94.96 94.72 94.85 94.51 94.18 93.99 93.56 93.40 93.43 93.29 93.01
94.69 94.95 95.10 95.26 95.40 95.57 95.70 95.90 95.98 96.08 96.20 96.28 96.37 96.42 96.49 96.59 96.49 96.44 96.38 96.31 96.29 96.39 96.44 96.54 96.51 96.43 96.32 96.21 96.05 95.96 95.54 96.99 95.68 98.74 95.31 95.40 95.32 95.22 95.12 94.95 94.73 95.05 95.07 94.59 94.55 93.96 93.69 93.64 93.54 93.33 93.26 92.88
95.12 95.20 95.36 95.49 95.64 95.80 95.95 96.09 96.23 96.33 96.44 96.50 96.56 96.61 96.62 96.71 96.61 96.54 96.45 96.43 96.49 96.54 96.57 96.60 96.55 96.40 96.35 96.29 96.17 96.12 95.94 97.00 96.21 98.53 95.38 95.35 95.44 95.26 95.17 94.93 94.76 94.65 95.07 94.53 94.46 93.82 93.60 93.87 93.61 93.43 93.21 93.12
95.43 95.43 95.65 95.78 95.89 96.01 96.16 96.30 96.43 96.57 96.66 96.73 96.79 96.83 96.80 96.82 96.71 96.61 96.56 96.58 96.67 96.72 96.72 96.70 96.60 96.41 96.28 96.19 96.08 96.05 96.57 96.99 96.43 97.67 95.39 95.40 95.29 95.15 95.10 94.95 94.73 94.53 94.27 94.29 94.06 93.73 93.76 93.78 93.50 93.43 93.26 93.20
95.79 95.69 95.87 96.02 96.15 96.29 96.47 96.64 96.75 96.85 96.92 96.98 97.00 97.01 96.93 96.92 96.84 96.73 96.72 96.77 96.87 96.92 96.84 96.79 96.77 96.74 97.04 97.10 96.44 96.84 96.92 96.99 96.74 96.91 95.73 95.68 95.27 95.17 95.17 94.95 94.77 94.59 94.31 94.05 93.69 93.78 93.70 93.58 93.39 93.32 93.33 93.04
95.96 96.11 96.19 96.35 96.46 96.60 96.72 96.86 97.00 97.08 97.12 97.17 97.18 97.16 97.06 96.94 96.93 96.82 96.96 97.08 97.38 97.39 97.44 97.38 97.38 97.39 97.39 97.20 95.65 96.39 97.07 97.00 97.12 96.26 95.68 95.61 95.46 95.27 95.17 94.94 94.77 94.53 94.28 94.08 94.06 93.91 93.61 93.51 93.40 93.17 93.16 92.79
96.28 96.48 96.48 96.63 96.74 96.83 96.95 97.09 97.20 97.24 97.27 97.33 97.49 97.76 98.53 97.17 97.35 97.21 97.20 97.31 97.35 97.40 97.44 97.40 97.36 97.38 97.41 97.31 95.58 96.51 97.26 96.37 97.78 96.36 96.36 95.31 95.45 95.26 95.17 95.12 94.79 94.53 94.32 94.51 94.46 93.89 93.57 93.38 93.22 93.18 93.05 92.85
96.64 96.84 96.75 96.82 96.96 97.12 97.36 97.53 97.97 98.44 98.53 98.64 98.44 98.50 98.58 97.70 97.81 97.32 97.50 97.56 97.32 97.40 97.37 97.38 97.35 97.38 97.42 97.38 97.35 97.23 97.21 97.20 98.54 95.87 95.58 95.37 95.30 95.88 95.18 95.25 95.25 95.12 94.42 94.33 94.22 93.72 94.76 93.23 93.22 93.16 92.90 92.73
96.97 97.21 97.43 97.59 97.62 97.94 97.96 97.93 98.79 98.90 98.88 98.75 98.57 98.54 98.52 98.05 98.14 97.53 97.68 97.86 97.47 97.40 97.33 97.32 97.28 97.21 97.18 97.31 97.53 97.18 97.19 97.26 99.25 95.69 95.58 95.44 95.28 95.15 95.18 95.20 95.21 95.07 94.54 94.53 94.10 93.93 93.72 93.35 93.08 93.98 92.74 92.67
97.82 98.04 98.16 98.22 98.01 97.93 97.94 97.97 98.83 98.86 98.81 98.83 98.88 98.51 98.51 98.23 98.21 97.72 97.95 97.94 98.13 97.19 97.17 97.04 97.02 97.08 97.10 97.23 97.35 97.24 97.26 97.34 99.08 95.77 95.59 95.44 95.27 95.13 95.18 94.93 94.78 94.71 94.51 94.49 94.11 94.49 93.79 93.57 93.31 93.06 92.95 92.89
98.44 98.64 98.64 98.57 98.35 98.02 97.54 98.29 98.70 98.89 98.84 98.95 98.94 98.56 98.52 98.44 98.38 97.76 98.02 98.22 98.42 98.25 97.84 97.93 97.28 97.36 97.37 97.38 97.47 97.31 97.25 97.43 98.30 95.83 95.96 95.45 95.39 95.33 95.12 94.97 94.74 94.65 94.61 94.31 94.64 94.62 93.83 93.71 93.52 93.44 93.11 92.94
99.13 99.18 99.00 98.88 98.66 98.75 98.84 98.89 98.79 99.08 98.99 98.91 98.93 98.53 98.63 98.57 98.30 98.24 98.54 98.32 98.38 98.18 97.98 97.88 97.57 97.61 97.65 97.68 97.66 97.24 97.24 97.30 97.47 97.33 95.79 95.85 95.83 95.42 95.28 95.35 94.74 94.64 94.73 94.29 94.48 94.02 94.08 93.64 93.49 93.30 93.48 93.33
99.29 99.26 99.23 99.10 98.92 98.86 98.90 99.01 98.91 99.01 99.00 98.93 98.92 98.63 98.50 98.54 98.43 98.47 98.71 98.52 98.40 98.21 98.18 97.98 97.69 97.51 97.33 97.13 97.10 97.21 97.17 96.94 96.48 96.12 95.74 95.53 95.58 95.44 95.32 95.25 94.86 94.54 94.45 94.21 94.88 93.96 93.76 93.57 93.45 93.33 93.36 93.37
99.38 99.58 99.33 99.22 99.08 98.96 98.90 99.02 98.94 99.01 99.03 98.95 98.91 98.63 98.75 98.56 98.43 98.45 98.28 98.18 98.06 97.92 97.99 97.80 97.74 97.69 97.58 97.45 97.19 97.24 97.15 97.06 96.56 96.33 96.08 95.86 95.68 95.46 95.23 94.99 94.78 94.53 94.57 94.25 94.46 93.89 93.79 93.59 93.50 93.65 93.40 93.34
99.37 99.40 99.35 99.31 99.18 99.04 98.93 99.06 98.96 99.00 98.91 98.80 98.69 98.60 98.46 98.35 98.31 98.43 98.35 98.17 98.17 98.18 98.02 97.75 97.55 97.56 97.53 97.48 97.09 97.27 97.17 96.62 96.47 96.09 95.89 95.82 95.69 95.50 95.47 95.26 95.03 94.80 94.63 94.33 94.14 93.92 93.78 93.66 93.67 93.83 93.67 93.01
99.38 99.42 99.34 99.34 99.26 99.29 99.25 99.21 98.91 98.76 98.90 98.81 98.79 98.79 98.67 98.57 98.67 98.67 98.54 98.23 98.26 98.23 98.00 97.63 96.08 97.17 96.07 96.71 97.32 97.26 96.98 96.46 96.32 96.18 95.92 95.86 95.71 95.57 95.55 95.35 95.07 94.97 94.71 94.50 94.30 94.07 93.83 93.60 93.60 93.53 93.21 93.01
99.53 99.46 99.48 99.51 99.52 99.46 99.25 99.04 98.93 99.12 99.10 99.04 99.02 98.75 98.65 98.51 98.63 98.70 98.67 98.24 98.21 98.16 98.04 97.80 96.16 97.16 96.08 96.29 97.17 97.35 97.09 97.29 97.04 96.57 96.00 95.88 95.76 95.65 95.58 95.43 95.26 95.07 94.83 94.71 94.65 94.35 94.01 93.84 93.69 93.49 93.29 93.18
99.67 99.65 99.58 99.55 99.51 99.50 99.43 99.04 99.32 99.21 99.04 99.06 99.06 98.74 98.65 98.44 98.68 98.72 98.66 98.22 98.21 98.19 98.07 97.90 97.25 96.14 96.14 96.45 97.15 97.31 97.17 97.26 97.10 96.88 96.74 96.64 96.39 95.85 95.45 95.27 95.33 95.08 94.82 94.82 94.55 94.55 94.27 94.38 93.74 93.59 93.43 93.32
99.71 99.51 99.68 99.62 99.55 99.52 99.51 99.18 99.35 99.09 98.94 99.14 99.34 98.99 98.67 98.49 98.61 98.74 98.76 98.22 98.21 98.24 98.12 97.92 97.22 96.54 97.16 97.55 97.08 97.28 97.21 97.32 97.01 96.82 96.96 96.74 96.56 96.18 95.81 95.51 95.24 94.73 94.72 94.69 94.51 94.50 94.33 94.35 93.79 93.90 93.82 93.82
98.59 98.74 98.21 99.67 99.61 99.61 99.61 99.36 99.25 99.45 99.22 99.27 99.38 99.29 98.65 98.54 98.65 99.27 98.82 98.19 97.17 98.12 98.00 97.82 97.75 97.72 97.68 97.65 97.14 97.29 97.15 96.88 96.66 96.55 96.46 96.58 96.87 96.31 95.81 95.35 95.16 94.99 94.81 94.65 94.44 94.42 94.46 94.35 93.76 93.80 93.88 93.75
99.43 99.74 99.75 99.70 99.71 99.67 99.61 99.53 99.28 99.30 99.24 99.35 99.45 99.34 98.97 99.11 99.15 99.01 98.87 98.72 97.42 97.85 97.71 97.61 97.53 97.50 97.48 97.49 97.39 97.34 98.62 96.96 96.84 96.58 96.31 96.42 96.65 96.32 95.53 95.43 95.24 95.03 94.94 94.62 94.47 93.54 93.96 94.10 93.76 93.73 93.42 93.24
100.46 100.29 99.78 99.63 99.77 99.85 99.88 99.76 99.43 99.23 99.32 99.48 99.60 99.55 99.39 99.17 99.01 98.86 98.74 98.95 97.84 97.55 97.41 97.39 97.40 97.44 97.44 97.36 97.51 97.31 99.70 96.86 96.86 96.70 96.40 96.23 96.19 95.77 95.49 95.44 95.36 95.18 95.03 94.71 94.51 94.04 93.99 94.03 93.91 93.40 93.46 93.31
100.51 100.11 100.06 99.78 99.90 99.92 100.04 99.88 99.60 99.39 99.38 99.44 99.50 99.53 99.39 99.14 98.99 98.86 98.80 98.95 97.78 97.54 97.48 97.53 97.55 97.57 97.60 97.51 97.67 97.00 100.25 96.89 96.77 96.53 96.33 96.20 96.35 96.09 96.00 95.56 95.26 95.15 95.15 94.64 94.96 94.05 94.17 94.01 93.97 93.80 94.43 93.40
100.19 100.24 100.13 100.03 100.04 100.06 100.12 100.06 99.77 99.54 99.64 99.54 99.66 99.60 99.57 99.27 99.15 99.06 98.97 99.06 97.92 97.69 97.59 97.54 97.67 97.71 97.72 97.03 97.75 97.42 99.86 96.88 96.65 96.75 96.29 96.08 96.38 96.10 96.08 95.69 95.46 95.06 95.20 95.21 94.66 94.19 94.24 93.95 93.98 93.85 93.59 92.21
100.43 100.27 100.09 100.06 100.11 100.07 100.18 100.17 100.08 100.12 99.78 99.81 99.70 99.63 99.67 99.62 99.57 99.56 99.49 99.59 97.90 97.79 97.76 97.08 97.77 97.82 97.88 97.08 97.81 97.80 99.00 96.87 96.60 96.42 96.42 96.18 95.94 95.74 95.76 95.74 95.22 95.10 95.31 95.26 95.10 94.83 94.28 94.08 93.90 95.10 93.08 91.93
100.60 100.55 100.08 100.10 100.18 100.13 100.28 100.21 100.22 100.01 100.16 99.93 99.82 99.79 99.68 99.58 99.56 99.51 99.51 99.51 98.04 97.89 97.90 97.89 97.85 97.83 97.91 97.65 97.87 97.90 98.22 96.88 96.61 96.49 96.60 96.49 96.30 96.25 95.81 95.48 95.33 95.16 95.24 95.17 95.08 95.02 94.35 94.09 93.93 94.52 92.58 91.94
101.39 101.46 101.30 100.84 100.51 100.49 100.36 100.20 100.28 100.32 100.25 100.07 99.87 99.89 99.87 99.57 99.49 99.50 99.48 99.51 98.86 97.90 97.94 97.94 97.90 97.90 97.90 97.77 97.94 98.08 97.42 96.94 96.77 96.54 96.57 96.51 96.37 96.30 95.96 95.89 95.65 95.49 95.23 94.97 94.86 94.79 94.41 94.68 94.21 94.02 93.82 92.97
101.62 101.29 101.05 100.84 100.78 100.54 100.43 100.49 100.46 100.48 100.36 100.25 99.91 99.85 99.90 99.53 99.51 99.54 99.51 99.48 99.55 97.86 97.99 98.04 97.97 97.96 97.96 97.96 98.01 98.86 97.07 97.05 96.77 96.58 96.57 96.59 96.32 96.09 95.90 95.66 95.69 95.60 95.49 95.48 95.41 94.79 94.54 94.70 96.18 94.15 93.43 93.68
101.17 101.19 101.21 101.26 101.31 100.74 100.51 100.48 100.51 100.46 100.48 100.19 99.90 99.82 99.88 99.51 99.47 99.50 99.50 99.56 99.55 97.88 98.08 98.04 97.99 97.64 97.62 98.20 97.98 99.77 97.07 96.79 96.85 96.61 96.50 96.39 96.40 96.27 96.04 95.69 95.60 95.39 95.38 95.54 95.60 94.84 94.61 94.69 95.26 93.52 93.95 94.24
101.41 101.42 101.41 101.38 101.39 101.15 100.71 101.43 100.62 100.47 100.29 100.18 99.95 99.81 100.04 99.49 99.53 98.79 99.01 98.40 98.57 98.57 98.29 98.21 99.07 98.14 97.96 98.27 97.62 100.36 97.05 97.00 96.97 96.65 96.47 96.33 96.29 96.34 96.34 95.72 95.70 95.64 95.46 95.42 95.48 94.93 95.03 94.68 94.47 93.20 94.30 93.99
101.46 101.46 101.50 101.48 101.47 101.37 100.75 101.23 100.70 100.56 100.40 100.23 100.03 99.31 100.09 100.28 100.33 99.85 99.25 100.56 99.53 99.64 98.40 98.73 97.79 97.62 97.81 98.32 97.88 100.19 97.07 97.07 96.97 96.71 96.51 97.49 96.33 96.34 96.04 96.05 95.61 96.14 95.48 95.48 95.29 95.10 95.26 95.22 94.60 94.43 94.53 93.05
101.53 101.51 101.49 101.56 101.46 101.37 101.16 101.79 101.33 101.10 100.83 100.63 100.54 100.56 100.61 100.70 100.63 100.53 99.24 100.00 100.71 100.32 98.46 98.31 98.27 98.28 98.13 98.45 98.68 99.32 97.11 97.07 97.00 96.65 96.35 96.38 96.40 96.37 95.99 95.86 95.78 95.82 95.73 95.68 95.36 95.17 95.26 94.75 94.68 94.60 94.30 93.05
