ncols 52
nrows 52
xllcorner 438272
yllcorner 5714432
cellsize 10
NODATA_value -9999
101.66 102.01 102.23 102.47 102.63 102.46 103.01 102.85 102.96 103.01 103.22 103.60 103.65 103.54 103.75 103.77 103.75 103.30 103.38 103.27 102.89 102.97 102.82 102.70 102.57 102.39 102.11 101.95 101.85 101.85 101.72 101.63 101.49 101.33 101.15 100.93 100.88 100.86 100.40 100.44 100.36 99.46 99.55 99.65 99.62 99.62 99.64 99.28 99.11 99.05 98.83 99.10
101.99 102.53 102.70 102.48 102.56 102.40 103.03 103.18 103.07 103.06 103.82 103.78 103.82 103.59 103.76 103.78 103.68 103.29 103.36 103.24 102.90 103.11 103.33 102.85 102.61 102.37 102.26 102.24 102.01 101.92 101.74 101.63 101.62 101.42 101.28 100.98 100.81 100.75 100.49 100.42 100.29 100.01 99.77 99.81 99.80 99.61 99.57 99.22 99.07 98.89 99.26 98.94
102.01 102.85 102.81 102.58 102.58 102.40 103.08 103.42 104.76 105.26 103.85 103.71 103.73 103.62 103.77 103.79 103.81 103.32 103.36 103.14 102.87 102.98 102.93 102.92 102.68 102.46 102.31 102.22 102.02 101.93 101.92 101.57 101.43 101.31 101.08 101.05 100.94 100.71 100.72 100.32 100.07 99.83 99.75 99.90 100.04 99.74 99.47 99.10 99.00 98.87 99.44 99.40
102.15 102.62 102.60 102.64 102.58 102.38 102.71 103.00 103.26 103.33 103.54 103.65 103.67 103.66 103.72 103.87 103.93 103.32 103.35 103.01 103.05 103.07 103.02 102.92 102.66 102.67 102.65 102.59 102.27 102.15 101.94 101.82 101.73 101.65 101.14 101.01 101.08 101.02 100.85 100.09 99.83 99.76 99.68 99.63 99.67 99.34 99.33 99.21 99.00 99.17 99.31 99.13
102.25 102.32 102.39 102.51 102.46 102.45 102.85 103.18 103.31 103.19 104.06 103.67 103.77 103.76 103.75 103.86 103.90 103.34 103.18 102.90 102.92 103.01 102.99 102.90 102.67 102.70 102.68 102.66 102.28 102.26 102.31 101.92 101.67 101.52 101.16 101.08 101.09 100.84 99.80 100.16 99.89 99.98 99.79 99.73 99.67 99.51 99.29 99.68 99.54 99.01 99.38 99.13
102.32 100.75 102.31 102.50 102.54 102.32 102.67 103.21 103.23 103.24 103.67 103.68 103.81 103.87 103.65 103.62 103.59 103.32 103.15 102.85 103.03 102.99 103.11 102.88 102.61 102.49 102.43 102.43 102.41 102.22 102.07 101.92 101.56 101.57 101.05 101.25 101.42 100.57 100.32 100.12 100.07 100.07 100.21 99.82 99.56 99.57 99.50 99.64 100.15 99.67 99.00 99.27
102.26 102.38 102.44 102.55 102.62 102.32 102.43 102.64 102.94 103.44 104.06 103.61 103.98 103.77 103.76 103.85 103.57 103.47 103.18 102.88 103.00 103.01 102.88 102.98 102.85 102.74 102.53 102.36 102.12 101.91 101.77 101.63 101.49 101.34 101.04 101.08 100.96 100.58 100.29 100.33 100.45 100.04 99.96 99.68 99.90 99.94 99.91 99.80 99.79 99.86 99.83 99.00
102.20 102.19 102.39 102.51 102.47 102.47 102.62 102.93 102.95 103.10 103.32 103.57 103.87 103.83 103.79 103.79 103.80 103.59 103.41 102.85 103.00 103.07 103.05 103.06 103.10 103.06 102.93 102.92 102.43 102.08 101.76 101.59 101.40 101.23 101.03 100.83 100.68 100.33 100.51 100.36 100.41 100.41 99.75 99.91 99.84 100.32 100.07 99.63 99.65 99.64 99.38 99.38
102.21 102.17 102.34 102.31 102.38 102.49 102.57 102.88 103.16 103.43 103.54 103.62 103.69 103.70 103.83 103.73 103.57 103.45 103.09 102.78 103.06 103.10 103.17 103.06 103.01 103.06 102.95 103.00 102.89 102.35 101.77 101.64 101.54 101.18 100.93 100.82 100.49 100.53 100.53 100.50 100.36 99.96 99.93 99.84 99.74 100.47 99.95 99.44 99.16 99.35 99.40 99.38
102.10 102.25 102.43 102.46 103.08 102.54 102.58 103.10 103.42 103.59 103.68 103.74 103.74 103.79 103.77 103.71 103.62 103.21 102.83 102.83 103.05 103.12 103.10 103.12 103.00 103.04 102.94 102.94 103.00 102.49 101.76 101.57 101.38 101.31 100.93 100.67 100.55 100.46 100.51 100.51 100.28 100.03 100.03 100.08 100.51 99.82 99.81 99.35 99.26 99.53 99.26 99.32
101.92 102.10 102.35 102.36 102.89 102.52 102.62 103.11 103.64 103.61 103.65 103.81 103.71 103.81 103.65 103.54 103.27 102.99 102.71 102.83 103.00 103.04 103.06 103.05 102.28 102.38 103.03 102.96 102.84 102.41 101.66 101.50 101.35 101.03 101.00 101.40 100.44 100.43 100.40 100.19 100.14 100.15 100.28 100.10 100.01 99.94 99.98 99.44 99.49 99.43 99.26 99.08
102.26 102.10 102.78 102.89 102.62 102.67 102.64 103.05 103.33 103.47 103.63 103.78 103.81 103.74 103.57 103.40 103.11 102.86 102.64 102.89 103.07 102.98 103.07 103.08 102.02 102.79 102.79 102.85 102.75 102.34 101.70 101.57 101.20 101.16 100.98 100.79 100.70 100.54 100.41 100.12 100.26 100.18 100.24 100.21 99.80 99.84 99.61 99.54 99.59 99.48 99.27 99.09
102.17 102.07 102.73 103.07 102.98 102.89 102.71 103.32 103.35 103.61 103.75 103.75 103.68 103.62 103.57 103.33 103.04 102.86 102.60 102.97 103.06 103.00 102.84 103.07 102.82 102.34 102.21 102.14 102.15 101.88 101.81 101.49 101.23 101.23 101.22 101.15 100.79 100.60 100.49 100.46 100.28 100.07 100.11 99.93 99.81 99.83 99.82 99.78 99.48 99.55 99.20 99.17
102.16 102.29 102.65 103.08 103.09 102.87 102.78 103.28 103.50 103.72 103.72 103.93 103.51 103.48 103.48 103.46 103.00 102.71 102.47 102.95 103.04 102.93 102.79 102.68 102.74 102.32 102.16 102.04 102.10 102.01 101.77 101.35 101.34 101.51 101.29 100.98 100.84 100.65 100.51 100.60 100.48 100.27 100.32 100.11 99.99 100.00 99.91 99.72 99.67 99.36 99.39 99.24
101.92 102.18 102.85 103.23 103.15 102.94 102.85 103.06 103.26 103.43 103.68 103.56 103.50 103.39 103.33 103.20 102.86 102.40 102.47 102.92 103.19 102.87 102.69 102.47 102.64 102.29 102.25 102.26 102.11 101.89 101.48 101.35 101.54 100.42 101.51 101.36 101.24 101.13 100.71 100.75 100.32 100.32 100.39 100.28 100.04 100.10 100.07 100.08 99.81 99.48 99.28 99.35
102.00 102.39 102.87 103.30 103.07 103.10 102.88 103.28 103.35 103.43 103.58 103.65 103.42 103.30 103.36 102.99 102.76 102.26 102.42 102.57 102.74 102.77 102.64 102.37 102.22 102.47 102.35 102.31 102.48 101.58 101.53 101.66 101.52 101.61 101.57 101.25 101.27 101.20 100.90 100.75 100.58 100.42 100.40 100.24 100.01 100.04 99.88 99.85 99.65 99.58 99.52 99.33
101.95 101.92 102.64 103.11 103.10 103.02 102.90 103.70 103.60 103.46 103.76 103.43 103.32 103.16 103.13 102.97 102.39 102.23 102.54 102.62 102.87 102.78 102.59 102.46 102.18 102.69 102.54 102.26 101.67 101.48 101.55 101.67 101.59 101.62 101.48 101.27 101.24 101.07 100.88 100.79 100.49 100.46 100.28 100.27 99.92 99.89 99.67 99.63 99.58 99.47 99.51 99.44
101.73 102.07 102.54 102.90 103.15 102.91 103.10 103.40 103.36 103.43 103.56 103.35 103.17 103.10 103.05 102.83 102.36 102.14 102.57 102.62 102.72 102.81 102.46 102.25 102.29 102.36 101.12 101.86 101.64 101.61 101.65 101.65 101.54 101.60 101.21 101.15 101.04 101.22 100.80 100.66 100.37 100.25 100.16 100.04 99.93 99.88 99.89 99.78 99.71 99.63 99.50 99.33
101.61 101.80 101.97 102.19 102.38 102.63 102.93 102.80 102.93 103.04 103.17 103.36 103.24 103.06 103.08 102.69 102.19 102.00 102.53 102.70 102.68 102.51 102.54 102.32 102.22 102.29 102.17 101.53 101.59 101.58 101.60 101.60 101.56 101.33 100.99 100.79 100.71 100.67 100.54 100.52 100.32 100.27 100.21 100.20 100.07 100.01 99.96 99.80 99.69 99.57 99.36 99.31
101.55 102.17 102.79 102.82 102.64 102.82 103.00 103.11 103.07 103.31 103.38 103.20 102.73 102.54 102.35 102.23 101.92 101.96 102.78 102.62 102.56 102.55 102.55 102.27 102.15 102.03 101.46 101.42 101.56 101.32 101.18 101.14 101.02 100.98 101.06 100.69 100.97 100.90 100.66 100.38 100.20 100.37 100.22 100.28 99.93 100.02 100.01 99.71 99.55 99.46 99.26 99.18
101.39 101.86 102.65 102.96 102.70 102.65 102.98 103.19 103.14 103.22 103.25 103.15 102.72 102.54 102.48 102.43 101.80 102.19 102.46 102.57 102.53 102.54 102.29 102.06 101.85 101.56 101.40 101.34 101.43 101.44 101.24 101.14 101.15 101.10 100.43 100.51 100.76 100.01 100.42 100.47 100.00 100.33 100.25 100.10 99.89 99.85 99.97 99.74 99.60 99.61 99.38 99.12
101.36 102.05 102.50 102.79 102.56 102.61 103.03 103.19 103.21 103.17 103.20 103.15 103.24 103.28 102.69 102.08 101.75 102.41 102.48 102.66 102.50 102.42 102.18 101.97 101.71 101.30 101.65 101.39 101.45 101.49 101.29 101.22 101.16 101.19 100.80 100.80 100.70 100.49 100.43 100.32 99.87 99.84 99.87 100.01 99.86 99.79 99.96 99.75 99.76 100.01 99.54 99.16
101.38 101.68 102.38 102.62 102.51 102.48 102.78 103.02 103.08 103.12 103.06 103.14 103.11 103.17 102.97 102.08 101.65 102.45 102.51 102.69 102.41 102.21 101.96 101.75 101.39 101.49 101.74 101.45 101.42 101.46 101.32 101.13 101.09 100.96 100.74 100.71 100.57 100.53 100.31 100.04 99.91 99.84 99.84 99.82 100.18 99.88 99.70 99.96 99.44 99.24 99.03 98.98
101.44 101.70 102.60 102.75 102.53 102.37 102.75 103.08 103.09 103.18 103.16 103.09 103.04 102.92 102.52 101.70 101.53 102.41 102.58 102.65 102.32 102.03 101.85 101.65 101.24 101.53 101.54 101.73 101.68 101.19 101.10 102.02 101.05 100.72 100.62 100.49 100.31 100.28 100.15 99.90 99.99 99.69 99.83 99.80 99.88 99.48 99.37 99.30 99.24 99.28 99.38 99.25
101.43 101.90 102.44 102.72 102.37 102.31 102.78 103.15 103.06 103.15 103.14 102.90 103.15 102.88 102.03 101.42 101.56 102.27 102.66 102.44 102.15 102.39 101.83 101.10 101.38 101.50 100.56 101.40 101.40 101.21 101.22 101.04 100.92 100.71 100.74 100.54 100.37 100.94 100.10 99.97 99.99 99.67 99.57 99.54 99.56 99.57 99.69 99.98 99.56 99.92 99.37 99.32
101.43 101.56 102.00 102.28 102.07 102.18 102.82 102.96 102.63 102.93 102.94 102.83 102.69 102.49 102.02 101.35 101.28 101.06 101.55 102.28 101.92 101.96 101.14 101.15 101.40 101.52 101.46 101.36 101.46 101.34 101.10 101.01 100.93 100.64 100.61 101.12 100.45 99.82 100.13 99.84 99.73 99.79 99.67 99.89 99.69 99.76 99.88 99.93 99.70 99.48 99.40 99.48
101.46 101.59 101.65 101.89 101.88 102.08 102.54 102.82 102.89 102.97 102.75 102.76 102.71 102.20 101.85 101.24 101.23 101.04 100.96 101.25 101.40 101.13 101.00 101.31 101.27 101.59 101.44 101.41 101.29 101.32 101.27 101.12 100.86 100.47 100.49 100.26 100.25 99.99 99.85 99.87 100.76 100.26 99.70 99.79 99.70 99.92 99.99 99.99 99.98 99.48 99.53 99.54
101.56 101.58 101.87 101.96 102.01 102.03 102.41 102.65 102.64 102.67 102.71 102.64 102.58 102.28 101.49 101.06 101.01 100.94 100.76 100.75 101.22 100.91 101.40 101.60 101.53 101.28 101.46 101.64 101.32 101.21 101.01 100.88 100.88 100.44 100.31 100.12 100.01 100.13 100.11 100.17 100.85 100.15 100.01 99.83 99.75 100.20 100.00 99.98 99.99 99.61 99.66 99.71
101.55 101.70 101.92 102.12 101.99 102.06 102.37 102.38 102.55 102.70 102.57 102.52 102.41 102.46 101.34 100.89 101.07 100.79 100.79 100.84 100.75 101.11 101.85 101.89 101.64 101.40 101.15 101.30 101.21 101.19 101.10 100.83 100.70 100.32 100.19 100.30 100.27 100.18 100.13 100.32 100.07 99.89 99.83 99.71 99.76 100.14 99.74 99.95 100.12 99.84 99.81 99.97
100.75 100.94 101.42 102.03 101.69 101.86 102.38 102.57 102.56 102.33 102.42 102.85 102.77 101.64 101.17 100.71 100.76 100.82 100.72 100.69 100.89 101.53 101.51 101.57 101.57 101.32 101.13 101.17 101.16 101.12 101.09 100.61 100.32 100.34 100.15 100.35 100.32 100.36 100.22 100.01 100.01 100.19 99.71 99.71 99.73 99.83 99.86 99.86 99.97 99.89 99.78 99.78
100.17 100.46 100.97 101.41 101.60 101.75 101.99 101.91 102.15 102.22 102.36 102.68 101.84 100.86 101.16 100.59 100.25 100.71 100.58 100.57 101.32 101.36 101.39 101.51 101.53 101.38 101.14 100.96 101.14 101.03 100.59 100.44 100.62 100.49 100.39 100.10 100.35 100.25 100.32 100.32 100.04 99.83 99.84 99.71 99.62 99.85 99.87 99.88 99.88 100.31 100.09 99.87
100.17 100.56 100.93 101.49 101.43 101.74 101.96 101.87 102.13 102.10 102.34 102.27 101.64 100.94 100.84 100.45 100.22 100.22 100.27 101.52 101.30 101.56 101.46 101.26 101.46 101.51 101.46 100.92 100.96 100.63 100.60 100.61 100.94 100.44 100.27 99.98 100.05 100.30 100.43 100.28 99.93 99.89 99.85 99.99 99.75 99.71 99.89 99.93 102.40 101.47 99.98 99.96
100.27 100.69 100.74 101.19 101.40 101.79 102.07 102.03 102.18 102.15 102.31 102.10 102.00 100.78 100.53 100.24 100.11 100.10 100.58 101.61 101.38 101.43 101.40 101.34 101.22 101.64 101.35 101.03 100.76 100.70 100.79 100.74 100.51 100.43 100.33 100.18 99.91 100.35 100.19 100.27 100.29 100.04 100.35 100.23 99.94 99.83 100.87 102.01 100.81 100.09 100.01 100.05
100.46 100.86 100.79 101.03 101.23 102.10 102.07 102.07 102.18 102.17 102.14 102.02 101.77 100.62 100.58 100.25 99.90 100.15 101.39 100.53 100.93 101.39 101.43 101.36 101.15 101.11 100.72 100.78 100.68 100.53 100.68 100.25 100.29 100.42 100.45 100.12 100.05 99.99 100.21 100.44 100.26 100.42 100.11 99.99 99.94 100.19 100.11 101.68 100.13 99.97 100.07 100.17
100.38 100.88 100.84 101.24 101.13 101.70 101.79 101.84 101.98 102.00 101.96 101.98 101.57 100.55 100.63 100.12 99.69 99.97 101.70 100.71 101.37 101.37 101.30 101.25 100.96 100.80 100.74 100.82 100.14 100.45 100.32 100.30 100.18 100.21 100.19 100.26 99.82 99.71 100.10 100.14 100.04 100.09 100.00 99.88 100.26 100.17 99.89 100.50 101.17 100.07 100.02 100.24
100.39 100.57 100.71 100.88 101.08 101.49 101.58 101.58 101.70 101.88 101.91 101.79 101.54 100.42 100.41 100.06 99.36 99.72 102.10 101.43 101.42 101.37 101.18 100.87 100.87 101.10 100.92 101.17 100.56 100.47 100.23 100.22 100.06 100.08 100.06 100.16 99.79 99.76 99.67 99.87 100.01 99.97 100.10 99.88 99.85 100.00 100.03 100.00 100.79 102.14 100.51 100.21
100.62 100.77 100.98 101.10 101.28 101.17 101.31 101.42 101.43 101.86 101.94 101.29 100.43 100.47 100.16 100.11 99.05 99.39 102.38 101.73 101.51 101.41 101.10 100.83 101.11 101.20 101.16 100.65 100.49 100.49 100.11 100.11 99.98 99.94 100.09 99.85 99.83 100.14 99.80 99.69 100.03 99.92 99.82 99.87 99.85 100.29 100.11 100.15 100.08 100.80 100.22 100.42
100.60 100.87 101.03 101.12 101.28 101.37 101.50 101.31 101.03 101.14 100.82 101.08 100.21 100.34 100.14 99.98 98.82 99.11 101.87 101.68 101.60 101.58 101.17 100.77 100.98 101.09 101.28 100.88 100.49 100.36 100.14 100.01 99.88 99.90 100.03 100.02 100.10 100.05 99.89 99.55 99.65 99.80 99.73 99.74 99.74 100.07 100.18 100.29 100.20 100.07 100.18 99.98
100.60 100.79 100.95 101.07 101.21 101.37 101.52 101.67 101.70 101.81 100.18 100.18 100.16 100.15 100.12 100.14 98.57 98.87 100.82 101.54 101.56 101.65 101.40 100.71 101.02 101.00 101.08 100.67 100.46 100.26 100.05 99.96 99.86 99.83 99.92 100.00 99.94 99.87 100.04 99.82 99.49 99.76 99.82 99.90 99.77 100.10 100.54 100.32 100.14 100.29 99.94 100.21
100.58 100.80 100.94 100.96 101.14 101.38 101.46 101.59 101.69 101.96 101.41 99.99 100.03 99.94 99.89 99.77 98.24 98.72 100.99 101.69 101.70 101.65 101.46 100.62 100.68 100.61 100.36 100.42 100.24 99.97 99.93 99.93 99.67 99.72 99.84 99.92 99.77 99.56 99.68 99.58 99.63 99.54 99.61 99.74 99.64 99.69 99.80 99.91 100.15 100.60 99.87 100.31
100.66 100.73 100.90 100.99 101.17 101.32 101.39 101.60 101.60 101.81 99.82 99.85 99.17 98.88 99.01 99.25 97.97 98.66 101.60 101.64 101.66 101.63 101.31 100.46 99.86 101.07 100.18 100.10 100.19 99.93 99.80 99.64 99.56 99.46 99.76 99.78 99.74 99.72 99.38 99.42 99.50 99.38 99.43 99.64 99.68 99.70 100.12 100.11 99.75 99.91 99.92 100.43
100.49 100.60 100.74 100.83 101.11 101.28 101.41 101.50 101.78 99.60 99.90 99.21 98.53 97.86 97.74 98.40 97.86 99.06 101.56 101.38 100.81 100.62 100.53 100.32 100.37 100.26 100.18 100.18 99.97 99.84 99.71 99.65 99.47 99.32 99.45 99.76 99.53 99.38 99.38 99.35 99.59 99.65 99.33 99.62 99.75 99.74 99.85 99.99 100.03 99.77 100.24 100.34
100.46 100.61 100.69 100.74 100.78 100.32 99.69 101.54 99.29 99.54 99.88 99.45 98.05 97.44 97.35 97.65 97.70 100.53 101.11 100.65 100.46 100.68 100.83 100.26 100.20 100.24 100.11 100.19 100.14 99.62 99.57 99.62 99.54 99.41 99.21 99.48 99.69 99.29 99.39 99.54 99.60 99.59 99.35 99.52 99.69 99.73 99.65 99.80 99.83 99.81 99.88 100.11
100.46 100.66 100.68 100.80 100.95 101.26 101.42 99.14 99.31 99.78 100.03 100.41 99.64 98.09 97.43 97.17 97.69 101.38 101.09 100.89 100.70 100.53 100.39 100.18 100.00 100.16 100.08 99.90 99.92 99.79 99.68 99.62 99.54 99.67 99.22 99.10 99.24 99.57 99.35 99.49 99.49 99.56 99.29 99.56 99.81 99.88 99.89 99.78 99.64 99.91 99.87 99.88
100.37 100.58 100.68 100.74 100.96 101.11 100.11 99.04 99.96 99.73 100.22 100.27 100.53 100.41 97.03 96.94 99.20 100.42 100.57 100.58 100.57 100.47 100.67 100.28 99.78 99.96 100.00 99.86 99.82 99.19 99.14 99.65 99.45 99.18 99.73 98.98 99.21 99.31 99.27 99.41 99.43 99.52 99.23 99.42 99.81 99.13 99.89 99.67 99.72 99.88 99.88 99.93
100.43 100.50 100.62 100.80 100.95 100.89 98.74 99.44 99.64 100.00 99.96 100.31 100.43 100.42 96.79 96.72 100.51 100.50 100.82 100.50 100.45 100.43 100.72 100.28 99.60 99.91 99.86 99.67 99.33 99.14 99.19 99.43 99.36 99.21 99.20 99.02 99.04 99.17 99.14 99.13 99.18 99.21 99.24 99.26 99.36 99.38 99.49 99.43 99.60 99.72 99.81 99.88
97.47 97.41 98.34 100.75 100.89 97.68 99.00 99.67 99.64 99.73 100.03 100.28 100.29 99.24 96.34 97.99 100.37 100.42 100.50 100.62 100.46 100.22 100.32 99.84 99.36 99.66 99.62 99.48 99.42 99.16 99.10 99.03 98.96 98.79 98.96 98.93 99.01 99.11 99.17 99.32 99.43 99.43 99.40 99.39 99.41 99.50 99.67 99.65 99.65 99.67 99.78 99.80
97.97 97.58 97.15 97.04 96.93 96.92 99.82 99.62 99.71 99.74 99.86 100.22 100.18 96.28 96.06 99.58 100.06 100.07 99.88 99.94 99.93 99.90 99.78 99.56 99.25 99.51 99.86 99.45 99.35 98.84 98.74 98.79 98.91 99.09 99.10 99.25 99.38 98.85 99.21 99.32 99.40 99.27 99.49 99.42 99.41 99.41 99.56 99.53 99.56 99.64 99.75 99.75
98.47 98.40 98.35 98.21 96.76 96.53 96.49 98.76 99.77 99.82 99.96 100.04 99.59 95.68 96.08 100.04 99.62 99.68 99.74 99.61 99.58 99.89 99.77 99.52 99.23 99.01 99.44 98.64 98.68 98.81 99.09 99.24 99.35 99.28 99.26 99.14 99.23 98.71 99.34 99.38 99.38 99.35 99.47 99.43 99.51 99.60 99.75 99.55 99.46 99.70 99.78 99.87
98.63 98.66 98.60 98.57 98.50 98.81 96.62 95.89 95.71 97.01 99.08 99.24 96.58 95.48 97.58 99.15 98.27 98.54 98.53 98.74 99.27 99.86 99.78 99.46 98.68 98.63 98.55 98.78 99.14 99.24 99.32 99.46 99.42 99.49 99.52 99.28 99.30 99.21 99.31 99.43 99.55 99.41 99.44 99.56 99.58 99.72 99.70 99.56 99.50 99.69 99.90 99.88
98.64 98.85 98.67 98.71 98.63 98.79 98.81 99.05 96.81 95.19 95.09 95.15 95.17 95.15 98.67 98.78 96.92 97.08 97.34 97.62 97.74 98.27 97.74 98.13 98.60 98.79 99.14 99.22 99.32 99.38 99.46 99.53 99.52 99.49 99.25 99.24 99.37 99.34 99.35 99.33 99.31 99.29 99.35 99.41 99.60 99.60 99.58 99.73 99.78 99.78 100.06 100.62
98.62 98.94 98.73 98.77 98.68 98.79 98.82 98.67 98.68 99.00 95.09 94.82 94.96 95.07 95.14 95.37 95.61 95.94 96.27 96.62 96.91 97.63 98.84 98.98 99.22 99.25 99.45 99.59 99.52 99.56 99.59 99.69 99.62 99.43 99.48 99.73 99.98 99.81 100.12 100.17 99.90 100.15 100.13 100.35 100.65 101.00 101.49 101.76 101.24 100.22 100.22 100.79
