ncols 52
nrows 52
xllcorner 438784
yllcorner 5716992
cellsize 10
NODATA_value -9999
82.61 82.60 82.44 82.40 82.33 82.28 82.24 82.14 81.94 81.67 81.34 80.59 81.61 81.74 81.77 81.76 81.63 81.51 81.43 81.31 81.21 81.24 81.17 81.12 81.08 81.14 81.18 81.18 81.14 81.09 81.13 81.15 81.15 81.22 81.21 81.15 81.08 81.00 80.89 80.81 80.73 80.62 80.56 80.50 80.58 80.55 80.57 80.27 80.21 80.11 80.08 80.01
82.77 82.67 82.58 82.54 82.46 82.41 82.35 82.15 81.95 81.41 81.46 81.72 81.90 81.95 81.92 81.84 81.74 81.68 81.55 81.40 81.29 81.28 81.24 81.23 81.22 81.31 81.33 81.31 81.21 81.17 81.18 81.16 81.22 81.29 81.31 81.20 81.15 81.07 81.01 80.90 80.86 80.74 80.67 80.64 80.58 80.50 80.49 80.52 80.23 80.21 80.14 80.18
82.93 82.82 82.80 82.68 82.61 82.56 82.44 82.22 81.96 81.77 81.75 81.92 82.05 82.04 82.01 81.92 81.85 81.77 81.65 81.44 81.43 81.40 81.41 81.40 81.42 81.43 81.42 81.38 81.29 81.29 81.26 81.20 81.24 81.31 81.31 81.25 81.19 81.11 81.07 81.01 80.92 80.85 80.77 80.68 80.67 80.50 80.47 80.46 80.54 80.29 80.26 80.30
83.09 82.96 82.94 82.86 82.79 82.68 82.50 82.24 81.71 80.92 82.01 82.13 82.21 82.15 82.08 81.99 81.96 81.87 81.73 81.63 81.62 81.58 81.58 81.50 81.57 81.53 81.50 81.46 81.43 81.43 81.35 81.29 81.27 81.35 81.35 81.33 81.25 81.22 81.15 81.12 81.01 80.93 80.84 80.72 80.60 80.56 80.52 80.51 80.56 80.62 80.43 80.42
83.27 83.13 83.10 83.04 82.91 82.76 82.56 82.22 81.97 82.09 82.22 82.33 82.29 82.23 82.17 82.12 82.05 81.96 81.80 81.80 81.76 81.75 81.68 81.66 81.65 81.62 81.58 81.57 81.56 81.52 81.42 81.38 81.36 81.35 81.38 81.36 81.29 81.26 81.19 81.10 81.00 80.90 80.77 80.77 80.70 80.66 80.62 80.66 80.72 80.77 80.82 80.67
83.56 83.56 83.38 83.17 83.04 82.86 82.54 82.15 82.25 82.35 82.46 82.51 82.44 82.37 82.25 82.21 82.12 82.01 81.93 81.95 81.88 81.86 81.78 81.81 81.77 81.72 81.68 81.65 81.63 81.59 81.51 81.46 81.44 81.38 81.43 81.39 81.34 81.24 81.18 81.04 80.93 80.87 80.84 80.79 80.88 80.88 80.90 80.93 80.90 80.97 81.03 80.97
83.65 83.68 82.78 83.49 83.27 83.02 82.02 81.73 82.53 82.57 82.68 82.67 82.61 82.51 82.43 82.34 82.21 82.05 82.01 81.99 82.01 81.94 81.95 81.91 81.86 81.82 81.79 81.76 81.73 81.64 81.60 81.54 81.49 81.41 81.40 81.33 81.26 81.17 81.08 81.00 80.98 80.93 81.01 81.05 81.08 81.08 81.13 81.16 81.11 81.08 81.05 81.21
83.61 83.58 83.58 83.56 83.43 82.81 82.52 82.79 82.80 82.82 82.81 82.81 82.75 82.61 82.56 82.44 82.28 82.15 82.16 82.09 82.12 82.05 82.07 82.04 81.99 81.95 81.92 81.89 81.83 81.75 81.65 81.62 81.50 81.41 81.35 81.32 81.24 81.24 81.17 81.14 81.17 81.18 81.17 81.25 81.23 81.28 81.30 81.31 81.28 81.20 81.13 81.21
83.75 83.68 83.65 83.52 83.32 82.78 82.16 83.18 83.11 83.04 82.91 82.93 82.83 82.76 82.67 82.55 82.35 82.24 82.21 82.22 82.19 82.19 82.20 82.17 82.13 82.09 82.07 81.99 81.91 81.83 81.74 81.64 81.52 81.41 81.38 81.41 81.38 81.37 81.32 81.35 81.32 81.37 81.40 81.42 81.42 81.46 81.46 81.45 81.44 81.31 81.21 81.49
83.80 83.75 83.65 83.56 82.98 82.80 83.18 83.16 83.30 83.22 83.04 82.95 82.85 82.83 82.73 82.60 82.50 82.42 82.32 82.36 82.32 82.36 82.35 82.31 82.25 82.22 82.17 82.07 81.99 81.91 81.84 81.68 81.61 81.58 81.65 81.61 81.59 81.52 81.49 81.50 81.54 81.50 81.58 81.59 81.60 81.60 81.62 81.61 81.54 81.42 81.56 81.54
83.96 83.82 83.64 83.59 83.17 83.38 83.40 83.36 83.33 83.26 83.27 83.14 82.94 82.93 82.82 82.72 82.68 82.54 82.46 82.48 82.51 82.51 82.47 82.42 82.37 82.33 82.28 82.18 82.10 82.03 81.93 81.77 81.71 81.77 81.83 81.78 81.75 81.66 81.68 81.63 81.70 81.72 81.72 81.72 81.76 81.75 81.78 81.75 81.67 81.62 81.86 81.63
84.09 83.85 83.72 82.95 82.62 83.53 83.52 83.48 83.42 83.42 82.68 83.42 83.22 83.10 82.89 82.87 82.83 82.62 82.60 82.57 82.64 82.64 82.60 82.53 82.50 82.45 82.35 82.29 82.20 82.12 81.97 81.89 81.85 81.98 81.96 81.93 81.88 81.81 81.82 81.82 81.81 81.86 81.85 81.89 81.91 81.93 81.93 81.91 81.85 82.03 82.01 81.85
84.20 83.96 83.91 83.51 83.75 83.67 83.65 83.56 83.57 83.51 83.46 83.31 83.49 83.29 83.10 83.01 82.94 82.77 82.67 82.69 82.75 82.74 82.70 82.68 82.63 82.57 82.48 82.40 82.33 82.24 82.13 82.00 81.96 82.10 82.09 82.08 82.00 82.00 81.96 81.99 82.01 82.01 82.01 82.06 82.07 82.10 82.11 82.08 82.04 82.35 82.14 82.04
84.24 84.14 83.66 83.64 83.96 83.88 83.85 83.74 83.70 83.60 83.55 83.50 83.43 83.50 83.42 83.18 83.04 82.92 82.81 82.80 82.87 82.85 82.82 82.79 82.74 82.64 82.58 82.51 82.45 82.35 82.28 82.07 82.11 82.18 82.22 82.20 82.15 82.14 82.14 82.10 82.15 82.15 82.19 82.22 82.26 82.31 82.30 82.26 82.52 82.45 82.31 82.24
84.36 84.26 83.70 84.13 84.10 84.08 84.00 83.93 83.83 83.78 83.69 83.62 83.56 83.49 83.58 83.41 83.24 83.11 83.00 82.96 82.94 82.95 82.94 82.91 82.87 82.78 82.73 82.68 82.60 82.51 82.43 82.26 82.23 82.29 82.38 82.33 82.35 82.31 82.32 82.30 82.31 82.32 82.38 82.42 82.45 82.50 82.49 82.53 82.75 82.55 82.53 82.47
84.55 84.08 84.36 84.32 84.30 84.23 84.18 84.12 83.99 83.92 83.85 83.77 83.69 83.57 83.55 82.93 83.60 83.30 83.19 83.08 83.07 83.06 83.07 83.06 82.97 82.92 82.86 82.79 82.72 82.69 82.55 82.46 82.35 82.44 82.51 82.48 82.50 82.49 82.45 82.46 82.47 82.54 82.59 82.63 82.67 82.70 82.71 82.94 82.80 82.76 82.76 82.66
84.83 84.28 84.53 84.51 84.53 84.44 84.32 84.31 84.22 84.10 84.01 83.96 83.84 83.72 83.67 83.61 83.42 83.71 83.44 83.37 83.24 83.27 83.21 83.18 83.11 83.04 83.01 82.95 82.89 82.83 82.72 82.59 82.47 82.59 82.66 82.73 82.71 82.71 82.66 82.65 82.67 82.73 82.81 82.85 82.91 82.90 82.90 83.12 82.94 82.96 82.89 82.75
84.37 84.49 84.60 84.65 84.70 84.72 84.61 84.48 84.40 84.34 84.21 84.09 84.00 83.90 83.79 83.74 83.67 83.65 83.71 83.60 83.48 83.38 83.38 83.30 83.23 83.19 83.13 83.06 83.05 82.92 82.85 82.64 82.55 82.72 82.85 82.88 82.89 82.86 82.88 82.85 82.90 82.94 83.02 83.07 83.11 83.08 83.25 83.15 83.13 83.10 82.97 82.82
84.80 84.85 84.81 84.85 84.84 84.89 84.89 84.80 84.64 84.55 84.43 84.31 84.16 84.06 83.98 83.88 83.82 83.76 83.74 83.71 83.70 83.60 83.48 83.41 83.38 83.32 83.26 83.20 83.14 83.05 83.01 82.84 82.78 82.91 83.06 83.08 83.06 83.06 83.05 83.05 83.11 83.15 83.25 83.29 83.29 83.31 83.48 83.26 83.21 83.16 83.04 82.86
84.60 85.11 85.15 85.19 85.10 85.07 85.10 85.09 84.99 84.83 84.64 84.51 84.39 84.23 84.12 84.04 83.98 83.90 83.84 83.81 83.26 83.93 83.74 83.57 83.45 83.40 83.35 83.34 83.26 83.28 83.20 83.06 82.97 83.04 83.19 83.21 83.21 83.22 83.25 83.28 83.32 83.38 83.44 83.50 83.46 83.64 83.44 83.34 83.31 83.18 83.06 82.89
85.30 85.26 85.44 85.43 85.36 85.30 85.26 85.29 85.25 85.17 85.00 84.77 84.64 84.47 84.32 84.20 84.13 84.04 83.93 83.89 83.87 83.57 83.99 83.74 83.69 83.56 83.56 83.52 83.49 83.47 83.40 83.32 83.18 83.25 83.32 83.38 83.40 83.43 83.44 83.50 83.50 83.59 83.68 83.69 83.65 83.77 83.52 83.43 83.33 83.21 83.10 82.99
85.62 85.71 85.62 85.66 85.56 85.50 85.46 85.39 85.38 85.36 85.31 85.15 84.91 84.76 84.59 84.43 84.32 84.22 84.11 84.02 84.00 83.99 84.04 84.09 83.91 83.83 83.75 83.62 83.63 83.57 83.49 83.48 83.37 83.36 83.44 83.51 83.58 83.60 83.65 83.69 83.74 83.85 83.91 83.82 83.95 83.71 83.54 83.43 83.32 83.24 83.16 83.09
85.94 86.04 86.04 85.85 85.74 85.66 85.61 85.56 85.48 85.42 85.43 85.39 85.26 85.06 84.90 84.71 84.54 84.40 84.29 84.24 84.17 84.14 84.15 84.17 84.15 84.08 83.94 83.81 83.78 83.73 83.66 83.62 83.58 83.52 83.57 83.71 83.78 83.79 83.84 83.86 83.98 84.05 84.08 84.00 83.97 83.67 83.54 83.46 83.38 83.28 83.24 83.18
86.23 86.32 86.23 86.17 86.01 85.80 85.76 85.68 85.62 85.52 85.46 85.43 85.39 85.29 85.14 84.97 84.79 84.65 84.47 84.39 84.36 84.30 84.28 84.25 84.25 84.30 84.31 84.07 83.97 83.87 83.82 83.79 83.74 83.71 83.72 83.85 83.93 83.98 84.00 84.06 84.17 84.23 84.15 84.15 83.81 83.66 83.60 83.49 83.40 83.37 83.30 83.24
86.54 86.55 86.48 86.33 86.26 86.09 85.87 85.80 85.71 85.65 85.54 85.44 85.42 85.36 85.31 85.13 85.01 84.90 84.72 84.56 84.47 84.44 84.40 84.35 84.35 84.38 83.83 84.47 84.26 84.18 84.03 83.96 83.93 83.85 83.86 83.96 84.07 84.15 84.19 84.24 84.29 84.31 84.31 84.09 83.83 83.69 83.60 83.54 83.45 83.40 83.34 83.27
86.83 86.77 86.68 86.53 86.38 86.24 86.12 85.90 85.82 85.75 85.67 85.54 85.45 85.41 85.34 85.31 85.19 85.04 84.89 84.72 84.58 84.56 84.56 84.53 84.50 84.49 84.50 84.49 84.54 84.43 84.27 84.12 84.09 84.01 83.98 84.04 84.19 84.30 84.35 84.36 84.35 84.32 84.34 83.97 83.85 83.75 83.68 83.58 83.51 83.43 83.35 83.37
87.01 86.90 86.82 86.71 86.55 86.41 86.26 86.19 85.94 85.85 85.74 85.64 85.58 85.48 85.39 85.38 85.31 85.23 85.02 84.83 84.67 84.67 84.69 84.68 84.67 84.61 84.57 84.59 84.57 84.63 84.52 84.40 84.20 84.18 84.08 84.12 84.35 84.43 84.46 84.42 84.39 84.43 84.25 83.98 83.91 83.79 83.74 83.65 83.58 83.56 83.46 83.41
87.25 87.08 86.94 86.83 86.70 86.58 86.43 86.26 86.19 85.96 85.81 85.75 85.68 85.60 85.48 85.42 85.38 85.35 85.25 85.03 84.83 84.79 84.77 84.80 84.76 84.75 84.68 84.65 84.63 84.63 84.38 84.74 84.45 84.29 84.19 84.24 84.43 84.52 84.49 84.45 84.42 84.53 84.18 84.03 83.96 83.90 83.80 83.73 83.71 83.62 83.57 83.48
87.42 87.27 87.09 86.94 86.83 86.70 86.57 86.43 86.26 86.19 86.01 85.86 85.80 85.67 85.58 85.53 85.42 85.43 85.38 85.29 85.11 84.94 84.92 84.92 84.89 84.84 84.77 84.72 84.68 84.67 84.67 84.00 84.81 84.62 84.44 84.46 84.56 84.57 84.55 84.46 84.51 84.53 84.15 84.10 84.03 83.97 83.94 83.89 83.80 83.75 83.66 83.57
87.58 87.49 87.31 87.10 86.96 86.82 86.68 86.54 86.43 86.29 86.19 86.07 85.85 85.78 85.71 85.63 85.53 85.48 85.43 85.39 85.35 85.21 85.10 85.09 85.08 85.02 84.92 84.87 84.79 84.71 84.65 84.66 84.58 84.87 84.79 84.71 84.67 84.61 84.58 84.54 84.68 84.43 84.23 84.19 84.15 84.09 84.06 83.97 83.90 83.82 83.79 83.68
87.71 87.63 87.49 87.32 87.10 86.90 86.76 86.65 86.55 86.45 86.30 86.17 86.08 85.87 85.79 85.71 85.62 85.58 85.53 85.44 85.43 85.40 85.35 85.24 85.21 85.21 85.15 85.08 84.99 84.86 84.75 84.66 84.63 84.65 84.93 84.98 84.88 84.74 84.58 84.60 84.76 84.43 84.36 84.33 84.26 84.19 84.14 84.07 84.02 83.96 83.90 83.80
87.89 87.78 87.64 87.47 87.26 87.07 86.89 86.78 86.69 86.57 86.43 86.32 86.16 86.12 85.93 85.78 85.73 85.69 85.60 85.52 85.50 85.49 85.47 85.43 85.33 85.30 85.27 85.27 85.19 85.04 84.95 84.80 84.73 84.69 84.71 84.85 85.07 84.93 84.81 84.85 84.76 84.57 84.49 84.42 84.35 84.27 84.23 84.21 84.15 84.10 83.97 83.89
88.03 87.90 87.79 87.59 87.38 87.22 87.07 86.92 86.79 86.67 86.54 86.46 86.34 86.19 86.14 85.99 85.79 85.74 85.67 85.64 85.60 85.57 85.54 85.54 85.49 85.40 85.37 85.35 85.31 85.18 85.05 84.97 84.90 84.79 84.75 84.77 84.22 85.22 85.10 85.00 84.79 84.63 84.51 84.44 84.41 84.37 84.34 84.33 84.28 84.18 84.11 83.99
88.12 88.01 87.87 87.73 87.52 87.39 87.22 87.06 86.88 86.75 86.64 86.57 86.44 86.35 86.19 86.11 86.00 85.82 85.79 85.72 85.69 85.62 85.56 85.54 85.53 85.53 85.43 85.37 85.34 85.28 85.18 85.11 85.07 84.98 84.93 84.99 85.08 84.94 85.15 85.07 84.89 84.75 84.68 84.55 84.50 84.49 84.46 84.41 84.39 84.23 84.22 84.04
88.13 88.07 87.96 87.82 87.67 87.48 87.32 87.16 87.04 86.93 86.76 86.65 86.51 86.43 86.31 86.18 86.09 86.02 85.88 85.80 85.71 85.64 85.58 85.51 85.46 85.50 85.49 85.43 85.38 85.28 85.28 85.23 85.19 85.18 85.11 85.18 85.03 85.15 85.28 85.13 85.00 84.80 84.72 84.70 84.63 84.56 84.54 84.51 84.50 84.36 84.22 84.07
88.15 88.04 87.96 87.89 87.78 87.62 87.40 87.21 87.11 87.02 86.87 86.69 86.56 86.46 86.38 86.28 86.18 86.05 86.03 85.83 85.74 85.66 85.59 85.53 85.47 85.43 85.44 85.45 85.45 85.41 85.38 85.35 85.31 85.32 85.31 85.13 85.18 85.19 85.48 85.25 85.13 85.18 84.93 84.71 84.69 84.66 84.58 84.52 84.48 84.34 84.24 84.11
88.22 88.03 87.90 87.87 87.80 87.71 87.53 87.32 87.15 87.08 87.00 86.84 86.66 86.54 86.42 86.35 86.25 86.13 86.01 85.96 85.77 85.63 85.57 85.53 85.45 85.42 85.41 85.42 85.53 85.47 85.46 85.43 85.40 85.42 85.35 85.26 85.20 85.31 85.57 85.35 85.18 85.21 85.18 85.16 84.91 84.78 84.61 84.49 84.44 84.36 84.29 84.24
88.29 88.11 87.95 87.86 87.79 87.74 87.62 87.46 87.25 87.14 87.02 86.91 86.73 86.56 86.45 86.33 86.25 86.14 86.05 85.89 85.81 85.69 85.54 85.50 85.45 85.41 85.42 85.41 85.41 85.43 85.45 85.54 85.07 85.50 85.40 85.32 85.30 85.36 85.71 85.44 85.25 85.25 85.12 85.11 85.09 85.02 84.92 84.60 84.56 84.46 84.40 84.39
88.34 88.19 88.03 87.91 87.81 87.70 87.62 87.49 87.31 87.17 87.03 86.90 86.79 86.65 86.47 86.35 86.21 86.11 85.98 85.89 85.76 85.68 85.59 85.50 85.44 85.47 85.46 85.47 85.50 85.54 85.55 85.55 85.60 85.66 85.46 85.39 85.35 85.38 85.71 85.49 85.34 85.34 85.28 85.18 85.07 85.00 84.93 85.01 84.65 84.54 84.51 84.48
88.38 88.24 88.09 87.94 87.77 87.64 87.54 87.46 87.36 87.22 87.06 86.85 86.72 86.61 86.49 86.33 86.17 86.04 85.95 85.87 85.76 85.69 85.58 85.58 85.51 85.51 85.56 85.58 85.68 85.13 85.58 85.63 85.61 85.69 85.43 85.43 85.41 85.20 85.69 85.56 85.42 85.43 85.35 85.28 85.18 85.02 84.96 84.96 85.01 84.68 84.60 84.53
88.47 88.27 88.07 87.93 87.77 87.62 87.48 87.39 87.29 87.21 87.05 86.86 86.65 86.50 86.40 86.32 86.20 86.04 85.91 85.81 85.73 85.67 85.61 85.59 85.56 85.55 85.70 85.65 85.68 85.63 85.71 85.73 85.76 85.66 85.46 85.51 85.49 85.63 85.78 85.57 85.49 85.50 85.44 85.38 85.29 85.17 85.07 85.05 85.05 84.99 84.70 84.47
88.47 88.30 88.09 87.91 87.75 87.60 87.46 87.31 87.22 87.12 87.03 86.85 86.64 86.44 86.27 86.20 86.16 86.07 85.92 85.81 85.74 85.68 85.65 85.65 85.74 85.72 85.37 85.72 85.75 85.73 85.81 85.82 85.75 85.74 85.53 85.58 85.62 86.03 85.82 85.60 85.60 85.59 85.51 85.46 85.41 85.30 85.20 85.15 85.14 85.06 84.59 84.66
88.58 88.27 88.06 87.86 87.72 87.57 87.43 87.28 87.13 86.99 86.84 86.76 86.59 86.40 86.28 86.12 86.10 86.09 85.99 85.88 85.77 85.72 85.76 85.74 85.79 85.78 85.78 85.83 85.86 85.88 85.87 85.85 85.80 85.78 85.65 85.70 85.76 86.19 85.85 85.67 85.69 85.64 85.61 85.55 85.47 85.42 85.38 85.31 85.17 85.15 85.13 84.70
88.51 88.31 88.12 87.85 87.66 87.50 87.38 87.21 87.04 86.88 86.76 86.61 86.54 86.43 86.31 86.18 86.10 86.06 86.01 85.88 85.90 85.83 85.72 85.53 85.91 85.92 85.90 85.90 85.96 85.92 85.94 85.90 85.89 85.87 85.79 85.84 85.90 86.28 85.90 85.72 85.74 85.72 85.69 85.62 85.56 85.56 85.54 85.45 85.31 85.21 85.19 85.17
88.52 88.24 88.14 87.94 87.63 87.46 87.27 87.10 86.96 86.82 86.66 86.54 86.45 86.39 86.27 86.21 86.13 86.08 86.15 86.06 85.98 85.66 86.07 86.04 86.07 86.04 86.04 86.02 86.02 86.04 86.03 86.01 86.05 85.96 85.90 85.99 86.02 86.33 85.98 85.78 85.84 85.81 85.78 85.68 85.67 85.66 85.64 85.53 85.44 85.34 85.27 85.23
88.44 88.32 88.10 87.98 87.74 87.39 87.22 87.05 86.87 86.76 86.65 86.51 86.36 86.28 86.24 86.30 86.29 86.20 86.11 85.54 86.15 86.15 86.18 86.16 86.19 86.19 86.17 86.18 86.15 86.15 86.15 86.11 86.17 86.03 86.04 86.08 86.14 86.33 86.05 85.88 85.94 85.88 85.82 85.77 85.79 85.75 85.68 85.60 85.51 85.46 85.35 85.25
88.35 88.01 88.48 87.88 87.62 87.51 87.18 87.00 86.83 86.71 86.58 86.53 86.49 86.52 86.46 86.33 86.17 86.32 86.34 86.39 86.33 86.26 86.29 86.33 86.35 86.36 86.38 86.32 86.30 86.28 86.26 86.25 86.27 86.10 86.15 86.20 86.24 86.34 86.11 86.02 86.02 85.96 85.90 85.89 85.85 85.82 85.74 85.66 85.62 85.54 85.42 85.32
87.99 87.79 87.74 87.66 87.50 87.44 87.47 87.19 86.87 86.76 86.71 86.68 86.58 86.46 85.88 86.46 86.57 86.57 86.53 86.54 86.51 86.44 86.44 86.47 86.53 86.56 86.55 86.54 86.46 86.44 86.40 86.34 86.33 86.22 86.29 86.30 86.36 86.39 86.20 86.15 86.12 86.06 86.02 85.98 85.92 85.87 85.82 85.78 85.68 85.60 85.49 85.40
87.86 87.67 87.55 87.65 87.28 87.18 87.50 87.34 87.11 86.93 86.72 86.56 86.78 86.89 86.93 86.75 86.71 86.68 86.68 86.76 86.71 86.67 86.65 86.68 86.72 86.73 86.78 86.73 86.67 86.59 86.54 86.50 86.47 86.32 86.39 86.45 86.25 86.46 86.31 86.21 86.20 86.15 86.14 86.06 86.00 85.94 85.91 85.81 85.73 85.67 85.60 85.52
87.78 87.64 87.42 87.31 87.22 87.08 87.07 87.23 87.27 87.08 87.03 86.98 86.93 86.93 87.00 86.98 86.85 86.91 86.86 86.93 86.95 86.91 86.89 86.87 86.90 86.92 86.95 86.93 86.88 86.79 86.70 86.72 86.69 86.46 86.58 86.73 86.82 86.60 86.40 86.30 86.31 86.27 86.19 86.11 86.06 86.02 85.96 85.85 85.79 85.73 85.71 85.62
86.90 87.42 87.34 87.21 87.10 86.93 86.90 87.10 87.23 87.23 87.15 87.14 87.13 87.12 87.12 87.15 86.99 87.10 87.06 87.14 87.18 87.15 87.08 87.07 87.05 87.10 87.11 87.08 87.07 86.97 86.90 86.86 86.78 86.45 86.63 86.51 86.81 86.75 86.46 86.43 86.41 86.36 86.27 86.18 86.15 86.08 85.99 85.90 85.87 85.83 85.79 85.70
87.22 87.27 87.23 87.07 86.65 87.35 87.32 87.30 87.28 87.32 87.34 87.36 87.38 87.38 87.37 87.38 87.33 87.31 87.35 87.33 87.35 87.35 87.31 87.29 87.30 87.32 87.27 87.22 87.18 87.16 87.05 86.86 86.90 86.92 86.85 86.85 86.94 86.82 86.56 86.57 86.54 86.45 86.37 86.28 86.23 86.14 86.04 85.99 85.96 85.90 85.87 85.78
