ncols 52
nrows 52
xllcorner 438784
yllcorner 5714432
cellsize 10
NODATA_value -9999
99.09 99.27 98.92 98.94 98.40 98.32 98.10 98.01 97.81 97.71 98.04 96.30 96.73 96.79 97.30 97.02 97.65 98.71 98.86 98.90 98.28 96.29 97.44 97.26 96.61 96.19 96.66 96.71 96.43 96.21 95.97 96.14 96.17 96.44 96.55 96.05 96.09 96.11 96.34 96.33 96.47 96.27 96.01 95.87 98.15 98.80 96.83 97.05 97.14 96.45 95.80 95.78
99.01 98.83 98.60 98.85 98.45 98.53 98.07 97.88 97.91 97.79 97.71 97.25 97.62 96.81 96.15 95.99 96.57 97.90 99.03 97.72 97.08 96.23 96.47 96.68 96.38 96.69 96.82 96.67 96.72 96.15 96.28 95.97 96.14 96.59 96.63 96.62 96.40 96.29 96.28 96.29 96.31 96.65 96.27 96.12 96.51 96.68 100.07 96.95 97.07 97.29 96.97 95.89
99.26 98.93 98.58 98.68 99.01 98.27 98.07 98.23 98.15 97.79 97.64 97.62 97.47 97.19 97.14 97.43 96.88 97.71 97.83 97.22 96.40 97.01 96.41 96.10 96.19 96.78 97.00 96.89 96.54 96.27 96.48 96.34 96.30 96.17 96.68 96.74 96.81 96.65 96.43 96.66 96.81 95.79 96.54 96.37 96.49 96.53 96.47 99.33 97.83 96.86 97.33 97.27
99.12 99.05 98.79 98.90 98.79 98.14 98.22 98.20 98.12 98.04 98.15 97.64 97.57 97.71 97.49 97.54 97.67 97.74 97.62 96.25 96.92 97.39 97.10 96.91 96.79 96.69 96.78 96.74 96.39 96.57 96.57 96.65 96.43 96.51 96.25 96.53 96.79 96.89 96.69 97.06 97.19 96.62 96.68 96.53 96.54 96.52 96.32 96.15 98.05 99.05 97.01 97.44
99.14 98.78 98.67 98.56 98.30 98.39 98.51 98.33 98.41 98.35 98.46 97.91 97.74 97.52 97.51 97.51 97.67 97.60 97.58 97.57 97.57 97.79 97.26 97.03 96.84 97.08 97.20 96.64 96.46 96.67 96.64 96.58 96.66 97.75 96.96 96.52 96.41 96.71 96.92 97.06 96.94 97.28 96.77 96.62 96.56 96.55 96.51 96.40 96.60 97.36 99.96 97.24
98.88 98.80 98.83 98.52 98.43 98.65 98.70 98.46 98.25 98.18 98.24 98.01 97.90 97.71 97.68 97.39 97.46 97.56 97.51 97.39 97.45 97.62 97.20 97.08 96.90 96.79 96.73 96.56 96.73 96.80 97.04 96.67 96.57 96.71 96.83 96.50 96.48 96.60 96.64 96.71 96.89 97.26 97.32 97.00 96.64 96.60 96.74 96.64 96.65 96.67 97.26 100.31
98.96 98.78 98.82 98.43 98.43 98.77 98.57 98.61 98.12 98.22 98.18 97.92 97.82 97.63 97.65 97.49 97.43 97.23 97.32 97.39 97.35 97.20 97.06 97.04 97.22 97.31 97.22 96.64 96.86 96.84 96.80 96.88 96.74 96.94 96.80 96.56 96.62 96.76 96.69 96.75 97.15 97.29 97.14 96.88 96.60 96.68 96.57 96.83 96.74 96.68 96.80 97.12
99.34 99.04 98.58 98.67 98.83 99.08 98.63 98.49 98.32 98.15 97.93 97.86 97.83 97.65 97.57 97.44 97.52 97.38 97.22 97.05 97.16 97.12 97.56 97.00 96.96 96.99 96.72 96.87 96.86 96.90 96.91 97.15 97.15 96.91 96.71 96.70 96.87 97.16 96.91 96.99 97.12 97.18 96.78 96.96 97.07 96.18 96.82 96.96 97.01 96.82 96.67 96.93
99.22 98.82 98.72 98.76 98.70 98.81 98.67 98.32 98.21 98.25 98.20 97.95 97.78 97.82 97.62 97.65 97.10 97.56 97.86 97.17 97.02 96.89 97.08 97.00 96.99 96.95 96.85 96.95 97.04 96.93 97.01 97.01 97.33 97.28 96.76 96.83 96.74 96.88 97.07 97.22 97.18 96.96 96.98 97.12 97.15 97.12 97.02 96.99 96.97 97.04 96.99 96.90
99.21 98.77 98.77 99.11 99.15 98.63 98.59 98.39 98.32 98.35 98.49 98.10 97.93 97.85 97.90 97.87 97.42 98.21 97.36 97.11 97.12 97.15 97.09 96.94 97.10 96.94 97.07 96.98 96.88 97.15 97.01 97.10 97.35 96.92 97.32 97.39 96.99 96.83 96.83 97.14 97.20 96.90 97.14 97.11 97.08 97.08 96.83 97.21 97.07 97.10 97.11 97.04
98.98 98.93 98.78 98.70 98.76 98.60 98.44 98.38 98.50 98.38 98.36 97.99 98.04 97.94 97.85 97.89 97.59 97.49 97.22 97.23 97.16 97.31 97.37 97.25 97.07 97.03 97.27 97.28 97.72 97.23 97.38 96.62 97.33 97.18 97.86 97.43 97.29 97.00 96.94 97.15 97.02 97.33 97.36 97.24 97.22 97.00 96.99 97.18 97.40 97.39 97.32 97.29
99.07 98.93 98.87 98.82 98.85 98.82 98.49 98.58 98.65 98.57 98.42 97.84 97.86 97.81 97.80 97.76 97.50 97.57 97.31 97.27 97.31 97.46 98.17 97.39 97.18 97.27 97.30 97.44 97.32 97.29 97.49 97.67 97.15 97.45 97.24 97.26 97.23 97.42 97.21 97.07 97.33 97.32 97.32 97.39 97.17 97.07 97.27 97.20 97.41 97.57 97.37 97.51
99.13 99.12 99.30 99.03 98.92 98.69 99.49 98.65 98.76 98.70 98.54 98.22 97.94 97.76 97.68 97.59 97.65 97.46 97.42 97.32 97.40 97.49 98.02 97.81 97.27 97.51 97.43 97.42 97.51 97.67 97.60 97.46 97.38 97.29 97.35 97.14 97.11 97.59 97.78 97.32 97.18 97.21 97.45 97.51 97.28 97.30 97.34 97.45 97.76 97.61 97.67 97.48
99.24 99.23 99.32 99.08 98.95 98.95 99.20 98.88 98.92 98.88 98.68 98.90 98.53 98.02 97.80 97.63 97.57 97.55 97.49 97.41 97.46 97.44 97.77 97.38 97.50 97.69 97.56 97.54 97.64 96.85 97.85 97.36 97.74 97.70 97.32 97.18 97.40 98.43 98.34 97.84 97.49 97.32 97.33 97.59 97.75 97.76 97.81 97.75 97.75 97.79 97.77 97.63
99.35 99.36 99.56 99.17 99.10 98.96 98.94 98.89 98.76 98.72 98.75 98.62 98.58 98.39 98.28 98.35 98.11 97.72 97.60 97.54 97.53 97.72 97.63 97.50 97.67 97.66 97.57 97.68 97.85 97.76 97.49 97.66 97.78 97.38 97.50 97.75 97.76 97.57 97.84 98.28 97.81 97.64 97.46 97.46 98.08 98.10 98.21 97.86 97.75 97.73 97.86 97.86
99.32 99.18 99.12 99.01 98.93 99.01 98.93 98.90 98.68 98.65 98.66 98.55 98.56 98.25 98.44 98.52 98.63 98.26 98.16 98.07 97.94 97.87 97.61 97.78 97.71 97.78 98.01 97.70 98.24 97.86 97.55 98.05 97.88 97.73 97.58 97.93 98.42 98.14 97.91 97.93 97.67 97.99 97.77 97.57 97.60 98.17 98.23 98.06 97.93 97.76 97.76 97.92
99.38 99.32 99.44 98.82 99.19 99.32 99.01 98.95 98.74 99.00 99.09 98.86 98.58 98.38 98.34 98.37 98.42 98.27 98.25 98.15 97.95 97.84 97.80 97.99 97.76 97.86 97.77 98.00 98.04 97.75 97.97 98.16 98.02 97.74 97.76 98.37 98.52 98.17 98.35 97.90 97.88 97.98 97.93 97.88 97.71 97.72 98.01 98.12 98.02 97.95 97.92 97.92
99.25 99.18 99.47 99.27 99.48 99.73 99.12 98.86 99.08 99.12 99.04 98.65 98.69 98.56 98.43 98.29 98.22 98.22 98.34 98.25 98.04 97.85 97.84 98.05 98.39 98.03 98.04 98.13 98.27 97.83 97.64 98.13 98.22 98.08 98.22 98.25 98.06 98.05 98.14 97.85 97.82 97.81 97.95 97.93 97.99 97.83 97.86 98.17 98.16 98.10 98.10 98.12
99.12 98.99 99.45 99.47 99.28 99.05 98.99 98.92 99.06 99.22 98.99 98.71 98.75 99.07 98.72 98.54 98.25 98.15 98.12 98.38 98.40 98.06 97.86 98.15 98.21 98.07 98.22 98.74 98.03 98.28 98.62 98.50 98.11 98.40 98.26 98.27 97.98 97.92 97.79 98.00 98.07 97.96 97.91 97.96 98.01 97.87 98.14 98.04 98.27 98.28 98.29 98.61
98.99 99.01 98.96 99.11 99.08 98.97 98.93 99.08 99.29 99.10 98.88 98.70 98.55 98.67 98.65 98.59 98.35 98.38 98.32 98.10 98.06 98.20 98.40 98.10 98.38 98.41 98.29 98.38 98.08 98.66 98.64 98.72 98.54 98.33 98.73 98.28 98.11 98.38 98.01 98.44 98.61 98.10 98.00 97.98 98.10 98.17 98.41 98.32 98.14 98.40 98.44 98.40
99.12 99.07 99.13 99.15 99.13 98.92 98.96 99.22 99.50 99.09 99.01 98.79 98.63 98.67 98.64 98.69 98.41 98.75 98.49 98.05 98.32 98.19 98.15 98.23 98.40 98.34 98.49 98.38 98.38 98.68 98.72 98.65 98.38 98.36 98.39 98.78 98.93 98.94 98.16 98.62 98.11 98.27 98.24 98.34 98.06 98.34 98.43 98.50 98.37 98.25 98.49 98.51
99.18 99.38 99.17 99.37 99.13 98.91 98.99 99.15 99.15 99.05 98.84 98.79 98.63 98.51 98.62 98.53 98.59 98.49 98.66 98.01 98.41 98.55 98.59 98.35 98.26 98.33 98.48 98.35 98.71 98.70 98.70 98.57 98.61 98.62 98.61 98.69 98.78 98.75 98.26 98.35 98.46 98.49 98.48 98.14 98.81 98.86 98.63 98.53 98.56 98.53 98.38 98.71
98.96 98.98 99.24 99.70 99.26 98.85 99.22 99.24 99.06 99.13 98.90 98.83 98.61 98.62 98.58 98.55 98.51 98.49 98.67 98.67 98.69 98.61 98.55 98.69 98.40 98.50 98.35 98.45 98.68 98.85 98.79 98.67 98.79 98.74 98.93 98.97 98.79 98.29 98.24 98.39 99.23 98.41 98.38 98.34 98.53 98.54 98.82 98.67 98.57 98.90 98.85 98.45
99.17 99.21 98.94 98.89 98.88 98.88 99.19 99.40 99.12 99.14 99.01 98.93 98.65 98.72 98.74 98.86 98.57 98.69 98.68 98.65 98.68 98.76 98.59 98.64 98.73 98.78 98.50 98.48 98.44 98.55 98.68 98.86 98.93 98.75 99.64 99.12 98.73 98.32 98.53 98.62 99.40 98.87 98.44 98.65 98.82 98.74 98.60 98.62 98.71 98.90 98.94 98.90
99.27 99.11 99.29 99.15 99.06 98.88 98.86 99.32 99.22 99.93 99.38 99.10 99.04 98.86 98.79 98.74 98.69 98.78 98.74 98.77 98.71 98.75 98.80 98.74 98.90 98.97 98.61 98.87 98.80 98.71 98.56 98.65 98.83 99.06 99.08 99.37 98.40 98.54 98.55 98.98 99.38 98.84 98.60 98.84 98.94 98.75 98.71 98.68 98.75 98.90 99.20 99.12
99.54 99.48 99.40 99.33 99.17 99.14 99.02 98.88 98.93 99.10 99.16 99.08 99.12 99.17 99.10 98.97 98.91 98.88 98.97 98.86 98.87 98.94 98.83 99.54 99.36 98.86 98.77 98.88 98.98 98.94 98.86 98.85 98.82 98.79 98.93 99.10 99.06 99.17 99.09 98.90 98.94 98.77 98.84 98.80 98.88 98.82 98.88 98.89 98.85 98.93 99.11 99.29
99.55 99.57 99.55 99.48 99.32 99.26 99.21 99.13 99.11 98.89 99.04 99.12 99.19 99.26 99.34 99.37 99.35 99.24 99.25 99.18 99.12 99.03 99.12 98.99 99.08 98.81 98.90 98.89 98.97 98.99 98.88 98.96 99.17 99.18 98.92 98.91 99.00 99.02 99.16 99.01 99.08 99.03 99.16 99.03 98.96 98.94 99.06 99.00 98.99 99.00 99.14 99.77
99.67 99.67 99.58 99.60 99.50 99.35 99.23 99.22 99.16 99.15 99.10 99.54 99.04 99.08 99.25 99.29 99.33 99.44 99.34 99.43 99.26 99.68 99.25 99.16 99.29 98.99 99.09 99.13 99.07 99.13 99.17 98.93 99.17 99.31 99.14 99.10 99.08 99.02 99.07 99.10 99.10 99.37 99.35 99.19 99.12 99.16 99.21 99.06 99.32 99.15 99.38 99.36
100.22 99.79 99.57 99.60 99.61 99.50 99.33 99.31 99.27 99.21 99.15 99.35 99.31 99.25 99.18 99.12 99.19 99.31 99.28 99.39 99.41 99.44 99.44 99.35 99.32 99.08 99.29 99.38 99.26 99.32 98.91 98.88 99.06 99.13 99.55 99.11 99.01 99.35 99.47 99.18 99.25 99.50 99.62 99.50 99.67 99.43 99.31 99.32 99.40 99.49 99.49 99.46
99.78 99.93 99.68 99.64 99.58 99.51 99.40 99.40 99.36 99.32 99.20 99.44 99.32 99.36 99.40 99.54 99.55 99.31 99.24 99.25 99.41 99.40 99.54 99.50 99.28 99.35 99.54 99.50 99.43 99.07 99.16 99.23 99.02 99.12 99.06 99.18 99.25 99.20 99.44 99.46 99.54 99.45 99.42 99.58 99.76 99.68 99.65 99.68 99.68 99.60 99.58 99.49
99.87 99.96 99.94 99.63 99.60 99.57 99.49 99.47 99.43 99.35 99.40 99.63 99.52 99.49 100.44 99.57 99.56 99.60 99.58 99.52 99.46 99.28 99.33 99.46 99.36 99.49 99.46 99.57 99.69 100.24 99.35 99.51 99.44 99.35 99.21 99.08 99.21 99.39 99.58 99.55 99.67 99.69 99.88 99.72 99.65 99.78 99.85 99.96 99.96 99.93 99.91 99.81
99.96 100.03 100.04 100.07 100.14 99.74 99.69 99.62 99.53 99.44 99.57 99.57 99.64 99.73 99.77 99.60 99.72 99.87 99.89 100.28 99.59 99.68 99.77 99.62 99.47 99.41 99.49 99.68 99.97 100.09 100.07 99.74 99.54 99.51 99.56 99.28 99.21 99.37 99.48 99.70 99.80 99.87 100.04 100.07 99.92 99.94 99.79 99.92 100.13 99.92 100.01 99.95
100.07 100.12 100.03 100.09 100.07 100.08 99.94 99.78 99.68 99.53 99.63 99.69 99.74 99.69 99.67 99.60 99.80 99.68 99.69 99.65 99.57 99.84 99.84 99.49 99.63 99.62 99.50 99.49 99.82 99.76 100.04 99.75 99.70 99.79 99.68 99.73 99.71 99.47 99.57 99.77 99.88 99.90 100.06 100.10 100.11 100.22 100.26 100.07 99.89 99.99 100.22 100.26
100.22 100.78 100.06 100.07 100.06 99.96 100.00 100.16 99.85 99.86 99.71 99.63 99.73 99.71 99.75 99.78 99.82 99.71 99.68 99.68 99.58 100.73 99.76 99.57 99.59 99.57 99.63 99.64 99.59 99.58 99.79 99.84 99.92 99.88 99.80 99.90 99.74 100.00 99.79 99.74 99.82 99.94 99.98 100.20 100.13 100.30 100.46 100.20 100.30 100.27 100.13 100.18
100.29 99.96 99.33 100.12 100.14 100.04 100.07 99.96 99.87 99.69 99.76 99.76 99.79 99.91 100.07 100.07 99.83 99.79 99.64 99.85 99.72 99.74 99.76 99.69 99.78 99.72 99.71 99.60 99.90 100.03 99.73 99.75 99.76 99.90 99.90 100.07 100.43 100.23 99.85 99.78 99.80 100.01 100.00 100.04 100.11 100.20 100.46 100.19 100.30 100.55 100.31 100.54
100.26 100.25 100.07 99.93 99.93 99.98 99.90 99.86 99.77 99.82 99.80 99.78 99.77 99.87 100.10 99.99 99.97 100.14 99.75 99.85 100.01 99.97 99.79 99.93 99.92 99.82 99.83 99.83 100.17 100.01 99.79 99.84 99.79 99.78 99.85 100.10 100.41 100.22 100.29 100.09 100.03 100.10 99.97 100.04 100.12 100.18 100.17 100.40 100.46 100.48 100.58 100.68
100.32 100.13 100.35 100.29 99.91 99.82 99.79 99.91 100.07 99.88 99.77 99.83 99.79 99.90 99.88 100.11 100.14 99.85 99.91 99.93 100.05 99.89 99.81 99.94 100.27 99.90 99.85 99.88 100.37 100.04 100.62 99.93 99.86 99.83 99.99 99.92 100.03 100.24 100.38 100.37 100.29 100.17 100.21 100.18 100.09 100.11 100.32 100.43 100.68 100.44 100.68 100.69
99.96 100.32 100.43 100.40 100.24 100.12 100.13 99.83 99.85 99.69 99.66 99.69 99.71 99.75 99.76 99.87 99.97 100.12 100.02 100.03 100.22 100.11 99.86 99.94 100.47 99.94 99.78 99.85 100.28 99.97 99.77 99.91 99.86 100.06 100.09 100.14 100.18 100.28 100.19 100.33 100.49 100.40 100.26 100.38 100.33 100.50 100.56 100.55 100.58 100.60 100.83 100.70
100.39 100.60 100.48 100.38 100.14 100.44 100.26 100.06 100.11 100.13 100.00 100.16 100.26 100.28 100.21 99.94 100.18 100.08 99.94 99.94 100.11 100.03 100.12 100.40 100.12 100.01 99.92 99.99 100.01 100.64 100.66 99.86 99.91 100.01 100.10 100.85 100.28 100.29 100.35 100.40 100.30 100.39 100.48 100.50 100.57 100.59 100.75 100.83 100.62 100.60 100.65 100.47
100.36 100.37 100.45 100.30 100.02 100.64 100.10 100.07 100.71 100.42 100.23 100.48 100.32 100.77 100.29 100.19 100.37 100.27 100.28 100.53 100.24 100.05 100.18 100.27 100.19 100.18 100.13 100.22 100.37 100.67 100.56 100.69 100.55 100.11 100.19 100.29 100.10 100.10 100.32 100.37 100.48 100.60 100.46 100.58 100.68 100.69 100.83 100.89 100.79 100.62 100.62 100.54
100.45 100.47 100.42 100.28 100.05 100.17 100.12 100.15 100.78 100.25 100.18 100.18 100.20 100.36 100.45 100.42 100.32 100.41 100.49 100.50 100.39 100.14 100.29 100.80 100.30 100.29 100.30 100.31 100.96 100.76 100.67 100.62 100.54 100.60 100.39 100.64 100.15 100.21 100.31 100.38 100.43 100.46 100.61 100.61 100.60 100.72 100.85 100.79 100.65 100.74 100.49 100.63
100.37 100.43 100.27 99.98 99.96 100.14 100.15 100.15 100.30 100.29 100.25 100.22 100.35 100.37 100.46 100.36 100.46 100.45 100.61 100.61 100.36 100.34 100.41 100.46 100.55 100.59 100.36 100.35 100.93 101.06 100.83 100.44 100.40 100.43 100.41 100.21 100.27 100.28 100.46 100.51 100.51 100.54 100.71 100.84 100.86 100.89 100.90 100.97 100.78 100.71 100.72 100.82
100.26 100.23 100.96 100.02 99.95 100.04 100.15 100.10 100.25 100.24 100.31 100.38 100.31 100.27 100.29 100.33 100.51 100.54 100.90 100.63 100.32 100.47 100.81 100.50 100.52 100.41 100.53 100.43 100.75 100.83 100.85 100.49 100.47 100.56 100.57 100.40 100.45 100.56 100.63 100.74 100.74 100.82 100.92 100.93 100.91 101.09 100.96 101.13 100.90 101.07 100.87 100.94
99.89 100.04 100.27 100.59 100.25 100.05 100.11 100.11 100.10 100.26 100.29 100.35 100.31 100.34 100.36 100.40 100.58 100.70 100.61 100.55 100.37 100.45 100.43 100.61 100.63 100.66 101.23 100.63 100.61 100.62 100.61 100.54 100.68 100.76 100.63 100.84 100.71 100.68 100.71 100.78 100.83 100.96 101.03 101.15 101.06 101.16 101.21 101.18 100.96 101.00 101.03 100.26
99.93 99.96 100.35 100.50 100.10 100.09 100.04 100.22 100.32 100.24 100.54 100.32 100.22 100.28 100.40 100.53 100.62 100.82 100.78 100.69 100.54 100.60 101.21 100.72 100.80 100.75 100.82 100.68 100.63 100.69 100.76 100.74 100.72 100.86 100.79 100.85 100.82 100.85 100.93 100.96 101.07 101.13 101.21 101.17 101.29 101.10 101.32 101.15 100.86 100.97 101.15 101.28
99.88 99.85 99.93 99.97 100.03 100.14 100.13 100.18 100.35 100.15 100.24 100.29 100.39 100.36 100.54 100.53 100.73 100.70 100.71 100.68 100.62 100.92 101.01 100.74 100.68 100.85 100.76 100.67 100.58 100.71 100.79 100.83 100.92 100.93 100.91 101.01 101.04 101.01 101.06 101.20 101.22 101.36 101.33 101.28 101.33 101.26 101.33 101.08 100.99 100.99 101.18 101.32
99.81 99.76 99.80 99.81 99.80 99.87 99.90 99.96 100.01 100.05 100.09 100.12 100.18 100.25 100.31 100.35 100.45 100.53 100.64 100.60 100.76 100.79 100.76 100.75 100.86 100.87 100.84 100.83 100.76 100.81 100.90 100.80 100.84 100.89 100.86 100.83 100.92 100.94 101.01 101.11 101.15 101.25 101.31 101.38 101.46 101.30 101.35 101.34 100.99 101.16 101.22 101.00
99.81 99.91 99.92 100.08 100.04 99.98 100.30 100.22 100.24 100.26 100.30 100.35 100.41 100.44 100.44 100.47 100.53 100.55 100.54 100.60 100.49 100.56 100.70 101.01 100.99 101.03 100.75 100.69 100.69 100.71 100.76 100.81 100.87 100.96 101.09 101.18 101.19 101.23 101.24 101.37 101.40 101.46 101.40 101.45 101.47 101.40 101.49 101.53 101.48 101.38 101.49 101.59
99.82 99.85 99.94 100.06 100.05 100.11 100.39 100.39 100.34 100.23 100.24 100.30 100.36 100.35 100.67 100.69 100.68 100.63 100.65 100.79 100.52 100.72 100.77 100.60 100.70 100.82 101.04 101.15 101.04 101.23 101.05 101.22 101.26 101.23 101.08 101.21 101.21 101.13 101.27 101.27 101.35 101.44 101.46 101.45 101.32 101.42 101.52 101.61 101.57 101.50 101.59 101.65
99.84 99.85 99.89 100.07 99.96 99.95 100.37 100.34 100.30 100.38 100.36 100.38 100.38 100.37 100.71 100.69 100.70 100.67 100.64 100.59 100.58 100.67 100.72 100.92 100.87 100.77 100.77 100.90 101.21 101.26 101.22 101.22 101.15 101.14 101.01 101.06 101.19 101.28 101.23 101.43 101.31 101.44 101.43 101.53 101.33 101.46 101.48 101.66 102.15 101.60 101.70 101.80
100.43 100.40 99.76 100.24 100.07 100.16 100.32 100.21 100.30 100.33 100.24 100.38 100.65 100.58 100.67 100.66 100.64 100.66 100.68 100.94 100.67 100.64 100.54 100.76 100.93 100.96 100.88 100.99 100.87 100.98 101.10 101.10 101.07 101.08 101.04 101.14 101.30 101.43 101.28 101.27 101.34 101.43 101.49 101.56 101.42 101.58 101.60 101.71 101.81 101.70 101.69 101.61
100.77 100.44 100.34 100.33 100.44 100.57 100.33 100.26 100.29 100.27 100.30 100.44 100.75 100.74 100.68 100.78 101.21 100.58 100.64 100.93 100.75 100.73 100.45 100.41 100.81 101.05 100.96 100.94 101.03 101.18 100.97 100.93 101.15 101.06 101.08 101.22 101.41 101.46 101.43 101.47 101.53 101.47 101.51 101.52 101.57 101.58 101.60 101.63 101.65 101.68 101.69 101.72
