ncols 52
nrows 52
xllcorner 438784
yllcorner 5713920
cellsize 10
NODATA_value -9999
100.83 100.88 100.53 100.34 100.41 101.07 101.03 100.73 100.51 100.38 100.36 100.41 100.76 100.75 100.70 100.78 101.67 100.63 100.65 100.93 100.72 100.69 100.54 100.33 100.72 101.01 100.98 100.94 100.99 101.09 101.08 100.98 101.01 101.12 101.20 101.21 101.34 101.33 101.29 101.33 101.33 101.40 101.43 101.51 101.58 101.60 101.62 101.63 101.66 101.68 101.71 101.71
104.96 103.97 103.10 102.48 102.93 103.61 103.80 103.30 103.23 103.47 103.77 103.20 102.91 102.60 102.04 101.61 101.43 101.35 101.78 100.97 100.75 100.65 100.44 100.34 100.16 100.01 100.79 100.75 100.93 101.25 101.39 101.25 101.34 101.30 101.35 101.32 101.40 101.47 101.47 101.42 101.37 101.32 101.37 101.43 101.38 101.56 101.74 102.07 102.17 102.17 102.11 102.25
110.03 109.42 108.68 108.08 107.69 107.14 106.53 105.74 105.46 105.99 106.54 107.19 107.92 108.26 107.88 107.19 106.62 106.10 105.51 104.81 103.57 100.93 100.50 100.35 100.18 100.01 101.49 102.59 103.00 103.39 103.80 104.14 103.38 103.08 103.19 103.50 103.69 103.97 104.43 104.78 104.99 105.30 105.42 105.39 105.10 105.04 104.81 104.77 104.32 104.00 103.51 103.14
112.53 112.54 112.54 112.46 112.15 111.63 111.17 110.73 110.34 110.27 110.34 110.36 110.04 109.68 109.42 109.21 108.59 108.13 107.75 107.29 106.15 105.10 104.54 104.07 103.70 103.98 104.23 104.46 104.42 104.08 103.61 103.23 102.86 102.39 101.79 102.16 102.02 101.46 100.94 100.51 100.36 100.15 100.11 100.05 100.05 100.06 100.11 100.12 100.09 100.12 100.10 100.13
112.00 110.66 109.12 108.66 108.20 107.89 107.22 106.71 106.53 106.14 105.86 105.20 104.77 104.30 103.93 103.48 102.65 102.27 102.00 101.71 101.00 101.23 101.57 101.43 101.12 100.69 100.20 100.00 99.94 100.09 100.07 100.04 99.96 100.06 100.19 100.05 100.03 99.96 99.70 99.90 99.96 100.09 100.10 100.05 100.05 100.07 100.07 100.08 100.13 100.16 100.18 100.11
107.51 106.37 105.64 105.51 104.85 104.18 103.51 102.83 102.15 101.87 101.24 100.48 100.06 99.88 99.99 100.07 99.93 99.92 100.07 99.64 100.17 100.18 99.76 100.01 100.00 100.03 99.77 100.15 100.07 100.04 100.05 99.94 99.97 99.73 100.01 100.04 99.97 99.95 99.93 100.00 100.19 100.11 100.12 100.07 100.13 100.09 100.24 100.21 100.25 100.16 100.21 100.15
103.93 102.86 101.78 101.06 100.26 99.84 99.85 100.00 99.53 100.03 100.14 99.93 100.02 99.99 99.94 99.98 99.93 99.67 99.89 99.85 100.11 100.37 99.86 99.96 99.96 100.02 100.08 100.05 100.02 99.88 99.92 99.91 100.01 100.26 100.10 100.12 100.17 100.53 100.04 100.08 100.10 100.03 100.04 100.16 100.12 100.22 100.11 100.09 100.14 100.18 100.15 100.24
100.02 100.33 100.05 100.04 100.07 100.05 99.83 99.98 99.98 99.99 99.98 100.01 100.04 99.96 100.04 99.93 99.95 99.95 100.11 100.08 100.16 100.52 99.66 100.25 100.15 100.20 99.77 100.05 100.09 99.86 100.10 100.15 100.18 100.20 100.22 99.96 100.04 100.06 100.18 100.17 100.14 100.05 100.07 100.10 100.20 100.27 100.04 99.84 99.91 99.76 100.19 100.27
100.03 99.62 99.99 100.08 100.06 100.04 100.01 99.99 100.03 100.02 100.11 100.09 100.13 99.99 99.99 100.07 100.08 100.08 100.08 100.11 100.08 100.54 99.42 100.18 99.96 99.77 99.99 100.23 99.97 100.23 100.00 100.04 100.11 99.90 99.97 100.04 100.01 100.22 100.08 100.01 100.07 100.09 100.00 100.09 100.06 100.18 100.06 99.92 99.87 100.32 99.96 100.69
100.06 100.04 100.01 99.98 99.21 100.06 100.08 100.09 100.10 100.04 99.98 100.03 99.82 99.76 99.35 100.12 99.83 100.11 100.17 99.93 100.00 100.86 99.17 101.04 100.07 100.06 100.07 100.08 100.09 100.08 99.99 99.95 100.10 100.02 99.99 100.17 99.88 100.11 100.03 100.06 100.27 100.40 99.85 99.57 100.04 100.19 100.34 100.46 100.65 100.40 101.52 101.36
99.99 100.01 99.86 99.82 99.81 99.63 100.01 100.05 100.19 100.15 99.82 99.32 99.80 99.84 99.86 99.28 99.97 100.04 100.02 100.14 99.32 101.11 98.93 101.15 100.18 100.06 100.13 101.21 101.38 101.47 101.44 100.12 100.27 100.96 101.29 101.19 101.21 101.29 101.29 100.95 101.40 101.72 101.64 101.63 101.71 100.65 101.58 101.62 101.44 101.49 101.38 101.34
100.23 100.06 100.20 99.91 100.21 100.08 100.10 100.19 100.05 99.90 99.93 100.00 99.94 99.69 100.03 100.16 100.33 100.90 100.41 101.02 101.12 101.25 98.76 101.20 101.31 101.37 101.49 101.58 101.53 101.58 101.49 101.03 101.13 101.35 101.28 101.29 101.35 101.43 101.38 101.32 101.03 100.54 100.23 99.70 99.53 99.59 99.44 99.35 99.28 99.39 99.55 99.59
99.80 99.83 99.72 99.69 99.62 99.68 99.75 99.96 100.07 100.25 100.25 100.21 100.20 100.30 100.31 100.18 100.05 99.91 100.35 100.38 100.18 99.70 98.84 99.87 99.75 99.54 99.29 99.19 99.18 99.22 99.25 99.21 99.30 99.45 99.50 99.57 99.58 99.57 99.59 99.58 99.56 99.57 99.62 99.65 99.60 99.63 99.59 99.55 99.57 99.56 99.53 99.57
99.64 99.78 99.82 99.79 99.74 99.69 99.63 99.67 99.84 99.81 99.79 99.93 99.85 99.81 99.78 99.68 99.71 99.65 99.75 99.78 99.78 99.88 99.79 99.54 99.54 99.58 99.73 99.59 99.32 99.25 99.18 99.22 99.25 99.29 99.56 99.60 99.57 99.60 99.53 99.52 99.57 99.57 99.60 99.57 99.60 99.59 99.58 99.65 99.71 99.65 99.44 99.26
99.21 99.15 99.18 99.20 99.25 99.22 99.42 99.57 99.62 99.63 99.62 99.57 99.57 99.60 99.57 99.60 99.59 99.60 99.63 99.62 99.85 99.65 99.65 99.54 99.51 99.54 99.46 99.50 99.49 99.52 99.48 99.52 99.57 99.54 99.65 99.67 99.66 99.61 99.24 99.24 99.25 99.26 99.29 99.39 99.32 99.26 99.29 99.34 99.30 99.23 99.27 99.28
99.61 99.44 99.56 99.49 99.53 99.26 99.34 99.31 99.47 99.66 99.84 99.91 99.82 99.79 99.82 99.77 99.90 99.76 99.78 99.68 99.72 99.64 99.60 99.54 99.57 99.59 99.61 99.64 99.76 99.82 99.71 99.76 99.82 99.80 99.77 99.60 99.30 99.29 99.42 99.56 99.54 99.43 99.34 99.40 99.41 99.40 99.56 99.50 99.39 99.23 99.21 99.24
99.58 99.58 99.57 99.59 99.61 99.30 99.32 99.27 99.25 99.09 99.21 99.44 99.69 99.83 99.95 99.97 100.00 99.85 99.77 99.69 99.70 99.79 99.76 99.78 99.81 99.89 99.79 99.81 99.90 99.32 99.35 99.36 99.52 99.37 99.36 99.37 99.32 99.35 99.51 99.58 99.62 99.59 99.56 99.57 99.65 99.65 99.63 99.60 99.56 99.56 99.44 99.51
100.68 99.50 99.19 99.22 99.57 99.94 99.65 99.55 99.45 99.35 99.29 99.12 99.15 99.19 99.18 99.25 99.93 99.90 99.40 99.41 99.78 99.21 99.32 99.40 99.53 99.56 99.52 99.55 99.56 99.58 99.62 100.65 100.39 99.61 99.46 99.56 99.54 99.60 99.60 99.58 99.57 99.53 99.56 99.57 99.58 99.57 99.50 99.53 99.57 99.49 99.45 99.51
99.79 99.75 99.94 100.66 100.80 100.66 99.70 99.75 99.73 99.71 99.65 99.69 99.66 99.63 99.62 99.68 99.71 99.64 99.58 99.57 99.57 99.57 99.55 99.55 99.54 99.54 99.57 99.60 99.59 99.61 99.64 99.65 99.63 99.61 99.56 99.51 99.50 99.46 99.42 99.44 99.49 99.57 99.51 99.82 99.43 99.40 99.36 99.40 99.47 99.45 99.54 99.47
99.90 99.88 99.97 100.10 99.88 99.75 99.70 99.71 99.71 99.69 99.72 99.73 99.69 99.71 99.70 99.66 99.62 99.58 99.56 99.52 99.58 99.53 99.51 99.54 99.58 99.49 99.30 99.43 99.44 99.55 99.47 99.47 99.37 99.59 99.44 99.46 99.44 99.44 99.76 99.43 99.46 99.47 99.40 99.40 99.31 99.40 99.62 99.75 99.52 99.37 99.33 99.49
99.25 99.34 99.35 99.40 99.52 99.65 99.60 99.59 99.50 99.60 99.57 99.61 99.79 99.56 99.66 99.52 99.50 99.55 99.55 99.59 99.61 99.55 99.64 99.57 99.58 99.61 99.51 99.34 99.59 99.57 99.39 99.38 99.50 99.44 99.39 99.38 99.37 99.40 99.41 99.44 99.47 99.48 99.48 99.47 99.47 99.48 99.55 99.59 99.68 99.65 99.74 99.62
99.52 99.54 99.57 99.61 99.52 99.46 99.47 99.36 99.27 99.21 99.39 99.38 99.42 99.42 99.41 99.43 99.42 99.42 99.42 99.42 99.39 99.49 99.43 99.51 99.43 99.48 99.42 99.44 99.43 99.43 99.46 99.47 99.48 99.46 99.47 99.51 99.51 99.47 99.53 99.61 99.61 99.65 99.68 99.63 99.60 99.71 99.67 99.49 99.39 99.59 99.50 100.29
99.07 99.13 99.24 99.32 99.19 99.17 99.05 99.16 99.49 99.58 99.56 99.48 99.54 99.59 99.64 99.54 99.56 99.50 99.51 99.51 99.55 99.54 99.54 99.50 99.51 99.54 99.54 99.60 99.60 99.67 99.67 99.65 99.60 99.60 99.65 99.71 99.63 99.63 101.06 99.53 99.46 99.46 99.74 99.91 100.45 100.77 101.05 101.42 102.58 102.80 102.86 103.10
99.31 99.71 99.08 99.29 99.29 99.30 99.76 99.50 99.57 99.44 99.46 99.49 99.41 99.38 99.35 99.31 99.27 99.21 99.29 99.15 99.35 99.29 99.22 99.33 99.24 99.26 99.48 99.56 99.76 102.49 102.57 102.59 102.71 101.83 101.71 102.38 103.29 103.36 103.55 103.57 103.76 103.93 103.99 103.86 103.82 103.77 103.27 103.36 103.68 103.65 103.47 103.60
99.75 98.92 99.04 99.22 99.11 99.20 99.18 100.22 99.25 99.30 99.30 99.26 99.25 99.21 99.29 99.30 99.28 99.29 99.36 99.34 99.25 99.34 99.38 101.47 101.79 101.96 102.14 102.18 102.18 102.28 102.40 102.55 103.11 103.07 103.15 103.29 103.35 103.43 103.61 103.74 103.86 104.01 103.98 103.93 103.94 103.93 103.74 103.95 103.76 103.91 103.99 103.83
98.23 99.04 99.45 98.97 99.01 99.03 99.03 99.07 99.12 99.30 99.29 99.24 99.30 99.15 99.19 99.23 99.26 99.29 99.43 99.37 99.42 99.64 99.65 101.56 101.87 102.15 102.19 102.24 102.21 102.30 102.51 102.76 103.62 103.15 103.18 103.33 103.42 103.53 103.72 103.81 103.90 104.09 104.05 103.99 103.93 103.82 104.23 104.08 103.96 103.92 103.86 103.82
98.31 98.35 98.46 99.43 98.90 98.88 99.10 99.09 99.13 99.29 99.32 99.21 99.19 99.11 99.13 99.17 99.24 99.32 99.39 99.43 99.48 99.52 99.65 102.17 101.92 102.16 102.29 102.09 102.15 102.39 102.65 102.96 103.24 103.21 103.36 103.64 103.70 103.83 103.90 103.86 103.96 104.02 104.04 104.34 104.25 104.15 104.13 104.02 104.01 104.13 104.00 104.06
98.40 98.42 98.35 98.37 98.77 98.96 99.15 99.09 99.10 99.26 99.32 99.26 99.21 99.18 99.23 99.28 99.31 99.38 99.47 99.56 99.65 99.81 100.01 101.50 101.94 102.10 102.16 102.15 102.25 102.73 102.75 103.12 103.18 103.68 103.63 103.86 104.00 103.80 103.98 104.03 103.96 104.15 104.41 104.22 104.19 104.24 104.23 104.18 104.07 104.01 104.08 104.12
98.33 98.32 98.12 98.37 98.57 98.65 98.99 99.19 99.37 99.45 99.50 99.53 99.49 99.44 99.42 99.56 99.65 99.60 99.64 99.75 99.90 100.02 101.79 101.77 101.99 102.24 102.23 102.07 102.42 102.71 102.80 102.85 103.61 103.79 104.00 104.43 104.31 104.08 104.06 104.14 104.29 104.21 104.12 104.36 104.35 104.32 104.22 104.13 104.10 104.10 104.08 104.07
98.34 98.32 98.25 98.41 98.42 98.51 98.76 98.91 99.33 99.65 99.70 99.74 99.72 99.88 99.68 99.69 99.77 99.71 99.74 99.90 99.94 100.08 100.51 101.99 102.35 102.24 102.04 102.46 102.62 103.51 102.96 103.69 103.93 104.37 104.23 104.26 104.56 104.21 104.15 104.15 104.10 104.19 104.31 104.32 104.62 104.33 104.34 104.24 104.21 104.22 104.15 104.16
98.20 98.35 98.32 98.25 98.23 98.80 99.81 100.01 98.89 99.76 99.85 100.00 99.83 99.99 100.07 99.72 99.72 99.84 100.07 100.39 100.59 100.19 102.00 101.99 102.10 101.95 102.23 102.59 102.94 103.34 103.53 103.80 103.96 104.14 104.10 104.01 103.86 104.04 104.10 104.65 104.68 104.55 104.44 104.51 104.43 104.49 104.43 104.39 104.22 104.37 104.32 104.28
98.25 98.32 98.32 98.20 99.30 99.64 99.96 100.12 100.20 99.04 99.99 100.10 99.87 100.01 99.98 99.80 100.31 100.58 100.94 101.13 101.55 101.59 102.04 102.08 101.88 102.18 102.68 102.36 103.63 103.67 103.66 103.59 103.79 103.66 103.69 103.83 104.01 104.48 104.45 104.56 104.65 104.83 104.56 104.61 104.53 104.56 104.44 104.45 104.35 104.31 104.38 104.35
98.43 98.31 98.16 98.10 100.32 100.14 100.01 100.17 100.27 100.31 100.22 100.08 100.19 99.93 99.99 100.43 101.11 101.26 101.43 101.57 101.53 101.75 101.98 102.01 101.93 102.54 103.48 102.75 102.97 103.65 103.34 103.28 103.50 103.60 104.12 104.14 104.20 104.50 104.63 104.63 105.18 104.75 104.71 104.63 104.61 104.63 104.60 104.63 104.41 104.44 104.42 104.29
98.31 98.15 98.04 100.36 100.37 99.95 100.04 100.14 100.82 100.48 100.40 99.76 100.33 100.27 100.48 98.23 99.60 101.26 101.54 101.64 101.87 101.90 101.93 101.85 102.05 102.60 102.72 102.90 102.90 102.97 103.14 103.23 104.03 103.94 104.12 104.11 104.24 104.51 104.63 104.66 104.85 104.78 104.90 104.88 104.74 104.63 104.62 104.61 104.45 104.36 104.41 104.42
98.46 98.22 98.35 100.25 100.37 100.29 100.07 100.21 100.63 100.57 100.50 99.73 100.38 100.53 101.30 98.63 99.71 101.39 102.02 101.85 101.92 101.88 101.72 102.15 102.48 102.49 102.39 102.65 102.80 103.69 103.76 103.83 103.79 104.11 104.17 104.24 104.36 104.63 104.56 104.74 104.87 104.83 105.09 105.00 105.01 104.59 104.71 104.63 104.43 104.38 104.32 104.47
98.53 98.43 99.97 100.06 100.45 100.58 100.11 100.30 100.71 100.65 100.67 100.39 99.81 100.59 100.78 99.42 100.70 100.71 101.68 102.01 101.81 101.69 101.88 101.89 102.05 102.23 102.56 103.54 103.64 103.83 103.94 104.00 103.94 104.29 104.50 104.48 104.65 104.69 104.72 104.75 104.95 104.96 104.96 104.96 104.84 104.66 104.94 104.71 104.49 104.42 104.41 104.38
98.79 98.94 100.01 100.26 100.38 100.46 100.14 100.36 100.51 100.82 100.80 100.56 100.28 100.68 100.82 101.01 100.83 100.72 101.68 101.79 101.60 101.56 101.75 101.98 103.19 103.17 103.24 103.65 103.78 103.93 103.94 104.26 104.22 104.31 104.68 104.62 104.65 104.86 104.83 105.01 104.99 105.06 105.00 104.93 104.81 104.71 104.68 104.67 104.60 104.56 104.50 104.57
98.92 100.91 101.15 100.93 100.43 100.39 100.31 100.54 100.58 100.76 100.82 100.69 100.56 100.21 100.99 101.35 101.44 101.31 101.23 101.40 101.45 102.38 103.04 103.07 103.22 103.34 103.43 103.61 103.81 103.97 104.09 104.20 104.31 104.40 104.63 104.65 104.78 104.90 104.96 105.00 105.22 105.07 105.04 104.98 104.80 104.66 104.75 104.73 104.64 104.62 104.74 104.75
99.08 100.45 101.57 101.50 100.97 100.69 100.43 100.72 100.69 100.74 100.73 100.76 100.62 100.72 100.97 100.91 101.13 101.19 101.50 101.90 102.07 102.84 103.15 103.19 103.23 103.51 103.54 103.74 104.02 104.11 104.23 104.31 104.40 104.51 104.56 104.70 104.88 105.03 105.12 105.17 105.08 105.07 105.11 104.99 104.91 104.88 104.83 104.78 104.78 104.64 104.77 104.89
100.19 101.07 101.21 101.26 100.99 101.35 100.49 100.82 100.76 100.82 100.90 100.79 100.81 100.96 101.02 101.21 101.76 102.19 102.21 102.64 102.47 102.93 103.10 103.28 103.31 103.49 103.77 104.01 104.05 104.24 104.37 104.40 104.49 104.73 104.80 105.02 105.11 105.01 105.16 105.13 105.13 105.12 105.11 105.06 104.99 104.85 104.88 104.92 104.93 104.90 104.91 105.03
100.68 100.72 101.02 100.99 101.10 101.06 100.57 100.62 100.61 100.74 100.74 100.92 100.99 101.48 101.22 102.02 101.92 102.06 102.58 102.68 102.61 103.27 103.30 103.41 103.50 103.70 103.85 104.01 104.15 104.27 104.57 104.39 104.51 104.79 104.76 105.03 105.06 105.12 105.10 105.22 105.20 105.24 105.20 105.16 105.19 105.03 104.90 105.01 104.99 105.07 105.01 105.18
100.82 100.86 100.95 100.82 100.59 100.54 100.58 100.67 100.81 101.03 101.19 101.29 101.31 101.40 101.47 102.24 102.21 102.24 102.52 102.52 102.55 102.62 103.26 103.45 103.63 103.75 103.89 103.95 104.22 104.44 104.52 104.56 104.70 104.76 104.84 104.86 105.02 104.97 105.02 105.12 105.34 105.36 105.13 105.22 105.39 105.15 105.04 105.30 104.94 104.97 105.03 105.23
100.51 100.62 100.66 100.60 100.68 100.75 100.80 100.80 101.22 101.43 101.71 101.69 102.05 101.61 101.73 102.04 102.30 102.29 102.66 102.60 102.69 102.61 103.49 103.65 103.75 103.88 103.92 104.06 104.16 104.53 104.63 104.78 104.84 104.97 105.05 105.35 105.31 105.12 105.14 105.21 105.65 105.29 105.21 105.31 105.42 105.24 105.16 105.24 105.10 105.25 105.27 105.31
100.44 100.79 101.05 100.93 100.96 101.00 101.02 100.94 101.32 101.57 101.71 101.90 101.93 101.89 101.95 102.10 102.51 102.74 102.87 103.12 103.27 103.47 103.66 103.87 103.95 104.11 104.12 104.24 104.18 104.63 104.69 104.81 104.83 105.30 105.15 105.52 105.43 105.36 105.45 105.31 105.35 105.44 105.29 105.33 105.47 105.46 105.12 105.26 105.36 105.43 105.49 105.55
100.67 100.98 101.07 101.04 101.19 101.19 100.72 101.01 101.18 101.49 101.91 102.22 102.26 102.24 102.44 102.07 102.85 103.07 103.15 103.38 103.50 103.47 103.68 103.85 103.90 104.10 104.31 104.36 104.48 104.67 104.77 104.92 104.87 104.95 105.18 105.54 105.54 105.42 105.29 105.35 105.41 105.50 105.40 105.40 105.66 105.40 105.35 105.31 105.46 105.72 105.84 105.65
100.79 100.99 101.01 101.18 101.53 101.45 101.26 101.26 101.17 101.70 102.19 102.38 102.40 102.50 102.53 102.10 103.07 103.10 103.19 103.45 103.60 103.60 103.79 103.86 103.98 104.21 104.25 104.40 104.61 104.64 104.79 104.83 104.89 104.97 105.20 105.45 105.52 105.42 105.38 105.45 105.43 105.41 105.37 105.40 105.47 105.43 105.42 105.46 105.61 105.67 105.70 105.72
101.10 101.55 101.57 101.42 101.53 101.51 101.72 101.52 101.38 101.85 102.07 102.19 102.58 102.65 102.72 102.28 103.17 103.18 103.30 103.45 103.56 103.67 103.77 104.13 104.34 104.31 104.33 104.49 104.66 104.76 104.88 104.89 104.84 104.94 105.06 105.52 105.44 105.46 105.36 105.37 105.40 105.38 105.37 105.37 105.57 105.55 105.56 105.75 105.74 105.74 105.86 105.85
101.61 101.72 101.64 101.77 101.64 101.48 101.87 101.62 101.58 101.83 102.59 102.43 102.68 102.71 103.10 102.53 103.28 103.25 103.39 103.54 103.57 103.65 103.74 104.01 104.17 104.23 104.29 104.54 104.74 104.72 104.96 104.86 105.07 105.07 105.11 105.21 105.36 105.35 105.36 105.32 105.37 105.50 105.52 105.57 105.79 105.81 105.80 105.82 105.89 105.86 105.95 105.93
101.65 101.68 101.53 101.62 101.68 101.47 101.60 101.54 101.83 101.93 102.35 102.39 102.90 102.88 103.01 102.97 103.43 103.46 103.50 103.59 103.70 103.75 103.85 103.93 104.20 104.40 104.43 104.64 104.58 104.72 104.80 104.93 105.01 105.03 105.11 105.17 105.32 105.43 105.42 105.42 105.50 105.56 105.76 105.76 105.86 105.85 105.84 105.94 105.93 105.99 105.97 105.97
100.97 101.65 101.58 101.57 101.72 101.59 101.79 101.98 102.13 101.90 102.38 102.65 102.93 103.27 103.35 103.46 103.29 103.68 103.61 103.68 103.79 103.84 103.95 103.92 104.14 104.42 104.41 104.52 104.57 104.69 104.77 104.97 105.03 105.07 105.20 105.22 105.35 105.43 105.61 105.65 105.68 105.68 105.75 105.91 105.82 105.89 105.98 106.03 106.04 106.15 106.05 106.01
100.90 101.20 101.18 101.50 101.68 101.68 102.45 102.49 102.46 102.08 102.68 102.96 103.08 103.28 103.44 103.77 102.97 103.72 103.65 103.65 103.84 103.85 104.02 104.07 104.35 104.44 104.48 104.61 104.64 104.77 104.86 104.95 105.04 105.16 105.27 105.45 105.29 105.46 105.54 105.62 105.63 105.59 105.74 105.90 105.87 106.20 106.02 106.13 106.18 106.15 106.23 106.27
100.87 100.71 101.22 101.60 101.74 101.79 101.96 102.25 102.14 102.30 102.55 102.80 103.07 103.30 103.73 103.85 103.03 103.96 103.96 103.86 103.88 103.95 104.07 104.24 104.29 104.45 104.65 104.64 104.63 104.76 104.83 104.95 105.02 105.14 105.23 105.34 105.30 105.47 105.56 105.69 105.64 105.44 105.70 105.89 105.99 106.18 106.21 106.23 106.45 106.40 106.49 106.38
