ncols 52
nrows 52
xllcorner 438784
yllcorner 5715456
cellsize 10
NODATA_value -9999
92.47 92.32 92.22 92.17 91.99 92.03 91.96 91.88 91.85 91.64 91.44 91.26 90.88 90.61 90.41 90.24 90.19 90.08 89.90 89.83 89.87 89.65 89.42 89.25 89.04 88.82 88.66 88.57 88.51 88.35 88.12 88.01 87.87 87.73 87.68 87.61 87.62 87.86 87.11 87.25 87.21 87.26 87.40 87.52 87.65 87.72 87.72 87.62 87.62 87.58 87.58 87.64
92.50 92.35 92.25 92.10 91.97 92.02 91.93 91.88 91.90 91.49 91.56 91.18 90.89 90.53 90.37 90.20 90.06 89.90 89.82 89.71 89.54 89.31 89.56 89.56 89.28 89.07 88.86 88.67 88.45 88.25 88.08 87.86 87.79 87.72 87.71 87.76 87.92 86.88 87.50 87.35 87.31 87.41 87.46 87.57 87.67 87.73 87.72 87.73 87.66 87.71 87.72 87.74
92.52 92.38 92.30 92.18 92.12 91.96 91.96 91.82 91.78 91.52 91.30 91.24 90.78 90.50 90.32 90.14 90.02 89.89 89.76 89.57 89.39 89.32 89.29 89.24 88.81 89.27 89.24 88.84 88.65 88.39 88.10 87.85 87.75 87.69 87.81 87.98 86.61 87.62 87.45 87.38 87.44 87.50 87.56 87.65 87.71 87.75 87.76 87.73 87.74 87.71 87.79 87.85
92.58 92.38 92.36 92.26 92.10 91.92 91.95 91.96 91.88 91.40 91.17 90.98 90.75 90.47 90.26 90.13 90.00 89.86 89.72 89.57 89.40 89.25 89.12 89.03 88.96 88.89 88.80 88.40 88.89 88.81 88.32 88.16 87.99 87.88 88.00 86.55 87.66 87.49 87.41 87.47 87.54 87.57 87.61 87.68 87.76 87.76 87.80 87.79 87.77 87.73 87.71 87.78
92.56 92.36 92.37 92.12 92.08 92.01 91.93 92.50 92.27 91.34 91.24 91.10 90.78 90.55 90.31 90.14 89.97 89.83 89.66 89.54 89.38 89.24 89.16 89.04 88.86 88.77 88.73 88.70 88.57 88.42 87.81 88.41 88.43 88.32 87.02 87.88 87.66 87.49 87.49 87.53 87.62 87.68 87.72 87.75 87.80 87.85 87.85 87.82 87.79 87.75 87.73 87.75
92.54 92.43 92.38 92.23 92.02 91.94 91.92 91.72 91.54 91.50 91.22 91.09 90.83 90.56 90.32 90.15 89.98 89.83 89.67 89.53 89.36 89.23 89.11 88.96 88.83 88.81 88.74 88.62 88.46 88.30 88.27 88.33 88.50 87.91 88.27 87.83 87.79 87.56 87.54 87.57 87.71 87.79 87.83 87.86 87.87 87.90 87.89 87.85 87.82 87.78 87.75 87.79
92.58 92.48 92.39 92.27 92.21 92.01 91.69 91.63 91.56 91.37 91.21 91.05 90.83 90.57 90.33 90.14 89.99 89.83 89.69 89.51 89.36 89.22 89.12 89.00 88.89 88.82 88.72 88.56 88.40 88.22 88.15 88.19 88.12 87.75 87.62 88.12 87.93 87.77 87.66 87.65 87.76 87.88 87.90 87.94 87.97 88.00 87.99 87.92 87.85 87.79 87.80 87.84
92.62 92.53 92.38 92.17 92.21 92.06 91.71 91.58 91.39 91.32 91.18 91.05 90.86 90.59 90.36 90.18 90.04 89.86 89.68 89.51 89.31 89.22 89.18 89.07 88.96 88.86 88.73 88.57 88.37 88.22 88.19 88.20 87.77 87.81 87.75 87.70 88.07 88.05 87.93 87.88 87.86 87.95 87.99 88.01 88.08 88.12 88.14 88.12 88.00 87.94 87.90 87.94
92.75 92.65 92.34 92.21 92.13 92.00 91.74 91.60 91.42 91.34 91.17 91.04 90.85 90.63 90.39 90.19 90.05 89.88 89.71 89.53 89.34 89.24 89.18 89.10 88.98 88.90 88.79 88.61 88.46 88.32 88.26 88.06 87.93 87.90 87.81 87.79 87.74 87.65 88.36 88.18 88.11 88.08 88.08 88.13 88.17 88.19 88.24 88.26 88.21 88.14 88.10 88.09
92.72 92.73 92.46 92.27 92.15 91.92 91.92 91.56 91.43 91.32 91.16 91.04 90.86 90.60 90.38 90.18 90.00 89.85 89.71 89.57 89.43 89.32 89.19 89.06 88.94 88.90 88.81 88.67 88.53 88.45 88.24 88.19 88.05 87.97 87.96 87.91 87.85 87.88 87.35 88.57 88.39 88.25 88.21 88.24 88.29 88.30 88.34 88.35 88.35 88.33 88.31 88.32
92.76 92.69 92.59 92.51 92.24 92.01 91.76 91.61 91.45 91.34 91.20 91.04 90.86 90.61 90.37 90.14 89.94 89.77 89.62 89.52 89.46 89.30 89.14 89.03 88.92 88.87 88.82 88.71 88.65 88.39 88.32 88.25 88.17 88.14 88.15 88.09 87.97 87.96 88.07 88.12 88.73 88.56 88.43 88.36 88.39 88.41 88.42 88.39 88.41 88.45 88.47 88.49
92.82 92.61 92.52 92.51 92.41 92.19 91.82 91.70 91.55 91.37 91.20 91.05 90.85 90.64 90.39 90.13 89.89 89.67 89.58 89.52 89.45 89.27 89.11 89.01 88.93 88.86 88.80 88.76 88.43 88.40 88.31 88.29 88.30 88.30 88.28 88.24 88.18 88.10 88.15 88.17 88.27 88.74 88.79 88.62 88.49 88.48 88.47 88.43 88.46 88.54 88.58 88.61
92.78 92.61 92.54 92.45 92.19 91.93 91.92 91.85 91.71 91.36 91.20 91.04 90.85 90.66 90.45 90.17 89.92 89.70 89.58 89.54 89.48 89.32 89.08 88.93 88.89 88.80 88.76 88.51 88.49 88.40 88.44 88.40 88.45 88.43 88.38 88.36 88.33 88.27 88.22 88.30 88.36 88.46 88.22 89.08 88.77 88.57 88.51 88.53 88.58 88.65 88.68 88.70
92.76 92.58 92.59 92.35 89.55 89.71 90.77 91.56 91.43 91.42 91.24 90.94 90.83 90.65 90.48 90.26 90.03 89.78 89.65 89.54 89.45 89.30 89.07 88.91 88.78 88.73 88.45 88.57 88.54 88.53 88.55 88.56 88.55 88.57 88.50 88.50 88.51 88.36 88.36 88.39 88.42 88.49 88.61 88.11 89.20 88.87 88.68 88.59 88.63 88.72 88.78 88.83
92.72 92.68 92.43 91.87 89.31 89.31 89.35 89.41 89.88 90.90 91.00 91.01 90.74 90.57 90.51 90.32 90.15 89.96 89.73 89.57 89.40 89.25 89.07 88.88 88.78 88.40 88.64 88.61 88.66 88.67 88.72 88.72 88.67 88.65 88.64 88.68 88.56 88.50 88.47 88.46 88.48 88.54 88.61 88.70 88.84 89.19 89.05 88.85 88.72 88.79 88.88 88.94
92.81 92.53 92.43 92.12 91.83 90.84 89.78 89.40 89.40 89.38 90.03 90.88 90.73 90.58 90.56 90.38 89.01 89.80 89.83 89.63 89.44 89.25 89.12 88.96 88.43 88.72 88.69 88.66 88.74 88.85 88.85 88.84 88.82 88.76 88.75 88.74 88.67 88.60 88.62 88.61 88.61 88.63 88.68 88.72 88.89 89.03 89.11 89.23 89.04 88.85 88.89 88.98
92.93 92.76 92.38 92.13 92.04 91.87 91.58 91.42 90.81 89.68 89.57 90.90 90.75 90.65 90.56 89.38 88.81 88.82 89.63 89.22 89.49 89.37 89.26 88.52 88.96 88.89 88.78 88.77 88.85 88.95 89.00 89.01 88.97 88.88 88.84 88.81 88.77 88.77 88.79 88.74 88.74 88.76 88.78 88.83 88.88 88.98 89.04 88.29 89.42 89.18 88.95 89.00
92.93 92.76 92.72 92.71 92.02 91.84 91.72 91.53 91.39 91.12 90.91 90.93 90.86 90.75 90.58 89.88 88.58 88.61 88.58 88.59 88.77 89.50 88.54 89.27 89.08 88.96 88.91 88.95 88.98 89.06 89.14 89.15 89.09 88.95 88.94 88.86 88.88 88.91 88.88 88.84 88.89 88.88 88.92 89.00 89.00 89.02 89.07 89.15 88.62 89.51 89.29 89.20
92.91 92.73 92.85 92.38 92.42 92.99 91.66 91.54 91.42 91.15 91.03 90.90 90.86 90.68 89.50 88.85 88.58 88.59 88.59 88.57 89.05 89.43 89.46 89.31 89.18 89.12 89.12 89.13 89.19 89.24 89.27 89.20 89.14 89.10 89.04 88.95 88.97 88.95 88.97 88.93 89.00 89.01 89.05 89.08 89.13 89.17 89.17 89.20 89.21 89.19 89.58 89.52
92.85 92.64 92.51 92.36 92.32 91.84 91.67 91.58 91.61 91.33 91.06 91.20 90.76 90.38 90.22 89.73 88.88 88.58 88.62 88.62 89.53 89.58 89.47 89.37 89.32 89.30 89.32 89.37 89.42 89.43 89.41 89.34 89.28 89.21 89.17 89.10 89.08 89.04 89.04 89.04 89.07 89.13 89.15 89.17 89.21 89.26 89.31 89.31 89.29 89.33 89.38 89.40
92.94 92.77 92.51 92.31 92.08 91.78 91.84 91.79 91.24 91.23 91.13 91.10 91.18 90.56 90.35 89.77 89.87 89.71 89.86 89.81 89.65 89.65 89.57 89.50 89.42 89.47 89.53 89.56 89.54 89.62 89.59 89.38 89.49 89.36 89.29 89.20 89.22 89.17 89.22 89.18 89.23 89.27 89.34 89.34 89.34 89.36 89.39 89.44 89.44 89.45 89.49 89.51
92.91 92.86 92.62 92.34 92.13 91.99 91.76 91.67 91.43 91.44 91.22 91.39 91.04 90.58 90.40 88.62 88.64 88.64 89.47 89.86 89.71 89.67 89.70 89.58 89.65 89.70 89.66 89.65 89.61 89.70 89.54 89.65 89.61 89.50 89.44 89.42 89.41 89.43 89.39 89.38 89.39 89.46 89.53 89.52 89.51 89.52 89.51 89.53 89.58 89.60 89.59 89.54
93.15 93.77 92.54 92.39 92.25 91.77 91.75 91.62 91.47 91.28 91.23 91.29 91.18 90.59 90.38 88.63 88.60 88.59 90.11 90.82 90.79 89.88 89.85 89.82 89.90 89.79 89.81 89.76 89.67 89.66 89.68 89.79 89.71 89.68 89.61 89.52 89.62 89.59 89.63 89.60 89.56 89.61 89.67 89.66 89.71 89.72 89.70 89.71 89.71 89.69 89.68 89.60
93.19 92.58 92.47 92.71 92.13 91.77 91.99 91.90 91.54 91.33 91.56 91.50 90.59 90.60 90.31 88.67 88.58 89.36 91.61 90.83 90.79 90.10 90.12 90.04 90.11 89.95 90.03 89.87 89.81 89.81 89.84 89.88 89.83 89.76 89.82 89.82 89.73 89.81 89.79 89.71 89.69 89.75 89.77 89.80 89.81 89.86 89.88 89.90 89.89 89.86 89.78 89.69
92.78 92.50 92.48 92.32 92.36 92.48 92.06 91.98 91.56 91.40 91.48 91.51 90.84 90.50 90.40 88.64 88.63 90.54 90.64 90.88 90.44 90.21 90.19 90.12 89.99 90.07 90.05 90.04 90.03 89.99 89.96 90.05 90.03 89.95 89.94 89.95 89.92 89.95 89.90 89.85 89.83 89.84 89.86 89.83 89.91 89.95 89.99 90.06 90.06 90.00 89.93 89.79
92.77 93.58 92.50 92.55 92.43 91.79 91.72 91.61 91.60 91.42 91.46 91.43 90.82 90.57 90.39 89.14 89.77 91.83 91.12 90.73 90.84 90.44 90.30 90.37 90.20 90.15 90.16 90.17 90.18 90.15 90.18 90.23 90.14 90.17 90.14 90.11 90.03 90.00 90.03 90.03 90.01 90.01 89.98 90.01 90.03 90.05 90.10 90.15 90.16 90.14 90.07 89.96
92.81 92.65 92.67 92.76 92.91 92.09 91.78 91.75 91.79 91.47 91.43 90.98 90.72 90.19 90.52 89.94 90.63 90.95 90.90 90.94 90.71 90.64 90.71 90.37 90.35 90.32 90.29 90.29 90.26 90.28 90.29 90.30 90.39 90.37 90.27 90.24 90.18 90.21 90.24 90.24 90.19 90.17 90.20 90.22 90.22 90.22 90.21 90.24 90.25 90.26 90.21 90.10
92.77 92.63 92.49 92.46 92.05 92.16 92.19 91.90 91.90 92.00 91.82 91.02 90.72 89.42 89.76 89.80 90.94 90.97 91.00 91.03 90.96 90.72 90.84 90.84 90.75 90.49 90.54 90.89 90.65 90.38 90.37 90.44 90.51 90.53 90.49 90.43 90.40 90.39 90.41 90.36 90.36 90.31 90.36 90.38 90.34 90.34 90.37 90.33 90.31 90.34 90.26 90.17
92.73 92.71 92.44 92.32 92.14 91.94 91.92 91.92 91.61 91.62 91.32 91.05 90.39 90.66 89.60 91.03 91.14 91.16 91.16 91.17 91.13 90.95 91.03 90.76 90.61 90.93 90.86 90.80 90.59 90.60 90.48 90.59 90.58 90.61 90.65 90.58 90.58 90.55 90.54 90.52 90.52 90.47 90.53 90.43 90.46 90.41 90.43 90.45 90.44 90.43 90.34 90.30
92.85 92.87 92.65 92.92 92.56 92.13 92.11 92.02 91.76 92.20 91.26 90.85 90.61 89.82 90.28 91.12 91.04 91.17 91.42 91.20 91.25 91.21 90.99 91.05 90.96 90.86 90.83 91.10 91.03 90.75 90.90 90.76 90.78 90.79 90.77 90.72 90.70 90.73 90.66 90.67 90.69 90.60 90.59 90.58 90.58 90.58 90.57 90.52 90.51 90.54 90.53 90.46
92.90 93.12 93.29 92.85 92.83 92.78 92.22 92.32 92.47 92.39 91.21 90.87 90.71 89.60 91.31 91.33 91.36 91.43 91.51 91.45 91.30 91.33 91.21 91.31 91.35 91.25 91.16 90.98 91.01 91.17 91.16 90.82 90.97 90.93 90.93 90.88 90.83 90.85 90.84 90.84 90.79 90.76 90.75 90.73 90.75 90.70 90.67 90.66 90.66 90.62 90.57 90.47
93.34 92.96 92.75 92.64 92.68 92.44 92.21 92.31 92.47 91.60 90.36 90.92 91.34 91.26 91.46 91.88 92.58 91.74 91.59 91.47 91.54 91.36 91.45 91.50 91.54 91.51 91.44 91.37 91.18 91.35 91.17 91.31 91.26 91.04 91.03 91.30 91.28 91.21 90.99 90.96 90.96 90.91 90.89 90.87 90.88 90.82 90.79 90.79 90.76 90.73 90.67 90.53
93.38 93.24 92.89 92.89 92.51 92.46 92.29 92.31 92.34 91.47 91.29 89.62 89.81 91.56 91.57 91.54 91.61 91.58 91.67 91.60 91.76 91.59 91.58 91.68 91.72 91.75 91.63 91.56 91.35 91.31 91.39 91.29 91.34 91.44 91.34 91.29 91.28 91.12 91.14 91.07 91.08 91.04 91.06 91.04 90.99 90.96 90.95 90.88 90.86 90.82 90.75 90.56
93.37 93.18 93.10 92.90 92.89 92.45 92.25 91.84 91.94 90.90 90.12 89.63 91.22 91.78 91.78 91.82 91.82 91.68 91.74 91.83 91.65 91.91 91.69 91.76 91.84 91.88 91.82 91.66 91.60 91.61 91.68 91.53 91.44 91.40 91.58 91.50 91.42 91.24 91.22 91.30 91.18 91.14 91.19 91.21 91.17 91.15 91.10 91.01 90.96 90.85 90.83 90.43
92.97 92.80 92.82 92.87 92.74 92.47 92.38 92.15 91.90 91.78 89.63 89.99 91.87 92.01 91.92 91.94 91.89 91.78 91.96 92.05 91.96 91.88 91.90 92.11 91.78 91.85 91.84 91.62 91.67 91.87 91.82 91.74 91.58 91.48 91.60 91.44 91.63 91.62 91.57 91.79 91.76 91.25 91.38 91.35 91.30 91.29 91.24 91.15 91.04 90.97 90.76 90.25
92.97 92.88 92.65 92.68 92.76 92.64 92.49 92.21 91.41 90.71 89.68 91.71 92.15 92.21 92.12 92.10 92.01 91.85 92.18 91.99 92.07 92.14 92.16 92.04 91.97 91.92 91.76 91.83 91.90 92.01 91.97 91.83 91.73 91.83 91.76 91.72 91.69 91.57 91.69 91.82 91.87 91.51 91.51 91.49 91.44 91.42 91.28 91.25 91.15 91.05 90.54 90.42
93.10 92.96 92.82 92.75 92.80 92.67 92.56 92.23 92.11 89.70 90.56 92.32 92.33 92.42 92.43 92.23 92.18 92.07 92.37 92.10 92.18 92.22 92.20 92.14 92.05 91.87 91.87 91.81 92.01 92.11 92.03 91.93 91.92 91.86 91.96 91.99 91.90 91.79 91.70 91.77 91.87 92.00 91.71 91.57 91.58 91.51 91.43 91.32 91.21 90.72 90.39 90.62
93.32 93.26 93.18 93.07 92.93 92.85 92.71 92.34 91.16 89.69 92.22 92.47 92.46 92.59 92.65 92.68 92.22 92.54 92.28 92.28 92.24 92.30 92.30 92.41 92.26 92.01 92.07 92.00 92.07 92.14 92.11 91.95 92.13 92.06 92.17 92.11 92.11 91.99 91.86 92.01 91.99 92.00 92.18 92.17 91.72 91.63 91.49 91.49 91.19 90.61 89.79 90.81
93.65 93.74 93.21 93.19 93.12 93.03 92.90 92.68 92.04 91.55 92.49 92.60 92.57 92.68 92.61 92.46 92.58 92.69 92.40 92.39 92.42 92.54 92.43 92.47 92.38 92.25 92.08 92.17 92.21 92.20 92.13 92.06 92.12 92.19 92.30 92.27 92.25 92.08 92.06 92.09 92.12 92.08 92.07 91.93 91.83 91.74 91.67 91.58 90.82 90.60 90.82 91.12
93.62 93.29 92.72 92.46 93.04 93.02 92.99 92.96 92.90 92.96 92.82 92.74 92.75 92.71 92.74 92.58 92.88 92.59 92.60 92.59 92.65 92.65 92.51 92.58 92.44 92.44 92.23 92.25 92.30 92.26 92.14 92.46 92.21 92.31 92.42 92.42 92.35 92.12 92.30 92.22 92.22 92.22 92.19 92.04 91.91 91.83 91.74 91.61 90.74 90.76 91.15 91.36
93.22 93.28 92.01 92.00 92.92 93.15 92.07 93.07 93.07 93.13 93.07 92.87 93.00 92.96 92.87 92.96 93.05 92.79 92.86 93.08 93.06 92.81 92.74 92.74 92.61 92.51 92.47 92.51 92.45 92.38 92.34 92.38 92.44 92.45 92.55 92.72 92.26 92.36 92.32 92.31 92.34 92.35 92.31 92.18 91.99 91.98 91.81 91.02 90.78 91.06 91.38 91.59
93.24 93.06 92.02 91.88 92.27 93.08 93.13 93.22 93.22 93.27 93.21 93.28 93.23 93.09 93.03 93.23 92.96 93.03 93.08 93.33 93.28 93.07 93.02 92.99 92.71 92.61 92.52 92.65 92.61 92.65 92.74 92.55 92.60 92.57 92.58 92.59 92.49 92.60 92.54 92.54 92.43 92.45 92.42 92.25 92.08 92.03 91.76 91.00 91.06 91.33 91.57 91.82
93.49 91.92 91.88 91.90 93.20 93.27 93.32 93.33 93.32 93.43 93.36 93.31 93.47 93.43 93.42 93.30 93.17 93.13 93.20 93.34 93.25 93.10 93.22 93.12 93.00 92.86 92.76 92.68 92.75 92.77 92.75 92.79 92.69 92.76 92.67 92.45 92.74 92.72 92.72 92.68 92.68 92.67 92.53 92.32 92.22 92.07 91.32 91.11 91.30 91.54 91.75 91.95
92.05 91.93 91.89 93.40 92.33 93.51 93.44 93.39 93.47 93.53 93.43 93.44 93.34 93.39 93.58 93.54 93.51 93.31 93.38 93.29 93.13 93.33 93.36 93.37 93.34 92.99 92.93 92.81 92.79 92.88 92.90 92.93 92.89 92.90 92.81 92.82 92.80 92.77 92.83 92.79 92.66 92.61 92.52 92.45 92.29 92.17 91.24 90.63 91.56 91.72 91.93 92.12
91.92 92.36 93.85 93.77 93.78 93.72 95.70 93.57 93.52 93.73 93.72 93.69 93.47 93.67 93.57 93.46 93.67 93.60 93.38 93.29 93.43 93.47 93.35 93.45 93.31 93.10 92.96 93.01 92.94 93.09 93.13 93.05 92.99 93.06 93.04 93.07 92.98 92.93 92.92 92.92 92.87 92.70 92.72 92.64 92.42 91.55 91.39 91.35 91.71 91.93 92.08 92.36
92.00 93.28 93.98 93.93 93.86 93.82 93.76 93.72 93.65 93.73 93.72 93.65 93.57 93.79 93.65 93.64 93.62 93.62 93.53 93.54 93.65 93.47 93.42 93.32 93.21 93.17 93.07 93.10 93.16 93.26 93.27 93.27 93.25 93.20 93.31 93.23 93.23 93.10 93.09 93.01 92.96 92.96 92.83 92.71 92.58 91.44 91.24 91.53 91.88 92.08 92.27 92.51
93.05 94.15 93.52 94.06 94.02 94.04 93.91 93.94 93.81 93.79 93.80 93.76 93.91 93.86 93.79 93.80 93.82 93.82 93.69 93.79 93.74 93.58 93.55 93.42 93.34 93.22 93.38 93.29 93.35 93.36 93.40 93.37 93.44 93.31 93.47 93.31 93.28 93.30 93.09 92.98 93.10 92.97 92.88 92.72 91.82 91.64 91.17 91.76 92.04 92.28 92.46 92.73
93.48 94.14 94.24 94.19 94.16 94.11 94.05 94.06 94.01 93.99 93.93 93.96 93.98 93.96 93.88 93.99 94.00 93.96 93.91 94.03 93.71 93.74 93.71 93.59 93.50 93.43 93.41 93.45 93.47 93.45 93.48 89.86 93.51 93.49 93.40 93.45 93.43 93.31 93.09 92.88 92.54 92.99 92.83 92.75 91.80 91.82 91.58 91.93 92.24 92.45 92.68 92.89
94.26 94.29 94.29 94.35 94.26 94.63 94.16 94.21 94.19 94.14 94.11 94.22 94.19 94.11 94.13 94.13 94.17 94.12 94.14 94.04 93.87 93.79 93.80 93.73 93.62 93.74 93.67 93.70 93.61 93.54 93.54 89.97 93.31 93.71 93.52 93.56 93.56 93.45 93.37 93.19 92.67 92.28 92.17 92.10 91.93 90.94 91.82 92.08 92.36 92.57 92.81 93.05
93.63 93.05 93.04 93.62 94.37 95.52 94.31 94.35 94.34 94.29 94.32 94.34 94.39 94.21 94.28 94.32 94.29 94.15 94.37 94.08 94.20 93.90 93.88 93.80 93.79 93.77 93.85 93.85 93.76 93.66 93.65 93.65 93.73 93.65 93.68 93.66 93.59 93.51 93.50 93.37 93.11 92.64 92.15 92.04 92.19 90.86 92.06 92.24 92.46 92.69 92.97 93.22
93.07 93.06 93.06 94.60 95.32 94.91 94.49 94.50 94.46 94.41 94.54 94.41 94.42 94.44 94.51 94.35 94.34 94.47 94.39 94.32 94.23 94.13 94.09 93.88 93.94 93.90 93.93 93.88 93.88 93.75 93.76 93.68 93.95 93.73 93.70 93.69 93.67 93.63 93.49 93.41 93.26 92.84 92.31 92.29 92.23 91.75 92.30 92.51 92.67 92.88 93.10 93.32
93.06 93.08 93.60 94.70 94.71 94.70 94.68 94.64 94.61 94.50 94.49 94.55 94.55 94.57 94.60 94.54 94.62 94.75 94.55 94.51 94.42 94.32 94.17 94.06 93.98 93.89 93.95 93.97 93.96 93.88 93.80 94.04 93.84 93.90 93.87 93.78 93.75 93.62 93.58 93.51 93.28 92.68 92.44 92.07 92.14 92.09 92.52 92.76 92.86 93.03 93.24 93.44
