ncols 52
nrows 52
xllcorner 438784
yllcorner 5717504
cellsize 10
NODATA_value -9999
77.46 77.40 77.35 77.28 77.19 77.19 77.17 77.10 77.01 77.04 76.99 77.00 77.00 77.03 77.01 76.99 76.97 76.96 77.01 77.15 76.81 77.20 77.04 77.10 77.04 77.27 77.43 77.40 77.38 77.22 77.23 77.39 77.41 77.48 77.56 77.54 77.56 77.61 77.64 77.61 77.64 77.70 77.69 77.76 77.95 77.91 77.95 77.99 78.03 76.29 76.38 77.05
77.56 77.49 77.45 77.40 77.33 77.28 77.22 77.20 77.10 77.03 77.01 77.03 77.04 77.02 77.03 77.02 77.02 77.02 76.99 77.00 77.04 77.11 77.20 76.44 77.24 77.02 76.96 77.46 77.39 77.58 77.40 77.39 77.41 77.37 77.49 77.59 77.56 77.60 77.64 77.62 77.64 77.65 77.72 77.81 77.95 77.92 77.95 77.96 77.98 78.03 78.16 78.17
77.61 77.54 77.56 77.50 77.43 77.39 77.33 77.26 77.17 77.08 77.10 77.07 77.05 77.04 77.03 77.06 77.04 77.08 77.10 77.10 77.11 77.08 77.01 77.03 77.14 77.10 77.17 77.33 77.38 77.47 77.38 77.38 77.41 77.44 77.47 77.50 77.54 77.59 77.61 77.64 77.64 77.65 77.74 77.84 77.94 77.95 77.99 77.99 78.00 78.04 78.03 78.07
77.68 77.63 77.60 77.57 77.54 77.46 77.40 77.31 77.29 77.17 77.14 77.12 77.10 77.07 77.08 77.08 77.08 77.10 77.11 77.12 77.11 77.13 77.09 77.11 77.01 76.98 77.07 77.14 76.97 77.57 77.21 77.33 77.40 77.43 77.48 77.48 77.51 77.55 77.59 77.63 77.69 77.76 77.78 77.84 77.90 77.88 77.97 77.91 77.98 78.02 77.99 78.03
77.68 77.69 77.68 77.65 77.60 77.55 77.51 77.38 77.30 77.24 77.26 77.18 77.17 77.16 77.15 77.10 77.08 77.14 77.18 77.17 77.18 77.19 77.21 77.20 77.19 77.08 77.05 77.15 77.48 77.07 77.45 77.39 77.37 77.37 77.41 77.49 77.51 77.54 77.54 77.60 77.66 77.81 77.90 77.84 77.87 77.84 77.92 77.92 77.93 77.99 77.96 78.05
77.68 77.66 77.61 77.63 77.62 77.58 77.51 77.40 77.30 77.29 77.27 77.21 77.20 77.18 77.17 77.15 77.12 77.18 77.22 77.21 77.23 77.25 77.30 77.27 77.27 77.20 77.13 77.15 77.54 77.39 77.31 77.37 77.41 77.46 77.53 77.50 77.53 77.53 77.56 77.61 77.65 77.77 77.81 77.79 77.84 77.90 77.92 77.88 77.92 77.98 77.94 78.03
77.67 77.65 77.62 77.63 77.61 77.58 77.51 77.46 77.35 77.34 77.29 77.27 77.25 77.24 77.22 77.15 77.16 77.17 77.21 77.23 77.26 77.27 77.31 77.31 77.34 77.32 77.19 77.22 77.54 77.36 77.39 77.27 77.44 77.42 77.38 77.45 77.50 77.52 77.54 77.60 77.69 77.75 77.80 77.80 77.85 77.88 77.95 77.94 77.95 77.99 77.99 78.05
77.78 77.78 77.74 77.72 77.71 77.68 77.60 77.53 77.49 77.49 77.42 77.35 77.35 77.29 77.27 77.23 77.21 77.22 77.23 77.23 77.24 77.31 77.32 77.35 77.39 77.40 77.33 77.29 77.11 77.34 77.26 77.35 77.35 77.41 77.43 77.44 77.46 77.50 77.55 77.61 77.75 77.79 77.78 77.82 77.82 77.88 77.92 77.93 77.96 77.96 77.96 78.01
77.90 77.85 77.85 77.83 77.80 77.80 77.72 77.65 77.63 77.65 77.57 77.52 77.46 77.41 77.40 77.36 77.30 77.33 77.32 77.33 77.32 77.37 77.36 77.40 77.42 77.47 77.46 77.16 77.20 77.37 77.26 77.31 77.40 77.35 77.44 77.46 77.46 77.50 77.55 77.65 77.75 77.80 77.77 77.79 77.81 77.85 77.91 77.90 77.94 77.91 77.90 77.97
77.97 77.92 77.93 77.88 77.90 77.89 77.87 77.81 77.81 77.79 77.71 77.67 77.57 77.55 77.51 77.47 77.45 77.45 77.44 77.40 77.44 77.49 77.46 77.44 77.47 77.46 77.51 77.52 77.35 77.40 77.27 77.31 77.36 77.46 77.40 77.51 77.55 77.58 77.57 77.66 77.79 77.83 77.77 77.77 77.80 77.85 77.89 77.92 77.91 77.91 77.91 77.98
78.02 78.00 77.98 77.99 77.98 77.94 77.96 77.94 77.95 77.88 77.85 77.77 77.71 77.67 77.64 77.56 77.57 77.55 77.54 77.53 77.57 77.57 77.56 77.55 77.56 77.56 77.61 77.56 77.44 77.36 77.36 77.34 77.39 77.42 77.50 77.33 77.54 77.58 77.62 77.68 77.79 77.81 77.76 77.76 77.79 77.83 77.84 77.88 77.87 77.90 77.93 77.97
78.07 78.06 78.06 78.04 78.04 78.01 77.99 77.99 78.00 77.94 77.90 77.86 77.78 77.74 77.73 77.67 77.67 77.67 77.66 77.63 77.68 77.68 77.68 77.67 77.67 77.67 77.88 77.45 77.53 77.39 77.42 77.43 77.44 77.46 77.49 77.56 77.34 77.60 77.63 77.72 77.74 77.79 77.74 77.77 77.75 77.81 77.84 77.84 77.87 77.88 77.93 77.94
78.09 78.12 78.10 78.14 78.12 78.09 78.07 78.06 78.07 78.04 78.01 77.91 77.88 77.79 77.80 77.76 77.76 77.77 77.76 77.76 77.80 77.79 77.78 77.76 77.78 77.86 77.16 77.24 77.57 77.46 77.51 77.51 77.53 77.55 77.57 77.61 77.65 77.31 77.68 77.75 77.74 77.77 77.75 77.77 77.78 77.79 77.82 77.83 77.90 77.90 77.94 77.92
78.17 78.17 78.18 78.18 78.17 78.18 78.14 78.16 78.14 78.11 78.05 78.00 77.96 77.90 77.88 77.86 77.86 77.86 77.85 77.85 77.90 77.91 77.89 77.88 77.88 77.99 77.72 77.60 77.65 77.49 77.49 77.49 77.53 77.59 77.62 77.64 77.67 77.75 77.18 77.82 77.76 77.78 77.78 77.77 77.78 77.79 77.80 77.79 77.86 77.87 77.95 77.94
78.23 78.21 78.23 78.25 78.23 78.18 78.19 78.22 78.20 78.15 78.14 78.08 78.02 78.00 77.99 77.95 77.96 77.97 77.96 77.99 78.01 78.04 78.01 78.02 78.00 78.09 77.89 77.83 77.68 77.60 77.53 77.50 77.51 77.52 77.57 77.60 77.63 77.68 77.76 77.25 77.94 77.78 77.72 77.76 77.77 77.79 77.81 77.79 77.86 77.89 77.96 77.94
78.28 78.29 78.31 78.32 78.28 78.25 78.26 78.27 78.26 78.24 78.17 78.14 78.10 78.08 78.06 78.06 78.07 78.08 78.07 78.14 78.12 78.14 78.13 78.14 78.13 78.07 77.49 78.04 77.84 77.85 77.74 77.64 77.60 77.59 77.59 77.60 77.59 77.61 77.67 77.71 77.11 78.04 77.72 77.73 77.78 77.81 77.81 77.77 77.88 77.90 77.94 77.95
78.33 78.32 78.36 78.34 78.37 78.32 78.32 78.32 78.32 78.29 78.25 78.19 78.18 78.17 78.15 78.14 78.17 78.17 78.17 78.21 78.23 78.24 78.25 78.23 78.23 77.92 78.07 78.18 77.99 78.00 77.94 77.84 77.80 77.78 77.81 77.75 77.73 77.69 77.67 77.69 77.68 77.11 77.89 77.78 77.80 77.77 77.83 77.78 77.93 77.92 78.01 78.03
78.36 78.39 78.41 78.43 78.40 78.39 78.41 78.38 78.37 78.34 78.30 78.26 78.25 78.27 78.26 78.24 78.24 78.26 78.29 78.30 78.34 78.35 78.34 78.29 78.34 78.17 78.23 78.21 78.15 78.09 78.06 78.03 77.98 77.94 77.92 77.92 77.87 77.82 77.80 77.79 77.78 77.70 77.15 77.81 77.81 77.72 77.66 77.65 77.82 77.84 77.93 78.00
78.42 78.44 78.48 78.47 78.43 78.44 78.45 78.46 78.43 78.38 78.36 78.32 78.33 78.34 78.35 78.34 78.36 78.35 78.41 78.39 78.44 78.46 78.44 78.40 78.54 78.10 78.37 78.25 78.27 78.24 78.19 78.14 78.13 78.10 78.04 78.02 78.01 77.93 77.92 77.90 77.90 77.88 77.83 77.31 77.90 77.63 77.59 77.60 77.85 77.89 77.91 77.98
78.46 78.53 78.52 78.56 78.53 78.53 78.53 78.54 78.52 78.48 78.43 78.40 78.39 78.42 78.43 78.42 78.44 78.46 78.47 78.48 78.52 78.53 78.49 78.47 77.82 78.31 78.44 78.33 78.38 78.37 78.31 78.26 78.24 78.23 78.17 78.11 78.10 78.08 78.03 78.04 78.01 77.99 77.93 77.82 77.49 77.97 77.73 77.72 78.04 78.03 78.06 78.07
78.65 78.67 78.64 78.66 78.65 78.64 78.64 78.63 78.62 78.57 78.55 78.50 78.51 78.53 78.50 78.53 78.53 78.54 78.55 78.59 78.60 78.62 78.54 78.52 78.37 78.56 78.46 78.38 78.44 78.46 78.42 78.39 78.35 78.31 78.30 78.24 78.19 78.17 78.17 78.16 78.18 78.12 78.01 77.94 77.82 77.67 78.01 77.78 78.06 78.10 78.10 78.13
78.85 78.79 78.79 78.72 78.74 78.77 78.78 78.75 78.72 78.68 78.68 78.62 78.62 78.62 78.62 78.62 78.60 78.65 78.63 78.66 78.68 78.68 78.59 78.65 78.27 78.64 78.48 78.47 78.50 78.50 78.51 78.50 78.46 78.40 78.38 78.37 78.34 78.28 78.28 78.29 78.31 78.26 78.11 78.01 77.96 77.85 77.72 78.04 78.09 78.09 78.12 78.17
79.10 78.92 78.94 78.87 78.86 78.88 78.89 78.86 78.85 78.81 78.76 78.74 78.74 78.74 78.71 78.68 78.70 78.71 78.73 78.74 78.75 78.72 78.69 77.83 78.08 78.72 78.56 78.58 78.58 78.56 78.55 78.57 78.56 78.52 78.50 78.47 78.44 78.39 78.38 78.43 78.43 78.35 78.22 78.10 78.04 77.99 77.90 77.84 78.24 78.12 78.11 78.12
79.21 79.37 79.27 79.08 78.99 78.90 78.89 78.90 78.90 78.87 78.86 78.83 78.85 78.82 78.80 78.78 78.80 78.78 78.81 78.81 78.83 78.79 78.78 78.47 78.68 78.76 78.62 78.65 78.66 78.62 78.60 78.59 78.63 78.60 78.63 78.57 78.50 78.50 78.51 78.52 78.59 78.48 78.34 78.21 78.11 78.05 78.01 77.92 77.98 78.22 78.16 78.15
79.10 79.12 79.19 79.33 79.39 79.13 78.99 78.86 78.91 78.92 78.90 78.89 78.90 78.89 78.88 78.86 78.91 78.87 78.90 78.88 78.89 78.82 78.90 78.47 78.79 78.74 78.71 78.72 78.71 78.70 78.67 78.65 78.65 78.68 78.68 78.71 78.62 78.58 78.61 78.63 78.69 78.63 78.46 78.34 78.24 78.09 78.05 78.03 77.93 78.09 78.26 78.18
79.18 79.17 79.13 79.06 79.15 79.28 79.42 79.28 79.10 78.99 78.94 78.95 78.93 78.87 78.88 78.89 78.93 78.90 78.91 78.92 78.89 78.88 78.15 78.10 78.88 78.76 78.77 78.78 78.77 78.77 78.74 78.72 78.68 78.70 78.77 78.75 78.73 78.68 78.70 78.74 78.78 78.68 78.60 78.46 78.35 78.20 78.07 78.08 78.07 77.97 78.17 78.21
79.32 79.25 79.25 79.24 79.16 79.10 79.15 79.20 79.30 79.38 79.26 79.08 79.02 78.91 78.84 78.89 78.88 78.93 78.89 78.89 78.85 78.87 78.66 78.93 78.99 78.83 78.85 78.87 78.82 78.81 78.82 78.80 78.78 78.76 78.79 78.82 78.78 78.78 78.77 78.78 78.79 78.74 78.66 78.57 78.40 78.27 78.15 78.12 78.15 78.11 78.05 78.17
79.43 79.42 79.35 79.29 79.28 79.21 79.22 79.15 79.10 79.14 79.24 79.44 79.34 79.11 78.96 78.93 78.90 78.91 78.90 78.88 78.82 78.86 78.80 79.04 78.99 78.92 78.93 78.92 78.92 78.88 78.86 78.87 78.86 78.83 78.83 78.86 78.85 78.81 78.87 78.86 78.79 78.75 78.73 78.60 78.50 78.35 78.24 78.18 78.18 78.21 78.20 78.10
79.63 79.57 79.53 79.53 79.40 79.34 79.28 79.22 79.11 79.09 79.10 79.10 79.20 79.37 79.44 79.22 79.04 78.97 78.89 78.91 78.92 78.36 78.43 79.14 78.98 79.00 79.01 79.01 78.97 78.96 78.93 78.92 78.92 78.90 78.90 78.87 78.88 78.89 78.90 78.94 78.86 78.76 78.74 78.66 78.56 78.43 78.31 78.26 78.21 78.21 78.22 78.21
79.71 79.68 79.63 79.60 79.52 79.43 79.33 79.27 79.23 79.17 79.17 79.19 79.21 79.22 79.21 79.25 79.39 79.38 79.15 79.04 78.90 78.90 79.09 79.17 79.06 79.04 79.08 79.07 79.05 79.03 79.04 78.98 78.95 78.98 78.98 78.96 78.90 78.95 78.97 78.98 78.94 78.82 78.75 78.68 78.65 78.54 78.41 78.34 78.28 78.26 78.27 78.28
79.88 79.82 79.79 79.71 79.62 79.54 79.45 79.37 79.32 79.28 79.25 79.23 79.29 79.28 79.19 79.14 79.12 79.23 79.26 79.36 79.10 79.08 79.18 79.15 79.09 79.19 79.17 79.17 79.14 79.13 79.09 79.07 79.02 79.02 79.04 79.02 78.96 78.98 78.98 78.98 78.96 78.92 78.81 78.71 78.68 78.64 78.55 78.45 78.38 78.33 78.35 78.35
80.00 79.94 79.89 79.85 79.76 79.66 79.57 79.49 79.43 79.43 79.39 79.39 79.36 79.28 79.22 79.23 79.26 79.21 79.17 79.24 78.46 79.25 79.46 79.30 79.25 79.25 79.25 79.25 79.21 79.21 79.19 79.11 79.11 79.08 79.09 79.08 79.04 79.05 79.04 78.99 78.97 78.97 78.91 78.82 78.75 78.71 78.69 78.58 78.46 78.40 78.44 78.42
80.16 80.11 80.02 79.97 79.93 79.84 79.71 79.65 79.60 79.54 79.54 79.54 79.43 79.38 79.34 79.28 79.26 79.19 79.12 79.03 79.22 79.32 79.43 79.80 79.46 79.34 79.29 79.28 79.29 79.25 79.25 79.21 79.16 79.15 79.15 79.12 79.09 79.12 79.14 79.07 79.05 79.03 79.01 78.95 78.86 78.79 78.77 78.71 78.55 78.46 78.45 78.49
80.25 80.19 80.13 80.07 80.02 79.93 79.87 79.81 79.81 79.74 79.74 79.68 79.56 79.50 79.46 79.43 79.38 79.31 79.17 79.05 79.48 79.40 79.48 79.44 78.89 79.76 79.46 79.37 79.35 79.34 79.31 79.29 79.25 79.21 79.26 79.19 79.21 79.24 79.21 79.18 79.15 79.11 79.09 79.06 78.99 78.88 78.80 78.75 78.67 78.54 78.49 78.51
80.35 80.30 80.23 80.18 80.15 80.07 80.04 80.00 79.96 79.92 79.91 79.78 79.71 79.63 79.54 79.50 79.46 79.33 79.18 78.64 78.71 79.32 79.37 79.43 79.47 79.44 79.71 79.60 79.49 79.48 79.43 79.37 79.36 79.36 79.33 79.35 79.35 79.38 79.31 79.26 79.24 79.18 79.14 79.08 79.01 78.93 78.82 78.75 78.71 78.63 78.55 78.53
80.40 80.36 80.30 80.25 80.18 80.15 80.10 80.09 80.07 80.07 79.98 79.89 79.77 79.70 79.64 79.59 79.50 79.31 79.16 79.58 79.42 79.46 79.49 79.46 79.53 79.54 79.58 79.02 79.96 79.68 79.57 79.52 79.49 79.45 79.51 79.48 79.52 79.49 79.41 79.31 79.27 79.22 79.16 79.10 79.02 78.97 78.88 78.77 78.71 78.64 78.61 78.56
80.51 80.46 80.41 80.35 80.26 80.23 80.17 80.14 80.19 80.17 80.04 79.94 79.83 79.77 79.70 79.60 79.47 79.28 79.14 79.49 79.63 79.67 79.68 79.67 79.65 79.60 79.70 79.67 79.63 79.92 79.82 79.69 79.58 79.54 79.54 79.58 79.59 79.57 79.44 79.38 79.30 79.26 79.20 79.14 79.06 78.99 78.93 78.85 78.74 78.70 78.62 78.63
80.59 80.54 80.48 80.40 80.34 80.28 80.26 80.25 80.31 80.24 80.16 80.03 79.97 79.94 79.84 79.76 79.55 79.40 79.52 79.48 79.76 79.83 79.83 79.79 79.71 79.71 79.68 79.71 79.82 79.79 79.26 79.92 79.72 79.60 79.60 79.60 79.68 79.60 79.52 79.44 79.38 79.32 79.28 79.19 79.11 79.04 78.93 78.88 78.83 78.74 78.68 78.65
80.76 80.68 80.61 80.53 80.47 80.39 80.36 80.37 80.44 80.33 80.24 80.17 80.10 80.09 80.03 79.92 79.73 79.58 79.72 79.80 79.91 79.98 79.98 79.90 79.87 79.85 79.82 79.82 79.86 79.87 79.83 79.71 79.88 79.88 79.70 79.71 79.72 79.70 79.58 79.51 79.46 79.44 79.33 79.27 79.14 79.07 78.98 78.88 78.86 78.82 78.71 78.65
80.85 80.77 80.68 80.64 80.55 80.48 80.43 80.50 80.50 80.45 80.36 80.30 80.31 80.25 80.23 80.13 79.90 79.11 79.10 79.92 80.04 80.10 80.07 79.96 79.99 79.93 79.90 79.93 79.97 79.85 79.78 79.86 79.96 79.68 80.03 79.86 79.87 79.76 79.68 79.60 79.56 79.48 79.43 79.30 79.22 79.10 79.01 78.94 78.87 78.83 78.80 78.74
81.02 80.93 80.85 80.80 80.70 80.60 80.64 80.68 80.64 80.61 80.51 80.47 80.46 80.40 80.35 80.17 79.98 79.79 79.93 80.10 80.20 80.21 80.15 80.10 80.08 80.04 80.03 80.06 80.02 79.96 79.90 79.94 80.00 80.03 79.96 80.06 79.93 79.91 79.76 79.69 79.60 79.51 79.46 79.36 79.26 79.18 79.07 79.01 78.94 78.87 78.85 78.82
81.13 81.03 80.97 80.89 80.82 80.74 80.76 80.77 80.79 80.73 80.68 80.68 80.60 80.58 80.49 80.27 79.77 79.54 80.12 80.27 80.35 80.33 80.24 80.24 80.17 80.12 80.14 80.19 80.08 80.08 80.04 80.07 80.05 80.01 80.11 80.06 80.22 79.97 79.86 79.75 79.65 79.57 79.46 79.40 79.31 79.24 79.17 79.07 79.02 78.96 78.89 78.92
81.32 81.22 81.15 81.07 80.96 80.96 80.96 80.97 80.99 80.91 80.89 80.86 80.78 80.69 80.52 80.29 79.89 80.15 80.33 80.51 80.50 80.46 80.39 80.37 80.29 80.27 80.29 80.28 80.21 80.22 80.21 80.23 80.18 80.17 80.10 80.21 80.18 80.32 79.93 79.82 79.67 79.59 79.50 79.42 79.37 79.31 79.26 79.19 79.12 79.06 79.01 78.97
81.43 81.35 81.25 81.18 81.11 81.08 81.06 81.13 81.13 81.08 81.08 81.01 80.96 80.84 80.62 79.94 79.69 80.39 80.57 80.65 80.64 80.58 80.54 80.49 80.40 80.42 80.43 80.35 80.36 80.36 80.35 80.36 80.33 80.30 80.21 80.20 80.33 80.27 80.24 79.84 79.76 79.63 79.56 79.49 79.45 79.40 79.36 79.31 79.24 79.18 79.13 79.08
81.56 81.51 81.44 81.33 81.32 81.26 81.24 81.29 81.25 81.22 81.24 81.14 81.06 80.91 80.69 80.04 80.44 80.61 80.82 80.82 80.76 80.71 80.68 80.60 80.56 80.56 80.52 80.47 80.43 80.51 80.51 80.50 80.45 80.46 80.37 80.33 80.35 80.36 80.24 80.15 79.81 79.76 79.65 79.62 79.54 79.52 79.47 79.43 79.36 79.31 79.26 79.23
81.69 81.60 81.53 81.44 81.43 81.34 81.35 81.35 81.29 81.30 81.25 81.21 81.07 80.94 79.89 79.69 80.65 80.87 80.97 80.93 80.86 80.84 80.78 80.73 80.72 80.68 80.59 80.57 80.61 80.59 80.62 80.62 80.61 80.60 80.55 80.49 80.46 80.39 80.31 80.17 80.10 79.84 79.79 79.71 79.68 79.61 79.58 79.51 79.47 79.43 79.40 79.37
81.88 81.79 81.70 81.68 81.59 81.51 81.52 81.39 81.31 81.25 81.18 81.07 80.95 80.68 80.27 80.60 80.87 81.09 81.09 81.01 80.97 80.95 80.88 80.87 80.85 80.76 80.67 80.64 80.72 80.74 80.74 80.73 80.74 80.73 80.66 80.62 80.53 80.45 80.28 80.26 80.12 80.15 79.88 79.86 79.78 79.74 79.69 79.66 79.60 79.57 79.55 79.49
81.97 81.87 81.81 81.79 81.68 81.67 81.62 81.50 81.39 81.25 81.11 80.94 80.78 80.51 80.57 80.85 81.07 81.22 81.18 81.07 81.07 81.02 80.96 80.97 80.94 80.81 80.78 80.80 80.81 80.83 80.84 80.82 80.85 80.81 80.75 80.68 80.64 80.57 80.35 80.24 80.25 80.16 80.19 79.95 79.94 79.87 79.83 79.79 79.76 79.70 79.67 79.62
82.15 82.03 82.06 81.95 81.88 81.85 81.79 81.70 81.60 81.37 81.15 80.93 80.43 80.07 80.88 81.07 81.24 81.27 81.23 81.18 81.15 81.10 81.07 81.07 81.01 80.89 80.84 80.91 80.93 80.94 80.94 80.94 80.94 80.86 80.82 80.77 80.73 80.64 80.49 80.35 80.27 80.34 80.24 80.28 80.06 80.04 79.97 79.92 79.86 79.82 79.78 79.75
82.25 82.18 82.15 82.02 81.99 81.98 81.93 81.88 81.76 81.55 81.18 80.90 80.78 81.07 81.20 81.31 81.30 81.29 81.23 81.24 81.19 81.16 81.15 81.11 81.00 80.95 80.96 80.97 81.02 81.02 81.03 81.04 81.02 80.95 80.90 80.88 80.86 80.77 80.65 80.51 80.43 80.40 80.42 80.32 80.35 80.14 80.12 80.02 79.98 79.91 79.87 79.80
82.43 82.41 82.29 82.20 82.17 82.14 82.08 82.04 81.89 81.61 81.24 81.08 81.23 81.43 81.50 81.52 81.43 81.34 81.28 81.26 81.21 81.23 81.19 81.13 81.02 80.96 81.05 81.07 81.10 81.09 81.10 81.12 81.10 81.07 81.04 81.03 80.98 80.87 80.79 80.68 80.60 80.51 80.43 80.46 80.39 80.40 80.21 80.17 80.08 80.01 79.96 79.88
82.56 82.52 82.38 82.34 82.29 82.26 82.22 82.14 81.93 81.63 80.97 80.63 81.54 81.68 81.73 81.72 81.62 81.48 81.40 81.29 81.21 81.24 81.19 81.10 81.07 81.11 81.14 81.16 81.12 81.09 81.14 81.15 81.15 81.18 81.18 81.15 81.07 81.01 80.87 80.80 80.74 80.61 80.54 80.45 80.57 80.41 80.46 80.24 80.19 80.09 80.06 79.99
