ncols 52
nrows 52
xllcorner 438784
yllcorner 5714944
cellsize 10
NODATA_value -9999
93.05 93.06 93.92 94.72 94.74 94.71 94.71 94.67 94.64 94.62 94.57 94.60 94.56 94.60 94.58 94.57 94.63 94.73 94.61 94.56 94.48 94.34 94.22 94.07 94.01 93.88 93.98 93.98 93.96 93.89 93.82 94.09 93.89 93.93 93.90 93.80 93.72 93.60 93.58 93.53 93.24 92.67 92.50 92.01 92.13 92.04 92.53 92.79 92.86 93.06 93.27 93.48
93.07 93.10 94.90 94.85 94.85 94.88 94.83 94.79 94.71 94.89 94.69 94.68 94.72 94.70 94.69 94.72 94.90 94.76 94.73 94.71 94.66 94.54 94.41 94.28 94.31 94.07 94.11 93.98 94.08 94.02 94.20 93.96 94.04 94.07 94.00 93.93 93.78 93.76 93.71 93.47 92.96 92.70 92.46 92.36 92.24 92.04 92.62 92.81 92.98 93.17 93.43 93.59
93.10 94.22 94.97 95.04 95.05 95.01 94.95 94.93 95.00 94.87 94.85 94.85 94.85 94.85 94.86 95.00 95.16 94.91 94.82 94.73 94.73 94.63 94.53 94.40 94.10 94.24 94.19 94.13 94.25 94.32 94.14 94.15 94.14 94.14 94.09 94.04 93.92 93.81 93.67 93.25 92.90 92.49 92.71 92.57 92.45 92.14 92.66 92.79 92.99 93.17 93.44 93.62
95.03 94.90 94.99 95.13 95.18 95.12 95.10 95.07 95.03 95.04 95.07 95.04 95.04 95.00 94.95 95.19 95.19 95.29 94.95 94.86 94.79 94.71 94.65 94.54 94.43 94.31 94.27 94.25 94.46 94.17 94.42 94.21 94.22 94.21 94.15 94.08 94.00 93.86 93.45 93.12 92.57 93.03 92.97 92.81 92.62 92.33 92.14 92.81 92.97 93.18 93.47 93.69
95.23 95.29 95.30 95.28 95.27 95.21 95.25 95.19 95.23 95.20 95.17 95.18 95.17 95.14 95.25 95.31 95.13 95.09 95.14 95.12 94.85 94.76 94.69 94.64 94.51 94.44 94.30 94.51 94.34 94.28 94.24 94.56 94.28 94.25 94.17 94.07 93.95 93.61 93.35 92.94 93.27 93.19 93.12 92.99 92.75 92.53 91.29 92.86 92.99 93.20 93.47 93.73
95.30 95.46 95.37 95.40 95.47 95.44 95.33 95.33 95.34 95.33 95.35 95.37 95.47 95.29 95.48 95.34 95.27 95.16 95.07 94.99 95.11 94.93 94.65 94.64 94.57 94.49 94.56 94.50 94.38 94.39 94.33 94.29 94.71 94.32 94.25 94.07 93.76 93.56 93.47 93.47 93.49 93.41 93.24 93.12 92.90 92.74 92.03 92.88 93.04 93.23 93.46 93.74
95.46 95.51 95.58 95.45 95.32 95.52 95.65 95.57 95.37 95.44 95.47 95.39 95.40 95.48 95.56 95.40 95.38 95.27 95.22 95.13 95.05 94.94 94.94 94.77 94.65 94.62 94.65 94.53 94.48 94.46 94.42 94.40 94.28 94.35 94.29 93.97 93.78 93.72 93.66 93.59 93.61 93.56 93.40 93.25 93.09 92.89 92.71 92.85 93.03 93.22 93.44 93.75
95.70 95.61 95.63 95.57 95.52 95.54 95.69 95.57 95.78 95.71 95.48 95.58 95.65 95.73 95.64 95.52 95.46 95.38 95.29 95.25 95.19 95.07 94.99 94.80 94.79 94.78 94.72 94.68 94.64 94.57 94.51 94.43 94.47 94.46 94.07 93.82 93.95 93.88 93.81 93.75 93.71 93.68 93.56 93.43 93.23 93.03 92.91 92.81 92.97 93.17 93.44 93.71
95.76 95.71 95.69 95.64 95.76 95.64 95.62 95.69 95.74 95.69 95.95 95.87 95.84 95.75 95.68 95.60 95.57 95.52 95.38 95.60 95.35 95.15 95.03 94.97 94.81 94.86 94.79 94.79 94.71 94.56 94.54 94.58 94.55 94.29 93.73 94.11 94.03 94.00 93.92 93.85 93.83 93.75 93.68 93.54 93.37 93.20 93.08 92.81 92.97 93.19 93.48 93.76
95.85 95.82 95.76 95.82 95.87 95.85 95.79 95.89 95.82 95.91 95.86 96.00 96.03 95.96 95.93 95.72 95.63 95.52 95.46 96.01 95.83 95.57 95.12 95.02 94.98 94.92 94.89 94.82 94.71 94.71 94.66 94.63 94.46 94.32 94.26 94.12 94.03 93.97 93.94 93.92 93.86 93.79 93.73 93.61 93.47 93.32 93.15 92.81 92.97 93.17 93.50 93.79
96.07 95.96 95.92 95.90 95.85 95.89 95.92 95.93 95.93 95.92 95.86 96.04 95.88 95.80 96.09 95.97 95.88 95.57 95.68 95.97 95.85 95.58 95.17 95.08 95.02 94.96 94.99 94.90 94.85 94.87 94.61 94.54 94.46 94.43 94.26 94.15 94.06 94.03 94.00 93.96 93.88 93.82 93.73 93.64 93.53 93.42 93.26 92.16 93.01 93.30 93.56 93.85
96.10 96.03 96.03 96.07 96.06 96.27 95.97 95.92 95.99 95.90 96.15 96.00 95.92 95.99 95.90 95.85 95.99 95.90 95.86 95.85 95.81 95.35 95.11 95.06 95.02 95.01 95.11 95.06 94.85 94.81 94.39 94.59 94.54 94.42 94.37 94.30 94.17 94.13 94.11 94.04 93.99 93.88 93.76 93.68 93.60 93.50 93.38 92.00 93.18 93.38 93.65 93.91
96.18 96.12 96.13 96.07 96.21 96.30 97.64 96.03 96.02 95.91 96.28 95.99 96.04 95.95 95.90 95.82 95.72 95.70 95.83 95.77 95.71 95.46 95.11 95.22 95.25 95.23 94.98 95.00 94.56 94.66 94.65 94.64 94.60 94.56 94.49 94.43 94.34 94.25 94.18 94.14 94.12 94.03 93.94 93.81 93.68 93.59 93.50 93.10 93.25 93.40 93.62 93.90
96.37 96.25 96.35 96.26 96.23 96.18 96.42 96.18 96.05 96.24 96.22 96.21 96.13 96.02 95.94 95.90 95.79 95.75 95.67 95.67 95.75 95.76 95.56 95.47 95.27 95.20 94.94 94.79 94.79 94.74 94.72 94.69 94.68 94.65 94.58 94.50 94.44 94.32 94.24 94.22 94.19 94.14 94.06 93.92 93.77 93.71 93.59 93.38 93.29 93.45 93.66 93.91
96.41 96.44 96.43 96.36 96.29 96.24 96.24 96.21 96.10 96.40 96.34 96.26 96.18 96.08 96.01 95.96 95.88 95.79 95.79 95.62 95.67 95.73 95.52 95.39 95.14 95.08 95.00 94.93 94.87 94.80 94.75 94.76 94.73 94.70 94.68 94.60 94.46 94.34 94.24 94.22 94.17 94.13 94.04 93.94 93.82 93.69 93.57 93.45 93.29 93.46 93.69 93.95
96.56 96.57 96.51 96.50 96.34 96.35 96.30 96.24 96.36 96.38 96.38 96.31 96.24 96.19 96.10 96.00 95.94 95.89 95.80 95.93 95.81 95.55 95.39 95.33 95.29 95.14 95.04 94.96 94.92 94.89 94.80 94.77 94.74 94.72 94.69 94.60 94.47 94.33 94.26 94.21 94.14 94.08 94.01 93.90 93.80 93.68 93.55 93.51 93.27 93.51 93.70 93.96
96.85 96.80 96.76 96.50 96.52 96.23 96.39 96.32 96.51 96.42 96.40 96.36 96.31 96.21 96.15 96.04 96.00 95.99 96.05 95.75 95.53 95.51 95.48 95.33 95.24 95.19 95.10 95.04 94.96 94.93 94.89 94.81 94.71 94.65 94.62 94.56 94.46 94.35 94.28 94.25 94.18 94.05 93.94 93.85 93.76 93.70 93.59 93.53 93.34 93.58 93.81 94.01
96.96 96.92 96.91 96.80 96.64 96.38 96.33 96.42 96.62 96.44 96.47 96.43 96.39 96.29 96.19 96.14 96.15 96.17 95.81 95.58 95.69 95.54 95.46 95.36 95.33 95.23 95.11 94.99 94.94 94.91 94.86 94.80 94.72 94.61 94.54 94.49 94.43 94.38 94.31 94.26 94.18 94.04 93.94 93.85 93.73 93.74 93.63 92.82 93.45 93.60 93.84 94.11
97.05 97.07 97.14 96.99 96.77 96.69 96.46 96.58 96.60 96.58 96.53 96.51 96.43 96.29 96.24 96.19 96.23 95.93 95.75 95.76 95.60 95.56 95.47 95.42 95.32 95.23 95.08 94.97 94.91 94.89 94.85 94.78 94.68 94.58 94.55 94.49 94.42 94.36 94.29 94.24 94.15 94.04 93.95 93.83 93.71 93.71 93.59 93.45 93.54 93.66 93.88 94.18
97.22 97.08 97.36 97.07 96.94 96.84 96.72 96.69 96.58 96.71 96.66 96.60 96.46 96.39 96.38 96.28 96.07 95.86 95.78 95.71 95.65 95.57 95.49 95.41 95.32 95.21 95.05 94.96 94.89 94.90 94.85 94.79 94.70 94.62 94.54 94.49 94.42 94.33 94.27 94.18 94.12 94.02 93.92 93.77 93.72 93.65 93.29 93.32 93.56 93.75 93.98 94.25
97.25 97.13 97.13 97.16 97.16 96.96 96.86 96.71 96.69 96.82 96.77 96.79 96.68 96.49 96.45 96.22 96.05 96.00 95.79 95.71 95.71 95.65 95.55 95.45 95.32 95.22 95.13 95.04 94.94 94.91 94.87 94.83 94.70 94.61 94.54 94.48 94.42 94.35 94.26 94.18 94.05 93.92 93.81 93.71 93.69 93.60 93.17 93.49 93.69 93.88 94.10 94.31
97.46 97.83 97.59 97.36 97.25 97.17 97.04 96.94 96.96 96.99 96.92 96.96 96.69 96.60 96.35 96.21 96.18 95.96 95.88 95.81 95.73 95.67 95.62 95.51 95.35 95.24 95.14 95.06 95.00 94.95 94.88 94.82 94.72 94.65 94.54 94.47 94.41 94.36 94.27 94.17 94.04 93.85 93.73 93.63 93.62 93.45 93.31 93.47 93.70 94.00 94.19 94.49
97.61 97.51 97.44 97.40 97.23 97.15 97.22 97.19 97.17 97.17 97.07 96.96 96.72 96.44 96.33 96.38 96.14 96.07 95.99 95.91 95.79 95.73 95.65 95.53 95.36 95.23 95.12 95.06 94.98 94.90 94.88 94.82 94.71 94.59 94.49 94.46 94.40 94.32 94.22 94.14 94.01 93.84 93.68 93.59 93.59 93.40 93.32 93.46 93.72 93.96 94.26 94.47
100.54 100.03 97.56 97.51 97.36 97.46 97.42 97.31 97.28 97.22 97.10 96.92 96.69 96.46 96.49 96.28 96.19 96.10 96.04 95.97 95.86 95.77 95.68 95.56 95.38 95.23 95.15 95.06 95.00 94.91 94.85 94.77 94.68 94.61 94.51 94.44 94.37 94.29 94.18 94.07 93.95 93.79 93.67 93.61 93.49 93.35 93.42 93.71 93.87 94.10 94.30 94.47
97.90 97.75 100.85 99.47 97.35 97.34 97.31 97.31 97.34 97.26 97.13 96.96 96.64 96.49 96.43 96.25 96.15 96.10 95.99 95.93 95.86 95.80 95.71 95.61 95.41 95.26 95.18 95.09 95.02 94.94 94.86 94.76 94.67 94.60 94.53 94.45 94.38 94.27 94.14 94.04 93.88 93.76 93.71 93.56 93.49 93.44 93.65 93.85 94.07 94.24 94.40 94.61
98.20 98.14 97.81 98.10 101.09 98.86 97.28 97.44 97.31 97.40 97.05 96.98 96.67 96.53 96.33 96.24 96.13 96.05 95.94 95.86 95.81 95.77 95.79 95.61 95.46 95.29 95.21 95.12 95.04 94.97 94.89 94.74 94.65 94.60 94.53 94.46 94.37 94.26 94.14 94.02 93.90 93.83 93.72 93.53 93.51 93.64 93.83 93.98 94.19 94.38 94.54 94.73
97.95 98.02 98.10 98.02 97.70 98.39 100.86 100.64 100.86 97.60 97.29 97.11 96.56 96.55 96.39 96.27 96.15 96.01 95.87 95.81 95.74 95.75 95.68 95.54 96.66 95.34 95.22 95.12 95.04 94.94 94.84 94.75 94.65 94.53 94.48 94.41 94.35 94.27 94.18 94.04 93.93 93.87 93.71 93.60 93.70 93.97 94.07 94.17 94.36 94.47 94.65 94.82
101.67 99.36 97.83 97.94 97.98 97.93 97.83 97.61 97.78 97.68 97.45 97.36 96.69 96.50 96.39 96.32 96.15 96.04 95.88 95.76 95.72 95.67 95.60 96.86 96.40 96.36 96.55 95.17 95.03 94.90 94.81 94.74 94.61 94.52 94.44 94.36 94.34 94.26 94.18 94.03 93.96 93.94 93.61 93.66 93.81 94.05 94.22 94.35 94.52 94.64 94.77 94.89
99.87 101.46 101.56 98.50 97.63 97.84 97.86 97.88 97.93 97.83 97.61 97.54 96.96 96.49 96.45 96.32 96.19 96.06 95.90 95.78 95.72 95.65 95.65 96.43 96.42 96.32 96.42 96.50 95.18 94.93 94.76 94.67 94.63 94.53 94.44 94.40 94.32 94.25 94.15 94.01 93.91 93.84 93.42 93.70 93.92 94.13 94.28 94.45 94.60 94.71 94.77 94.86
98.35 98.21 100.82 101.53 100.35 97.92 97.80 98.05 98.10 97.98 97.70 97.51 97.02 96.83 96.58 96.29 96.19 96.04 95.93 95.80 95.75 95.66 96.82 96.47 96.54 96.42 96.42 96.81 95.41 95.25 94.83 94.68 94.64 94.58 94.51 94.42 94.30 94.21 94.09 94.03 93.91 93.74 93.70 93.87 94.12 94.22 94.31 94.45 94.54 94.69 94.78 94.86
98.14 98.28 98.28 98.47 101.45 101.43 97.94 98.01 97.99 97.86 97.63 97.50 97.29 96.92 96.70 96.54 96.38 96.06 95.95 95.88 95.72 95.93 96.56 96.54 96.57 96.51 96.56 95.37 95.35 95.14 95.25 95.29 94.66 94.60 94.55 94.39 94.29 94.18 94.06 93.96 93.91 93.37 93.82 93.97 94.18 94.30 94.39 94.51 94.58 94.70 94.78 94.82
98.46 98.36 98.36 98.26 100.97 101.46 97.86 97.80 97.88 97.77 97.49 97.37 97.29 97.16 96.92 96.64 96.43 96.31 96.14 95.89 95.68 96.77 96.63 96.60 96.58 96.49 96.88 95.30 95.17 95.07 94.85 95.09 95.22 95.04 94.51 94.41 94.26 94.14 94.03 93.96 93.85 93.74 93.88 94.10 94.24 94.35 94.44 94.56 94.64 94.71 94.75 94.86
98.79 98.58 98.53 98.43 101.30 100.44 97.49 97.56 97.65 97.62 97.50 97.24 97.05 97.10 97.06 96.88 96.69 96.45 96.21 96.20 96.25 96.52 96.52 96.49 96.57 96.64 95.50 95.33 95.05 93.83 93.53 93.47 94.79 95.14 95.12 94.84 94.26 94.17 94.20 94.04 93.29 93.92 94.06 94.18 94.30 94.33 94.44 94.51 94.64 94.72 94.84 94.95
98.53 98.54 98.74 98.38 100.81 97.47 97.48 97.67 99.71 99.89 100.26 98.69 97.94 97.09 96.87 96.93 96.94 96.75 96.43 96.07 96.62 96.59 96.52 96.53 96.49 96.60 95.49 95.21 95.10 94.06 93.52 93.53 93.54 94.38 94.55 94.31 94.93 94.53 94.29 94.19 94.36 93.68 94.17 94.20 94.26 94.36 94.46 94.57 94.70 94.78 94.88 95.00
98.62 98.68 98.69 98.47 97.66 97.59 97.86 100.00 97.77 97.55 97.61 98.08 100.22 98.19 97.58 96.87 96.76 96.79 96.75 96.62 96.45 96.52 96.49 96.57 96.62 95.69 95.36 95.23 95.12 93.96 93.54 93.56 93.48 93.52 93.53 93.54 94.93 94.73 94.57 93.76 94.73 94.64 94.03 94.29 94.18 94.39 94.51 94.57 94.69 94.78 94.88 95.00
98.49 98.71 98.55 97.71 97.69 97.90 97.71 97.55 97.50 97.43 97.47 97.49 97.60 98.45 99.77 97.50 97.18 96.71 96.60 96.67 96.58 96.71 96.46 96.46 96.14 95.73 95.25 93.99 93.53 93.49 93.50 93.50 93.45 93.39 93.49 93.56 94.90 94.74 94.53 94.57 94.71 94.54 94.65 94.22 94.26 94.29 94.42 94.52 94.66 94.82 94.97 95.08
98.73 98.55 97.87 97.82 98.19 97.68 97.69 97.61 97.56 97.37 97.55 97.32 97.35 97.65 97.60 98.83 98.78 97.18 96.91 96.61 96.53 96.60 96.52 96.62 95.65 95.49 93.79 93.56 93.54 93.56 93.52 93.50 93.47 93.43 93.46 93.48 94.52 93.51 94.57 94.72 94.84 94.59 94.65 94.44 94.25 94.25 94.40 94.47 94.63 94.85 94.99 95.12
98.50 97.94 97.97 98.09 97.81 97.71 97.69 97.40 97.33 97.25 97.26 97.33 97.34 97.30 97.24 97.21 98.97 97.32 97.10 97.04 96.75 96.35 96.46 96.53 96.41 95.46 95.18 94.00 93.51 93.49 93.50 93.39 93.46 93.46 93.44 94.61 94.66 93.69 94.81 94.85 94.98 94.84 95.00 94.60 94.68 94.30 94.25 94.47 94.66 94.83 94.99 95.09
98.11 98.10 98.08 97.96 97.76 97.64 97.56 97.78 97.50 97.36 97.32 97.14 97.22 97.23 97.23 97.25 97.31 97.18 97.19 97.15 97.06 97.01 96.46 96.29 96.40 96.46 96.26 95.24 95.24 93.72 93.51 93.46 93.40 93.40 94.91 94.89 94.76 94.78 94.88 94.91 95.42 94.96 94.88 94.74 94.84 93.82 94.33 94.43 94.65 94.89 95.03 95.06
98.16 98.27 98.13 98.02 97.69 97.65 97.67 97.83 97.49 97.39 97.37 97.35 97.12 97.22 97.35 97.21 97.23 97.19 97.21 97.24 97.18 97.11 97.15 97.14 96.32 96.21 96.38 96.32 95.94 95.07 93.53 93.50 93.41 93.42 95.04 94.96 94.26 95.02 95.21 95.16 95.10 93.99 94.10 94.47 94.64 94.57 94.44 94.51 94.64 94.88 95.01 95.06
98.24 98.18 98.02 98.11 97.85 97.80 97.75 97.65 97.39 97.35 97.46 97.15 97.23 97.15 97.25 97.22 97.14 97.18 97.18 97.18 97.15 97.17 97.14 97.04 97.19 97.17 96.31 96.21 96.31 96.23 95.18 95.05 95.05 93.77 95.08 95.06 95.00 94.17 94.14 94.13 94.98 94.89 94.85 94.76 94.72 94.71 94.75 94.53 94.68 94.84 94.98 95.13
98.17 98.19 98.01 98.09 97.88 98.18 97.83 97.63 97.32 97.32 97.23 97.18 97.32 97.28 97.19 97.25 97.21 97.21 97.22 97.20 97.17 97.19 97.22 97.25 97.28 97.15 97.16 97.29 96.54 96.17 96.27 96.17 95.41 94.96 95.03 95.04 95.21 94.25 94.16 95.11 95.06 94.97 94.93 94.92 94.88 94.81 94.95 94.79 94.65 94.78 95.06 95.19
98.17 98.18 98.08 98.02 98.17 97.82 97.68 97.60 97.47 97.34 97.19 97.32 97.35 97.22 97.24 97.28 97.23 97.26 97.25 97.22 97.18 97.15 97.32 97.29 97.27 97.26 97.36 97.42 97.42 96.99 96.20 96.14 96.29 96.15 95.79 95.61 95.38 94.20 94.29 95.18 95.11 95.11 95.10 95.08 95.02 95.03 95.01 94.84 94.32 94.81 94.96 95.11
98.27 98.10 97.97 98.11 97.86 97.88 98.09 97.78 97.44 97.42 97.37 97.29 97.27 97.37 97.21 97.37 97.17 97.29 97.27 97.23 97.20 97.15 97.57 97.46 97.38 97.42 97.43 97.43 97.42 97.39 95.91 95.95 96.06 96.20 96.31 96.21 95.93 95.65 95.33 95.26 95.23 95.21 95.17 95.18 95.15 95.24 95.16 94.93 94.85 94.71 94.97 94.99
98.15 98.22 97.81 97.77 97.82 97.92 97.94 97.84 97.65 97.31 97.53 97.44 97.47 97.34 97.37 97.14 97.15 97.18 97.17 97.15 97.15 97.44 97.65 97.52 97.54 97.45 97.45 97.46 97.40 96.53 96.04 95.92 95.75 95.97 96.14 96.28 96.41 96.29 95.41 95.48 95.36 95.29 95.23 95.22 95.31 95.38 95.26 95.04 94.92 94.85 94.87 94.98
98.19 97.91 97.92 97.90 97.74 97.85 97.84 97.81 97.45 97.53 97.49 97.52 97.44 97.49 96.83 97.46 97.29 97.21 97.12 97.57 97.29 97.82 97.85 97.78 97.49 97.42 97.45 97.45 97.38 95.74 95.74 95.92 95.52 95.46 95.73 96.22 96.26 96.42 96.48 96.33 95.34 95.39 95.29 95.33 95.46 95.46 95.32 95.19 95.04 94.96 94.93 94.89
98.65 98.06 97.89 97.84 97.86 97.91 97.61 97.50 97.49 97.66 97.66 97.69 97.26 96.73 96.67 97.85 97.71 97.50 97.22 97.69 97.90 98.06 98.07 97.75 97.46 97.45 97.46 97.24 96.77 96.20 96.32 95.87 95.51 95.60 95.78 95.71 96.04 96.24 96.36 96.56 96.59 96.17 95.39 95.50 95.56 95.51 95.43 95.32 95.22 95.12 95.13 95.04
98.56 98.50 98.17 98.06 97.76 97.78 97.75 97.74 97.66 97.66 97.72 97.64 97.62 96.82 96.48 96.94 97.49 97.76 97.83 98.00 97.95 98.01 97.70 97.53 97.49 97.18 97.16 96.98 96.31 96.55 95.84 95.78 95.60 95.78 95.92 95.58 95.27 96.16 98.49 96.36 96.52 96.68 96.66 95.90 95.71 95.59 95.53 95.48 95.40 95.34 95.32 95.29
98.84 98.52 98.32 98.98 97.97 97.89 97.72 97.70 97.66 97.78 97.61 97.58 97.69 97.58 97.66 96.57 97.56 97.48 98.75 98.74 98.56 98.23 97.51 97.55 97.20 97.07 97.05 96.64 96.46 96.21 96.14 95.85 95.74 95.74 95.70 95.70 95.74 95.22 96.21 98.92 97.96 96.44 96.71 96.85 96.71 95.58 95.64 95.57 95.53 95.51 95.49 95.46
98.92 98.81 98.53 98.29 98.23 98.14 97.76 97.76 97.76 97.72 97.93 97.97 97.92 97.57 97.60 97.63 96.23 97.63 99.07 98.86 98.62 98.57 97.65 97.06 97.15 97.08 96.70 96.71 96.54 96.58 95.97 95.72 95.80 95.66 95.72 95.82 95.87 95.86 96.32 96.32 96.75 99.71 97.23 96.40 96.86 96.92 96.11 95.64 95.58 95.61 95.65 95.61
99.02 98.94 98.97 98.70 98.24 98.10 98.01 97.71 97.96 97.88 98.07 96.12 95.91 97.62 97.53 97.44 97.58 98.30 98.96 98.83 98.68 98.34 97.64 97.28 96.34 96.44 96.65 96.57 96.31 96.00 95.96 96.01 95.99 96.21 95.92 96.00 95.90 96.02 96.15 96.34 96.29 96.10 97.68 99.46 96.71 96.85 97.04 96.91 95.60 95.67 95.71 95.71
99.10 99.29 98.91 98.97 98.79 98.24 98.05 98.22 97.79 97.76 98.12 96.33 96.50 96.85 97.48 97.19 97.88 98.68 98.89 98.85 98.43 96.69 97.54 97.22 96.56 96.24 96.66 96.61 96.46 96.10 95.94 96.15 96.16 96.54 96.45 96.04 96.07 96.16 96.22 96.08 96.43 96.23 95.97 95.80 99.28 97.73 96.64 97.08 97.10 95.80 95.81 95.78
