ncols 52
nrows 52
xllcorner 438784
yllcorner 5715968
cellsize 10
NODATA_value -9999
95.35 95.63 95.92 96.54 96.48 96.45 96.48 96.43 96.39 96.29 96.17 96.07 96.00 95.91 95.71 95.46 95.18 94.86 94.51 94.21 93.86 93.53 93.19 92.84 92.49 92.16 91.82 91.57 91.18 90.81 90.57 90.25 89.99 89.80 89.66 89.46 89.32 89.31 89.08 88.76 88.96 88.65 88.18 87.81 87.61 87.44 87.36 87.18 87.02 86.88 86.71 86.51
95.58 95.85 96.34 96.33 96.35 96.27 96.39 96.46 96.42 96.35 96.26 96.17 96.05 95.90 95.66 95.38 95.05 94.71 94.43 94.13 93.81 93.44 93.11 92.75 92.43 92.10 91.79 91.45 91.02 90.72 90.49 90.19 90.02 89.77 89.59 89.46 89.24 89.18 89.20 89.01 88.18 88.50 88.12 87.85 87.57 87.43 87.31 87.17 87.03 86.85 86.69 86.51
95.61 95.93 96.33 96.32 96.19 96.27 96.39 96.46 96.42 96.32 96.28 96.21 96.08 95.89 95.66 95.34 95.00 94.63 94.27 93.99 93.68 93.35 92.97 92.69 92.38 92.13 91.83 91.47 91.02 90.62 90.32 90.04 89.90 89.75 89.56 89.39 89.26 89.21 88.90 89.07 88.95 88.10 88.19 88.00 87.74 87.47 87.26 87.13 86.96 86.79 86.64 86.50
95.70 96.30 96.30 96.36 96.31 96.39 96.48 96.50 96.44 96.32 96.26 96.18 96.04 95.86 95.59 95.31 94.99 94.64 94.25 93.97 93.61 93.24 92.89 92.64 92.40 92.15 91.87 91.48 91.06 90.62 90.29 90.02 89.78 89.60 89.41 89.43 89.38 89.24 89.30 88.90 88.02 88.87 88.63 88.00 87.85 87.62 87.34 87.18 86.98 86.77 86.60 86.48
96.28 96.33 96.33 96.40 96.47 96.54 96.57 96.58 96.49 96.38 96.23 96.14 96.02 95.83 95.55 95.25 94.96 94.62 94.27 93.93 93.56 93.17 92.85 92.56 92.32 92.06 91.81 91.44 91.01 90.59 90.26 90.01 89.78 89.62 89.53 89.43 89.25 89.31 89.21 89.05 88.55 87.89 88.78 88.56 87.61 87.65 87.61 87.30 87.00 86.77 86.61 86.49
96.15 96.29 96.34 96.44 96.52 96.60 96.64 96.65 96.57 96.47 96.32 96.17 96.01 95.80 95.52 95.22 94.91 94.58 94.22 93.85 93.48 93.12 92.80 92.48 92.21 91.99 91.70 91.34 90.88 90.53 90.23 89.94 89.76 89.60 89.51 89.37 89.24 89.34 88.98 88.75 88.67 88.50 88.24 88.60 88.49 87.48 87.52 87.39 87.13 86.86 86.65 86.52
96.38 96.38 96.42 96.48 96.50 96.54 96.64 96.67 96.65 96.55 96.45 96.27 96.06 95.82 95.49 95.17 94.86 94.53 94.18 93.82 93.45 93.07 92.73 92.43 92.16 91.92 91.62 91.22 90.82 90.46 90.15 89.91 89.77 89.64 89.53 89.35 89.53 89.08 88.82 88.78 88.58 88.50 88.35 88.04 87.81 88.42 88.16 87.11 87.17 87.03 86.74 86.53
96.32 96.43 96.51 96.54 96.56 96.58 96.69 96.68 96.62 96.56 96.43 96.30 96.10 95.82 95.46 95.12 94.81 94.47 94.14 93.79 93.43 93.08 92.71 92.40 92.14 91.90 91.60 91.19 90.77 90.42 90.12 89.90 89.73 89.65 89.59 89.65 89.17 88.82 88.76 88.74 88.58 88.41 88.17 88.04 87.84 87.05 88.31 88.11 87.15 87.02 86.85 86.66
96.30 96.51 96.62 96.64 96.65 96.67 96.71 96.68 96.58 96.56 96.40 96.22 96.04 95.78 95.50 95.13 94.78 94.44 94.11 93.77 93.40 93.03 92.70 92.41 92.17 91.91 91.57 91.15 90.75 90.40 90.13 89.92 89.72 89.65 89.75 89.65 89.11 88.87 88.76 88.75 88.63 88.41 88.15 87.95 87.88 87.66 87.33 88.16 88.04 87.56 86.90 86.72
96.43 96.60 96.68 96.72 96.75 96.74 96.67 96.63 96.58 96.50 96.35 96.15 96.02 95.71 95.44 95.14 94.79 94.46 94.12 93.75 93.41 93.04 92.71 92.41 92.14 91.88 91.54 91.12 90.72 90.43 90.16 89.99 89.83 89.70 89.83 89.31 89.03 88.96 88.86 88.80 88.63 88.39 88.15 87.97 87.80 87.68 87.57 87.35 87.45 87.98 87.72 86.35
96.51 96.73 96.83 96.86 96.85 96.77 96.67 96.59 96.58 96.50 96.36 96.15 95.97 95.71 95.42 95.15 94.76 94.40 94.07 93.72 93.37 93.02 92.68 92.39 92.11 91.83 91.47 91.07 90.70 90.40 90.20 90.11 89.91 89.96 89.54 89.23 89.10 89.01 88.93 88.76 88.57 88.35 88.15 87.95 87.77 87.59 87.47 87.41 87.20 86.42 87.91 87.71
96.53 96.71 96.84 96.90 96.93 96.89 96.77 96.64 96.54 96.44 96.31 96.15 95.92 95.66 95.34 95.01 94.60 94.26 94.01 93.63 93.31 92.97 92.65 92.38 92.12 91.82 91.46 91.05 90.67 90.43 90.25 90.12 89.85 89.84 89.46 89.26 89.15 89.07 88.93 88.78 88.54 88.29 88.10 87.92 87.74 87.60 87.45 87.33 87.27 87.04 86.73 87.75
96.58 96.69 96.80 96.89 96.94 96.93 96.86 96.72 96.55 96.43 96.28 96.08 95.86 95.60 95.28 94.88 94.50 94.18 93.92 93.57 93.26 92.94 92.57 92.31 92.07 91.80 91.46 91.01 90.64 90.39 90.26 90.11 90.10 89.63 89.33 89.23 89.18 89.08 88.96 88.79 88.57 88.31 88.08 87.88 87.67 87.53 87.41 87.29 87.13 87.01 86.94 86.61
96.66 96.79 96.89 96.95 96.96 96.96 96.87 96.71 96.53 96.39 96.28 96.08 95.85 95.55 95.22 94.83 94.46 94.15 93.85 93.52 93.16 92.83 92.50 92.25 92.02 91.72 91.37 90.96 90.64 90.46 90.21 90.24 89.83 89.49 89.34 89.25 89.18 89.05 88.95 88.81 88.57 88.30 88.07 87.85 87.69 87.54 87.40 87.26 87.08 86.99 86.90 86.82
96.66 96.77 96.88 96.99 97.04 97.05 96.91 96.73 96.51 96.34 96.21 96.04 95.83 95.55 95.22 94.86 94.48 94.13 93.80 93.46 93.11 92.76 92.45 92.19 91.97 91.64 91.33 90.95 90.70 90.42 90.24 90.06 89.72 89.50 89.35 89.26 89.13 89.05 88.92 88.75 88.55 88.30 88.01 87.85 87.71 87.56 87.44 87.26 87.10 86.95 86.82 86.70
96.60 96.71 96.84 96.96 97.03 97.04 96.97 96.79 96.55 96.31 96.14 96.00 95.78 95.51 95.18 94.90 94.56 94.18 93.79 93.40 93.02 92.71 92.40 92.15 91.91 91.62 91.29 91.01 90.75 90.46 90.49 89.99 89.68 89.49 89.38 89.27 89.15 89.06 88.94 88.75 88.51 88.27 88.02 87.85 87.71 87.56 87.41 87.22 87.05 86.93 86.79 86.65
96.57 96.72 96.83 96.93 96.96 96.99 96.93 96.76 96.52 96.29 96.11 95.95 95.71 95.47 95.18 94.88 94.54 94.18 93.81 93.44 93.02 92.66 92.37 92.07 91.88 91.62 91.28 91.04 90.82 90.71 90.29 89.85 89.64 89.49 89.35 89.20 89.08 88.99 88.87 88.72 88.52 88.24 88.04 87.87 87.68 87.55 87.38 87.18 86.96 86.85 86.77 86.60
96.50 96.64 96.72 96.84 96.88 96.87 96.83 96.62 96.38 96.17 95.99 95.82 95.62 95.38 95.10 94.79 94.46 94.10 93.70 93.32 92.94 92.60 92.29 92.03 91.77 91.53 91.19 91.10 90.70 90.57 90.15 89.83 89.56 89.39 89.27 89.14 88.99 88.88 88.78 88.65 88.41 88.20 88.04 87.87 87.73 87.57 87.40 87.18 86.99 86.87 86.75 86.63
96.40 96.54 96.60 96.71 96.71 96.69 96.70 96.55 96.27 96.05 95.80 95.63 95.48 95.29 95.04 94.76 94.40 94.02 93.61 93.22 92.86 92.49 92.17 91.90 91.69 91.46 91.34 91.19 91.07 90.45 90.09 89.77 89.56 89.37 89.20 89.06 88.91 88.81 88.65 88.53 88.32 88.15 88.01 87.89 87.71 87.59 87.44 87.27 87.10 86.91 86.78 86.61
96.29 96.47 96.49 96.54 96.54 96.54 96.58 96.42 96.20 96.00 95.76 95.53 95.37 95.14 94.89 94.62 94.31 93.94 93.55 93.14 92.76 92.42 92.10 91.85 91.62 91.53 91.39 91.39 90.78 90.31 90.03 89.79 89.56 89.40 89.22 89.04 88.90 88.76 88.62 88.42 88.26 88.13 88.00 87.85 87.69 87.56 87.42 87.27 87.11 86.93 86.79 86.63
96.26 96.34 96.39 96.36 96.44 96.39 96.40 96.31 96.09 95.91 95.64 95.43 95.23 95.01 94.74 94.46 94.08 93.73 93.38 93.01 92.65 92.35 92.04 91.79 91.57 91.55 91.14 91.04 90.58 90.24 90.00 89.80 89.61 89.45 89.27 89.04 88.86 88.73 88.58 88.43 88.23 88.07 87.97 87.81 87.66 87.53 87.40 87.23 87.05 86.90 86.75 86.60
96.11 96.22 96.27 96.28 96.25 96.26 96.20 96.18 95.95 95.70 95.46 95.24 95.08 94.78 94.54 94.30 93.96 93.59 93.21 92.82 92.51 92.19 91.93 91.74 91.67 91.56 91.51 90.86 90.43 90.14 89.96 89.78 89.59 89.42 89.21 89.01 88.83 88.67 88.51 88.40 88.26 88.11 87.93 87.77 87.61 87.47 87.29 87.13 86.99 86.83 86.70 86.58
95.88 95.94 96.01 96.02 96.02 96.03 96.04 95.97 95.76 95.44 95.25 95.04 94.86 94.60 94.33 94.13 93.73 93.43 93.10 92.73 92.39 92.07 91.79 91.73 91.60 91.60 91.11 90.67 90.34 90.13 89.93 89.72 89.51 89.32 89.12 88.93 88.79 88.62 88.47 88.32 88.19 88.09 87.93 87.77 87.59 87.45 87.25 87.09 86.96 86.83 86.68 86.56
95.65 95.71 95.73 95.75 95.71 95.76 95.75 95.73 95.52 95.21 94.97 94.85 94.62 94.38 94.11 93.82 93.46 93.13 92.90 92.51 92.24 91.99 91.68 91.67 91.35 91.20 90.80 90.50 90.26 90.07 89.86 89.69 89.46 89.24 89.04 88.89 88.72 88.59 88.41 88.28 88.14 87.96 87.89 87.75 87.62 87.45 87.28 87.14 87.00 86.84 86.69 86.53
95.56 95.50 95.50 95.49 95.48 95.49 95.52 95.43 95.29 95.02 94.83 94.64 94.46 94.14 93.83 93.51 93.24 92.96 92.62 92.29 92.06 91.89 91.71 91.68 91.56 91.02 90.65 90.38 90.18 89.96 89.75 89.58 89.38 89.19 89.02 88.85 88.68 88.55 88.38 88.26 88.09 87.90 87.76 87.67 87.56 87.43 87.30 87.15 87.01 86.88 86.71 86.52
95.29 95.33 95.26 95.34 95.28 95.29 95.24 95.16 95.02 94.89 94.69 94.52 94.26 94.01 93.71 93.40 93.06 92.78 92.44 92.15 91.96 91.83 91.70 91.65 91.25 90.85 90.56 90.32 90.08 89.85 89.63 89.47 89.28 89.11 88.95 88.79 88.68 88.54 88.38 88.24 88.06 87.89 87.72 87.60 87.52 87.41 87.28 87.14 87.00 86.90 86.72 86.57
95.11 95.13 95.11 95.09 95.06 94.98 95.03 94.89 94.77 94.60 94.46 94.27 94.06 93.82 93.58 93.25 92.96 92.65 92.34 92.05 91.81 91.73 91.31 91.35 91.06 90.76 90.48 90.23 89.96 89.75 89.54 89.38 89.22 89.07 88.91 88.74 88.60 88.47 88.39 88.25 88.09 87.94 87.79 87.61 87.47 87.37 87.27 87.13 86.97 86.87 86.72 86.54
94.93 94.90 94.92 94.82 94.83 94.79 94.83 94.82 94.54 94.46 94.20 94.00 93.76 93.57 93.31 93.07 92.80 92.52 92.22 91.99 91.75 91.74 91.62 91.19 90.87 90.58 90.38 90.08 89.84 89.63 89.43 89.30 89.14 89.01 88.86 88.68 88.53 88.40 88.29 88.16 88.06 87.96 87.82 87.68 87.52 87.34 87.22 87.12 87.01 86.84 86.66 86.51
94.66 94.67 94.68 94.74 94.65 94.64 94.53 94.54 94.42 94.29 94.14 93.73 93.60 93.29 93.05 92.77 92.55 92.31 92.08 91.82 91.70 91.69 91.30 90.94 90.71 90.51 90.25 89.99 89.72 89.55 89.35 89.18 89.04 88.88 88.75 88.61 88.47 88.33 88.23 88.11 87.99 87.88 87.76 87.67 87.53 87.38 87.24 87.13 87.01 86.88 86.68 86.49
94.40 94.46 94.52 94.52 94.48 94.42 94.35 94.34 94.22 93.98 93.78 93.58 93.41 93.17 92.77 92.58 92.26 92.04 91.83 91.73 91.33 91.33 91.00 90.75 90.58 90.37 90.12 89.87 89.64 89.43 89.27 89.11 88.96 88.80 88.64 88.52 88.40 88.29 88.17 88.07 87.96 87.86 87.72 87.59 87.47 87.35 87.25 87.13 87.00 86.85 86.72 86.56
94.26 94.28 94.32 94.27 94.29 94.21 94.16 94.09 93.94 93.82 93.60 93.33 93.07 92.83 92.58 92.40 92.17 91.82 91.78 91.65 91.68 91.13 90.81 90.63 90.45 90.18 89.95 89.73 89.52 89.35 89.21 89.08 88.92 88.75 88.60 88.48 88.34 88.25 88.17 88.08 87.94 87.83 87.73 87.58 87.43 87.30 87.19 87.07 86.93 86.81 86.63 86.60
94.06 94.12 94.12 94.14 94.07 93.99 93.93 93.80 93.69 93.51 93.29 93.12 92.88 92.64 92.38 92.07 91.92 91.82 91.63 91.74 91.22 90.87 90.63 90.48 90.26 90.02 89.83 89.65 89.45 89.29 89.18 89.02 88.88 88.74 88.57 88.39 88.28 88.19 88.11 88.02 87.88 87.78 87.72 87.57 87.40 87.27 87.15 87.05 86.92 86.74 86.60 86.60
93.99 93.99 93.97 93.95 93.86 93.80 93.74 93.52 93.45 93.27 93.12 92.88 92.67 92.41 92.16 91.98 91.75 91.69 91.42 91.28 90.96 90.71 90.52 90.36 90.11 89.93 89.75 89.57 89.41 89.24 89.14 89.01 88.86 88.70 88.58 88.40 88.25 88.12 88.06 87.97 87.84 87.75 87.64 87.51 87.37 87.22 87.11 87.00 86.87 86.73 86.65 86.61
93.89 93.86 93.86 93.76 93.67 93.60 93.43 93.28 93.18 93.04 92.93 92.70 92.47 92.21 91.94 91.75 91.66 91.57 91.62 91.07 90.72 90.55 90.42 90.24 90.04 89.85 89.67 89.52 89.34 89.20 89.07 88.95 88.85 88.73 88.59 88.44 88.24 88.11 87.99 87.92 87.82 87.70 87.55 87.42 87.27 87.14 87.01 86.94 86.80 86.73 86.60 85.98
93.79 93.80 93.69 93.61 93.50 93.35 93.20 93.03 92.92 92.84 92.73 92.55 92.32 92.00 91.76 91.68 91.54 91.67 91.12 90.75 90.56 90.43 90.28 90.10 89.92 89.78 89.61 89.44 89.29 89.13 89.00 88.86 88.74 88.65 88.57 88.44 88.26 88.13 88.01 87.90 87.80 87.67 87.52 87.38 87.20 87.05 86.95 86.82 86.75 86.71 85.21 86.35
93.68 93.64 93.54 93.50 93.42 93.24 92.98 92.80 92.73 92.65 92.56 92.36 92.11 91.85 91.68 91.57 91.28 91.20 90.85 90.61 90.46 90.32 90.13 89.95 89.81 89.65 89.51 89.37 89.24 89.11 88.96 88.79 88.65 88.57 88.47 88.38 88.27 88.13 87.96 87.87 87.76 87.60 87.48 87.31 87.12 86.95 86.83 86.73 86.68 86.64 86.36 86.53
93.51 93.42 93.41 93.34 93.21 93.07 92.91 92.77 92.64 92.47 92.38 92.19 91.91 91.70 91.57 91.49 91.59 91.02 90.69 90.50 90.38 90.24 90.04 89.86 89.69 89.56 89.41 89.28 89.15 89.06 88.92 88.76 88.59 88.48 88.38 88.32 88.18 88.08 87.95 87.86 87.72 87.56 87.41 87.22 87.01 86.86 86.70 86.67 86.64 86.38 86.54 86.51
93.37 93.32 93.25 93.11 93.02 92.89 92.76 92.62 92.52 92.43 92.28 92.04 91.79 91.66 91.53 91.63 91.12 90.75 90.60 90.46 90.30 90.12 89.96 89.81 89.64 89.49 89.34 89.18 89.07 88.96 88.83 88.67 88.56 88.47 88.37 88.23 88.12 87.98 87.88 87.79 87.64 87.48 87.30 87.10 86.91 86.71 86.63 86.62 85.43 86.59 86.57 86.61
93.20 93.14 93.04 92.96 92.87 92.71 92.61 92.51 92.40 92.28 92.12 91.99 91.80 91.65 91.46 91.24 90.90 90.65 90.50 90.38 90.21 90.03 89.87 89.68 89.56 89.43 89.29 89.17 89.01 88.88 88.76 88.63 88.50 88.39 88.29 88.15 87.99 87.88 87.78 87.65 87.53 87.37 87.20 87.00 86.80 86.66 86.61 86.45 86.64 86.71 86.66 86.79
93.03 92.97 92.88 92.82 92.74 92.62 92.49 92.36 92.24 92.14 92.04 91.82 91.78 91.62 91.66 91.09 90.81 90.57 90.47 90.32 90.13 89.96 89.78 89.62 89.47 89.35 89.24 89.12 88.94 88.82 88.69 88.58 88.44 88.33 88.17 88.07 87.93 87.82 87.69 87.57 87.43 87.25 87.04 86.91 86.74 86.68 86.67 86.64 86.77 86.76 86.82 86.93
92.87 92.78 92.72 92.65 92.63 92.49 92.33 92.29 92.16 92.08 91.98 91.80 91.69 91.78 91.25 90.88 90.70 90.57 90.42 90.26 90.08 89.90 89.73 89.57 89.42 89.27 89.16 89.03 88.87 88.73 88.67 88.55 88.39 88.26 88.11 87.97 87.87 87.74 87.62 87.49 87.32 87.14 86.97 86.81 86.75 86.74 85.60 86.78 86.81 86.90 86.98 87.06
92.74 92.65 92.58 92.54 92.47 92.38 92.28 92.18 92.04 91.99 91.91 91.83 91.60 91.33 90.99 90.80 90.64 90.52 90.36 90.21 90.04 89.87 89.72 89.52 89.35 89.21 89.11 88.94 88.84 88.72 88.64 88.51 88.38 88.22 88.08 87.94 87.85 87.69 87.56 87.39 87.25 87.06 86.89 86.79 86.75 86.56 86.81 86.93 86.93 87.03 87.11 87.21
92.64 92.51 92.44 92.46 92.38 92.26 92.17 92.07 91.96 91.89 91.82 91.81 91.79 91.14 90.85 90.67 90.60 90.44 90.29 90.14 90.00 89.86 89.68 89.48 89.30 89.20 89.04 88.94 88.82 88.71 88.62 88.48 88.33 88.20 88.09 87.96 87.81 87.67 87.52 87.33 87.15 87.00 86.87 86.83 86.92 86.87 86.94 86.92 87.00 87.19 87.29 87.38
92.77 92.52 92.44 92.33 92.21 92.18 92.06 91.93 91.85 91.82 91.76 91.97 91.33 90.97 90.76 90.66 90.54 90.37 90.19 90.08 89.94 89.80 89.62 89.46 89.34 89.22 89.04 88.90 88.77 88.70 88.57 88.44 88.29 88.17 88.07 87.93 87.81 87.69 87.49 87.31 87.18 86.99 86.93 86.94 85.81 86.83 86.81 86.90 87.10 87.29 87.40 87.48
93.21 92.82 92.62 92.34 92.12 92.00 91.87 91.82 91.77 91.82 91.88 91.49 91.15 90.88 90.73 90.61 90.45 90.30 90.14 89.98 89.85 89.74 89.58 89.43 89.34 89.19 89.06 88.91 88.78 88.65 88.53 88.41 88.26 88.15 88.06 87.93 87.83 87.68 87.49 87.29 87.15 87.04 86.94 86.30 86.81 86.90 86.83 86.96 87.12 87.28 87.47 87.59
92.45 92.53 92.88 92.78 92.37 92.22 92.04 91.79 91.81 91.67 91.92 91.36 91.06 90.80 90.68 90.51 90.36 90.23 90.06 89.94 89.79 89.66 89.49 89.36 89.25 89.19 89.07 88.92 88.78 88.67 88.53 88.39 88.29 88.18 88.05 87.94 87.81 87.66 87.46 87.28 87.11 87.08 87.14 86.84 86.93 86.87 86.88 86.99 87.12 87.33 87.51 87.64
92.56 92.43 92.30 92.21 92.21 92.47 92.40 92.13 91.99 92.10 91.57 91.20 90.90 90.70 90.56 90.49 90.28 90.16 90.01 89.86 89.71 89.54 89.41 89.31 89.17 89.09 88.97 88.87 88.75 88.67 88.55 88.42 88.29 88.14 87.98 87.87 87.73 87.57 87.40 87.25 87.19 87.23 86.10 86.95 86.99 86.92 87.01 87.06 87.14 87.28 87.50 87.69
92.50 92.45 92.28 92.22 92.10 91.94 91.72 92.08 92.11 92.13 91.62 91.37 91.07 90.78 90.59 90.43 90.27 90.08 89.95 89.79 89.63 89.45 89.32 89.21 89.11 89.00 88.89 88.79 88.69 88.62 88.50 88.40 88.23 88.06 87.90 87.78 87.60 87.45 87.32 87.28 87.23 87.03 86.96 87.11 87.05 87.07 87.09 87.12 87.19 87.31 87.43 87.62
92.47 92.35 92.25 92.15 92.08 92.09 92.10 92.04 91.99 91.31 91.67 91.57 91.35 91.05 90.74 90.52 90.27 90.07 89.92 89.74 89.57 89.40 89.27 89.22 89.15 88.99 88.88 88.75 88.68 88.57 88.47 88.31 88.14 87.99 87.82 87.64 87.51 87.40 87.30 87.32 87.40 87.47 87.25 87.13 87.21 87.22 87.25 87.26 87.27 87.28 87.39 87.58
92.52 92.37 92.18 92.12 92.04 92.01 92.10 91.87 92.01 91.75 91.42 91.38 90.49 91.15 91.00 90.64 90.41 90.17 89.96 89.71 89.48 89.36 89.25 89.17 89.13 89.03 88.88 88.79 88.66 88.51 88.41 88.24 88.07 87.89 87.70 87.54 87.46 87.39 87.43 87.54 87.08 87.32 87.29 87.35 87.36 87.42 87.41 87.39 87.39 87.38 87.44 87.54
92.49 92.35 92.23 92.09 92.00 91.98 91.83 91.93 91.89 91.69 91.42 91.33 91.06 90.79 90.36 89.81 90.51 90.47 90.09 89.85 89.59 89.40 89.22 89.10 89.00 88.94 88.81 88.74 88.58 88.45 88.32 88.16 87.99 87.83 87.65 87.57 87.48 87.47 87.64 86.79 87.24 87.25 87.29 87.46 87.58 87.58 87.58 87.54 87.50 87.46 87.47 87.57
92.47 92.32 92.21 92.14 91.99 92.03 91.93 91.88 91.86 91.65 91.46 91.29 90.88 90.71 90.43 90.31 90.22 90.09 89.42 89.99 89.92 89.57 89.36 89.22 89.00 88.79 88.65 88.60 88.55 88.35 88.19 88.03 87.89 87.75 87.66 87.59 87.57 87.77 86.50 87.24 87.22 87.26 87.39 87.51 87.66 87.71 87.70 87.61 87.60 87.57 87.58 87.61
