ncols 52
nrows 52
xllcorner 438784
yllcorner 5716480
cellsize 10
NODATA_value -9999
87.23 87.08 87.19 86.98 87.29 87.39 87.34 87.32 87.33 87.37 87.41 87.42 87.43 87.40 87.41 87.43 87.39 87.34 87.38 87.37 87.38 87.40 87.35 87.32 87.32 87.34 87.31 87.23 87.22 87.19 87.05 86.94 86.97 86.98 86.89 86.83 86.96 86.84 86.60 86.62 86.55 86.47 86.37 86.31 86.23 86.16 86.07 86.00 85.99 85.94 85.87 85.79
87.39 87.15 87.38 87.40 87.39 87.42 87.45 87.46 87.50 87.56 87.65 87.68 87.68 87.67 87.68 87.69 87.66 87.54 87.64 87.64 87.65 87.69 87.65 87.58 87.51 87.47 87.43 87.36 87.20 87.28 87.23 87.20 87.29 87.11 87.04 86.88 87.09 86.88 86.75 86.74 86.66 86.57 86.46 86.40 86.29 86.21 86.12 86.09 86.00 86.00 85.94 85.84
87.60 87.51 87.43 87.47 87.51 87.55 87.61 87.67 87.72 87.79 87.85 87.91 87.93 87.93 87.93 87.96 87.93 87.88 87.90 87.99 87.89 87.92 87.83 87.78 87.70 87.55 87.49 87.49 87.48 87.44 87.37 87.32 87.29 87.19 87.19 86.92 87.22 87.00 86.82 86.85 86.77 86.64 86.58 86.43 86.36 86.28 86.25 86.15 86.08 86.03 85.96 85.93
87.50 87.50 87.54 87.63 87.69 87.75 87.79 87.86 87.91 87.99 88.07 88.17 88.24 88.24 88.22 88.23 88.24 88.25 88.14 88.26 88.15 88.14 87.97 87.77 87.80 87.77 87.69 87.65 87.59 87.51 87.47 87.49 87.42 87.35 87.24 87.20 87.38 87.11 86.96 86.94 86.85 86.75 86.60 86.50 86.43 86.43 86.36 86.28 86.18 86.09 86.06 85.98
87.59 87.61 87.69 87.81 87.93 87.97 88.01 88.07 88.12 88.21 88.32 88.42 88.48 88.51 88.50 88.52 88.53 88.53 88.39 88.44 88.35 88.27 88.18 88.10 88.01 87.89 87.82 87.73 87.64 87.63 87.60 87.61 87.43 87.44 87.33 87.33 87.28 87.20 87.12 87.04 86.95 86.81 86.68 86.58 86.56 86.56 86.48 86.37 86.24 86.18 86.13 86.07
87.73 87.76 87.90 88.04 88.14 88.23 88.28 88.35 88.43 88.51 88.58 88.67 88.75 88.81 88.81 88.80 88.86 88.84 88.60 88.74 88.65 88.50 88.38 88.29 88.15 88.01 87.91 87.85 87.79 87.75 87.74 87.74 87.56 87.50 87.65 87.52 87.34 87.19 87.21 87.15 87.06 86.92 86.79 86.71 86.70 86.63 86.57 86.40 86.35 86.26 86.22 86.12
87.97 88.01 88.13 88.25 88.37 88.48 88.54 88.63 88.73 88.80 88.87 88.97 89.06 89.11 89.14 89.04 89.04 89.07 89.06 88.96 88.83 88.65 88.51 88.37 88.27 88.15 88.05 87.99 87.92 87.92 87.74 87.73 87.62 87.68 87.75 87.46 87.35 87.33 87.29 87.23 87.12 87.03 86.90 86.86 86.79 86.73 86.63 86.50 86.43 86.35 86.26 86.15
88.26 88.32 88.39 88.50 88.65 88.76 88.82 88.97 89.10 89.17 89.24 89.40 89.46 89.35 89.47 89.45 89.37 89.33 89.24 89.09 88.92 88.82 88.68 88.51 88.41 88.29 88.21 88.17 88.14 88.12 87.99 87.86 87.84 87.46 87.63 87.54 87.37 87.41 87.36 87.23 87.18 87.09 87.06 86.98 86.91 86.78 86.66 86.61 86.52 86.42 86.33 86.19
88.43 88.50 88.57 88.71 88.89 89.02 89.13 89.30 89.43 89.54 89.53 89.64 89.79 89.84 89.81 89.73 89.69 89.57 89.39 89.24 89.10 88.97 88.84 88.68 88.57 88.46 88.45 88.35 88.18 88.38 88.58 88.26 88.08 88.02 87.73 87.54 87.54 87.51 87.40 87.30 87.22 87.19 87.15 87.11 86.96 86.85 86.78 86.67 86.58 86.54 86.38 86.27
88.65 88.71 88.83 88.97 89.16 89.31 89.47 89.62 89.60 89.74 89.79 89.79 89.88 89.99 90.02 89.99 89.93 89.81 89.63 89.46 89.32 89.20 89.04 88.92 88.83 88.74 88.61 88.52 88.49 88.54 88.44 88.23 88.10 87.85 87.73 87.66 87.69 87.57 87.47 87.39 87.32 87.28 87.22 87.12 87.00 86.90 86.78 86.72 86.66 86.55 86.43 86.32
89.00 89.03 89.15 89.26 89.46 89.53 89.67 89.84 89.88 89.89 89.90 89.95 90.06 90.12 90.16 90.10 90.09 90.03 89.90 89.74 89.57 89.44 89.46 89.21 88.65 89.03 88.75 88.74 88.62 88.61 88.07 88.32 88.08 87.94 87.73 87.80 87.73 87.63 87.57 87.50 87.46 87.39 87.30 87.17 87.07 86.92 86.79 86.81 86.71 86.62 86.51 86.41
89.42 89.45 89.46 89.46 89.61 89.74 89.83 89.89 90.04 90.07 90.10 90.18 90.26 90.31 90.30 90.26 90.24 90.22 90.14 90.06 90.03 89.90 89.63 89.60 89.53 89.29 89.01 88.83 88.12 88.59 88.64 88.32 88.11 87.98 87.99 87.91 87.79 87.72 87.66 87.65 87.58 87.53 87.40 87.26 87.17 87.02 86.92 86.90 86.82 86.71 86.57 86.37
89.51 89.78 89.99 89.79 89.90 89.94 90.02 90.07 90.22 90.30 90.34 90.40 90.48 90.52 90.49 90.42 90.51 90.29 90.45 90.45 90.51 90.26 89.90 89.71 89.57 89.56 89.41 89.13 88.21 88.98 87.69 88.25 88.18 88.11 88.11 87.98 87.88 87.78 87.78 87.76 87.70 87.60 87.44 87.39 87.26 87.16 87.06 86.97 86.85 86.72 86.57 86.53
91.81 90.09 90.00 90.03 90.02 90.16 90.25 90.32 90.48 90.55 90.60 90.65 90.70 90.77 90.82 90.59 90.51 90.44 90.57 90.45 90.55 90.12 90.09 89.82 89.73 89.56 89.71 89.50 89.30 88.85 88.63 88.42 88.24 88.31 88.19 88.09 88.00 87.96 87.92 87.90 87.81 87.67 87.60 87.48 87.39 87.30 87.17 87.05 86.89 86.78 86.69 86.57
92.83 90.96 90.26 90.34 90.25 90.39 90.46 90.58 90.62 90.82 90.80 90.93 91.01 91.01 90.96 90.81 90.68 90.72 90.67 90.49 90.59 90.45 90.18 90.00 89.88 89.77 89.71 89.57 89.28 88.88 88.69 88.51 88.52 88.42 88.31 88.23 88.15 88.11 88.07 88.00 87.86 87.79 87.70 87.60 87.48 87.32 87.21 87.10 86.98 86.88 86.74 86.60
90.99 93.45 90.54 90.65 90.54 90.61 90.71 90.82 90.90 91.14 91.10 91.15 91.20 91.21 91.22 91.06 90.90 90.90 90.90 90.77 90.89 90.53 90.46 90.15 90.04 89.97 89.85 89.84 89.40 89.04 88.85 88.72 88.64 88.54 88.44 88.35 88.29 88.24 88.17 88.06 87.98 87.88 87.81 87.71 87.53 87.40 87.30 87.20 87.08 86.96 86.81 86.66
91.21 91.03 93.60 90.76 90.91 90.85 90.95 91.06 91.23 91.33 91.35 91.41 91.46 91.48 91.47 91.30 91.17 91.10 91.15 91.00 90.94 90.74 90.51 90.28 90.14 90.13 89.91 89.79 89.58 89.24 89.04 88.97 88.82 88.69 88.57 88.50 88.42 88.37 88.28 88.15 88.08 87.99 87.88 87.75 87.62 87.50 87.36 87.18 87.15 87.02 86.87 86.70
90.36 91.25 90.94 93.79 91.28 91.20 91.21 91.34 91.45 91.54 91.56 91.68 91.72 91.73 91.69 91.54 91.42 91.33 91.29 91.14 91.12 91.03 90.82 90.45 90.32 90.22 89.93 89.62 89.50 89.35 89.30 89.15 88.99 88.85 88.74 88.64 88.56 88.44 88.30 88.26 88.17 88.07 87.94 87.80 87.67 87.56 87.45 87.37 87.21 87.06 86.89 86.75
90.77 90.57 91.29 91.09 93.30 91.71 91.46 91.55 91.68 91.83 91.91 91.92 91.93 91.93 91.93 91.82 91.65 91.61 91.58 91.39 91.31 91.10 90.93 90.62 90.70 90.22 89.96 89.94 89.58 89.51 89.38 89.29 89.14 89.04 88.90 88.82 88.68 88.52 88.44 88.35 88.25 88.18 88.04 87.90 87.76 87.65 87.57 87.40 87.24 87.10 86.95 86.79
91.01 91.10 90.87 91.32 91.60 92.93 91.89 91.84 91.97 92.11 92.17 92.19 92.21 92.21 92.19 92.01 91.89 91.79 92.39 91.63 91.53 91.30 91.06 90.77 90.53 90.35 90.36 90.16 89.97 89.77 89.59 89.42 89.34 89.20 89.12 88.96 88.80 88.68 88.54 88.46 88.35 88.19 88.06 87.94 87.85 87.76 87.61 87.43 87.31 87.14 87.01 86.82
91.18 91.35 91.56 91.18 91.35 92.15 92.60 92.24 92.23 92.35 92.44 92.44 92.43 92.39 92.42 92.28 92.11 92.04 92.40 91.78 91.71 91.46 91.12 90.94 90.56 90.26 90.50 90.30 90.26 90.29 90.04 89.81 89.59 89.39 89.26 89.04 88.93 88.85 88.70 88.57 88.43 88.28 88.15 88.03 87.90 87.81 87.64 87.50 87.31 87.18 87.05 86.86
91.44 91.64 91.87 92.04 91.33 91.38 92.77 92.99 92.68 92.71 92.70 92.69 92.60 92.63 92.65 92.55 92.38 92.27 92.49 92.06 91.86 91.74 91.50 91.19 90.71 90.90 90.55 90.38 90.32 90.22 90.02 90.04 89.99 89.82 89.63 89.38 89.12 88.98 88.80 88.69 88.50 88.36 88.19 88.07 87.99 87.82 87.67 87.52 87.40 87.25 87.08 86.96
91.72 91.90 92.10 92.40 92.43 91.47 91.40 93.19 93.38 93.08 93.03 92.99 92.95 92.92 92.97 92.90 92.73 92.61 93.09 92.32 92.17 92.03 91.67 91.24 91.18 90.94 90.71 90.52 90.34 90.27 90.17 90.02 89.88 89.51 89.82 89.75 89.61 89.21 88.97 88.91 88.67 88.40 88.28 88.17 88.02 87.84 87.67 87.54 87.43 87.28 87.17 87.00
92.09 92.25 92.46 92.68 92.96 93.02 91.55 91.42 93.32 93.60 93.58 93.48 93.43 93.43 93.42 93.35 93.15 93.00 92.71 92.68 92.62 92.11 91.71 91.68 91.88 91.01 90.82 90.72 90.54 90.38 90.19 90.00 89.88 89.74 89.62 89.50 89.13 89.59 89.46 89.28 88.96 88.69 88.43 88.19 88.00 87.88 87.74 87.63 87.51 87.35 87.20 87.03
92.55 92.76 92.96 93.15 93.37 93.61 93.67 91.60 91.43 93.69 94.07 94.02 94.00 93.92 93.77 93.63 93.43 93.22 92.96 92.67 92.59 92.64 92.07 92.50 91.37 91.19 91.06 90.92 90.75 90.55 90.35 90.17 89.96 89.75 89.59 89.57 89.45 89.31 89.26 88.85 89.31 89.01 88.71 88.38 88.14 87.98 87.81 87.68 87.54 87.39 87.21 87.00
92.92 93.06 93.24 93.39 93.54 93.71 93.94 93.78 91.62 91.42 93.82 94.13 94.05 93.88 93.74 93.65 93.47 93.26 93.07 92.79 92.43 92.68 93.18 91.90 91.61 91.45 91.30 91.13 90.94 90.72 90.50 90.28 90.07 89.85 89.69 89.58 89.42 89.29 89.25 89.15 89.00 88.88 88.55 88.87 88.65 88.28 87.92 87.70 87.59 87.42 87.25 87.08
92.95 93.18 93.35 93.51 93.67 93.83 94.04 94.21 93.65 91.61 91.41 93.93 94.32 94.13 94.04 94.02 93.78 93.56 93.33 92.94 92.71 93.32 93.09 92.00 91.81 91.68 91.51 91.32 91.14 90.91 90.68 90.43 90.19 89.98 89.79 89.63 89.50 89.42 89.22 89.09 88.99 88.85 88.61 88.42 88.30 88.10 88.35 88.16 87.73 87.52 87.25 87.07
93.09 93.32 93.51 93.69 93.85 94.01 94.15 94.28 94.46 93.56 91.61 91.39 94.00 94.44 94.29 94.16 93.96 93.73 93.51 93.09 92.86 94.14 92.40 92.20 92.06 91.89 91.71 91.50 91.30 91.11 90.88 90.60 90.34 90.10 89.88 89.72 89.59 89.47 89.32 89.23 88.99 88.73 88.44 88.29 88.21 88.10 87.97 87.82 87.71 87.78 87.36 87.13
93.30 93.52 93.74 93.94 94.13 94.26 94.39 94.40 94.48 94.69 93.39 91.59 91.35 94.21 94.55 94.33 94.10 93.88 93.54 93.04 94.90 92.81 92.64 92.45 92.29 92.07 91.86 91.61 91.45 91.28 91.06 90.76 90.47 90.24 90.00 89.81 89.69 89.53 89.41 89.21 88.90 88.65 88.46 88.31 88.13 87.93 87.84 87.74 87.62 87.49 87.19 87.43
93.48 93.76 93.99 94.18 94.33 94.46 94.56 94.63 94.62 94.76 94.88 93.31 91.57 91.32 94.29 94.65 94.26 93.94 93.72 95.44 93.71 93.06 92.86 92.70 92.50 92.27 92.00 91.79 91.60 91.41 91.17 90.84 90.54 90.29 90.08 89.89 89.73 89.60 89.45 89.13 88.82 88.59 88.45 88.26 88.10 87.96 87.81 87.67 87.40 87.35 87.25 87.12
93.65 93.90 94.10 94.32 94.47 94.59 94.71 94.75 94.75 94.79 94.97 95.06 93.05 91.55 91.29 94.27 94.58 94.19 95.54 95.60 93.46 93.28 93.10 92.88 92.64 92.38 92.14 91.91 91.71 91.53 91.24 90.90 90.57 90.30 90.09 89.87 89.73 89.65 89.39 89.04 88.81 88.61 88.43 88.26 88.08 87.93 87.75 87.55 87.39 87.23 87.06 86.95
93.79 94.00 94.19 94.40 94.57 94.71 94.80 94.83 94.82 94.85 94.93 95.07 95.11 92.82 91.51 91.27 93.94 95.08 96.34 93.80 93.70 93.52 93.28 93.00 92.72 92.48 92.26 92.04 91.81 91.63 91.30 90.94 90.60 90.32 90.10 89.89 89.78 89.53 89.22 88.96 88.79 88.61 88.44 88.25 88.08 87.90 87.72 87.56 87.38 87.24 87.05 86.91
93.91 94.09 94.29 94.49 94.67 94.83 94.94 95.01 94.99 95.00 95.06 95.11 95.24 95.17 93.00 91.49 91.26 93.91 94.65 94.19 93.90 93.65 93.42 93.11 92.83 92.61 92.37 92.14 91.93 91.72 91.40 91.01 90.66 90.36 90.10 89.96 89.75 89.40 89.14 88.90 88.74 88.56 88.41 88.26 88.07 87.90 87.73 87.56 87.38 87.20 87.07 86.96
94.05 94.24 94.44 94.61 94.82 95.00 95.11 95.18 95.21 95.29 95.34 95.32 95.24 95.31 95.15 92.90 91.42 91.19 93.65 94.30 94.17 93.83 93.55 93.29 92.98 92.73 92.48 92.22 92.02 91.78 91.39 90.99 90.67 90.37 90.13 90.00 89.62 89.32 89.08 88.90 88.72 88.58 88.42 88.26 88.06 87.86 87.73 87.57 87.42 87.23 87.10 86.94
94.29 94.44 94.59 94.77 94.98 95.15 95.29 95.40 95.45 95.51 95.58 95.51 95.46 95.40 95.44 96.63 93.36 91.37 91.15 93.26 94.29 94.06 93.71 93.44 93.15 92.85 92.57 92.35 92.12 91.81 91.39 90.96 90.64 90.40 90.22 89.93 89.57 89.30 89.06 88.87 88.72 88.60 88.45 88.25 88.01 87.84 87.68 87.54 87.40 87.27 87.14 86.85
94.50 94.66 94.80 94.99 95.17 95.33 95.49 95.59 95.66 95.70 95.71 95.65 95.53 95.64 95.62 97.33 95.32 93.28 91.32 91.10 93.17 94.10 93.89 93.57 93.25 92.94 92.64 92.42 92.20 91.81 91.36 90.96 90.65 90.44 90.19 89.84 89.54 89.28 89.06 88.85 88.70 88.58 88.41 88.20 87.99 87.78 87.63 87.49 87.36 87.29 87.05 87.38
94.60 94.78 94.93 95.11 95.30 95.47 95.62 95.74 95.79 95.81 95.81 95.77 95.83 95.99 97.46 95.64 95.33 95.26 93.51 91.25 91.04 92.70 93.94 93.73 93.40 93.02 92.72 92.49 92.19 91.80 91.32 90.93 90.67 90.48 90.10 89.78 89.50 89.26 89.03 88.85 88.70 88.59 88.37 88.11 87.89 87.67 87.53 87.36 87.29 87.20 87.49 87.12
94.71 94.85 95.02 95.19 95.37 95.54 95.71 95.83 95.84 95.86 95.86 95.86 96.11 97.35 96.89 95.51 95.25 95.26 95.15 93.84 91.15 90.98 92.11 93.70 93.49 93.12 92.79 92.51 92.19 91.77 91.29 90.94 90.73 90.37 90.01 89.73 89.47 89.22 89.00 88.82 88.70 88.54 88.30 88.06 87.81 87.61 87.42 87.32 87.28 87.05 87.27 86.87
94.87 94.96 95.10 95.27 95.46 95.65 95.79 95.84 95.88 95.91 95.86 96.15 96.46 97.52 95.83 95.52 95.30 95.16 95.11 94.96 94.19 91.05 90.90 91.42 93.38 93.14 92.79 92.49 92.18 91.73 91.26 90.98 90.67 90.27 89.96 89.69 89.45 89.18 88.98 88.82 88.64 88.45 88.22 88.00 87.78 87.59 87.41 87.33 87.21 87.47 87.01 86.67
94.96 95.09 95.21 95.35 95.54 95.69 95.84 95.94 96.00 96.00 96.20 96.29 97.51 96.10 95.89 95.55 95.38 95.22 95.05 94.88 94.75 94.34 90.91 90.81 90.92 93.05 92.81 92.49 92.13 91.69 91.29 90.99 90.54 90.20 89.90 89.64 89.39 89.15 88.96 88.78 88.58 88.37 88.17 87.95 87.74 87.55 87.43 87.35 87.54 87.21 86.83 86.60
95.01 95.16 95.28 95.43 95.61 95.78 95.90 96.00 96.06 96.15 96.41 97.37 96.27 96.15 95.78 95.61 95.48 95.29 95.10 94.89 94.67 94.43 94.27 90.82 90.70 90.39 92.69 92.46 92.13 91.70 91.31 90.84 90.44 90.14 89.86 89.60 89.34 89.11 88.91 88.70 88.51 88.33 88.10 87.89 87.70 87.55 87.48 87.23 87.44 87.02 86.76 86.64
95.03 95.21 95.38 95.50 95.68 95.84 95.98 96.07 96.11 96.35 97.09 97.00 96.38 96.06 95.84 95.68 95.49 95.31 95.11 94.86 94.62 94.33 94.08 93.93 90.81 90.63 90.18 92.25 92.07 91.68 91.19 90.75 90.39 90.11 89.83 89.53 89.28 89.05 88.80 88.61 88.47 88.29 88.06 87.86 87.69 87.57 87.45 87.69 87.29 86.90 86.75 86.60
95.15 95.29 95.39 95.56 95.74 95.89 96.04 96.11 96.32 96.32 97.31 96.53 96.22 95.94 95.86 95.72 95.56 95.35 95.12 94.83 94.54 94.25 93.93 93.69 93.48 91.08 90.53 90.24 91.83 91.54 91.08 90.66 90.31 90.05 89.75 89.46 89.23 88.99 88.74 88.57 88.46 88.23 88.03 87.83 87.69 87.62 87.82 87.52 87.14 86.82 86.69 86.54
95.26 95.37 95.46 95.59 95.79 95.99 96.11 96.23 96.55 97.18 96.46 96.45 96.08 95.97 95.84 95.70 95.57 95.35 95.13 94.86 94.54 94.21 93.82 93.49 93.29 93.11 91.63 90.42 90.21 91.32 91.06 90.62 90.26 89.95 89.71 89.42 89.21 88.96 88.73 88.63 88.43 88.22 88.02 87.85 87.80 87.50 87.68 87.32 87.02 86.83 86.67 86.53
95.33 95.46 95.56 95.69 95.90 96.06 96.16 96.49 97.02 96.61 96.49 96.30 96.18 96.02 95.88 95.76 95.53 95.31 95.06 94.81 94.51 94.18 93.82 93.43 93.10 92.90 92.78 92.24 90.30 90.12 90.65 90.63 90.28 89.94 89.63 89.39 89.15 88.93 88.81 88.65 88.44 88.23 88.04 87.93 87.78 87.98 87.59 87.20 87.01 86.81 86.65 86.51
95.32 95.49 95.65 95.81 95.99 96.09 96.36 96.71 96.83 96.69 96.40 96.28 96.21 96.04 95.91 95.76 95.50 95.22 94.99 94.68 94.34 94.04 93.73 93.35 93.00 92.76 92.60 92.36 91.93 90.16 90.02 89.93 90.18 89.93 89.62 89.31 89.10 88.95 88.83 88.62 88.42 88.18 88.07 87.99 88.15 87.81 87.42 87.15 87.02 86.85 86.68 86.50
95.36 95.51 95.68 95.89 96.09 96.31 96.58 96.94 96.53 96.49 96.29 96.12 96.24 96.10 96.01 95.73 95.44 95.19 94.93 94.60 94.21 93.89 93.56 93.20 92.91 92.71 92.49 92.11 91.75 91.21 89.96 89.93 89.51 89.81 89.65 89.31 89.09 88.94 88.79 88.62 88.38 88.22 88.18 87.86 88.05 87.58 87.28 87.11 86.99 86.85 86.68 86.47
95.36 95.57 95.77 95.93 96.20 96.52 96.86 96.43 96.47 96.35 96.26 96.18 96.10 95.97 95.80 95.68 95.50 95.24 94.86 94.47 94.14 93.79 93.50 93.14 92.92 92.70 92.32 91.90 91.57 91.13 90.71 90.07 89.85 89.53 89.47 89.38 89.14 88.99 88.76 88.60 88.43 88.33 88.20 88.38 87.84 87.42 87.25 87.10 87.02 86.86 86.63 86.46
95.50 95.66 95.87 96.10 96.48 96.61 96.48 96.62 96.43 96.39 96.33 96.25 96.13 95.97 95.78 95.57 95.32 95.10 94.83 94.53 94.19 93.74 93.39 93.10 92.88 92.65 92.22 91.84 91.37 90.87 90.55 90.33 90.13 89.76 89.53 89.23 89.19 88.96 88.81 88.62 88.52 88.44 88.61 88.08 87.68 87.41 87.27 87.15 87.07 86.88 86.65 86.47
95.50 95.71 95.94 96.60 96.64 96.46 96.57 96.47 96.40 96.39 96.34 96.26 96.15 96.00 95.79 95.54 95.27 94.97 94.65 94.31 94.10 93.77 93.44 93.07 92.78 92.46 92.16 91.78 91.33 90.78 90.36 90.12 90.02 89.88 89.65 89.45 89.02 89.02 88.90 88.67 88.62 88.54 88.40 87.94 87.67 87.46 87.30 87.18 87.04 86.85 86.68 86.50
95.47 95.76 96.01 96.40 96.62 96.55 96.58 96.40 96.38 96.32 96.24 96.14 96.12 96.00 95.79 95.50 95.24 94.92 94.56 94.23 93.92 93.57 93.22 93.07 92.72 92.36 92.08 91.66 91.25 90.85 90.41 90.12 89.90 89.82 89.67 89.43 89.37 88.55 88.92 88.82 88.70 88.82 88.27 87.85 87.61 87.46 87.36 87.19 87.04 86.83 86.67 86.54
95.35 95.64 95.96 96.53 96.48 96.51 96.47 96.43 96.38 96.28 96.18 96.05 96.02 95.93 95.73 95.49 95.18 94.85 94.52 94.21 93.87 93.53 93.21 92.88 92.49 92.15 92.00 91.59 91.20 90.84 90.52 90.23 90.00 89.79 89.65 89.46 89.17 89.29 88.93 88.85 88.95 88.67 88.20 87.83 87.60 87.46 87.36 87.21 87.02 86.88 86.69 86.53
