ncols 52
nrows 52
xllcorner 439296
yllcorner 5717504
cellsize 10
NODATA_value -9999
78.07 77.95 78.11 78.29 78.30 78.42 78.52 78.58 78.76 78.86 78.99 79.16 78.93 79.31 79.55 79.56 79.67 79.88 80.09 80.28 80.43 80.55 80.69 80.82 80.94 81.04 81.12 81.12 81.04 80.92 80.78 80.57 80.36 80.83 81.01 81.10 81.18 81.25 81.38 81.50 81.62 81.79 81.88 81.90 81.97 81.97 81.97 82.02 82.04 82.06 82.15 82.26
78.15 76.94 77.92 78.10 78.08 78.24 78.32 78.42 78.49 78.64 78.72 78.90 79.02 79.69 79.44 79.42 79.42 79.60 79.82 80.01 80.14 80.28 80.40 80.54 80.64 80.76 80.85 80.89 80.82 80.65 80.73 79.91 80.76 81.05 81.22 81.31 81.38 81.48 81.54 81.63 81.74 81.85 81.96 81.92 82.00 82.01 82.02 82.02 82.08 82.10 82.18 82.27
78.08 78.24 77.05 77.84 78.00 78.06 78.15 78.28 78.38 78.41 78.50 78.65 78.79 78.91 79.70 79.34 79.31 79.36 79.56 79.76 79.85 79.97 80.10 80.19 80.31 80.40 80.49 80.59 80.61 79.18 80.25 80.59 80.90 81.18 81.38 81.46 81.56 81.61 81.64 81.73 81.79 81.86 82.00 82.00 82.07 82.02 82.03 82.04 82.10 82.12 82.16 82.26
78.04 78.12 78.17 77.90 76.54 77.27 78.00 78.12 78.25 78.30 78.36 78.46 78.61 78.72 78.75 79.50 79.25 79.25 79.37 79.49 79.58 79.67 79.76 79.83 79.94 80.11 80.16 80.32 79.74 80.11 80.37 80.71 81.03 81.29 81.50 81.57 81.64 81.66 81.69 81.77 81.81 81.85 81.97 82.02 82.02 82.02 82.04 82.06 82.09 82.14 82.15 82.24
78.06 78.03 78.04 78.16 78.17 78.26 76.75 78.02 78.07 78.16 78.26 78.35 78.43 78.54 78.70 78.97 78.93 79.19 79.14 79.26 79.28 79.33 79.38 79.48 79.57 79.65 79.07 79.98 80.16 80.40 80.65 80.91 81.22 81.40 81.56 81.65 81.68 81.69 81.70 81.76 81.84 81.87 81.97 82.02 82.02 81.96 81.98 82.00 82.07 82.14 82.15 82.23
78.04 78.03 78.05 78.12 78.14 78.21 78.08 76.91 77.90 78.02 78.07 78.17 78.28 78.33 78.47 78.61 79.39 79.11 79.08 79.03 79.04 79.03 79.10 79.08 79.31 79.62 79.96 80.25 80.46 80.70 80.93 81.18 81.35 81.51 81.59 81.65 81.68 81.68 81.72 81.74 81.78 81.83 81.85 82.00 82.08 82.10 82.04 82.05 82.07 82.13 82.16 82.19
78.05 78.03 78.05 78.12 78.13 78.16 78.21 78.31 78.09 78.10 78.04 78.07 78.12 78.18 78.31 78.45 78.52 79.18 78.98 78.86 78.85 78.84 78.81 78.28 79.65 79.93 80.21 80.46 80.72 80.96 81.14 81.31 81.45 81.56 81.58 81.65 81.68 81.68 81.71 81.72 81.77 81.81 81.82 81.93 81.99 82.04 82.03 82.04 82.06 82.17 82.22 82.21
78.02 77.96 78.00 78.06 78.08 78.13 78.10 78.15 78.21 78.26 76.65 78.06 78.11 78.10 78.14 78.27 78.38 78.26 78.71 78.83 78.66 78.69 79.10 79.33 79.68 79.98 80.29 80.55 80.82 81.06 81.25 81.38 81.50 81.57 81.63 81.66 81.67 81.68 81.72 81.75 81.78 81.81 81.88 81.94 82.04 81.97 81.94 81.98 82.07 82.18 82.30 82.34
77.97 77.96 78.00 78.03 78.03 78.08 78.09 78.15 78.17 78.22 78.32 76.77 78.08 78.13 78.15 78.15 78.26 78.34 78.88 78.71 78.51 78.82 78.97 79.30 79.64 79.97 80.32 80.60 80.81 81.08 81.25 81.42 81.52 81.57 81.66 81.70 81.74 81.77 81.79 81.82 81.84 81.92 81.97 82.00 82.00 82.08 82.07 82.15 82.29 82.36 82.46 82.65
77.96 77.97 77.99 78.04 78.02 78.07 78.06 78.14 78.14 78.17 78.25 78.29 78.47 76.81 77.76 78.09 78.25 78.36 78.40 78.90 78.24 78.62 78.94 79.25 79.61 79.95 80.26 80.57 80.83 81.07 81.23 81.41 81.50 81.65 81.73 81.81 81.83 81.83 81.82 81.84 81.82 81.92 81.99 82.03 82.08 81.99 82.04 81.94 81.99 82.26 82.26 82.42
77.96 77.95 77.99 78.04 78.00 78.03 78.05 78.13 78.11 78.14 78.18 78.22 78.28 78.38 78.32 77.97 78.28 78.30 78.39 78.55 78.87 78.59 78.97 79.24 79.59 79.92 80.22 80.57 80.78 81.03 81.22 81.40 81.60 81.61 81.61 81.79 81.86 81.85 81.77 81.79 81.72 81.39 81.43 81.68 81.75 81.46 82.09 82.40 82.36 82.40 82.46 82.41
77.94 77.93 77.98 78.04 78.03 78.04 78.06 78.11 78.10 78.12 78.18 78.24 78.28 78.29 78.40 76.96 78.18 77.74 78.03 78.17 78.72 78.69 78.90 79.19 79.52 79.86 80.19 80.52 80.82 81.06 81.23 81.31 81.47 81.54 81.33 81.42 81.65 81.75 81.84 81.85 81.72 81.84 81.85 82.05 81.89 81.38 82.14 82.82 82.26 82.33 82.52 82.62
77.92 77.93 77.98 78.02 78.02 78.03 78.04 78.10 78.09 78.11 78.16 78.21 78.24 78.33 78.37 78.52 78.34 78.46 78.47 78.54 78.62 78.98 78.79 79.13 79.41 79.76 80.17 80.51 80.72 80.82 81.13 81.21 81.09 81.18 81.17 81.22 81.40 81.64 81.71 81.68 81.64 81.82 81.84 81.84 81.87 81.56 81.62 82.48 82.48 82.38 82.45 82.47
77.95 77.96 77.98 78.02 78.00 78.00 78.07 78.12 78.12 78.12 78.19 78.21 78.24 78.31 78.33 78.39 77.00 78.43 78.49 78.63 78.74 78.57 79.10 79.13 79.44 79.72 79.97 80.24 80.44 80.23 80.86 81.15 81.19 81.01 81.03 81.11 81.18 81.51 81.56 81.50 81.54 81.67 81.66 81.74 81.76 81.52 81.48 82.04 82.26 82.34 82.50 82.55
77.93 77.93 78.00 78.03 77.97 78.02 78.04 78.10 78.14 78.17 78.15 78.24 78.24 78.31 78.32 78.38 78.57 78.51 78.47 78.61 78.73 78.86 78.84 79.10 79.31 79.43 79.54 80.08 80.51 80.63 80.77 80.91 80.87 80.88 80.80 80.80 80.93 80.92 81.35 81.32 81.32 81.36 81.43 81.18 81.15 81.24 81.31 82.19 82.28 82.18 82.02 81.82
77.94 77.96 77.96 78.02 77.99 78.02 78.06 78.11 78.14 78.14 78.18 78.20 78.21 78.29 78.35 78.37 78.51 78.28 78.51 78.58 78.71 78.75 78.87 79.26 79.31 79.45 79.56 80.06 80.49 80.17 80.10 80.51 80.74 80.80 80.73 80.61 80.47 80.51 80.97 81.10 80.98 81.10 80.92 80.92 80.99 81.00 81.37 81.63 82.15 82.36 82.51 82.71
78.04 78.04 78.04 78.04 78.06 78.11 78.13 78.15 78.17 78.18 78.20 78.22 78.26 78.28 78.32 78.40 78.46 78.42 78.69 78.58 78.63 78.80 79.01 79.32 79.47 79.53 79.67 79.66 79.86 80.14 80.50 80.44 80.65 80.80 80.66 80.51 80.36 80.27 80.82 80.88 80.90 80.89 80.92 81.03 81.36 81.33 81.51 81.77 82.09 82.63 82.63 82.72
78.01 78.06 78.17 78.16 78.12 78.17 78.18 78.15 78.18 78.22 78.23 78.27 78.32 78.34 78.37 78.39 78.40 78.55 77.91 78.60 78.74 78.93 79.19 79.32 78.73 79.60 79.51 79.68 79.93 80.20 80.34 80.42 80.65 80.81 80.61 80.63 80.46 80.31 80.45 80.74 80.83 80.89 81.00 81.08 81.32 81.38 81.58 81.86 82.24 82.67 82.58 82.63
77.99 78.04 78.10 78.17 78.18 78.23 78.24 78.21 78.23 78.30 78.32 78.32 78.31 78.29 78.29 78.32 78.51 78.52 78.51 78.18 78.65 78.83 79.10 79.27 79.45 79.74 79.68 79.78 79.85 80.18 80.67 80.76 80.74 80.68 80.50 80.69 80.28 79.61 80.28 80.48 80.71 80.79 80.96 81.13 81.22 81.38 81.53 81.91 82.34 82.41 82.48 82.63
78.07 78.14 78.22 78.28 78.36 78.37 78.32 78.24 78.29 78.27 78.27 78.23 78.23 78.30 78.51 78.47 78.49 78.50 78.68 78.58 78.51 78.75 79.01 79.29 79.38 79.58 79.85 79.60 79.85 80.09 80.61 80.99 80.74 80.71 80.44 80.10 79.60 80.07 80.39 80.60 80.54 80.72 80.93 81.06 81.20 81.37 81.67 82.09 82.26 82.35 82.34 82.46
78.14 78.18 78.27 78.40 78.38 78.38 78.35 78.29 78.31 78.28 78.29 78.35 78.54 78.47 78.46 78.46 78.52 78.61 78.71 77.18 78.55 78.68 78.95 79.18 79.32 79.51 79.14 79.96 79.91 80.06 80.51 81.07 80.70 80.59 80.37 79.89 79.62 80.43 80.58 80.64 81.10 81.04 80.88 80.97 81.16 81.16 81.18 82.27 82.32 82.41 82.44 82.49
78.16 78.18 78.29 78.40 78.37 78.35 78.38 78.31 78.33 78.43 78.54 78.48 78.45 78.53 78.62 78.61 78.64 78.65 78.67 78.66 78.65 78.62 78.86 79.08 79.25 79.41 79.65 79.64 80.03 80.13 80.59 80.89 80.88 80.59 80.42 79.50 79.60 79.99 80.58 80.68 79.54 79.52 80.81 80.97 81.06 81.16 81.26 82.11 82.30 82.29 81.95 81.40
78.12 78.19 78.26 78.40 78.45 78.41 78.36 78.32 78.44 78.50 78.51 78.55 78.57 78.59 78.57 78.58 78.62 78.64 78.72 78.81 78.76 78.63 78.76 79.01 79.22 79.42 79.70 80.03 80.28 79.99 80.56 80.82 80.92 80.62 80.40 79.57 79.53 80.44 80.50 79.38 80.34 80.55 80.72 80.76 80.70 80.73 80.24 80.53 81.31 81.84 82.39 82.59
78.14 78.19 78.31 78.44 78.49 78.50 78.47 78.41 78.39 78.51 78.51 78.51 78.54 78.57 78.58 78.65 78.68 78.69 78.68 78.71 77.25 78.69 78.71 78.98 79.19 79.43 79.72 80.06 80.17 80.28 80.58 80.76 80.93 80.64 80.39 80.35 80.41 80.38 80.52 79.36 80.13 80.43 79.71 80.08 81.01 81.20 81.96 82.25 82.32 82.30 82.75 83.02
78.16 78.20 78.32 78.51 78.53 78.59 78.50 78.45 78.43 78.44 78.52 78.55 78.60 78.65 78.64 78.63 78.63 78.63 78.66 78.75 78.84 78.68 78.71 78.93 79.18 79.50 79.80 80.04 80.18 79.48 80.33 80.36 80.52 80.46 80.40 80.36 80.43 79.54 79.69 80.58 80.82 81.01 81.18 81.08 81.26 81.68 82.01 82.07 82.45 82.58 82.93 83.11
78.16 78.20 78.32 78.65 78.64 78.64 78.57 78.50 78.46 78.50 78.60 78.60 78.61 78.66 78.66 78.65 78.67 78.70 78.74 78.81 78.82 78.12 78.75 78.97 79.22 79.41 79.57 79.82 80.01 79.85 80.15 80.40 80.57 80.80 80.98 80.96 80.72 80.29 80.94 81.13 81.04 81.06 81.06 81.13 81.29 81.68 81.70 81.85 82.12 82.54 83.06 83.30
78.13 78.46 78.43 78.61 78.67 78.61 78.58 78.56 78.51 78.58 78.56 78.65 78.68 78.66 78.71 78.75 78.82 78.84 78.88 78.90 78.82 78.92 78.82 78.96 79.06 79.21 79.37 79.52 79.76 79.93 80.55 80.62 80.50 81.11 81.47 81.45 81.01 80.65 80.95 81.04 81.04 80.92 80.69 80.38 81.04 81.27 81.40 81.64 81.75 82.41 82.82 83.16
78.04 78.21 78.35 78.53 78.59 78.67 78.65 78.63 78.54 78.65 78.67 78.74 78.83 78.79 78.86 78.93 78.93 78.97 78.98 78.96 78.83 78.64 78.75 78.76 78.83 78.95 79.26 79.60 79.99 80.45 80.60 80.83 80.09 80.57 81.52 81.61 81.53 81.20 80.91 81.15 80.53 79.74 79.68 79.77 80.96 81.24 81.17 81.38 81.52 82.22 82.79 83.40
78.24 78.08 78.39 78.61 78.60 78.62 78.65 78.66 78.66 78.69 78.81 78.82 79.06 78.90 78.96 79.01 78.91 78.93 78.80 78.88 78.85 78.86 78.82 79.04 78.98 79.07 79.48 79.79 80.07 80.33 80.64 80.95 81.25 80.28 80.68 81.51 81.60 81.54 81.24 80.72 80.02 79.81 79.69 80.18 81.28 81.27 81.26 81.40 81.51 81.97 82.61 82.94
78.25 78.36 78.24 78.64 78.68 78.61 78.71 78.68 78.71 78.92 78.99 79.10 79.00 79.06 79.09 78.91 78.88 78.96 78.95 78.87 78.89 78.83 78.93 77.43 79.00 79.12 79.36 79.64 79.92 80.30 80.64 80.93 81.18 81.37 80.44 80.76 81.64 81.70 81.43 80.95 80.89 80.86 80.98 81.18 81.14 81.19 81.36 81.57 81.56 81.81 82.31 82.38
78.35 78.35 78.49 78.29 78.76 78.71 78.63 78.77 78.86 78.90 78.95 78.99 79.02 78.94 78.96 79.07 79.02 79.13 79.02 78.90 78.92 78.88 78.92 78.88 79.05 79.10 79.22 79.53 79.88 80.19 80.47 80.76 81.07 81.25 81.46 80.40 80.85 81.56 81.38 81.03 80.97 80.91 81.08 81.18 81.19 81.21 81.35 81.48 81.60 81.76 81.96 82.29
78.43 78.40 78.44 78.56 78.27 78.77 78.87 78.86 78.86 78.89 78.92 78.96 78.99 79.04 79.09 79.07 79.14 79.17 79.11 78.97 78.91 78.91 78.90 79.01 78.67 79.11 79.23 79.42 79.65 79.99 80.33 80.64 80.91 81.16 81.33 81.49 80.41 81.02 81.37 81.20 81.00 80.96 81.04 81.23 81.18 81.22 81.32 81.28 81.58 81.79 82.31 82.82
78.48 78.49 78.48 78.52 78.61 78.43 78.87 78.89 78.90 78.92 78.93 78.93 78.99 78.96 79.02 79.05 79.05 79.13 79.04 79.01 79.09 78.98 78.91 79.11 78.85 78.95 79.00 79.33 79.57 79.81 80.14 80.45 80.70 81.02 81.23 81.38 81.53 80.85 81.06 81.26 81.14 81.05 80.96 81.12 81.19 81.25 81.26 81.26 81.62 82.21 82.51 82.85
78.51 78.50 78.52 78.54 78.58 78.68 78.62 78.88 78.89 78.93 78.96 78.97 78.97 78.98 79.01 79.10 78.99 79.10 79.08 79.06 79.04 79.10 79.00 79.33 79.13 78.77 78.83 79.24 79.40 79.68 79.93 80.21 80.50 80.76 81.01 81.26 81.45 81.62 81.11 81.38 81.15 81.05 80.96 81.03 81.09 81.12 81.47 81.99 82.13 82.33 82.57 82.85
78.53 78.51 78.52 78.56 78.57 78.60 78.72 78.61 78.93 78.96 78.96 78.96 78.95 79.00 79.03 79.01 79.00 79.11 79.02 79.11 79.06 79.07 79.14 79.08 79.31 79.07 78.39 79.05 79.32 79.46 79.66 79.93 80.26 80.60 80.86 81.04 81.27 81.44 80.71 81.25 81.32 81.13 81.03 81.06 81.21 81.67 82.04 82.16 82.29 82.50 82.67 82.88
78.57 78.56 78.54 78.59 78.60 78.62 78.65 78.73 78.56 79.00 78.96 78.97 78.96 78.97 79.02 79.11 79.09 79.10 79.12 79.08 79.09 79.09 79.14 79.18 79.15 79.12 79.04 78.60 79.22 79.32 79.51 79.78 80.04 80.28 80.61 80.83 81.07 81.27 81.40 81.24 81.33 81.18 81.06 81.59 81.82 81.97 82.12 82.27 82.45 82.60 82.76 83.00
78.61 78.65 78.66 78.68 78.69 78.65 78.64 78.69 78.74 78.51 78.99 79.03 79.00 79.03 79.00 79.07 79.12 79.12 79.15 79.04 78.87 79.00 79.11 79.17 79.21 79.15 79.10 79.03 78.98 79.27 79.36 79.56 79.81 80.04 80.31 80.58 80.83 80.67 80.73 81.17 81.27 81.29 81.65 81.64 81.75 81.97 82.21 82.39 82.56 82.80 83.01 83.20
78.66 78.68 78.78 78.76 78.78 78.77 78.72 78.71 78.72 78.78 78.48 79.09 79.07 79.06 79.03 79.07 79.08 79.11 79.20 79.18 78.82 78.88 78.91 79.21 79.16 79.13 79.13 79.12 78.94 79.01 79.30 79.40 79.53 79.62 79.23 79.66 80.15 81.26 81.44 81.27 81.46 81.30 81.64 81.68 81.75 81.98 82.21 82.36 82.67 82.90 83.02 83.20
78.69 78.75 78.82 78.89 78.87 78.85 78.84 78.79 78.76 78.75 78.83 78.52 79.14 79.09 79.08 79.09 79.10 79.14 78.95 78.88 79.04 79.01 78.97 79.11 79.10 79.11 79.14 79.18 79.15 78.80 78.73 79.03 79.34 79.57 79.88 80.21 80.55 80.96 81.37 81.63 80.82 81.07 81.82 81.81 81.85 82.02 82.19 82.41 82.79 83.04 83.17 83.34
78.74 78.81 78.88 78.96 78.99 78.99 78.94 78.91 78.84 78.80 78.80 78.85 78.45 79.20 79.14 79.16 79.08 79.00 78.95 78.82 78.90 79.00 79.07 79.32 79.13 79.14 79.06 78.99 79.06 79.17 79.31 79.14 79.26 79.50 79.78 80.14 80.44 80.80 81.16 81.54 81.73 81.68 81.79 81.97 82.06 82.19 82.37 82.69 83.01 83.22 83.23 83.35
78.82 78.86 78.99 79.07 79.09 79.11 79.09 79.04 78.96 78.89 78.86 78.84 78.86 78.44 79.24 78.91 78.97 78.81 78.98 79.02 79.11 79.16 79.29 79.74 79.67 79.31 79.36 79.69 79.57 79.43 79.20 79.13 79.30 79.49 79.69 79.98 80.25 80.65 81.00 81.32 81.61 81.24 81.32 82.07 82.26 82.49 82.65 82.85 83.07 83.27 83.36 83.40
78.94 78.97 79.08 79.15 79.19 79.21 79.19 79.18 79.12 79.00 78.90 78.96 78.98 79.07 78.33 79.29 79.29 79.32 79.29 78.97 79.15 79.13 79.01 79.31 79.23 79.54 79.44 79.46 79.45 79.45 79.36 79.13 79.24 79.41 79.56 79.82 80.11 80.49 80.83 81.17 81.49 81.66 81.88 82.18 82.42 82.55 82.68 82.86 83.05 83.29 83.39 83.45
78.99 79.06 79.15 79.26 79.27 79.29 79.27 79.28 79.24 79.14 79.08 78.96 78.65 79.31 79.26 78.75 78.81 79.07 79.12 79.08 79.10 79.17 79.11 79.14 78.57 79.53 79.47 79.47 79.47 79.46 79.38 79.24 79.18 79.36 79.53 79.71 80.02 80.42 80.69 81.02 81.30 81.53 81.70 81.71 82.29 82.53 82.65 82.83 83.07 83.28 83.38 83.51
79.08 79.09 79.21 79.31 79.35 79.38 79.34 79.36 79.33 79.20 78.79 79.06 79.19 78.88 78.98 79.03 79.08 79.10 79.10 79.11 79.18 79.20 79.18 79.27 77.91 79.52 79.53 79.48 79.50 79.49 79.38 79.25 79.19 79.32 79.46 79.65 79.93 80.27 80.58 80.90 81.14 81.38 81.65 82.05 82.01 82.35 82.56 82.76 83.00 83.21 83.37 83.47
79.19 79.17 79.22 79.34 79.45 79.49 79.43 79.35 78.83 79.00 79.21 79.19 79.02 79.04 78.92 79.09 79.09 79.06 78.95 79.02 79.15 79.24 79.22 79.29 79.29 79.56 79.54 79.48 79.50 79.48 79.43 79.29 79.16 79.32 79.45 79.61 79.88 80.11 80.43 80.71 80.98 81.28 81.57 81.80 82.11 82.24 82.43 82.67 82.86 83.09 83.24 83.37
79.36 79.30 79.29 79.40 79.46 79.33 78.89 79.22 79.33 79.32 79.22 79.22 79.21 79.02 79.00 78.96 78.98 79.01 78.93 78.96 79.10 79.18 79.28 79.28 79.32 79.56 79.49 79.47 79.51 79.49 79.45 79.29 79.14 79.26 79.38 79.54 79.75 79.97 80.25 80.52 80.82 81.10 81.35 81.87 82.16 82.36 82.32 82.60 82.72 82.95 83.06 83.22
79.50 79.44 79.48 79.47 78.95 79.35 79.41 79.46 78.57 78.69 79.40 79.32 79.17 79.04 78.91 78.96 78.93 78.97 79.04 79.12 79.15 79.17 79.35 79.31 79.30 79.38 79.55 79.48 79.48 79.45 79.40 79.33 79.18 79.25 79.35 79.46 79.65 79.86 80.10 80.40 80.67 80.96 81.26 81.47 81.61 81.72 82.70 82.49 82.74 82.83 82.89 83.14
79.61 79.64 79.58 79.44 78.82 79.44 79.52 79.55 79.66 79.88 79.73 79.49 79.06 78.93 78.87 78.93 78.92 78.97 79.12 79.15 79.19 79.07 79.36 79.32 79.29 78.39 79.50 79.46 79.46 79.48 79.43 79.40 79.19 79.21 79.30 79.44 79.62 79.80 80.03 80.25 80.46 80.72 81.03 81.38 81.54 81.68 81.86 82.46 82.89 82.78 82.93 82.94
79.72 79.81 79.62 79.43 79.47 79.45 79.60 79.79 79.93 80.09 80.17 80.01 79.09 78.88 78.85 78.95 79.03 79.12 79.14 79.19 79.07 79.23 79.45 79.19 79.36 79.17 79.47 79.50 79.49 79.51 79.48 79.43 79.29 79.19 79.31 79.46 79.55 79.72 79.89 80.12 80.32 80.55 80.85 81.26 81.56 81.62 81.74 82.01 82.26 82.85 83.11 82.90
79.80 79.87 79.73 79.54 78.89 79.68 79.84 80.06 80.00 80.23 80.17 80.24 79.62 78.90 78.92 79.01 79.11 79.04 79.04 79.15 79.22 79.35 79.45 79.19 79.39 79.44 79.40 79.48 79.50 79.56 79.51 79.47 79.39 79.25 79.29 79.43 79.55 79.71 79.86 80.04 80.17 80.40 80.65 81.08 81.47 81.65 81.72 81.82 82.04 82.15 82.43 82.96
79.89 80.01 79.91 79.56 78.81 79.70 79.93 80.12 80.19 80.33 80.20 79.81 79.63 79.29 79.03 78.99 79.08 79.09 79.22 79.42 79.42 79.37 79.43 79.40 79.42 79.43 79.51 79.50 79.50 79.54 79.49 79.41 79.32 79.24 79.32 79.49 79.60 79.70 79.85 79.95 80.10 80.28 80.51 80.92 81.40 81.60 81.59 81.60 81.78 81.94 82.13 82.33
80.06 80.18 79.83 79.74 79.21 79.94 80.15 80.27 80.36 80.40 80.19 79.63 79.29 79.53 79.57 79.07 79.28 79.44 79.61 79.54 79.40 79.37 79.47 79.46 79.29 79.44 78.15 79.39 79.47 79.47 79.46 79.42 79.36 79.29 79.36 79.51 79.68 79.74 79.83 79.90 80.00 80.18 80.46 80.89 81.13 81.27 81.36 81.48 81.57 81.71 81.94 82.15
