ncols 52
nrows 52
xllcorner 439296
yllcorner 5713920
cellsize 10
NODATA_value -9999
101.73 101.76 101.81 101.84 101.90 101.97 102.13 102.36 102.48 102.75 102.62 102.05 103.76 104.03 104.78 105.20 105.53 105.75 106.06 106.38 106.94 107.29 106.75 106.48 106.50 106.02 103.77 103.40 103.64 103.91 104.00 104.28 104.54 104.47 104.74 105.21 105.22 105.32 105.65 105.68 105.53 105.58 105.58 105.39 105.51 105.36 105.29 105.25 105.11 104.64 104.27 104.29
102.24 102.10 101.76 101.63 101.56 101.52 101.66 102.12 102.54 102.89 103.14 103.32 103.79 104.20 104.61 105.07 105.57 106.03 106.31 106.54 106.80 107.07 106.90 106.80 104.45 104.24 104.15 103.45 103.70 103.88 104.28 104.48 104.76 104.77 104.93 105.27 105.32 105.48 105.82 105.84 105.74 105.71 105.71 105.51 105.61 105.14 105.25 105.33 105.12 104.42 104.31 104.28
103.04 102.58 102.14 102.10 102.43 103.41 104.15 105.22 105.90 106.03 105.66 104.51 102.68 102.85 103.65 104.26 104.60 104.62 105.17 106.24 106.88 106.83 106.75 106.59 105.09 104.62 103.90 103.67 103.80 104.10 104.40 104.71 104.89 104.93 104.93 105.44 105.65 105.66 105.85 105.97 105.86 105.68 105.46 104.83 104.37 103.86 104.20 102.86 102.50 102.88 101.83 101.85
100.10 100.14 100.11 100.15 100.21 100.28 100.30 100.18 101.17 102.93 104.76 106.38 106.75 105.07 103.27 101.97 101.84 102.36 103.86 105.23 106.11 106.68 106.69 106.75 105.76 104.12 103.92 103.82 104.08 104.25 104.59 104.76 104.97 105.03 104.79 103.75 103.11 102.88 101.97 101.48 101.71 101.81 101.89 101.77 101.86 101.79 102.10 102.08 102.11 102.26 102.01 101.93
100.07 100.17 100.18 100.06 100.21 100.28 100.19 100.21 100.21 100.29 100.26 100.48 101.88 103.39 104.84 106.23 105.94 104.03 102.02 101.14 102.73 106.83 106.78 106.60 103.65 103.00 103.68 103.24 103.75 101.49 102.49 101.76 101.63 101.60 101.70 101.72 101.46 101.30 101.37 101.43 101.43 101.44 101.61 101.54 101.82 101.93 101.96 101.96 102.07 102.08 102.01 102.11
100.16 100.12 100.20 100.19 100.25 100.21 100.17 100.12 100.19 100.19 100.21 100.23 100.34 100.29 100.36 100.89 102.47 104.10 104.68 102.17 100.84 106.81 106.90 106.33 101.03 100.68 100.70 100.86 100.93 100.75 100.78 100.71 100.84 100.94 100.93 101.13 101.22 101.22 101.17 101.27 101.49 101.46 101.93 102.23 103.02 104.51 105.81 105.73 102.52 101.55 101.24 101.12
100.25 100.21 100.29 100.28 100.25 100.35 100.18 100.18 100.26 100.26 100.13 100.20 100.23 100.29 100.34 100.36 100.45 100.44 100.45 100.63 100.51 104.79 106.96 107.01 100.96 100.54 100.73 100.73 100.71 100.76 100.81 100.79 100.93 100.94 100.99 101.13 101.13 101.07 101.03 101.29 101.77 104.09 105.87 106.70 106.79 106.42 107.90 106.42 102.59 100.87 100.90 100.95
100.22 100.21 100.22 100.07 100.09 99.98 100.27 100.24 100.23 100.26 99.91 100.04 100.10 100.12 100.25 100.29 100.54 100.44 100.51 100.55 100.37 103.56 106.96 107.07 101.87 100.50 100.77 100.56 100.53 100.56 100.74 100.84 100.94 100.94 100.96 100.93 100.73 100.92 101.35 104.17 106.44 106.81 106.99 107.14 107.02 106.66 106.36 105.71 103.00 100.55 100.19 100.13
100.68 99.95 99.90 99.93 99.88 99.87 100.14 100.37 100.29 100.54 100.68 100.41 100.25 100.19 100.35 100.79 100.67 100.44 100.40 100.31 100.26 102.47 107.07 106.99 103.08 100.38 100.45 100.56 100.46 100.38 100.54 100.57 100.68 100.48 100.32 100.59 101.09 103.67 105.99 106.84 107.03 106.86 106.39 105.79 104.99 103.56 102.71 101.67 100.55 100.13 100.22 100.28
101.34 101.17 101.18 101.03 100.91 101.87 101.97 101.37 100.34 100.13 100.17 100.28 100.30 100.35 100.48 100.73 100.65 100.46 100.48 100.48 100.33 101.48 107.13 106.48 103.89 100.25 100.29 100.30 100.18 100.10 100.15 100.10 100.17 100.39 100.49 103.14 105.00 105.71 106.10 105.04 104.01 102.85 101.55 100.70 99.88 99.69 99.73 99.83 99.94 99.72 99.13 99.36
101.33 101.18 101.25 101.07 100.90 100.22 100.12 100.07 100.04 100.26 100.31 100.32 100.28 100.29 100.25 100.27 100.36 100.09 100.36 100.46 100.65 100.05 101.40 100.55 100.11 99.61 99.77 99.90 99.86 99.96 99.97 99.77 100.12 100.57 104.05 105.28 104.13 102.36 100.94 100.16 100.04 99.88 99.76 99.65 99.69 99.55 99.14 99.58 99.71 99.58 99.50 99.15
99.57 99.68 99.58 99.53 99.51 99.79 99.68 99.61 99.51 99.54 99.51 99.68 99.57 99.65 99.60 99.61 99.53 99.47 99.55 99.51 99.39 99.26 99.66 99.60 99.67 99.56 99.56 99.51 99.51 99.61 99.56 99.77 100.89 102.57 102.92 101.05 100.81 100.75 100.43 99.96 99.65 99.23 99.60 99.59 99.65 99.60 98.96 99.67 101.22 102.78 104.18 105.73
99.57 99.57 99.54 99.51 99.57 99.50 99.53 99.50 99.49 99.47 99.47 99.56 99.51 99.53 99.86 99.85 99.43 99.46 99.58 99.56 99.58 99.75 100.04 99.64 99.61 99.70 99.72 99.53 99.57 99.55 99.48 99.62 99.71 100.05 100.21 99.76 99.36 99.49 99.57 99.69 99.57 99.20 98.89 99.85 101.49 103.31 104.91 105.91 106.76 106.87 106.00 105.43
99.25 99.21 99.20 99.28 99.23 99.22 99.24 99.24 99.47 99.16 99.14 99.21 99.21 99.41 99.53 99.47 99.42 99.41 99.46 99.48 99.52 99.62 99.81 99.64 99.53 99.57 99.54 99.46 99.42 99.44 99.57 99.22 99.25 99.55 99.66 99.57 99.43 98.95 99.76 101.23 102.79 104.22 105.27 106.47 106.39 106.44 106.44 106.29 107.05 107.02 106.03 105.67
99.24 99.29 99.38 99.34 99.29 99.18 99.21 99.22 99.28 99.17 99.14 99.54 99.44 99.41 99.49 99.66 99.49 99.54 99.49 99.56 99.54 99.58 99.43 99.22 99.51 99.72 99.11 98.92 99.54 99.61 99.54 99.50 98.90 99.80 101.12 102.44 104.05 105.68 106.77 106.78 106.65 106.55 106.49 106.43 106.40 106.40 106.16 106.07 106.61 108.44 106.54 105.90
99.25 99.40 99.55 99.51 99.51 99.49 99.51 99.56 99.51 99.77 99.60 99.47 99.50 99.55 99.54 99.50 99.52 99.50 99.48 99.46 99.61 99.58 99.43 99.50 99.36 99.55 99.49 99.09 99.57 100.94 102.14 103.67 105.06 106.06 106.32 106.38 106.51 106.62 106.68 106.70 106.68 106.91 106.86 106.71 106.77 106.76 106.67 106.42 106.03 108.12 108.24 106.75
99.51 99.51 99.52 99.52 99.47 99.52 99.50 99.52 99.52 99.50 99.54 99.48 99.61 99.46 99.43 99.53 99.57 99.53 99.56 99.53 99.60 99.50 99.49 99.84 101.34 102.39 102.90 104.10 104.40 105.25 105.66 105.89 105.97 106.16 106.24 106.35 106.64 106.61 106.88 106.78 106.78 106.78 106.73 106.70 106.82 106.68 106.87 106.56 106.39 105.92 106.83 106.12
99.53 99.51 99.45 99.44 99.43 99.52 99.50 99.46 99.43 99.47 99.69 99.52 99.45 99.46 99.68 99.77 99.63 99.64 99.65 100.82 101.56 102.94 104.18 106.40 106.72 106.93 105.97 105.56 105.54 105.61 105.62 105.67 105.93 106.04 106.14 106.30 106.44 106.56 106.68 106.85 106.79 106.82 106.74 106.79 106.85 106.69 106.77 106.63 106.43 106.29 105.79 105.55
99.51 99.46 99.41 99.44 99.40 99.45 99.43 99.47 99.49 99.71 99.75 99.64 99.69 99.40 99.54 100.78 101.70 103.24 103.88 104.38 104.39 105.61 106.06 106.40 106.65 106.61 105.99 105.41 105.43 105.60 105.67 105.71 105.87 105.99 106.22 106.32 106.56 106.44 106.63 106.77 106.77 106.85 106.82 106.85 106.79 106.73 106.81 106.71 106.67 106.25 106.05 105.36
99.46 99.46 99.43 99.71 99.66 99.73 99.62 99.76 99.35 99.54 99.95 101.68 102.44 103.30 103.82 103.89 103.98 104.11 104.19 105.21 105.34 105.71 105.99 106.26 106.56 106.54 105.40 105.35 105.39 105.38 105.56 105.77 105.91 106.08 106.19 106.34 106.37 106.47 106.61 106.66 106.82 106.86 106.87 106.87 106.83 106.83 107.04 106.73 106.82 106.68 106.01 105.43
99.62 99.73 99.45 99.42 99.68 100.62 101.50 102.18 103.34 103.29 103.15 103.37 103.70 103.89 103.96 104.55 104.58 104.74 104.87 105.03 105.40 105.62 106.08 106.42 106.61 106.54 106.06 105.28 105.24 105.49 105.82 105.86 105.96 106.19 106.35 106.36 106.43 106.51 106.60 106.73 106.79 106.78 106.85 106.88 106.92 106.72 106.92 106.68 106.68 106.52 105.94 105.32
100.39 101.24 102.40 102.68 103.24 103.42 103.62 103.74 103.50 103.48 103.34 103.89 104.22 104.17 104.27 104.45 104.49 104.77 104.88 105.41 105.68 105.60 105.85 105.40 106.72 106.51 106.65 105.43 105.59 105.64 105.82 105.95 106.11 106.27 106.30 106.31 106.73 106.55 106.73 106.71 106.81 106.86 106.89 106.93 106.90 106.74 106.70 106.82 106.39 106.31 105.77 105.81
103.14 103.41 103.21 103.32 103.51 103.50 103.64 103.64 103.92 103.85 103.85 103.98 104.17 104.15 104.34 104.47 104.69 104.75 105.02 105.17 105.48 105.63 105.78 105.63 106.41 106.43 106.56 105.59 105.61 105.67 105.92 106.08 106.20 106.31 106.44 106.57 106.62 106.62 106.57 106.64 106.81 106.84 106.89 106.88 106.86 106.70 106.61 106.50 106.54 106.40 105.79 105.33
103.61 103.57 103.49 103.60 103.91 103.79 103.70 103.66 103.79 103.91 104.01 104.11 104.24 104.36 104.44 104.58 104.65 104.88 105.07 105.32 105.48 105.58 105.75 106.33 106.00 106.33 106.38 105.68 105.78 105.93 106.18 106.24 106.43 106.40 106.46 106.79 106.77 106.61 106.58 106.65 106.72 106.86 106.84 106.86 106.85 106.65 106.60 106.43 106.32 106.16 105.73 105.35
103.81 103.71 103.62 103.58 103.71 103.79 103.79 103.93 103.90 104.11 104.15 104.29 104.40 104.41 104.57 104.65 104.73 104.97 105.12 105.31 105.43 105.59 105.74 106.17 105.82 106.41 106.29 106.03 105.96 106.06 106.27 106.32 106.32 106.50 106.54 106.60 106.77 106.74 106.69 106.67 106.71 106.76 106.68 106.82 106.71 106.62 106.54 106.38 106.32 106.09 105.80 105.37
103.81 103.75 103.79 103.82 103.86 104.05 104.03 104.11 104.22 104.21 104.24 104.39 104.40 104.49 104.71 104.68 104.87 105.07 105.18 105.41 105.52 105.76 105.91 106.06 105.57 106.43 106.28 106.17 106.00 106.07 106.24 106.35 106.47 106.50 106.57 106.62 106.76 106.71 106.69 106.78 106.79 106.60 106.63 106.64 106.61 106.60 106.43 106.25 106.29 106.28 105.97 105.32
104.17 103.89 103.93 103.91 103.98 103.97 104.07 104.07 104.20 104.26 104.30 104.37 104.54 104.57 104.67 104.76 104.90 105.12 105.21 105.43 105.64 105.89 106.04 106.24 105.93 106.37 106.23 106.42 106.13 106.30 106.46 106.50 106.51 106.61 106.60 106.67 106.79 106.78 106.81 106.67 106.75 106.47 106.54 106.56 106.42 106.39 106.26 106.18 106.08 106.13 106.09 105.38
104.07 103.90 103.91 104.01 104.04 104.08 104.12 104.19 104.27 104.41 104.39 104.47 104.55 104.63 104.68 104.80 104.96 105.13 105.30 105.55 105.66 105.85 106.00 106.24 106.85 106.26 106.16 106.28 106.28 106.35 106.53 106.54 106.52 106.60 106.68 106.79 106.76 106.72 106.94 106.68 106.49 106.48 106.50 106.49 106.46 106.35 106.26 106.22 106.25 106.10 105.78 105.37
104.10 104.09 104.12 104.13 104.16 104.26 104.28 104.32 104.28 104.60 104.74 104.44 104.56 104.72 104.87 104.92 104.99 105.22 105.35 105.50 105.65 105.81 105.97 106.14 106.39 106.27 106.19 106.15 106.35 106.41 106.59 106.67 106.67 106.69 106.65 106.75 106.77 106.75 106.79 106.71 106.55 106.53 106.51 106.52 106.47 106.40 106.24 106.18 106.16 106.04 105.83 105.33
104.17 104.20 104.24 104.35 104.27 104.41 104.29 104.34 104.30 104.39 104.51 104.57 104.58 104.65 104.81 104.93 105.08 105.27 105.41 105.58 105.67 105.77 105.97 106.14 106.27 106.13 106.26 106.21 106.50 106.53 106.51 106.57 106.75 106.79 106.75 106.80 106.79 106.67 106.77 106.65 106.60 106.59 106.62 106.49 106.48 106.36 106.29 106.24 106.10 106.08 105.91 105.48
104.28 104.26 104.27 104.36 104.26 104.42 104.35 104.55 104.40 104.51 104.57 104.65 104.77 104.86 104.84 104.99 105.11 105.35 105.46 105.56 105.67 105.85 106.02 106.25 106.37 106.63 106.42 106.21 106.43 106.47 106.59 106.65 106.71 106.75 106.75 106.82 107.10 106.77 106.69 106.68 106.59 106.66 106.61 106.46 106.54 106.40 106.34 106.47 106.62 105.94 105.78 105.44
104.38 104.40 104.39 104.48 104.42 104.47 104.41 104.44 104.45 104.75 104.71 104.76 104.90 104.92 104.98 105.11 105.21 105.38 105.59 105.74 105.78 105.87 106.02 106.17 106.29 107.19 106.38 106.17 106.26 106.49 106.58 106.72 106.74 106.77 106.87 106.85 106.86 106.78 106.84 106.74 106.62 106.62 106.62 106.65 106.60 106.58 106.47 106.31 106.19 106.07 106.29 106.31
104.27 104.40 104.46 104.44 104.45 104.47 104.50 104.49 104.57 104.54 104.77 104.87 104.94 104.95 105.03 105.18 105.41 105.57 105.66 105.79 105.80 105.98 106.10 106.23 106.36 106.55 106.43 106.20 106.19 106.56 106.60 106.75 106.79 106.76 106.90 106.89 106.86 106.88 107.03 106.81 106.71 106.75 107.03 106.59 106.49 106.43 106.41 106.38 106.33 106.38 106.54 106.34
104.38 104.44 104.41 104.44 104.44 104.47 104.56 104.73 104.66 104.71 104.73 104.81 104.98 105.07 105.16 105.27 105.43 105.67 105.84 105.97 106.07 106.11 106.22 106.34 106.43 106.41 106.31 106.38 106.18 106.61 106.71 106.73 106.86 106.88 107.01 107.06 107.07 106.90 106.81 106.74 106.64 106.62 106.61 106.56 106.57 106.56 106.55 106.49 106.50 106.41 106.55 105.98
104.42 104.49 104.44 104.57 104.64 104.57 104.62 104.75 104.78 104.88 104.90 104.93 105.17 105.35 105.30 105.35 105.45 105.71 105.98 106.02 106.15 106.25 106.33 106.46 106.49 106.38 107.31 106.56 106.28 106.74 106.94 106.97 107.12 106.85 106.81 106.78 106.72 106.70 106.67 106.67 106.68 106.62 106.66 106.76 106.96 107.03 106.81 106.86 106.88 106.52 106.43 106.37
104.40 104.51 104.64 104.69 104.65 104.71 104.74 104.81 104.82 104.93 104.98 105.16 105.36 105.31 105.43 105.51 105.65 105.81 106.08 106.17 106.31 106.29 106.38 106.53 106.60 106.59 107.58 106.50 106.30 106.35 106.59 106.71 106.73 106.73 106.71 106.69 106.71 106.72 106.78 107.04 107.04 106.91 106.89 106.89 106.81 106.74 106.71 106.72 106.80 106.49 106.74 106.32
104.57 104.60 104.72 104.78 104.71 104.76 104.85 104.99 104.95 105.05 105.10 105.19 105.28 105.34 105.47 105.64 105.79 105.98 106.14 106.32 106.39 106.45 106.49 106.67 106.64 106.50 106.54 106.60 106.55 106.42 106.60 106.68 106.69 106.79 106.83 107.01 107.11 107.08 107.22 106.92 107.09 106.74 106.72 106.73 106.76 106.77 106.72 106.72 106.75 106.56 106.75 106.52
104.74 104.84 104.82 104.81 104.84 104.89 104.95 105.18 105.18 105.17 105.20 105.22 105.36 105.48 105.58 105.76 105.80 105.91 106.16 106.35 106.46 106.51 106.40 106.43 106.44 106.57 106.57 106.54 106.75 106.29 106.75 106.69 106.92 106.90 106.88 106.92 106.91 107.18 106.96 106.80 106.82 106.78 106.73 106.68 106.75 106.78 106.74 106.72 106.76 106.59 106.71 106.50
104.96 104.94 104.99 105.00 105.03 105.01 104.99 105.08 105.21 105.38 105.68 105.80 105.58 105.67 105.85 106.04 105.99 105.99 106.28 106.30 106.34 106.36 106.40 106.44 106.48 106.45 106.73 106.94 106.86 106.44 106.88 106.87 106.86 106.87 106.92 106.86 106.91 107.83 106.96 106.47 106.71 106.80 106.74 106.69 106.75 106.76 106.75 106.66 106.72 106.65 106.65 106.58
105.02 105.04 105.17 105.28 105.24 105.19 105.23 105.23 105.41 105.42 105.52 105.65 105.71 105.96 105.96 106.01 106.11 106.21 106.23 106.33 106.38 106.39 106.61 106.61 106.81 106.63 106.69 106.73 106.91 106.58 106.70 106.89 106.90 106.88 106.93 106.86 106.89 107.04 107.64 106.67 106.68 106.81 106.75 106.71 106.77 107.21 107.37 107.25 107.06 107.00 106.47 106.26
105.12 105.19 105.18 105.35 105.27 105.30 105.36 105.48 105.60 105.67 105.68 105.75 105.82 106.02 106.03 106.10 106.15 106.27 106.46 106.40 106.48 106.65 106.68 106.48 106.66 106.69 106.73 106.75 106.91 106.87 106.60 106.88 106.90 106.88 106.93 106.99 106.88 106.91 107.01 106.99 106.82 106.83 107.21 107.09 107.06 107.17 107.24 107.35 107.10 106.92 106.44 106.47
105.38 105.34 105.30 105.40 105.44 105.46 105.58 105.59 105.82 105.82 105.88 105.95 105.93 106.07 106.11 106.18 106.22 106.34 106.55 106.52 106.67 106.76 106.80 106.53 106.70 106.69 106.74 106.74 107.12 106.92 106.54 106.96 106.90 106.86 106.94 106.90 106.86 106.85 106.83 106.81 106.81 106.84 106.83 106.72 106.83 107.22 107.21 107.25 106.98 106.93 106.40 106.48
105.34 105.40 105.38 105.48 105.62 105.66 105.71 105.79 105.79 105.82 105.90 105.94 105.87 106.06 106.17 106.24 106.38 106.44 106.67 106.72 106.71 106.75 106.67 106.58 106.57 106.73 106.69 106.67 106.83 106.99 106.65 106.92 106.80 106.80 106.81 106.81 106.77 106.93 107.02 106.99 106.93 106.95 106.96 106.92 106.84 106.62 106.55 106.43 107.08 106.91 106.45 106.44
105.44 105.65 105.59 105.65 105.62 105.70 105.76 105.73 105.92 105.88 105.94 105.99 106.06 106.08 106.16 106.35 106.44 106.56 106.71 106.96 106.85 106.82 106.93 106.85 106.75 106.81 106.64 106.63 106.67 107.14 106.83 106.64 106.78 106.81 106.84 107.03 106.99 106.95 107.02 107.23 107.05 107.84 107.17 107.01 106.92 106.93 106.77 106.71 106.54 106.31 106.27 106.18
105.67 105.65 105.69 105.66 105.77 105.80 105.79 105.92 105.94 106.15 106.20 106.11 106.11 106.24 106.35 106.46 106.59 106.67 106.79 106.99 107.03 107.11 107.34 106.98 106.85 106.78 106.71 106.74 106.63 106.97 106.99 106.75 106.93 106.96 106.99 107.04 107.00 107.36 107.58 107.03 107.07 107.31 107.15 106.96 106.93 106.93 106.88 106.86 106.75 106.60 106.32 106.07
105.76 105.82 105.88 105.88 105.85 105.95 105.93 106.00 106.05 106.19 106.34 106.39 106.39 106.46 106.44 106.65 106.64 106.74 106.92 106.89 107.23 107.43 108.00 106.89 106.91 106.99 106.86 106.81 106.76 106.96 107.06 106.86 106.97 107.21 106.99 107.74 107.11 106.99 107.88 107.00 107.71 107.79 107.08 107.09 107.04 106.98 106.92 106.85 106.74 106.65 106.41 106.12
105.81 105.77 105.85 105.90 106.02 106.06 106.11 106.05 106.16 106.23 106.33 106.46 106.42 106.44 106.64 106.58 106.73 106.75 106.83 107.06 107.30 107.31 108.71 107.18 107.18 107.20 107.13 107.10 107.37 107.24 107.19 107.04 106.90 107.36 107.03 107.04 107.01 106.92 106.94 106.96 106.97 107.04 107.07 107.09 107.07 107.03 106.94 106.85 106.77 106.62 106.38 106.17
105.94 105.87 105.87 105.91 106.08 106.14 106.19 106.32 106.32 106.38 106.46 106.54 106.56 106.57 106.65 106.76 106.82 107.10 106.99 107.10 107.44 107.53 107.63 107.51 107.36 107.29 107.23 107.13 107.12 107.29 107.12 107.25 106.85 107.45 107.17 107.04 107.03 106.98 106.96 106.99 106.98 107.15 107.14 107.00 107.00 107.01 107.01 106.90 106.81 106.64 106.51 106.27
106.02 106.03 106.07 106.12 106.07 106.18 106.31 106.40 106.50 106.56 106.55 106.66 106.73 106.76 106.74 106.91 106.97 107.06 107.15 107.21 107.48 107.71 107.77 107.77 107.26 107.24 107.18 107.18 107.13 107.41 107.29 107.13 106.99 107.25 107.22 106.93 106.97 106.99 107.04 107.02 108.05 109.34 107.89 107.03 107.03 107.00 107.01 106.92 106.79 106.68 106.46 106.29
105.99 105.96 106.06 106.24 106.25 106.32 106.46 106.52 106.55 106.62 106.71 106.93 106.92 106.91 107.07 107.01 107.09 107.15 107.18 107.25 107.51 107.95 107.77 107.76 107.88 107.29 107.19 107.23 107.20 107.22 107.23 107.14 107.11 107.05 107.21 107.09 107.02 107.02 106.85 107.07 108.54 109.71 108.01 107.11 107.01 106.99 106.94 106.86 106.82 106.69 106.43 106.29
106.17 106.08 106.07 106.20 106.43 106.38 106.58 106.64 106.56 106.68 106.78 106.87 106.93 107.04 107.06 107.11 107.19 107.24 107.22 107.36 107.39 107.89 108.02 107.97 107.93 107.27 107.28 107.32 107.41 107.28 107.36 107.32 107.33 106.97 107.33 107.31 107.00 107.01 106.92 107.04 107.33 107.87 107.16 106.99 106.98 107.07 106.85 106.77 106.79 106.68 106.44 106.36
106.38 106.31 106.35 106.33 106.45 106.54 106.62 106.69 106.83 106.84 106.84 106.95 107.04 107.16 107.15 107.25 107.23 107.37 107.33 107.44 107.29 107.84 107.92 107.96 107.94 107.42 107.32 107.57 107.37 107.32 107.29 107.47 107.46 107.10 107.46 107.04 107.06 106.99 106.94 106.90 106.82 106.88 106.89 106.88 106.89 106.82 106.79 106.75 106.74 106.59 106.35 106.07
