ncols 52
nrows 52
xllcorner 439296
yllcorner 5714432
cellsize 10
NODATA_value -9999
95.78 95.83 95.90 95.95 95.44 95.79 95.84 96.13 96.31 96.42 96.55 96.66 96.82 97.22 97.10 97.25 97.33 97.52 97.66 97.83 97.96 98.10 98.28 98.47 98.68 98.96 99.24 99.50 99.78 100.08 100.40 100.73 101.02 101.34 101.64 101.80 101.91 101.94 101.92 101.93 101.88 101.74 101.79 101.74 101.50 100.27 100.29 100.71 100.57 100.47 100.35 100.23
95.88 95.89 96.04 96.08 96.02 95.73 95.90 96.05 96.28 96.42 96.56 96.72 96.90 97.22 97.19 97.19 97.31 97.49 97.65 97.84 97.97 98.14 98.30 98.47 98.71 99.02 99.29 99.56 99.82 100.12 100.49 100.79 101.09 101.44 101.74 101.91 101.99 102.02 102.00 101.89 101.93 101.87 101.75 100.25 100.40 101.19 101.07 100.87 100.61 100.54 100.43 100.29
97.05 96.09 96.10 96.15 96.10 96.06 95.99 96.11 96.19 96.43 96.62 96.79 97.10 96.68 97.19 97.20 97.34 97.49 97.66 97.80 97.96 98.13 98.32 98.49 98.73 99.04 99.32 99.66 99.93 100.22 100.56 100.89 101.22 101.54 101.78 101.93 102.04 102.04 102.03 102.08 101.99 100.40 100.61 100.74 101.85 101.98 101.21 101.06 100.78 100.65 100.50 100.34
97.49 97.30 96.21 96.23 96.17 96.20 96.24 96.15 96.22 96.44 96.69 96.89 97.26 97.14 97.17 97.26 97.40 97.56 97.72 97.85 97.99 98.20 98.40 98.60 98.86 99.12 99.42 99.72 99.96 100.23 100.56 100.92 101.26 101.57 101.74 101.91 102.00 102.19 102.18 101.19 100.88 101.04 101.72 102.09 101.92 102.28 101.45 101.14 100.91 100.73 100.57 100.36
97.10 97.58 97.44 96.28 96.28 96.35 96.43 96.34 96.32 96.43 96.76 96.94 97.35 97.21 97.22 97.35 97.51 97.66 97.82 97.95 98.10 98.29 98.50 98.73 98.99 99.25 99.53 99.79 100.00 100.24 100.58 100.90 101.24 101.54 101.74 101.88 102.17 102.16 101.20 101.32 102.08 101.89 102.02 101.99 101.76 101.70 101.56 101.27 100.97 100.82 100.64 100.40
99.50 97.25 97.68 97.52 96.36 96.43 96.57 96.65 95.79 96.53 96.62 97.01 96.66 97.18 97.25 97.40 97.58 97.73 97.87 98.00 98.17 98.36 98.53 98.80 99.06 99.29 99.62 99.87 100.11 100.36 100.64 100.93 101.21 101.48 101.71 102.04 101.99 101.29 102.10 102.15 101.96 101.93 101.94 101.90 101.67 101.78 101.54 101.27 100.99 100.83 100.65 100.38
97.92 99.72 97.32 97.72 97.56 96.52 96.61 96.76 96.78 96.65 96.84 97.32 97.09 97.16 97.27 97.46 97.63 97.78 97.90 98.02 98.18 98.38 98.57 98.82 99.06 99.34 99.65 99.90 100.17 100.45 100.71 100.96 101.22 101.37 101.76 101.89 101.50 101.94 102.87 102.12 102.15 102.01 101.94 101.87 101.95 101.94 101.85 101.26 100.99 100.83 100.63 100.40
96.92 97.31 99.68 97.32 97.78 97.53 96.77 96.83 96.91 96.91 96.89 97.53 97.21 97.21 97.37 97.56 97.71 97.84 97.93 98.05 98.21 98.38 98.58 98.83 99.05 99.34 99.61 99.88 100.18 100.44 100.68 100.94 101.10 101.33 101.58 101.50 101.93 101.92 102.11 102.15 102.10 102.13 102.01 101.81 101.88 101.80 101.74 101.31 101.00 100.83 100.62 100.42
96.90 97.11 98.26 99.39 97.51 97.87 97.35 97.03 97.07 97.11 97.01 96.70 97.21 97.27 97.42 97.56 97.71 97.82 97.94 98.08 98.21 98.38 98.60 98.83 99.05 99.35 99.63 99.89 100.14 100.38 100.61 100.83 101.06 101.31 101.41 101.78 101.79 101.86 102.03 102.13 102.12 102.15 101.84 101.91 102.03 101.73 101.56 101.38 101.05 100.82 100.65 100.47
97.10 97.14 97.36 99.21 98.68 97.75 97.93 97.22 97.23 97.31 97.54 97.03 97.14 97.23 97.41 97.58 97.75 97.85 97.96 98.10 98.26 98.41 98.61 98.83 99.07 99.35 99.60 99.84 100.08 100.33 100.56 100.81 101.10 101.32 101.39 101.73 101.94 102.03 102.19 102.15 102.14 102.01 102.04 102.28 102.26 101.68 101.40 101.46 101.14 100.86 100.64 100.44
97.22 97.25 97.38 97.57 99.86 97.93 97.89 97.94 97.29 97.49 97.59 97.13 97.11 97.29 97.47 97.62 97.76 97.90 98.03 98.18 98.31 98.48 98.69 98.86 99.07 99.35 99.59 99.85 100.09 100.31 100.54 100.93 101.12 100.81 101.60 101.56 101.88 102.07 102.12 102.18 102.07 101.98 101.89 102.29 102.26 101.80 101.62 101.45 101.22 100.99 100.82 100.61
97.50 97.31 97.40 97.85 97.58 100.83 97.79 98.01 97.93 97.68 97.02 97.12 97.12 97.31 97.48 97.60 97.75 97.91 98.06 98.19 98.33 98.52 98.73 98.90 99.14 99.37 99.64 99.88 100.12 100.31 100.68 100.91 101.21 101.38 101.46 101.54 101.87 101.98 101.89 102.18 102.20 102.10 101.84 102.00 102.42 102.14 101.55 101.28 101.38 101.32 101.15 100.98
97.48 97.53 97.36 97.47 97.65 97.64 100.66 97.77 98.17 97.98 97.23 97.13 97.23 97.44 97.58 97.70 97.80 97.94 98.12 98.27 98.42 98.60 98.76 98.94 99.15 99.35 99.62 99.88 100.06 100.45 100.65 101.02 101.31 101.57 101.44 101.65 101.84 102.04 102.10 102.20 102.18 102.05 102.04 101.79 102.40 102.67 101.71 101.83 101.87 101.86 101.68 100.87
97.60 97.67 97.61 97.50 97.65 97.79 98.73 99.14 98.06 98.18 97.46 97.24 97.35 97.56 97.76 97.85 97.93 98.09 98.18 98.33 98.51 98.72 98.86 99.04 99.23 99.40 99.65 99.86 100.19 100.53 100.90 101.43 102.20 101.69 101.57 101.46 102.10 102.08 102.04 102.05 102.57 102.60 102.05 101.87 102.31 102.12 101.84 101.76 101.71 101.76 101.67 101.46
97.83 97.84 97.79 97.66 97.59 97.51 97.86 100.40 98.03 98.22 98.19 97.41 97.51 97.57 97.79 97.92 98.07 98.18 98.32 98.42 98.59 98.75 98.90 99.12 99.29 99.49 99.67 99.98 100.37 100.78 101.03 102.11 102.00 101.70 101.57 101.54 101.91 102.04 102.26 102.35 102.23 102.19 102.14 101.94 102.24 102.40 102.08 102.10 102.00 101.85 101.84 101.50
97.97 98.03 97.95 97.84 97.70 97.80 97.89 98.02 101.07 97.90 98.45 97.81 97.53 97.66 97.82 98.00 98.15 98.22 98.35 98.46 98.62 98.79 98.95 99.14 99.31 99.50 99.69 100.10 100.67 100.93 101.35 101.34 101.62 101.52 101.46 101.73 101.84 102.04 102.27 102.42 102.34 102.28 102.31 101.99 102.39 102.51 102.14 102.09 102.10 102.05 102.00 101.85
97.89 97.99 98.01 97.97 97.94 97.75 97.95 97.93 98.47 98.84 98.41 98.47 97.56 97.75 97.94 98.00 98.14 98.32 98.44 98.58 98.78 98.87 98.91 99.09 99.27 99.48 99.90 100.52 100.82 102.12 101.92 101.64 101.42 101.54 101.75 101.89 102.41 101.81 102.31 102.00 102.35 102.38 102.76 102.22 102.41 102.07 102.28 102.04 102.08 101.99 102.09 101.89
98.02 97.96 98.05 98.13 98.11 97.99 97.87 98.13 98.15 101.43 98.30 98.64 98.17 97.85 97.99 98.12 98.33 98.47 98.56 98.68 98.83 98.93 99.06 99.23 99.44 99.68 100.06 100.71 101.24 101.82 101.61 101.57 101.57 101.83 101.94 101.74 101.94 101.91 101.99 102.02 102.19 102.31 102.83 102.29 102.14 102.38 102.10 101.94 101.83 101.74 101.67 101.56
98.25 98.08 98.11 98.20 98.12 98.18 98.10 98.17 98.15 98.56 99.61 98.58 98.65 98.00 98.18 98.33 98.42 98.50 98.60 98.67 98.97 99.08 99.17 99.69 99.45 99.80 100.56 100.92 101.04 101.33 101.49 101.43 101.45 101.60 101.61 101.66 101.69 101.77 101.85 101.93 101.98 102.04 102.10 102.19 102.17 102.21 102.31 102.00 102.30 102.05 102.04 101.79
98.35 98.31 98.29 98.31 98.32 98.47 98.39 98.18 98.40 98.46 101.53 98.48 98.84 98.49 98.38 98.38 98.51 98.62 98.69 98.79 99.01 99.23 99.30 99.71 100.04 100.41 100.62 100.74 100.82 100.92 101.08 101.24 101.37 101.50 101.56 101.71 101.91 101.98 102.02 102.11 102.24 102.29 102.57 102.46 102.40 102.68 102.46 102.17 102.17 102.18 101.76 101.85
98.48 98.60 98.41 98.44 98.44 98.46 98.52 98.33 98.49 98.51 98.96 99.74 98.82 98.88 98.45 98.53 98.69 98.79 98.85 98.95 98.93 99.01 99.56 100.01 100.43 100.61 100.90 100.95 101.06 100.99 101.33 101.45 101.64 101.69 101.74 101.68 102.25 102.31 102.19 102.14 102.30 102.41 103.36 102.48 102.97 102.68 102.26 102.07 102.17 102.14 101.73 101.63
98.79 98.58 98.79 98.75 98.51 98.61 98.62 98.42 98.39 98.36 98.38 101.92 98.69 99.12 98.75 98.65 98.74 98.83 98.90 99.00 99.05 99.16 99.57 100.48 100.47 100.49 100.29 100.85 100.93 101.12 101.20 101.45 101.54 101.46 101.64 101.80 102.07 102.41 102.09 102.16 102.32 102.29 102.37 102.49 102.51 102.47 102.43 102.31 102.26 102.15 101.74 101.42
98.53 98.72 98.88 98.94 98.70 98.97 98.84 98.44 98.46 98.46 98.43 99.59 99.29 99.18 99.11 98.75 98.78 98.85 98.96 99.05 99.18 99.44 100.07 100.43 100.48 100.43 100.52 100.57 100.56 100.56 100.72 100.96 101.12 101.34 101.56 101.88 102.06 102.09 102.18 102.17 102.46 102.46 102.45 102.60 102.60 102.65 102.62 102.49 102.54 102.41 102.36 101.83
98.70 98.85 98.96 99.11 98.85 98.88 98.87 98.47 98.41 98.34 98.46 98.63 101.96 99.03 99.39 98.93 98.89 98.96 99.04 99.15 99.38 99.57 100.38 100.16 100.18 100.79 100.45 100.46 100.57 100.69 100.82 101.06 101.23 101.42 101.60 101.91 102.07 102.22 102.37 102.32 102.38 102.76 102.63 102.32 102.61 102.76 102.76 102.89 102.77 102.76 102.74 102.76
99.04 98.73 99.03 99.16 99.08 99.09 98.96 98.94 98.90 98.88 98.90 98.90 101.33 99.29 99.55 99.29 99.02 99.07 99.13 99.30 99.60 100.29 100.56 100.15 99.85 100.54 100.43 100.66 100.74 100.92 101.08 101.21 101.43 101.53 101.71 102.07 102.05 102.29 102.37 102.42 102.42 102.55 102.71 102.59 102.54 102.92 102.98 103.09 102.90 102.74 102.70 102.19
99.26 99.36 98.91 99.14 99.27 99.20 99.11 99.04 99.08 99.01 99.02 99.05 99.17 100.59 99.62 99.61 99.29 99.21 99.28 99.68 100.36 100.41 100.07 100.01 100.25 100.30 100.45 100.73 100.78 100.97 101.22 101.43 101.46 101.63 101.76 102.01 102.21 102.43 102.51 102.44 102.49 102.64 102.70 102.59 102.62 102.89 102.93 103.11 102.96 102.92 102.82 102.31
99.49 99.32 99.23 99.06 99.33 99.18 99.09 99.03 99.04 98.89 99.01 99.07 99.18 102.27 99.50 99.86 99.57 99.48 99.65 100.04 100.44 100.56 100.03 100.14 100.25 100.47 100.67 100.76 100.93 101.07 101.16 101.44 101.57 101.74 101.91 102.15 102.47 102.48 102.57 102.53 102.63 102.67 102.60 102.71 102.83 102.94 103.02 103.07 102.99 102.98 102.82 102.35
99.35 99.31 99.33 99.40 99.20 99.14 99.15 99.12 99.05 99.04 99.10 99.09 99.52 99.72 99.86 100.04 99.94 99.78 99.94 100.47 100.44 100.58 100.06 100.14 100.35 100.59 100.64 100.98 101.05 101.20 101.24 101.43 101.57 101.71 101.87 102.17 102.51 102.61 102.68 102.64 102.64 102.71 102.81 103.04 103.03 103.11 102.94 103.08 103.01 102.91 102.88 102.59
99.41 99.38 99.46 99.56 99.37 99.40 99.53 99.54 99.59 99.53 99.62 99.53 100.08 99.76 100.00 100.14 100.09 99.96 100.32 100.57 100.50 100.78 100.24 100.21 100.43 100.70 100.85 101.07 101.13 101.80 101.94 101.92 101.97 101.99 102.37 102.57 102.69 102.77 102.80 102.93 102.99 103.06 103.15 103.20 103.14 103.16 103.05 103.05 103.04 103.31 102.89 102.72
99.51 99.59 99.60 99.68 99.57 99.57 99.54 99.61 99.78 99.55 99.50 100.15 100.02 100.07 100.03 100.26 100.35 100.24 100.34 100.62 100.61 100.86 100.42 100.40 100.77 101.47 101.58 101.66 101.73 101.89 101.89 102.32 102.35 102.59 102.60 102.65 102.60 102.85 102.93 102.90 102.99 103.07 103.12 103.23 103.34 103.19 103.07 103.38 103.27 103.01 102.89 103.08
99.79 99.70 100.01 99.71 99.97 99.99 99.97 100.00 99.94 100.02 100.10 100.23 100.13 100.18 100.18 100.43 100.61 100.61 100.50 100.72 100.83 100.69 100.72 100.81 101.15 101.47 101.49 101.62 101.67 101.90 101.92 102.27 102.23 102.60 102.63 102.64 102.62 102.93 102.92 102.92 103.01 103.05 103.24 103.18 103.19 103.35 103.40 103.30 103.19 103.18 103.44 103.54
100.01 99.90 99.99 99.90 100.06 100.02 100.03 100.15 100.09 100.28 100.26 100.31 100.32 100.18 100.26 100.71 100.72 100.93 100.75 100.87 100.91 100.68 101.00 101.12 101.33 101.51 101.49 101.58 101.74 101.95 101.92 102.24 102.24 102.60 102.60 102.72 102.62 102.88 102.89 102.97 102.94 103.05 103.22 103.27 103.33 103.53 103.32 103.20 103.08 103.11 103.24 103.05
100.26 100.11 100.04 100.29 100.51 100.47 100.16 100.96 100.84 100.24 100.29 100.26 100.33 100.29 100.14 100.93 100.92 101.03 101.07 101.00 100.97 100.74 101.07 101.29 101.44 101.53 101.50 101.57 101.77 101.97 102.02 102.26 102.31 102.62 102.60 102.99 102.76 102.87 103.04 102.98 103.01 103.03 103.11 103.19 103.26 103.28 103.21 103.11 103.03 103.20 103.08 102.80
100.20 100.26 100.28 100.54 100.54 100.49 100.53 101.18 101.29 100.34 100.29 100.26 100.26 100.23 101.09 101.03 101.25 101.06 101.00 100.95 100.97 100.74 101.14 101.37 101.50 101.60 101.73 101.81 101.87 101.95 102.03 102.10 102.19 102.29 102.36 102.48 102.60 102.72 102.91 103.03 103.13 103.08 103.38 103.35 103.42 103.50 103.40 103.46 103.37 103.27 103.01 102.58
100.53 100.32 100.29 100.37 100.44 100.54 101.07 101.20 101.41 101.24 100.59 100.30 100.35 100.36 100.90 101.17 102.14 101.38 101.08 100.78 100.73 100.83 100.97 101.07 101.20 101.35 101.54 101.70 101.88 102.15 102.23 102.34 102.32 102.50 102.69 102.78 102.80 102.85 103.04 103.04 103.23 103.33 103.47 103.35 103.52 103.58 103.51 103.57 103.48 103.18 102.80 102.31
100.68 100.55 100.45 100.51 100.49 100.55 100.89 101.41 101.14 100.77 100.86 100.53 100.38 100.56 100.87 101.16 101.41 101.33 100.93 100.80 100.97 101.10 101.24 101.20 101.43 101.57 101.79 101.88 102.05 102.15 102.29 102.48 102.49 102.67 102.90 102.92 103.01 102.96 103.19 103.31 103.34 103.46 103.62 103.64 103.70 103.61 103.69 103.68 103.63 103.27 102.54 102.04
100.69 100.10 100.46 100.95 100.93 100.74 100.69 100.73 100.70 100.75 100.71 100.58 100.44 100.50 100.75 101.13 101.21 101.16 100.79 100.79 101.10 101.22 101.29 101.29 101.43 101.51 101.67 101.96 102.19 102.38 102.53 102.57 102.65 102.77 102.82 102.91 103.11 103.08 103.14 103.26 103.37 103.57 103.67 103.72 103.89 103.90 103.78 103.95 103.77 103.65 102.12 101.71
100.53 100.34 100.42 100.69 101.01 100.98 100.88 100.85 100.82 100.62 100.58 100.57 100.48 100.36 100.54 100.68 101.33 101.27 100.72 100.83 101.19 101.30 101.33 101.45 101.53 101.60 101.71 101.96 102.14 102.42 102.56 102.68 102.74 102.70 102.84 102.92 103.12 103.15 103.25 103.39 103.54 103.72 103.78 103.96 103.89 103.93 103.94 103.93 104.02 103.60 101.02 101.03
100.40 100.58 100.58 100.75 100.85 101.01 100.97 100.78 100.79 100.80 100.73 100.80 100.39 100.56 100.55 100.56 101.68 101.58 100.85 100.85 101.01 101.11 101.09 101.37 101.46 101.62 101.77 102.05 102.12 102.44 102.65 102.71 102.79 102.82 103.24 103.06 103.22 103.25 103.52 103.65 103.88 103.97 103.93 104.13 104.09 104.04 104.22 104.06 104.00 103.65 101.03 101.02
100.54 100.65 100.71 100.87 100.82 100.89 100.90 100.94 100.88 100.69 100.75 100.93 100.57 100.65 100.62 100.52 101.34 101.96 102.00 100.95 100.93 101.06 101.29 101.35 101.54 101.81 101.82 101.99 102.15 102.54 102.66 102.78 102.89 102.93 103.10 103.16 103.35 103.42 103.63 103.92 103.97 104.29 104.40 104.43 104.23 104.27 104.19 104.12 104.11 103.82 101.03 101.03
100.67 100.79 100.86 100.95 101.02 101.07 100.99 100.91 100.82 100.88 100.94 101.13 100.61 100.63 100.60 100.57 100.66 102.26 102.56 100.96 101.04 101.06 101.31 101.38 101.55 101.71 101.75 101.95 102.30 102.60 102.63 102.84 102.84 102.96 103.19 103.22 103.40 103.51 103.70 104.10 104.13 104.31 104.43 104.49 104.55 104.49 104.49 104.42 104.22 103.86 102.01 101.36
100.80 100.97 101.07 101.15 101.23 101.28 101.17 100.90 100.94 101.15 101.28 101.34 100.81 100.71 100.72 100.74 100.77 102.77 102.89 101.13 101.32 101.34 101.48 101.49 101.69 101.76 101.94 102.04 102.40 102.61 102.68 102.85 102.87 103.07 103.28 103.31 103.53 103.60 103.81 104.17 104.17 104.51 104.49 104.69 104.61 104.42 104.68 104.52 104.35 103.82 103.72 102.66
100.96 101.17 101.29 101.41 101.21 101.18 100.95 101.05 101.32 101.47 100.60 101.34 101.39 100.82 100.74 100.79 100.94 103.17 103.14 101.19 101.36 101.50 101.65 101.68 101.90 101.99 102.26 102.25 102.44 102.58 102.79 102.88 103.00 103.44 103.51 103.51 103.68 103.83 104.12 104.25 104.33 104.41 104.46 104.82 104.54 104.58 104.55 104.54 104.29 103.80 103.67 102.66
100.12 101.14 101.31 101.36 101.38 101.08 101.07 101.46 101.63 101.52 101.35 100.85 101.94 100.93 100.92 100.97 101.17 103.58 103.47 102.65 101.39 101.45 101.54 101.75 101.88 102.12 102.32 102.44 102.56 102.72 102.90 103.14 103.40 103.60 103.68 103.66 103.72 103.85 104.33 104.47 104.54 104.55 104.68 104.61 104.63 104.69 104.52 104.59 104.40 103.93 103.75 102.42
101.35 101.26 101.25 101.44 101.25 101.10 101.37 101.71 101.76 101.31 101.45 100.93 102.17 100.99 101.03 101.07 101.17 102.80 103.82 104.12 101.53 101.59 101.71 101.87 101.97 102.17 102.33 102.57 102.66 102.78 103.06 103.24 103.46 103.62 103.77 103.62 103.89 104.14 104.41 104.54 104.62 104.51 104.69 104.77 104.76 104.70 104.68 104.62 104.42 103.90 103.39 103.22
101.33 101.40 101.56 101.40 101.23 101.31 101.62 101.75 101.70 101.56 101.47 101.34 102.41 101.11 101.14 101.10 101.28 101.46 104.31 104.41 101.58 101.65 101.75 101.88 101.98 102.19 102.36 102.61 102.74 102.82 103.51 103.25 103.55 103.73 104.00 104.11 104.26 104.36 104.65 104.71 104.82 104.76 104.74 104.81 104.72 104.73 103.84 102.70 102.42 102.29 102.15 102.04
100.87 101.47 101.65 101.33 101.41 101.70 101.65 101.74 101.72 101.64 101.57 101.68 102.62 101.20 101.26 101.19 101.19 101.49 104.69 104.64 104.08 101.68 101.91 102.02 102.06 102.11 102.46 102.69 102.85 103.17 103.25 103.46 103.54 103.75 104.01 104.22 104.38 104.56 104.59 104.81 104.89 104.28 103.41 103.21 103.10 102.97 102.83 102.91 103.75 104.04 103.91 103.79
101.39 101.45 101.42 101.52 101.64 101.71 101.68 101.72 101.82 101.75 101.73 101.57 102.78 101.54 101.30 101.32 101.45 101.60 104.21 104.95 105.25 102.40 101.96 102.29 102.32 102.36 102.71 102.83 102.97 103.19 103.40 103.61 103.69 103.86 104.15 104.51 104.42 104.09 103.99 103.88 103.77 103.67 104.22 104.87 104.85 104.83 104.93 105.04 104.82 104.46 104.17 103.92
101.71 101.65 101.54 101.66 101.85 101.86 101.91 101.64 101.74 101.74 101.79 101.88 102.96 101.91 101.34 101.43 101.45 101.67 102.33 105.49 105.47 105.91 102.52 102.28 102.32 102.50 102.74 103.21 103.97 104.54 104.76 105.12 104.93 104.76 104.65 104.49 104.32 104.49 104.74 105.09 105.19 105.25 105.21 105.24 105.16 105.17 105.15 105.02 104.87 104.54 104.21 104.03
101.74 101.61 101.73 101.76 101.79 101.75 101.99 101.96 101.94 101.81 101.74 101.78 103.16 102.84 101.29 101.51 101.56 101.69 101.94 105.91 105.96 105.95 106.26 105.69 105.68 105.89 105.95 105.63 105.51 105.33 105.12 104.99 104.83 104.51 104.47 104.54 104.76 105.12 105.33 105.18 105.24 105.29 105.29 105.30 105.29 105.18 105.10 105.14 104.99 104.61 104.24 104.01
101.65 101.74 101.80 101.88 101.86 102.16 102.10 102.05 102.00 102.01 101.72 101.81 103.02 103.74 101.37 101.60 101.61 102.35 104.87 106.24 106.22 106.59 106.36 106.22 106.11 106.01 105.81 105.75 105.45 104.71 103.81 104.00 104.16 104.14 104.49 104.87 105.09 105.29 105.49 105.34 105.33 105.43 105.43 105.41 105.37 105.30 105.23 105.20 104.98 104.60 104.28 103.99
101.73 101.74 101.79 101.86 101.92 102.09 102.22 102.29 102.17 102.50 102.31 101.80 103.28 103.98 104.71 105.29 105.57 105.86 106.00 106.33 106.89 107.29 106.68 106.46 106.40 106.37 104.49 103.37 103.64 103.91 103.96 104.18 104.47 104.38 104.69 105.21 105.17 105.32 105.62 105.58 105.49 105.56 105.55 105.41 105.46 105.37 105.27 105.25 105.10 104.58 104.22 104.35
