ncols 52
nrows 52
xllcorner 439296
yllcorner 5715968
cellsize 10
NODATA_value -9999
86.50 86.35 86.23 86.11 86.07 85.99 85.82 85.63 85.52 85.40 85.34 85.21 85.13 85.07 84.99 84.88 84.84 84.75 84.66 84.53 84.40 84.29 84.26 82.73 83.55 83.57 83.71 83.90 84.05 84.15 84.30 84.36 84.41 84.36 84.34 84.30 84.26 84.22 84.18 84.06 83.92 83.87 84.12 83.91 83.78 83.73 83.75 83.79 83.88 83.92 83.92 83.87
86.49 86.35 86.25 86.17 86.10 85.98 85.77 85.67 85.53 85.45 85.40 85.28 85.20 85.11 85.03 84.90 84.81 84.75 84.64 84.50 84.43 84.33 83.91 83.66 83.67 83.65 83.89 84.04 84.20 84.39 84.48 84.53 84.53 84.49 84.45 84.40 84.38 84.30 84.17 84.12 84.00 83.91 84.19 83.92 83.85 83.86 83.84 83.88 83.98 84.01 84.03 83.99
86.47 86.33 86.26 86.22 86.12 85.92 85.78 85.65 85.52 85.46 85.37 85.29 85.21 85.14 85.03 84.88 84.77 84.71 84.59 84.46 84.44 84.55 83.90 83.89 83.75 83.86 84.06 84.23 84.40 84.54 84.61 84.62 84.64 84.61 84.56 84.54 84.47 84.34 84.26 84.12 84.10 84.26 84.09 83.98 83.99 83.96 83.92 83.94 84.03 84.12 84.16 84.13
86.45 86.38 86.37 86.24 86.07 85.90 85.76 85.62 85.54 85.43 85.35 85.26 85.20 85.13 85.00 84.83 84.75 84.66 84.52 84.43 84.44 83.78 83.97 83.91 83.94 84.12 84.30 84.41 84.56 84.67 84.70 84.74 84.74 84.68 84.65 84.62 84.54 84.43 84.33 84.25 84.05 84.27 84.15 84.13 84.11 84.05 84.00 84.04 84.07 84.18 84.24 84.26
86.49 86.46 86.40 86.22 86.04 85.92 85.72 85.61 85.51 85.41 85.32 85.24 85.18 85.10 84.95 84.85 84.72 84.63 84.51 84.43 83.22 84.04 83.97 84.00 84.15 84.38 84.52 84.65 84.74 84.78 84.80 84.81 84.80 84.75 84.73 84.69 84.59 84.51 84.34 84.31 84.38 84.25 84.23 84.24 84.18 84.14 84.12 84.11 84.12 84.18 84.28 84.37
86.52 86.48 86.35 86.15 86.02 85.87 85.71 85.60 85.49 85.38 85.29 85.21 85.13 84.98 84.88 84.76 84.63 84.57 84.51 84.25 84.12 84.14 84.08 84.26 84.46 84.65 84.79 84.89 84.94 84.93 84.91 84.86 84.83 84.78 84.77 84.72 84.68 84.58 84.50 84.13 84.32 84.34 84.34 84.35 84.23 84.20 84.21 84.19 84.17 84.19 84.28 84.41
86.51 86.44 86.26 86.11 86.00 85.85 85.72 85.60 85.49 85.36 85.27 85.17 85.03 84.89 84.78 84.65 84.56 84.56 84.63 84.17 84.28 84.27 84.41 84.58 84.77 84.92 85.03 85.10 85.10 85.11 85.05 84.97 84.94 84.88 84.80 84.78 84.71 84.58 84.55 84.54 84.40 84.40 84.46 84.43 84.38 84.32 84.31 84.29 84.21 84.21 84.30 84.40
86.62 86.36 86.24 86.11 85.96 85.85 85.69 85.61 85.50 85.37 85.25 85.12 84.95 84.83 84.68 84.55 84.54 84.60 84.09 84.39 84.50 84.63 84.79 84.93 85.01 85.13 85.21 85.19 85.23 85.24 85.16 85.13 85.07 84.97 84.88 84.83 84.78 84.68 84.31 84.38 84.48 84.54 84.58 84.51 84.49 84.45 84.41 84.37 84.27 84.24 84.33 84.42
86.69 86.57 86.35 86.12 85.96 85.85 85.67 85.57 85.49 85.35 85.21 85.04 84.90 84.74 84.59 84.47 84.49 83.30 84.51 84.54 84.74 84.96 85.11 85.16 85.24 85.30 85.31 85.31 85.32 85.31 85.27 85.23 85.18 85.06 84.98 84.86 84.78 84.72 84.78 84.57 84.60 84.69 84.68 84.61 84.62 84.55 84.49 84.43 84.38 84.36 84.40 84.47
86.54 86.53 86.47 86.21 86.02 85.83 85.68 85.55 85.46 85.32 85.15 84.99 84.85 84.66 84.53 84.46 84.54 84.69 84.75 84.74 84.99 85.17 85.29 85.40 85.42 85.43 85.39 85.38 85.35 85.33 85.32 85.29 85.24 85.17 85.01 84.88 84.82 84.48 84.40 84.70 84.76 84.82 84.77 84.75 84.72 84.66 84.59 84.51 84.50 84.47 84.48 84.46
87.66 86.35 86.43 86.33 86.10 85.87 85.68 85.57 85.49 85.29 85.11 84.96 84.74 84.60 84.51 84.64 84.75 84.91 84.87 85.01 85.18 85.33 85.43 85.50 85.53 85.49 85.49 85.46 85.39 85.35 85.37 85.32 85.28 85.22 85.11 84.95 84.82 85.03 84.83 84.85 84.91 84.92 84.87 84.83 84.82 84.75 84.67 84.63 84.59 84.58 84.54 84.54
87.79 87.59 86.75 86.29 86.21 86.03 85.79 85.57 85.48 85.27 85.12 84.94 84.73 84.63 84.62 84.35 84.96 84.96 85.07 85.20 85.36 85.45 85.54 85.57 85.56 85.61 85.59 85.54 85.49 85.39 85.37 85.33 85.31 85.25 85.10 84.99 84.80 84.52 84.95 85.01 85.03 85.00 84.98 84.94 84.89 84.84 84.76 84.74 84.72 84.70 84.64 84.65
86.54 87.43 87.53 87.16 85.96 86.05 85.89 85.70 85.40 85.22 85.07 84.92 84.77 84.74 83.62 85.02 85.08 85.15 85.26 85.38 85.47 85.61 85.65 85.68 85.68 85.67 85.67 85.61 85.58 85.50 85.43 85.36 85.32 85.25 85.15 84.97 85.15 85.05 85.08 85.12 85.13 85.10 85.05 85.01 84.96 84.88 84.85 84.82 84.85 84.80 84.73 84.73
86.78 86.49 86.26 87.46 87.24 85.87 85.83 85.68 85.46 85.19 85.01 84.91 84.83 84.56 84.87 85.17 85.28 85.42 85.49 85.56 85.68 85.71 85.74 85.74 85.74 85.74 85.69 85.68 85.65 85.56 85.51 85.40 85.36 85.26 85.19 84.96 84.65 85.12 85.19 85.22 85.19 85.18 85.12 85.10 85.04 84.99 84.95 84.96 84.94 84.88 84.85 84.82
86.68 86.56 86.33 85.81 87.35 87.18 86.32 85.65 85.55 85.35 85.13 84.98 85.11 84.96 85.15 85.25 85.50 85.65 85.72 85.74 85.77 85.82 85.82 85.82 85.84 85.82 85.76 85.75 85.68 85.63 85.56 85.47 85.37 85.34 85.18 85.29 85.13 85.24 85.25 85.26 85.27 85.24 85.20 85.19 85.15 85.10 85.06 85.07 85.03 84.96 84.94 84.92
86.60 86.43 86.38 86.21 85.96 86.72 87.10 86.90 85.12 85.43 85.37 85.09 84.48 85.22 85.26 85.43 85.63 85.81 85.89 85.93 85.94 85.95 85.94 85.93 85.90 85.86 85.87 85.81 85.74 85.71 85.63 85.48 85.38 85.39 85.42 84.64 85.12 85.30 85.31 85.32 85.37 85.35 85.33 85.30 85.27 85.21 85.17 85.15 85.08 85.05 85.02 85.01
86.60 86.48 86.27 86.15 86.08 85.85 85.37 86.93 86.92 85.19 85.27 84.37 85.39 85.36 85.44 85.64 85.79 85.90 86.05 86.12 86.12 86.11 86.07 86.04 85.99 85.95 85.94 85.90 85.82 85.75 85.65 85.56 85.46 85.41 85.48 85.28 85.36 85.46 85.44 85.40 85.47 85.46 85.43 85.42 85.38 85.31 85.25 85.21 85.16 85.12 85.12 85.07
86.60 86.46 86.27 86.12 85.90 85.82 85.70 85.27 86.68 86.79 86.21 85.35 85.58 85.57 85.60 85.72 85.90 86.04 86.11 86.20 86.25 86.27 86.23 86.15 86.11 86.06 85.99 85.94 85.86 85.81 85.73 85.63 85.57 85.02 85.04 85.53 85.66 85.64 85.53 85.57 85.53 85.56 85.54 85.50 85.47 85.40 85.35 85.29 85.25 85.22 85.21 85.17
86.60 86.41 86.26 86.09 85.86 85.71 85.63 85.51 85.25 86.11 86.65 86.69 85.57 85.70 85.83 85.93 86.07 86.16 86.22 86.25 86.33 86.36 86.35 86.32 86.26 86.15 86.06 85.98 85.91 85.81 85.76 85.65 85.63 85.56 85.65 85.67 85.68 85.85 85.67 85.78 85.69 85.69 85.60 85.60 85.56 85.49 85.42 85.36 85.33 85.31 85.27 85.28
86.60 86.40 86.24 86.04 85.85 85.67 85.52 85.49 85.53 83.93 86.19 86.50 86.62 85.97 86.01 86.20 86.28 86.28 86.32 86.37 86.43 86.42 86.46 86.46 86.37 86.27 86.18 86.08 85.97 85.91 85.75 85.71 85.29 85.33 85.72 85.58 85.79 85.81 85.89 85.71 85.88 85.75 85.77 85.65 85.64 85.60 85.52 85.42 85.41 85.38 85.37 85.33
86.57 86.42 86.24 86.04 85.82 85.62 85.48 85.43 85.58 85.84 85.94 85.47 86.31 86.52 86.44 86.29 86.46 86.47 86.44 86.43 86.50 86.50 86.53 86.54 86.52 86.46 86.31 86.17 86.05 85.97 85.83 85.73 85.64 85.93 85.79 85.76 85.76 85.83 85.86 85.93 86.00 85.90 85.97 85.85 85.79 85.63 85.60 85.50 85.44 85.46 85.43 85.36
86.55 86.39 86.20 85.97 85.79 85.61 85.55 85.68 85.34 85.74 85.85 86.02 86.28 85.77 86.40 86.51 86.47 86.57 86.59 86.55 86.56 86.62 86.62 86.56 86.57 86.57 86.50 86.32 86.16 86.02 85.93 85.65 85.67 85.91 85.85 85.89 85.90 85.89 85.95 85.93 85.98 85.99 85.92 86.03 85.86 85.84 85.72 85.53 85.51 85.51 85.44 85.40
86.53 86.33 86.12 85.92 85.73 85.63 85.63 84.22 85.76 85.81 85.88 86.10 86.29 86.46 86.08 86.30 86.44 86.57 86.70 86.74 86.74 86.71 86.68 86.68 86.65 86.61 86.57 86.49 86.30 86.07 85.97 85.71 86.13 85.97 85.95 85.97 85.96 85.98 86.02 86.05 85.99 86.00 86.05 86.10 85.88 86.07 85.84 85.74 85.58 85.53 85.46 85.46
86.50 86.30 86.07 85.87 85.75 85.68 85.55 85.89 85.96 85.97 86.11 86.31 86.40 86.54 86.69 86.83 86.15 86.36 86.31 86.76 86.84 86.83 86.78 86.77 86.72 86.65 86.64 86.55 86.38 86.19 86.02 85.81 86.08 86.00 86.01 86.07 86.03 86.07 86.09 86.08 86.11 86.04 86.05 86.06 86.07 86.08 85.97 86.03 85.77 85.73 85.58 85.49
86.50 86.29 86.08 85.86 85.79 85.88 85.76 86.02 86.03 86.13 86.31 86.47 86.60 86.63 86.72 86.82 86.89 85.84 86.31 86.43 86.77 86.89 86.92 86.85 86.75 86.74 86.70 86.58 86.39 86.23 85.88 85.98 86.08 86.15 86.15 86.14 86.10 86.14 86.14 86.17 86.15 86.17 86.12 86.10 86.01 86.00 85.96 85.99 85.84 86.02 85.76 85.74
86.51 86.28 86.07 85.98 85.89 84.38 86.05 86.04 86.18 86.37 86.48 86.61 86.71 86.77 86.82 86.88 86.92 86.96 86.23 86.25 86.43 86.31 86.91 86.97 86.88 86.79 86.70 86.59 86.41 86.34 86.12 86.14 86.15 86.15 86.22 86.26 86.15 86.17 86.19 86.19 86.20 86.22 86.23 86.15 86.07 86.07 85.96 85.95 85.96 86.02 85.91 86.06
86.49 86.29 86.14 86.02 85.60 86.10 86.17 86.22 86.35 86.54 86.65 86.75 86.83 86.88 86.93 86.95 86.97 87.04 87.09 86.83 86.23 86.42 86.45 86.92 86.96 86.89 86.75 86.61 86.54 86.23 86.13 86.24 86.28 86.26 86.24 86.24 86.26 86.22 86.25 86.26 86.24 86.26 86.26 86.23 86.15 86.10 86.03 85.97 85.98 85.97 86.00 86.05
86.46 86.28 86.20 85.95 85.84 86.13 86.21 86.31 86.50 86.68 86.80 86.88 86.94 87.00 87.02 87.04 87.10 87.10 87.13 87.19 87.32 86.07 86.40 86.58 86.90 86.90 86.85 86.71 86.57 86.50 86.40 86.36 86.41 86.41 86.35 86.33 86.27 86.29 86.30 86.31 86.31 86.31 86.28 86.26 86.22 86.17 86.11 86.07 86.03 85.98 85.97 86.12
86.44 86.35 86.24 84.69 86.22 86.35 86.45 86.57 86.66 86.82 86.91 87.01 87.06 87.10 87.13 87.16 87.17 87.22 87.20 87.21 87.25 87.36 85.93 86.40 86.61 86.43 86.85 86.68 86.73 86.68 86.52 86.50 86.54 86.51 86.41 86.40 86.33 86.32 86.35 86.38 86.37 86.39 86.33 86.29 86.24 86.23 86.17 86.12 86.06 86.03 86.02 86.14
86.55 86.42 86.07 86.18 86.46 86.44 86.79 86.86 86.88 86.93 87.03 87.13 87.17 87.20 87.21 87.25 87.26 87.29 87.29 87.29 87.29 87.32 87.42 85.99 86.38 86.56 86.69 86.77 86.95 86.69 86.74 86.62 86.68 86.63 86.55 86.46 86.46 86.39 86.40 86.41 86.43 86.44 86.42 86.34 86.30 86.25 86.24 86.19 86.14 86.07 86.09 86.15
86.62 86.40 85.91 86.14 86.27 86.42 86.79 86.86 86.93 87.03 87.11 87.19 87.26 87.31 87.32 87.35 87.35 87.35 87.38 87.39 87.37 87.33 87.35 87.43 85.89 86.39 86.59 86.76 86.82 86.68 86.81 86.78 86.76 86.73 86.64 86.58 86.50 86.49 86.44 86.45 86.47 86.49 86.45 86.43 86.38 86.33 86.26 86.25 86.21 86.15 86.15 86.21
86.68 85.22 86.32 86.10 86.31 86.76 86.87 86.87 87.01 87.14 87.24 87.29 87.32 87.38 87.42 87.42 87.44 87.44 87.44 87.44 87.43 87.43 87.37 87.30 87.42 86.15 86.48 86.60 86.75 86.75 87.04 86.94 86.90 86.82 86.72 86.67 86.62 86.58 86.54 86.52 86.53 86.53 86.52 86.45 86.46 86.40 86.33 86.28 86.24 86.22 86.24 86.26
86.10 86.21 86.34 86.33 86.52 86.73 86.88 86.98 87.11 87.23 87.32 87.38 87.40 87.44 87.49 87.50 87.53 87.52 87.50 87.50 87.50 87.46 87.43 87.35 87.41 86.49 86.29 86.40 86.58 86.76 86.81 87.20 87.07 86.92 86.83 86.74 86.71 86.68 86.65 86.63 86.58 86.58 86.57 86.56 86.53 86.50 86.42 86.37 86.32 86.28 86.30 86.27
86.31 86.32 86.24 86.38 86.60 86.81 86.86 87.05 87.19 87.30 87.40 87.45 87.49 87.51 87.51 87.55 87.56 87.58 87.58 87.58 87.55 87.51 87.46 87.38 87.46 86.06 86.22 86.06 86.31 86.60 86.76 86.84 87.20 87.06 86.86 86.82 86.78 86.77 86.75 86.72 86.69 86.63 86.60 86.60 86.60 86.55 86.49 86.43 86.38 86.36 86.40 86.32
86.37 86.35 86.41 86.50 86.68 86.88 86.94 87.13 87.28 87.39 87.43 87.50 87.57 87.58 87.60 87.62 87.62 87.63 87.66 87.66 87.63 87.56 87.44 87.43 87.43 86.33 86.18 88.40 87.69 87.58 86.59 86.77 86.93 87.19 87.05 86.92 86.84 86.83 86.82 86.80 86.76 86.73 86.68 86.64 86.65 86.63 86.57 86.51 86.45 86.41 86.48 86.15
86.48 86.53 86.60 86.71 86.85 86.97 87.14 87.23 87.40 87.49 87.52 87.55 87.60 87.65 87.66 87.67 87.69 87.69 87.71 87.71 87.69 87.59 87.50 87.57 86.36 86.65 87.79 87.67 87.65 87.54 88.24 86.32 86.81 86.97 87.17 87.06 86.97 86.90 86.87 86.88 86.89 86.83 86.81 86.76 86.71 86.69 86.65 86.57 86.49 86.45 86.51 86.20
86.54 86.63 86.79 86.93 87.03 87.12 87.25 87.38 87.50 87.57 87.60 87.62 87.65 87.71 87.73 87.74 87.76 87.76 87.76 87.75 87.66 87.54 87.56 87.56 86.76 86.22 87.86 87.80 87.68 87.69 87.49 88.45 86.33 86.81 87.00 87.16 87.06 86.97 86.95 86.96 86.93 86.93 86.89 86.88 86.83 86.75 86.73 86.65 86.58 86.48 86.56 86.62
86.67 86.81 86.92 87.09 87.24 87.31 87.39 87.45 87.52 87.62 87.73 87.69 87.75 87.75 87.76 87.80 87.83 87.84 87.81 87.78 87.65 87.53 87.60 86.28 87.01 88.65 87.85 87.86 87.80 87.69 87.57 87.41 87.82 86.91 86.82 87.01 87.17 87.11 87.02 87.00 86.99 86.96 86.95 86.96 86.93 86.88 86.79 86.74 86.67 86.57 86.57 86.67
86.84 86.98 87.13 87.24 87.35 87.45 87.51 87.56 87.58 87.64 87.70 87.69 87.79 87.83 87.83 87.84 87.90 87.90 87.89 87.86 87.74 87.69 87.48 87.11 87.79 87.86 87.93 88.07 88.09 87.69 87.57 87.49 87.32 87.45 87.42 86.86 87.03 87.22 87.16 87.06 87.02 86.99 86.99 87.00 87.00 86.98 86.93 86.82 86.75 86.65 86.62 86.64
86.98 87.11 87.24 87.35 87.46 87.53 87.61 87.66 87.67 87.70 87.71 87.79 87.84 87.89 87.92 87.92 87.90 87.93 87.94 87.91 87.88 87.85 86.95 87.11 87.42 87.97 88.06 88.18 88.17 88.09 87.82 87.56 87.41 87.33 87.49 87.65 86.86 87.04 87.24 87.19 87.07 87.05 87.04 87.03 87.04 87.04 87.01 86.93 86.81 86.72 86.68 86.65
87.09 87.23 87.37 87.47 87.54 87.61 87.67 87.74 87.79 87.78 87.76 87.79 87.86 87.93 87.97 87.96 87.93 87.90 87.87 87.93 88.06 87.03 87.21 88.00 87.88 87.88 88.14 88.21 88.22 88.18 88.10 87.76 87.41 87.40 87.40 87.30 87.13 86.70 87.07 87.32 87.21 87.10 87.09 87.07 87.04 87.06 87.05 86.98 86.87 86.85 86.73 86.64
87.23 87.33 87.44 87.54 87.62 87.69 87.75 87.79 87.84 87.88 87.89 87.88 87.91 87.91 87.98 88.04 87.94 87.96 87.85 88.05 88.18 87.26 87.62 88.13 88.10 87.96 88.09 88.26 88.25 88.24 88.22 88.02 87.99 87.54 87.32 87.23 87.18 87.14 86.71 87.11 87.23 87.21 87.12 87.11 87.09 87.05 87.03 86.99 86.88 86.87 86.63 86.68
87.37 87.48 87.54 87.64 87.67 87.78 87.81 87.87 87.89 87.94 87.97 87.99 87.98 87.98 87.99 88.00 87.87 87.97 87.96 88.07 86.85 87.31 87.88 88.04 88.19 88.10 88.06 88.00 88.19 88.29 87.99 88.28 88.10 87.51 87.40 87.33 87.26 87.22 87.16 86.93 87.12 87.14 87.21 87.15 87.12 87.10 87.01 86.92 86.87 86.91 86.51 86.72
87.51 87.60 87.66 87.71 87.76 87.79 87.86 87.91 87.97 87.99 88.03 88.04 88.09 88.06 88.05 88.05 88.03 87.99 88.09 87.64 87.40 87.96 88.09 88.18 88.34 88.39 88.38 88.30 88.12 88.12 88.15 88.72 87.90 87.56 87.47 87.47 87.37 87.30 87.27 87.19 87.19 87.14 87.20 87.21 87.15 87.12 87.07 86.97 86.89 86.98 87.19 86.78
87.60 87.67 87.74 87.82 87.83 87.85 87.90 87.96 88.01 88.04 88.08 88.09 88.12 88.16 88.14 88.09 88.06 88.13 88.09 87.39 87.90 88.40 88.41 88.31 88.35 88.51 88.54 88.39 88.32 88.10 89.06 88.20 87.74 87.60 87.59 87.53 87.36 87.38 87.32 87.28 87.21 87.29 87.18 87.30 87.19 87.12 87.12 87.03 86.94 87.03 87.19 86.83
87.67 87.77 87.81 87.90 87.92 87.94 87.96 88.00 88.04 88.11 88.14 88.15 88.15 88.21 88.25 88.14 88.10 88.15 86.94 87.11 88.47 88.61 88.60 88.45 88.44 88.45 88.57 88.44 88.28 88.38 88.01 87.84 87.75 87.75 87.70 87.70 87.56 87.41 87.39 87.34 87.32 87.26 87.33 87.21 87.36 87.22 87.13 87.05 86.97 87.07 87.17 86.88
87.69 87.81 87.90 87.96 88.02 88.02 88.05 88.07 88.10 88.12 88.19 88.21 88.19 88.24 88.24 88.17 88.24 87.88 87.53 88.29 88.61 88.70 88.65 88.50 88.51 88.38 88.46 88.53 88.52 88.51 88.26 88.07 87.87 87.82 87.80 87.71 87.47 87.50 87.46 87.40 87.35 87.33 87.23 87.29 87.25 87.40 87.24 87.08 87.06 87.13 87.23 86.91
87.68 87.85 87.93 88.06 88.10 88.12 88.14 88.15 88.16 88.21 88.21 88.24 88.16 88.21 88.23 88.25 88.19 87.60 88.19 88.61 88.79 88.79 88.69 88.62 88.46 88.44 88.53 88.67 89.03 89.02 88.82 88.32 88.06 87.93 87.86 87.71 87.68 87.57 87.49 87.44 87.40 87.36 87.34 87.24 87.28 87.29 87.46 87.25 87.23 87.16 87.25 86.99
87.62 87.81 87.97 88.08 88.17 88.19 88.21 88.23 88.27 88.27 88.31 88.31 88.28 88.23 88.23 88.29 87.53 87.14 88.61 88.88 88.83 88.73 88.76 88.60 88.64 88.45 88.62 88.68 88.94 89.06 88.90 88.50 88.16 88.01 87.97 87.74 87.68 87.62 87.52 87.50 87.42 87.40 87.37 87.35 87.25 87.29 87.33 87.51 87.31 87.22 87.17 87.05
87.57 87.77 87.96 88.12 88.20 88.26 88.28 88.29 88.33 88.35 88.35 88.37 88.38 88.35 88.35 86.92 87.76 88.61 88.81 88.71 88.99 88.71 88.69 88.74 88.62 88.59 88.60 88.79 89.14 89.11 88.73 88.35 88.27 88.18 87.97 87.91 87.80 87.72 87.64 87.56 87.51 87.45 87.44 87.40 87.36 87.29 87.29 87.39 87.52 87.38 87.29 87.07
87.58 87.74 87.96 88.11 88.26 88.34 88.32 88.35 88.37 88.42 88.41 88.40 88.39 88.48 88.39 87.97 88.58 88.62 88.75 88.82 88.73 88.76 88.69 88.73 88.56 88.64 88.68 88.65 88.90 88.81 88.56 88.37 88.47 88.29 88.26 88.03 87.92 87.81 87.74 87.66 87.60 87.53 87.47 87.45 87.42 87.38 87.29 87.25 87.42 87.53 87.31 87.12
87.61 87.76 87.96 88.13 88.24 88.37 88.43 88.43 88.46 88.47 88.48 88.47 88.53 88.42 88.11 88.19 88.33 88.82 88.69 88.85 88.76 88.72 88.59 88.67 88.57 88.53 88.57 88.71 88.69 88.60 88.45 88.49 88.45 88.24 88.32 88.19 88.05 87.91 87.85 87.76 87.70 87.65 87.56 87.52 87.48 87.45 87.39 87.30 87.34 87.51 87.50 87.29
