ncols 52
nrows 52
xllcorner 439296
yllcorner 5715456
cellsize 10
NODATA_value -9999
87.64 87.76 87.94 88.14 88.27 88.35 88.43 88.45 88.46 88.48 88.49 88.50 88.57 88.42 88.10 88.51 88.47 88.68 88.69 88.86 88.79 88.73 88.67 88.65 88.59 88.51 88.54 88.67 88.62 88.48 88.47 88.49 88.44 88.36 88.30 88.23 88.10 87.95 87.83 87.79 87.70 87.65 87.57 87.54 87.48 87.43 87.37 87.32 87.28 87.47 87.65 87.31
87.76 87.84 87.99 88.11 88.25 88.36 88.45 88.52 88.54 88.54 88.52 88.56 88.58 88.29 87.45 88.48 88.54 88.51 88.41 88.91 88.88 88.75 88.78 88.78 88.58 88.61 88.71 88.55 88.58 88.57 88.55 88.54 88.42 88.38 88.38 88.30 88.24 88.15 87.97 87.86 87.79 87.72 87.69 87.62 87.58 87.53 87.50 87.40 87.45 87.54 87.53 87.65
87.87 87.91 88.02 88.16 88.27 88.35 88.45 88.51 88.61 88.63 88.55 88.70 87.41 88.10 88.54 88.51 88.52 88.53 88.56 88.49 88.84 88.97 88.82 88.72 88.70 88.60 88.64 88.67 88.54 88.65 88.60 88.54 88.49 88.46 88.41 88.37 88.30 88.22 88.13 88.00 87.88 87.85 87.75 87.71 87.64 87.59 87.52 87.44 87.62 87.99 87.36 87.60
87.87 88.00 88.08 88.18 88.27 88.38 88.46 88.51 88.56 88.67 88.69 88.65 88.38 88.62 88.65 88.68 88.71 88.68 88.68 88.64 88.53 88.47 88.93 88.81 88.76 88.71 88.79 88.71 88.69 88.68 88.71 88.62 88.54 88.50 88.47 88.42 88.34 88.29 88.22 88.14 88.02 87.91 87.89 87.81 87.75 87.65 87.58 87.55 87.69 87.82 87.58 87.32
87.78 87.87 88.13 88.26 88.36 88.41 88.48 88.53 88.56 88.62 88.75 88.04 87.62 88.70 88.70 88.76 88.83 88.81 88.77 88.75 88.69 88.68 88.63 88.75 88.71 88.86 88.77 88.74 88.73 88.75 88.65 88.68 88.62 88.56 88.51 88.44 88.39 88.31 88.28 88.22 88.18 88.08 88.00 87.96 87.79 87.72 87.65 87.60 87.60 87.65 87.56 87.46
87.79 87.91 88.05 88.26 88.40 88.49 88.54 88.54 88.61 88.69 88.69 88.49 88.63 88.80 88.82 88.83 88.92 88.94 88.92 88.86 88.81 88.77 88.79 88.80 88.86 88.81 88.78 88.81 88.87 88.67 88.74 88.70 88.65 88.64 88.55 88.51 88.42 88.38 88.30 88.28 88.25 88.28 88.19 88.04 87.93 87.81 87.77 87.62 87.65 87.54 87.46 87.37
87.84 87.93 88.04 88.17 88.44 88.56 88.59 88.63 88.66 88.74 88.41 88.08 88.81 88.82 88.83 88.87 88.94 88.97 89.02 88.99 88.94 88.92 88.90 88.90 88.86 88.74 88.84 88.86 88.76 88.85 88.79 88.74 88.72 88.66 88.64 88.56 88.51 88.49 88.41 88.40 88.39 88.35 88.32 88.22 88.10 87.91 87.79 87.73 87.50 87.60 87.47 87.33
87.94 88.00 88.07 88.17 88.31 88.52 88.67 88.70 88.76 88.62 88.53 88.79 88.82 88.81 88.92 88.91 88.93 89.00 89.00 89.04 89.05 89.05 89.01 89.00 88.94 88.93 88.82 88.87 89.01 88.94 88.87 88.82 88.78 88.77 88.71 88.65 88.59 88.53 88.50 88.51 88.50 88.47 88.39 88.34 88.26 88.10 87.87 87.82 87.91 87.63 87.43 87.35
88.10 88.13 88.13 88.24 88.30 88.43 88.56 88.72 88.76 88.54 88.82 88.90 88.79 88.86 88.96 89.01 88.99 89.00 89.03 89.05 89.09 89.11 89.12 89.09 89.07 89.00 89.01 88.96 89.08 88.92 88.90 88.89 88.83 88.83 88.76 88.71 88.63 88.61 88.59 88.58 88.58 88.53 88.48 88.39 88.30 88.16 88.02 87.92 88.39 87.60 87.46 87.33
88.31 88.29 88.29 88.29 88.39 88.49 88.58 88.47 88.24 88.52 88.89 88.98 88.85 88.97 89.03 89.04 89.07 89.11 89.08 89.06 89.09 89.16 89.19 89.24 89.17 89.21 89.10 89.07 89.00 89.04 88.98 88.96 88.95 88.90 88.89 88.79 88.74 88.68 88.68 88.66 88.63 88.61 88.54 88.44 88.36 88.22 88.01 88.05 88.34 87.60 87.48 87.31
88.47 88.46 88.39 88.42 88.48 88.56 88.60 88.73 88.66 88.93 88.93 88.99 89.04 89.08 89.11 89.13 89.08 89.14 89.17 89.15 89.15 89.17 89.24 89.29 89.38 89.31 89.26 89.21 89.12 89.10 89.02 89.07 89.04 88.99 88.96 88.91 88.82 88.80 88.75 88.75 88.69 88.60 88.57 88.50 88.36 88.21 88.12 88.08 88.14 87.57 87.46 87.29
88.60 88.56 88.51 88.49 88.55 88.61 88.66 87.99 88.50 89.02 89.00 89.05 89.10 89.14 89.17 89.22 89.19 89.18 89.21 89.29 89.26 89.22 89.27 89.38 89.36 89.40 89.36 89.32 89.26 89.21 89.19 89.13 89.16 89.06 89.02 88.99 88.94 88.88 88.84 88.79 88.73 88.68 88.58 88.48 88.41 88.27 88.16 88.12 88.04 87.61 87.50 87.35
88.72 88.70 88.65 88.61 88.63 88.67 88.85 88.81 89.06 89.10 89.03 89.10 89.18 89.21 89.22 89.27 89.29 89.28 89.27 89.32 89.38 89.36 89.31 89.38 89.39 89.40 89.47 89.45 89.41 89.40 89.35 89.26 89.23 89.15 89.11 89.07 89.03 88.99 88.91 88.84 88.76 88.71 88.64 88.52 88.44 88.38 88.18 88.09 87.84 87.63 87.50 87.31
88.86 88.86 88.84 88.85 88.76 88.76 88.15 88.42 89.21 89.10 89.17 89.24 89.28 89.32 89.33 89.32 89.38 89.38 89.37 89.37 89.43 89.46 89.51 89.44 89.48 89.46 89.54 89.54 89.53 89.53 89.50 89.46 89.38 89.29 89.21 89.18 89.13 89.07 88.98 88.91 88.80 88.74 88.67 88.56 88.46 88.38 88.15 88.12 87.75 87.58 87.49 87.28
88.93 88.98 88.99 88.96 88.83 88.99 88.93 89.31 89.36 89.26 89.30 89.33 89.37 89.42 89.43 89.46 89.45 89.49 89.50 89.50 89.51 89.53 89.56 89.52 89.60 89.56 89.59 89.63 89.65 89.61 89.63 89.60 89.58 89.48 89.34 89.27 89.24 89.12 89.04 88.94 88.88 88.78 88.69 88.59 88.50 88.40 88.26 88.03 87.81 87.59 87.47 87.25
88.98 89.02 89.02 88.93 88.88 88.63 88.75 89.36 89.35 89.33 89.44 89.45 89.50 89.53 89.57 89.56 89.58 89.61 89.59 89.64 89.66 89.64 89.65 89.72 89.76 89.76 89.71 89.72 89.71 89.72 89.74 89.75 89.74 89.66 89.50 89.45 89.26 89.24 89.11 89.01 88.95 88.79 88.71 88.66 88.56 88.43 88.31 88.45 87.85 87.65 87.47 87.21
89.03 89.09 89.03 88.93 88.91 88.93 89.40 89.41 89.40 89.46 89.51 89.59 89.64 89.68 89.69 89.71 89.71 89.72 89.72 89.75 89.76 89.79 89.78 89.81 89.86 89.89 89.84 89.83 89.85 89.83 89.83 89.86 89.85 89.81 89.68 89.51 89.39 89.26 89.18 89.08 88.96 88.90 88.81 88.72 88.62 88.50 88.40 88.74 87.84 87.65 87.45 87.20
89.17 89.12 89.08 88.92 88.98 88.97 89.51 89.47 89.49 89.58 89.67 89.73 89.78 89.79 89.82 89.81 89.82 89.86 89.86 89.88 89.90 89.94 89.95 89.93 89.94 89.93 89.98 90.00 90.01 89.96 89.93 89.96 89.99 89.92 89.80 89.65 89.48 89.36 89.20 89.12 89.04 88.92 88.86 88.78 88.68 88.55 88.49 88.57 87.86 87.60 87.41 87.19
89.46 89.32 89.11 88.99 89.08 88.94 89.58 89.54 89.64 89.74 89.79 89.86 89.89 89.92 89.96 89.95 89.97 89.96 90.01 90.01 90.03 90.07 90.08 90.06 90.08 90.08 90.16 90.18 90.12 90.14 90.12 90.08 90.07 89.99 89.92 89.72 89.57 89.46 89.32 89.18 89.09 89.03 88.92 88.79 88.74 88.58 88.51 88.44 87.82 87.60 87.39 87.21
89.62 89.50 89.27 89.08 89.09 88.77 89.68 89.67 89.75 89.83 89.91 89.99 90.03 90.06 90.05 90.13 90.11 90.12 90.15 90.18 90.19 90.19 90.22 90.21 90.23 90.26 90.31 90.25 90.18 90.39 90.28 90.18 90.17 90.05 89.94 89.84 89.69 89.54 89.40 89.26 89.18 89.01 89.00 88.87 88.74 88.57 88.47 88.29 87.87 87.59 87.40 87.23
89.47 89.10 89.43 89.15 88.76 88.97 89.76 89.77 89.89 89.97 90.01 90.11 90.18 90.20 90.22 90.25 90.29 90.31 90.33 90.33 90.36 90.35 90.34 90.37 90.36 90.35 90.38 90.40 90.45 90.53 90.43 90.38 90.22 90.14 90.00 89.85 89.75 89.65 89.56 89.40 89.24 89.07 88.96 88.89 88.79 88.61 88.50 88.15 87.90 87.72 87.48 87.30
89.52 89.53 88.46 89.26 88.98 89.48 89.90 89.89 89.99 90.15 90.17 90.24 90.29 90.34 90.38 90.41 90.44 90.49 90.49 90.50 90.49 90.52 90.56 90.51 90.49 90.54 90.58 90.62 90.67 90.60 90.50 90.42 90.35 90.19 90.04 89.88 89.76 89.69 89.62 89.52 89.35 89.21 89.04 88.92 88.82 88.62 88.38 88.11 87.94 87.77 87.57 87.37
89.56 89.48 89.39 89.26 89.18 89.63 90.00 89.99 90.14 90.24 90.35 90.37 90.41 90.46 90.54 90.54 90.58 90.61 90.61 90.68 90.71 90.73 90.72 90.71 90.72 90.71 90.75 90.83 90.80 90.74 90.60 90.49 90.33 90.24 90.08 89.99 89.87 89.76 89.68 89.63 89.50 89.35 89.18 88.95 88.81 88.59 88.42 88.21 88.01 87.85 87.61 87.42
89.66 89.54 89.45 89.27 89.22 89.40 90.08 90.15 90.25 90.40 90.50 90.56 90.57 90.62 90.65 90.69 90.71 90.76 90.80 90.83 90.89 90.86 90.82 90.83 90.84 90.93 90.92 90.94 90.88 90.79 90.67 90.55 90.39 90.30 90.21 90.14 90.03 89.93 89.78 89.67 89.57 89.45 89.30 89.09 88.87 88.70 88.94 88.26 88.04 87.85 87.60 87.42
89.78 89.65 89.46 89.39 89.34 89.44 89.86 90.35 90.47 90.57 90.65 90.71 90.74 90.79 90.81 90.84 90.90 90.96 90.98 91.04 91.04 90.94 90.96 90.99 91.06 91.13 91.19 91.09 90.92 90.83 90.73 90.63 90.48 90.39 90.31 90.29 90.18 90.00 89.90 89.72 89.62 89.52 89.39 89.25 89.02 88.88 89.00 88.36 88.08 87.81 87.59 87.43
89.95 89.77 89.61 89.44 89.47 89.68 90.08 90.22 90.76 90.83 90.85 90.88 90.92 90.94 91.01 91.01 91.08 91.14 91.17 91.16 91.15 91.14 91.13 91.24 91.26 91.31 91.24 91.14 91.01 90.90 90.78 90.67 90.59 90.54 90.41 90.34 90.22 90.16 89.99 89.84 89.66 89.49 89.38 89.26 89.13 89.04 88.97 88.44 88.14 87.92 87.68 87.52
90.08 89.90 89.76 89.51 89.54 89.79 90.21 90.36 90.60 91.01 91.16 91.15 91.14 91.14 91.21 91.26 91.28 91.31 91.29 91.28 91.25 91.29 91.28 91.46 91.58 91.47 91.36 91.22 91.13 91.00 90.90 90.78 90.68 90.59 90.56 90.42 90.32 90.19 90.06 89.92 89.76 89.61 89.42 89.31 89.14 89.03 88.96 88.49 88.33 88.08 87.83 87.66
90.15 90.03 89.92 89.64 89.61 89.90 90.21 90.46 90.64 90.97 91.30 91.46 91.40 91.37 91.42 91.47 91.50 91.46 91.46 91.43 91.42 91.41 91.59 91.70 91.63 91.56 91.46 91.29 91.20 91.07 91.00 90.88 90.79 90.69 90.63 90.53 90.36 90.23 90.13 89.98 89.87 89.72 89.55 89.39 89.21 89.15 88.88 88.62 88.48 88.22 87.96 87.79
90.31 90.09 89.99 89.56 89.21 90.19 90.40 90.57 90.84 91.07 91.40 91.60 91.74 91.72 91.66 91.59 91.62 91.62 91.67 91.68 91.73 91.76 91.87 91.91 91.80 91.62 91.50 91.42 91.34 91.20 91.10 90.99 90.90 90.76 90.65 90.53 90.46 90.33 90.18 90.08 89.99 89.85 89.64 89.51 89.29 89.18 88.85 88.79 88.56 88.32 88.06 87.86
90.43 90.19 90.03 89.79 90.05 90.41 90.64 90.82 91.06 91.30 91.54 91.82 91.98 92.17 92.08 91.87 91.81 91.79 91.91 91.94 91.98 92.09 92.10 92.05 91.88 91.71 91.62 91.51 91.42 91.31 91.20 91.08 90.96 90.84 90.73 90.61 90.47 90.39 90.27 90.20 90.03 89.85 89.72 89.54 89.39 88.82 89.01 88.90 88.64 88.36 88.11 87.91
90.44 90.25 90.10 89.97 90.31 90.68 90.89 91.03 91.29 91.50 91.64 91.93 92.12 92.35 92.48 92.43 92.23 92.19 92.12 92.19 92.24 92.32 92.27 92.18 92.04 91.87 91.74 91.62 91.51 91.41 91.29 91.18 91.05 90.94 90.80 90.68 90.55 90.47 90.39 90.25 90.10 89.95 89.75 89.67 89.47 89.42 89.08 88.89 88.70 88.44 88.17 87.98
90.48 90.25 90.02 89.37 90.59 90.86 91.11 91.27 91.47 91.69 91.85 92.01 92.22 92.37 92.61 92.75 92.71 92.48 92.39 92.49 92.56 92.43 92.39 92.32 92.18 92.02 91.87 91.74 91.61 91.50 91.40 91.29 91.13 90.98 90.86 90.77 90.69 90.53 90.43 90.31 90.18 90.02 89.83 89.69 89.53 89.72 89.20 88.99 88.79 88.54 88.35 88.15
90.53 89.97 90.11 90.49 90.86 91.12 91.32 91.52 91.78 91.91 92.10 92.23 92.34 92.53 92.66 92.81 92.99 92.86 92.75 92.74 92.67 92.61 92.52 92.40 92.30 92.16 91.98 91.85 91.71 91.61 91.47 91.35 91.23 91.10 91.01 90.85 90.79 90.62 90.47 90.34 90.20 90.06 89.93 89.80 89.70 89.63 89.34 89.10 88.95 88.78 88.58 88.32
90.39 90.26 90.47 90.86 91.07 91.35 91.50 91.78 91.94 92.11 92.30 92.43 92.51 92.67 92.72 92.90 93.03 93.15 93.36 93.00 92.90 92.62 92.65 92.54 92.43 92.27 92.11 91.96 91.82 91.72 91.54 91.45 91.33 91.21 91.14 90.99 90.84 90.67 90.55 90.43 90.26 90.12 90.02 89.88 89.85 89.61 89.50 89.29 89.14 88.95 88.68 88.49
90.33 89.89 90.78 91.07 91.35 91.54 91.73 91.96 92.15 92.33 92.52 92.62 92.72 92.86 92.90 93.00 93.18 93.26 93.51 93.60 93.10 92.90 92.67 92.66 92.56 92.43 92.25 92.07 91.90 91.80 91.67 91.56 91.50 91.36 91.23 91.06 90.89 90.73 90.64 90.49 90.34 90.17 90.00 89.87 89.85 89.68 89.61 89.39 89.18 89.01 88.85 88.68
90.07 90.65 90.99 91.27 91.58 91.74 91.97 92.24 92.38 92.58 92.73 92.78 92.97 93.06 93.15 93.19 93.31 93.43 93.46 93.52 93.58 93.15 92.96 92.73 92.70 92.57 92.40 92.25 92.09 91.91 91.79 91.70 91.64 91.46 91.30 91.13 91.00 90.83 90.66 90.50 90.38 90.24 90.11 90.01 90.06 90.07 89.57 89.38 89.26 89.20 89.10 88.90
90.56 90.93 91.24 91.54 91.79 91.96 92.22 92.43 92.59 92.79 92.89 92.98 93.16 93.29 93.39 93.46 93.58 93.64 93.62 93.53 93.46 93.61 93.16 93.00 92.80 92.69 92.58 92.39 92.24 92.10 91.97 91.83 91.68 91.52 91.38 91.23 91.05 90.89 90.75 90.62 90.49 90.32 90.10 89.94 90.21 89.93 89.80 89.59 89.52 89.49 89.33 89.14
90.92 91.20 91.51 91.74 91.97 92.18 92.42 92.65 92.82 93.00 93.06 93.18 93.35 93.48 93.63 93.74 93.82 93.83 93.74 93.60 93.50 93.40 93.24 93.46 92.96 92.69 92.59 92.55 92.40 92.25 92.06 91.92 91.74 91.62 91.44 91.31 91.14 91.01 90.85 90.66 90.53 90.40 90.10 90.48 90.19 90.05 89.75 89.87 89.74 89.67 89.47 89.29
91.19 91.45 91.71 91.97 92.15 92.42 92.64 92.85 93.04 93.22 93.26 93.40 93.55 93.73 93.88 93.96 94.07 94.01 93.85 93.74 93.62 93.52 93.37 93.28 93.44 92.98 92.72 92.55 92.50 92.35 92.16 91.97 91.80 91.66 91.55 91.41 91.21 91.06 90.93 90.75 90.64 90.47 90.52 90.43 90.31 90.25 90.24 89.83 89.96 89.82 89.71 89.51
91.43 91.73 91.94 92.19 92.38 92.61 92.82 93.03 93.26 93.46 93.51 93.63 93.77 93.95 94.10 94.19 94.23 94.18 94.02 93.90 93.76 93.59 93.45 93.34 93.30 93.36 92.95 92.81 92.57 92.37 92.21 92.06 91.88 91.76 91.58 91.47 91.24 91.14 90.96 90.64 90.90 90.76 90.57 90.47 90.43 90.41 90.36 90.21 90.04 90.01 89.86 89.65
91.65 91.93 92.14 92.40 92.60 92.84 93.05 93.26 93.50 93.64 93.74 93.85 93.98 94.19 94.30 94.36 94.39 94.37 94.28 94.15 93.97 93.79 93.54 93.40 93.32 93.25 93.26 92.94 92.76 92.56 92.27 92.13 91.94 91.79 91.65 91.52 91.38 91.12 90.94 91.22 90.94 90.78 90.67 90.60 90.54 90.47 90.50 90.49 89.50 90.05 89.92 89.74
91.85 92.08 92.36 92.57 92.82 93.09 93.31 93.50 93.71 93.82 93.95 94.08 94.23 94.41 94.48 94.57 94.58 94.55 94.49 94.39 94.23 93.99 93.74 93.53 93.36 93.21 93.11 93.00 93.05 92.61 92.38 92.14 91.99 91.85 91.73 91.53 91.29 91.26 91.34 91.12 90.95 90.87 90.85 90.76 90.70 90.60 90.64 90.56 90.51 90.09 90.06 89.82
92.02 92.29 92.53 92.74 93.01 93.26 93.46 93.69 93.88 93.97 94.14 94.32 94.48 94.62 94.69 94.72 94.74 94.68 94.67 94.60 94.41 94.17 93.89 93.67 93.44 93.19 93.14 92.95 92.94 92.91 92.44 92.29 91.97 91.88 91.67 91.38 91.66 91.50 91.32 91.22 91.09 91.01 90.91 90.90 90.85 90.81 90.76 90.68 90.60 90.30 90.13 90.01
92.24 92.48 92.71 92.93 93.16 93.41 93.64 93.87 94.04 94.15 94.32 94.50 94.71 94.84 94.86 94.93 94.90 94.85 94.83 94.79 94.57 94.34 94.05 93.85 93.56 93.32 93.17 92.99 92.92 92.88 92.68 92.47 92.19 91.93 91.64 91.84 91.68 91.53 91.40 91.29 91.20 91.10 91.06 91.05 90.99 90.99 90.90 90.81 90.66 90.51 90.30 90.17
92.39 92.68 92.86 93.10 93.33 93.58 93.81 94.04 94.16 94.32 94.51 94.72 94.90 94.99 95.09 95.12 95.06 95.05 95.02 94.91 94.74 94.51 94.23 93.96 93.67 93.44 93.25 93.02 92.92 92.86 92.76 92.49 92.31 91.93 92.07 91.79 91.67 91.60 91.48 91.36 91.30 91.21 91.26 91.21 91.15 91.08 90.98 90.86 90.74 90.62 90.46 90.44
92.58 92.84 93.01 93.24 93.48 93.71 93.98 94.19 94.31 94.47 94.69 94.90 95.05 95.17 95.26 95.28 95.25 95.24 95.19 95.09 94.91 94.64 94.40 94.08 93.78 93.54 93.33 93.09 92.94 92.79 92.69 92.52 92.39 92.41 92.14 91.90 91.76 91.64 91.51 91.46 91.43 91.39 91.37 91.33 91.25 91.18 91.09 90.95 90.79 90.71 90.68 89.92
92.76 92.97 93.13 93.40 93.64 93.88 94.14 94.30 94.45 94.63 94.84 95.08 95.21 95.32 95.42 95.43 95.43 95.44 95.39 95.25 95.07 94.77 94.53 94.22 93.93 93.67 93.44 93.18 93.00 92.87 92.68 92.59 92.58 92.24 92.14 91.86 91.79 91.66 91.60 91.57 91.53 91.51 91.50 91.40 91.32 91.29 91.17 91.04 90.94 90.90 90.91 90.79
92.94 93.11 93.35 93.60 93.81 94.03 94.26 94.39 94.55 94.74 94.96 95.18 95.32 95.45 95.54 95.60 95.62 95.64 95.57 95.43 95.24 94.93 94.66 94.33 94.02 93.79 93.50 93.31 93.15 93.01 92.79 92.54 92.60 92.14 92.22 91.98 91.90 91.80 91.76 91.71 91.67 91.58 91.54 91.49 91.44 91.38 91.25 91.21 91.16 91.09 91.09 90.94
93.12 93.29 93.57 93.77 93.93 94.15 94.37 94.46 94.66 94.87 95.07 95.28 95.44 95.58 95.69 95.72 95.78 95.81 95.73 95.59 95.34 95.05 94.76 94.46 94.14 93.88 93.57 93.40 93.19 93.02 92.98 92.92 92.60 92.49 92.37 92.16 91.98 91.90 91.82 91.77 91.71 91.68 91.68 91.58 91.54 91.57 91.46 91.40 91.33 91.22 91.11 90.96
93.23 93.48 93.69 93.88 94.05 94.27 94.44 94.58 94.75 94.93 95.22 95.43 95.59 95.72 95.82 95.88 95.95 95.98 95.92 95.74 95.46 95.20 94.89 94.58 94.28 93.96 93.66 93.45 93.26 93.08 93.10 93.09 92.72 92.60 92.29 92.32 92.10 91.95 91.92 91.83 91.79 91.81 91.76 91.75 91.71 91.69 91.63 91.56 91.44 91.35 91.25 91.14
93.33 93.53 93.81 93.96 94.12 94.35 94.48 94.65 94.82 95.03 95.30 95.54 95.72 95.87 96.00 96.08 96.15 96.19 96.13 95.92 95.63 95.35 95.01 94.69 94.38 94.04 93.77 93.54 93.32 93.16 92.88 93.20 92.82 92.78 92.63 92.58 92.26 92.05 92.01 91.97 91.96 92.00 91.94 91.92 91.89 91.84 91.73 91.65 91.56 91.46 91.38 91.26
93.46 93.67 93.86 93.97 94.16 94.37 94.51 94.68 94.84 95.06 95.36 95.63 95.79 95.99 96.08 96.22 96.32 96.37 96.32 96.07 95.79 95.49 95.13 94.75 94.46 94.12 93.88 93.63 93.39 93.31 93.43 93.10 92.92 92.89 92.81 92.64 92.48 92.23 92.21 92.18 92.18 92.19 92.09 92.09 92.00 91.91 91.82 91.76 91.68 91.61 91.51 91.40
