ncols 52
nrows 52
xllcorner 439296
yllcorner 5716480
cellsize 10
NODATA_value -9999
85.76 85.65 85.59 85.48 85.39 85.27 85.16 85.10 84.56 84.15 84.10 83.78 83.55 83.43 83.30 83.18 83.07 82.96 82.81 82.70 82.54 82.32 82.07 81.88 81.69 81.56 81.49 81.46 81.44 81.37 81.32 81.19 81.10 81.04 81.04 81.02 80.94 80.85 80.83 80.90 80.90 80.85 80.83 80.81 80.79 80.79 80.76 80.77 80.83 80.89 81.02 80.67
85.81 85.74 85.67 85.55 85.44 85.33 85.22 85.16 84.97 84.90 83.82 84.11 83.82 83.52 83.32 83.22 83.21 83.13 83.01 82.86 82.63 82.37 82.12 81.97 81.82 81.71 81.58 81.55 81.51 81.43 81.32 81.21 81.18 81.16 81.15 81.07 81.00 80.88 80.85 80.87 80.91 80.90 80.86 80.83 80.82 80.78 80.78 80.80 80.85 80.93 81.04 80.28
85.90 85.81 85.72 85.62 85.46 85.37 85.26 85.10 84.96 84.82 84.79 83.82 84.08 83.75 83.46 83.38 83.31 83.21 83.05 82.88 82.68 82.44 82.24 82.07 81.92 81.82 81.75 81.63 81.48 81.40 81.38 81.33 81.29 81.26 81.20 81.09 81.04 80.92 80.86 80.85 80.92 80.91 80.85 80.81 80.82 80.81 80.79 80.85 80.89 80.95 81.05 79.97
85.96 85.86 85.76 85.65 85.53 85.43 85.22 85.17 84.97 84.79 84.69 84.76 83.72 84.01 83.69 83.47 83.35 83.18 83.02 82.88 82.69 82.52 82.32 82.21 82.08 81.93 81.72 81.57 81.46 81.49 81.51 81.46 81.35 81.29 81.21 81.14 81.06 80.98 80.88 80.85 80.89 80.90 80.83 80.82 80.86 80.82 80.81 80.88 80.96 81.03 81.12 80.00
86.05 85.93 85.80 85.67 85.59 85.47 85.35 85.19 85.01 84.85 84.77 84.64 84.72 83.79 83.96 83.67 83.35 83.18 83.02 82.91 82.76 82.61 82.49 82.30 82.06 81.85 81.71 81.65 81.60 81.57 81.55 81.51 81.42 81.36 81.24 81.12 81.05 81.00 80.94 80.92 80.90 80.93 80.92 80.90 80.95 80.96 80.99 81.05 81.13 81.20 81.26 80.56
86.08 85.95 85.82 85.73 85.63 85.53 85.38 85.23 85.08 84.93 84.77 84.68 84.60 84.66 83.71 83.88 83.58 83.32 83.17 83.00 82.90 82.71 82.46 82.20 82.03 81.93 81.85 81.77 81.69 81.65 81.57 81.54 81.46 81.36 81.23 81.15 81.12 81.10 81.03 81.00 80.99 81.04 81.12 81.14 81.16 81.20 81.23 81.32 81.43 81.46 81.49 80.88
86.12 86.00 85.90 85.81 85.70 85.55 85.39 85.26 85.12 84.98 84.85 84.73 84.68 84.50 84.66 83.54 83.79 83.54 83.37 83.08 82.85 82.60 82.41 82.23 82.19 82.12 81.99 81.86 81.75 81.71 81.62 81.55 81.47 81.39 81.28 81.25 81.21 81.12 81.09 81.10 81.18 81.28 81.35 81.35 81.37 81.38 81.52 81.62 81.73 81.75 81.71 81.34
86.16 86.05 85.96 85.77 85.75 85.58 85.44 85.29 85.16 85.06 84.91 84.82 84.64 84.52 84.49 84.33 84.03 83.76 83.38 83.01 82.78 82.57 82.49 82.38 82.28 82.17 82.05 81.93 81.83 81.76 81.65 81.57 81.48 81.45 81.40 81.32 81.21 81.19 81.19 81.29 81.39 81.52 81.55 81.51 81.57 81.70 81.83 81.91 81.96 81.94 81.85 81.58
86.23 86.14 85.92 85.90 85.76 85.60 85.48 85.36 85.22 85.09 85.01 84.90 84.73 84.64 84.68 84.53 84.28 83.96 83.60 83.21 82.89 82.67 82.52 82.46 82.35 82.20 82.09 81.94 81.85 81.78 81.70 81.62 81.56 81.49 81.43 81.31 81.23 81.24 81.28 81.41 81.61 81.74 81.79 81.82 81.89 82.01 82.08 82.10 82.14 82.11 81.98 81.82
86.30 86.19 86.08 85.96 85.78 85.65 85.52 85.38 85.24 85.19 85.10 84.96 84.85 84.83 84.77 84.63 84.46 84.15 83.89 83.60 83.24 82.88 82.66 82.53 82.43 82.26 82.11 82.01 81.92 81.82 81.74 81.63 81.54 81.46 81.42 81.37 81.27 81.27 81.33 81.52 81.74 81.95 82.05 82.13 82.17 82.18 82.26 82.25 82.29 82.20 82.07 81.88
86.35 86.27 86.12 85.96 85.82 85.69 85.55 85.43 85.31 85.29 85.17 85.02 85.02 84.92 84.80 84.72 84.49 84.32 84.14 83.90 83.60 83.25 82.91 82.67 82.47 82.31 82.19 82.07 82.00 81.88 81.76 81.62 81.50 81.42 81.40 81.37 81.33 81.32 81.42 81.64 81.87 82.10 82.24 82.29 82.29 82.30 82.33 82.36 82.40 82.33 82.15 81.85
86.46 86.32 86.15 85.99 85.82 85.69 85.57 85.47 85.40 85.31 85.18 85.17 85.07 84.97 84.87 84.70 84.50 84.38 84.26 84.09 83.85 83.58 83.26 82.91 82.60 82.39 82.25 82.15 82.01 81.86 81.69 81.59 81.53 81.47 81.46 81.49 81.48 81.51 81.61 81.75 81.95 82.19 82.30 82.37 82.36 82.32 82.30 82.33 82.40 82.42 82.29 81.98
86.51 86.38 86.20 86.01 85.82 85.71 85.61 85.56 85.44 85.34 85.24 85.19 85.09 85.00 84.85 84.68 84.51 84.44 84.32 84.18 83.99 83.77 83.52 83.24 82.89 82.54 82.31 82.16 82.04 81.88 81.78 81.71 81.60 81.54 81.58 81.65 81.71 81.70 81.74 81.88 82.02 82.24 82.37 82.36 82.51 82.59 82.80 83.04 82.38 82.33 83.21 84.03
86.54 86.40 86.23 86.03 85.86 85.74 85.69 85.58 85.46 85.38 85.35 85.20 85.11 84.99 84.80 84.65 84.53 84.46 84.36 84.24 84.08 83.89 83.68 83.46 83.17 82.84 82.52 82.24 82.04 81.92 81.88 81.85 81.72 81.65 81.72 81.81 81.80 81.81 81.83 81.93 82.10 82.22 82.35 82.63 84.69 84.73 84.67 84.52 82.43 82.28 82.12 82.60
86.58 86.46 86.27 86.10 85.93 85.84 85.75 85.61 85.50 85.47 85.32 85.20 85.10 84.92 84.75 84.66 84.58 84.48 84.38 84.26 84.08 83.94 83.79 83.62 83.41 83.17 82.83 82.50 82.19 81.96 81.84 81.79 81.76 81.78 81.84 81.90 81.93 81.92 81.93 82.01 82.15 82.23 82.35 82.46 82.42 82.34 82.29 82.29 82.19 82.27 82.17 82.78
86.64 86.47 86.28 86.15 86.01 85.91 85.80 85.61 85.61 85.44 85.29 85.21 85.02 84.83 84.76 84.68 84.60 84.48 84.39 84.27 84.11 83.95 83.82 83.67 83.54 83.39 83.16 82.85 82.47 82.13 81.91 81.88 81.89 81.96 82.01 82.02 82.05 82.01 82.00 82.12 82.22 82.25 82.26 82.36 82.47 82.53 82.55 82.49 82.46 82.37 82.28 83.00
86.65 86.48 86.36 86.22 86.10 85.95 85.81 85.71 85.58 85.44 85.32 85.11 84.94 84.83 84.77 84.69 84.59 84.43 84.34 84.24 84.11 83.98 83.82 83.71 83.58 83.47 83.33 83.13 82.81 82.48 82.21 82.13 82.14 82.14 82.18 82.17 82.15 82.10 82.07 82.12 82.23 82.25 82.23 82.28 82.31 82.35 82.33 82.34 82.44 82.42 82.39 82.70
86.71 86.56 86.40 86.27 86.11 85.98 85.83 85.75 85.59 85.45 85.26 85.07 84.93 84.84 84.76 84.65 84.57 84.44 84.33 84.24 84.12 83.99 83.86 83.74 83.61 83.51 83.40 83.29 83.07 82.81 82.56 82.42 82.36 82.32 82.32 82.29 82.24 82.17 82.09 82.11 82.14 82.14 82.13 82.18 82.29 82.28 82.28 82.34 82.43 82.53 82.49 82.88
86.74 86.58 86.49 86.32 86.14 86.00 85.90 85.77 85.60 85.44 85.19 85.06 84.93 84.83 84.76 84.70 84.59 84.46 84.33 84.24 84.14 84.01 83.88 83.75 83.65 83.54 83.47 83.33 83.18 83.01 82.81 82.61 82.52 82.47 82.44 82.40 82.36 82.29 82.21 82.10 82.03 82.00 82.04 82.12 82.18 82.23 82.28 82.37 82.48 82.57 82.61 84.39
86.79 86.64 86.54 86.35 86.18 86.18 85.91 85.76 85.61 85.38 85.19 85.06 84.93 84.83 84.75 84.68 84.58 84.44 84.35 84.26 84.17 84.04 83.90 83.75 83.65 83.57 83.46 83.34 83.21 83.11 82.93 82.78 82.65 82.60 82.57 82.56 82.48 82.37 82.26 82.17 82.10 82.01 81.98 82.02 82.06 82.13 82.24 82.34 82.53 82.60 82.56 84.29
86.84 86.71 86.57 86.38 86.30 86.10 85.93 85.80 85.54 85.33 85.19 85.08 84.96 84.86 84.76 84.67 84.55 84.44 84.35 84.26 84.18 84.03 83.90 83.76 83.65 83.54 83.42 83.29 83.21 83.10 82.99 82.89 82.77 82.71 82.64 82.60 82.51 82.41 82.31 82.23 82.14 82.06 82.02 82.02 82.07 82.14 82.22 82.31 82.53 82.47 82.68 84.09
86.94 86.75 86.58 86.47 86.31 86.12 85.96 85.72 85.48 85.36 85.24 85.10 84.98 84.87 84.74 84.63 84.53 84.43 84.35 84.26 84.18 84.04 83.91 83.79 83.68 83.52 83.42 83.33 83.25 83.17 83.07 83.00 82.92 82.80 82.69 82.58 82.44 82.39 82.29 82.21 82.14 82.06 82.04 82.06 82.08 82.18 82.26 82.40 82.38 82.45 82.65 83.16
86.95 86.78 86.64 86.48 86.35 86.15 85.93 85.65 85.49 85.38 85.26 85.13 84.98 84.85 84.71 84.61 84.54 84.46 84.39 84.31 84.21 84.09 83.97 83.83 83.71 83.56 83.47 83.40 83.32 83.25 83.17 83.10 82.97 82.83 82.68 82.63 82.53 82.40 82.28 82.21 82.13 82.05 82.04 82.02 82.12 82.18 82.48 82.28 82.26 82.45 82.57 81.81
86.99 86.80 86.71 86.50 86.31 86.10 85.85 85.64 85.51 85.40 85.26 85.10 84.96 84.84 84.72 84.65 84.56 84.51 84.42 84.33 84.23 84.11 84.00 83.86 83.71 83.59 83.52 83.43 83.38 83.28 83.23 83.10 82.92 82.82 82.74 82.65 82.54 82.41 82.31 82.25 82.16 82.08 81.99 82.02 82.07 82.97 82.60 82.35 82.19 82.24 82.56 82.45
86.98 86.99 86.68 86.48 86.27 86.00 85.81 85.65 85.49 85.35 85.24 85.09 84.96 84.85 84.71 84.67 84.61 84.52 84.43 84.33 84.24 84.13 84.00 83.85 83.72 83.61 83.54 83.49 83.40 83.33 83.22 83.00 82.91 82.82 82.75 82.68 82.54 82.47 82.38 82.25 82.13 82.02 82.10 82.11 82.81 82.85 83.00 82.60 82.21 81.88 82.25 82.51
87.09 86.87 86.67 86.47 86.12 85.88 85.74 85.60 85.51 85.38 85.27 85.10 84.96 84.83 84.71 84.66 84.62 84.54 84.42 84.33 84.25 84.13 83.99 83.85 83.76 83.67 83.60 83.52 83.40 83.29 83.15 83.01 82.93 82.86 82.75 82.64 82.56 82.47 82.37 82.26 82.13 82.06 82.02 82.04 82.38 82.76 82.88 82.48 82.29 81.93 82.21 82.40
87.00 86.88 86.68 86.40 86.06 85.87 85.78 85.64 85.56 85.46 85.29 85.11 84.97 84.82 84.74 84.68 84.62 84.55 84.45 84.36 84.26 84.11 83.96 83.89 83.81 83.73 83.64 83.47 83.40 83.26 83.13 83.04 82.94 82.82 82.75 82.66 82.57 82.47 82.36 82.24 82.12 82.06 82.04 81.98 82.09 82.44 82.40 82.19 82.04 82.04 82.15 82.31
87.09 86.94 86.71 86.39 86.18 86.00 85.89 85.73 85.61 85.46 85.31 85.15 85.02 84.88 84.78 84.72 84.64 84.56 84.47 84.37 84.21 84.09 83.97 83.93 83.85 83.74 83.57 83.51 83.37 83.24 83.15 83.04 82.96 82.86 82.76 82.65 82.53 82.41 82.33 82.22 82.11 82.03 81.99 81.95 81.96 81.98 82.59 82.42 82.30 82.33 82.29 82.32
87.51 87.26 86.90 86.71 86.49 86.23 85.97 85.78 85.61 85.44 85.30 85.18 85.07 84.93 84.86 84.78 84.66 84.57 84.47 84.33 84.20 84.08 84.03 83.94 83.82 83.67 83.58 83.50 83.35 83.27 83.17 83.05 82.94 82.87 82.77 82.61 82.49 82.40 82.30 82.19 82.09 82.00 81.99 81.96 81.95 81.03 82.74 82.79 82.61 82.54 82.37 82.28
87.08 86.99 86.35 87.07 86.82 86.55 86.20 86.02 85.83 85.64 85.48 85.33 85.17 85.01 84.90 84.77 84.66 84.57 84.50 84.32 84.19 84.11 84.04 83.90 83.77 83.63 83.59 83.44 83.32 83.25 83.15 83.04 82.98 82.86 82.74 82.57 82.46 82.38 82.29 82.17 82.10 82.02 82.00 81.55 83.48 82.43 83.00 82.80 82.67 82.74 82.57 82.44
86.91 86.88 86.83 87.07 86.50 86.22 86.01 85.43 85.85 85.89 85.76 85.62 85.40 85.29 85.15 85.02 84.88 84.76 84.57 84.34 84.22 84.17 84.05 83.96 83.73 83.63 83.50 83.38 83.32 83.23 83.14 83.04 82.95 82.82 82.68 82.54 82.44 82.33 82.27 82.18 82.10 81.85 82.57 82.82 84.31 82.67 82.85 82.85 82.87 82.69 82.76 82.57
86.91 86.83 86.84 86.76 86.39 86.12 86.04 85.80 85.69 85.55 85.42 85.29 85.07 84.64 85.10 85.14 85.02 84.95 84.72 84.60 84.42 84.18 84.04 84.26 84.01 83.65 83.49 83.44 83.35 83.26 83.14 83.03 82.89 82.75 82.60 82.47 82.43 82.38 82.24 82.07 82.56 82.72 82.69 82.83 82.93 82.93 82.91 82.90 83.00 82.86 83.11 82.82
86.95 86.75 87.07 86.51 86.09 85.90 85.73 85.60 85.49 85.37 85.28 85.20 85.12 85.03 84.91 84.81 84.69 84.68 84.68 84.12 84.48 84.44 84.35 84.26 84.27 84.10 84.15 83.93 83.62 83.64 83.23 83.07 82.89 82.74 82.59 82.56 82.50 82.39 82.24 82.89 82.80 82.80 82.78 82.84 82.74 82.93 82.97 83.03 82.96 82.88 82.85 82.81
86.89 87.19 86.72 86.33 86.07 85.88 85.72 85.58 85.40 85.27 85.14 84.99 84.92 84.79 84.76 84.71 84.64 84.56 84.51 84.37 84.26 84.18 84.07 83.99 83.66 83.43 83.86 83.79 83.69 83.59 83.54 83.53 83.37 82.96 82.64 82.83 82.82 82.79 82.92 82.84 82.85 82.79 82.88 82.90 83.04 83.07 83.02 82.97 83.02 82.81 82.83 82.72
87.02 86.97 86.55 86.28 86.01 85.90 85.72 85.57 85.40 85.29 85.13 85.00 84.88 84.79 84.69 84.58 84.53 84.47 84.30 84.15 84.11 84.06 84.03 83.96 83.88 83.83 83.71 83.58 83.46 83.35 82.87 82.93 83.21 83.17 83.18 83.10 81.74 82.78 82.89 82.92 82.92 82.92 83.01 83.10 83.14 83.23 83.04 82.93 82.94 83.05 82.84 82.99
87.33 86.85 86.44 86.20 86.03 85.87 85.71 85.54 85.42 85.29 85.11 84.96 84.90 84.81 84.72 84.61 84.58 84.39 84.21 84.03 83.97 83.89 83.79 83.70 83.66 83.62 83.57 83.49 83.38 83.27 83.13 83.03 82.93 82.83 82.69 82.99 83.05 82.85 82.83 82.88 82.97 83.03 83.07 83.17 83.33 83.20 83.03 82.99 82.98 83.01 82.89 82.99
87.01 86.59 86.34 86.12 85.98 85.83 85.66 85.51 85.44 85.27 85.09 84.97 84.90 84.84 84.73 84.65 84.49 84.29 84.12 83.96 83.91 83.84 83.73 83.65 83.54 83.46 83.37 83.23 83.14 83.00 82.90 82.83 82.87 82.92 82.80 82.89 82.62 83.25 82.99 83.04 83.04 83.13 83.10 83.07 83.16 83.42 83.29 83.18 82.99 83.02 83.14 82.98
86.77 86.50 86.29 86.10 85.93 85.77 85.60 85.49 85.41 85.26 85.12 85.00 84.92 84.83 84.74 84.64 84.37 84.26 84.11 83.98 83.91 83.81 83.74 83.65 83.55 83.47 83.32 83.20 83.07 82.97 82.86 82.82 82.79 82.82 82.87 82.96 83.02 83.05 83.43 83.16 83.24 83.15 83.16 83.10 83.08 83.23 83.35 83.87 83.16 82.96 83.04 83.29
86.65 86.48 86.28 86.10 85.93 85.74 85.60 85.51 85.35 85.28 85.14 85.02 84.94 84.84 84.83 84.59 84.38 84.26 84.15 84.03 83.92 83.84 83.74 83.66 83.58 83.42 83.31 83.22 83.11 83.04 82.97 82.92 82.84 82.34 82.98 83.04 83.14 83.19 83.24 83.58 83.32 83.30 83.24 83.15 83.18 83.24 83.64 83.81 83.27 83.29 83.23 83.31
86.59 86.46 86.29 86.13 85.96 85.79 85.65 85.51 85.38 85.26 85.17 85.07 84.94 84.94 84.78 84.54 84.40 84.28 84.19 84.07 83.96 83.87 83.77 83.68 83.59 83.47 83.37 83.29 83.21 83.11 83.08 82.96 82.35 82.88 83.03 83.12 83.24 83.28 83.29 83.39 83.59 83.63 83.41 83.29 83.20 83.18 83.22 83.49 83.25 83.35 83.42 82.92
86.62 86.49 86.33 86.16 85.96 85.82 85.68 85.54 85.39 85.29 85.17 85.08 85.01 84.97 84.71 84.56 84.42 84.31 84.24 84.12 84.01 83.91 83.80 83.75 83.66 83.56 83.42 83.37 83.30 83.23 83.17 83.24 82.87 82.90 83.05 83.23 83.32 83.35 83.35 83.41 83.49 83.34 83.71 83.43 83.34 83.30 83.22 83.14 83.35 83.54 83.02 82.99
86.57 86.47 86.34 86.18 85.99 85.85 85.68 85.55 85.38 85.29 85.18 85.10 85.07 84.85 84.69 84.56 84.44 84.35 84.27 84.18 84.08 83.96 83.90 83.81 83.71 83.57 83.52 83.43 83.39 83.34 83.41 82.95 82.85 82.89 83.12 83.34 83.45 83.47 83.48 83.49 83.50 83.54 83.39 83.75 83.39 83.39 83.24 83.35 83.72 82.78 83.07 83.06
86.52 86.41 86.29 86.15 86.04 85.88 85.71 85.54 85.38 85.27 85.16 85.13 84.99 84.76 84.68 84.57 84.46 84.40 84.32 84.24 84.11 84.04 83.96 83.88 83.75 83.61 83.52 83.48 83.54 83.39 82.36 82.96 82.91 82.94 83.18 83.38 83.48 83.56 83.59 83.59 83.60 83.58 83.56 83.46 83.80 83.46 83.46 83.54 83.44 83.12 83.14 83.18
86.49 86.37 86.24 86.10 85.96 85.85 85.74 85.60 85.47 85.32 85.19 85.12 84.87 84.74 84.67 84.57 84.51 84.43 84.35 84.26 84.17 84.10 84.00 83.93 83.82 83.66 83.59 83.56 83.46 82.74 83.07 83.05 83.07 83.18 83.32 83.44 83.59 83.67 83.65 83.68 83.70 83.67 83.63 83.51 83.43 83.79 83.27 83.87 83.25 83.22 83.23 83.28
86.48 86.31 86.18 86.04 85.93 85.81 85.68 85.52 85.43 85.33 85.25 85.05 84.84 84.71 84.64 84.59 84.53 84.47 84.39 84.31 84.24 84.12 84.07 84.00 83.90 83.76 83.68 83.63 83.66 83.15 83.13 83.12 83.27 83.34 83.49 83.62 83.71 83.71 83.72 83.76 83.75 83.68 83.68 83.59 83.49 83.59 83.91 83.19 83.27 83.29 83.35 83.34
86.45 86.32 86.21 86.05 85.90 85.74 85.58 85.43 85.41 85.39 85.24 85.02 84.86 84.67 84.63 84.61 84.56 84.49 84.43 84.36 84.26 84.18 84.10 84.05 83.95 83.85 83.76 83.71 83.24 83.15 83.12 83.27 83.41 83.49 83.59 83.71 83.77 83.75 83.82 83.81 83.78 83.73 83.69 83.61 83.45 83.23 83.89 83.38 83.37 83.40 83.42 83.40
86.46 86.31 86.19 86.08 85.89 85.72 85.53 85.47 85.43 85.38 85.17 85.01 84.85 84.67 84.67 84.64 84.59 84.51 84.45 84.40 84.27 84.17 84.13 84.06 83.96 83.88 83.77 82.49 83.20 83.21 83.25 83.41 83.53 83.55 83.67 83.81 83.86 83.88 83.88 83.84 83.85 83.80 83.73 83.55 83.46 84.00 83.47 83.44 83.46 83.48 83.45 83.42
86.42 86.31 86.19 86.07 85.93 85.72 85.57 85.51 85.46 85.28 85.15 85.04 84.89 84.78 84.73 84.67 84.62 84.53 84.49 84.43 84.29 84.22 84.12 84.05 83.97 83.83 83.06 83.35 83.31 83.29 83.42 83.55 83.61 83.70 83.78 83.90 83.96 83.96 83.95 83.91 83.87 83.82 83.70 83.66 83.44 83.55 83.47 83.54 83.57 83.55 83.49 83.45
86.43 86.31 86.20 86.06 85.93 85.82 85.70 85.60 85.46 85.26 85.16 85.04 84.97 84.88 84.79 84.69 84.62 84.64 84.54 84.46 84.35 84.26 84.13 84.02 83.97 83.76 83.38 83.43 83.42 83.51 83.60 83.72 83.84 83.90 83.94 84.01 84.05 84.04 83.96 83.94 83.90 83.82 83.70 83.75 84.04 83.49 83.52 83.63 83.65 83.62 83.54 83.50
86.48 86.33 86.18 86.07 85.94 85.91 85.79 85.69 85.43 85.34 85.21 85.12 85.06 84.98 84.86 84.74 84.70 84.69 84.57 84.48 84.36 84.25 84.13 84.12 84.08 83.40 83.47 83.51 83.63 83.74 83.83 83.94 84.04 84.06 84.01 84.06 84.08 84.06 84.04 83.97 83.92 83.79 83.77 83.76 83.46 83.53 83.56 83.68 83.73 83.71 83.65 83.61
86.52 86.33 86.21 86.07 85.99 85.97 85.85 85.66 85.49 85.37 85.22 85.17 85.08 85.01 84.92 84.81 84.78 84.74 84.59 84.50 84.38 84.26 84.18 84.12 82.79 83.51 83.58 83.70 83.83 83.97 84.01 84.14 84.23 84.19 84.16 84.12 84.13 84.13 84.09 84.03 83.94 83.83 83.77 84.08 83.60 83.60 83.63 83.74 83.80 83.81 83.77 83.73
86.51 86.33 86.21 86.12 86.06 85.99 85.83 85.62 85.52 85.38 85.32 85.21 85.12 85.08 84.95 84.87 84.83 84.75 84.65 84.51 84.40 84.27 84.23 83.43 83.56 83.56 83.68 83.89 84.02 84.10 84.26 84.34 84.38 84.33 84.30 84.26 84.22 84.21 84.15 84.05 83.93 83.86 84.02 83.85 83.73 83.70 83.72 83.79 83.88 83.93 83.90 83.85
