ncols 52
nrows 52
xllcorner 439296
yllcorner 5714944
cellsize 10
NODATA_value -9999
93.51 93.72 93.90 94.00 94.17 94.38 94.50 94.68 94.85 95.04 95.36 95.64 95.82 96.01 96.09 96.25 96.36 96.41 96.36 96.11 95.84 95.51 95.14 94.77 94.48 94.14 93.89 93.63 93.41 93.36 93.46 93.14 92.93 92.92 92.84 92.67 92.52 92.31 92.25 92.22 92.20 92.22 92.15 92.10 92.04 91.93 91.85 91.77 91.69 91.65 91.53 91.43
93.63 93.82 94.00 94.15 94.30 94.43 94.51 94.68 94.87 95.12 95.41 95.63 95.85 96.00 96.15 96.28 96.43 96.53 96.46 96.24 95.99 95.64 95.25 94.89 94.56 94.25 93.98 93.71 93.52 93.60 93.50 93.22 93.09 93.05 93.04 92.76 92.76 92.55 92.50 92.41 92.34 92.30 92.25 92.18 92.14 92.07 91.97 91.90 91.83 91.77 91.68 91.60
93.67 93.95 94.06 94.19 94.34 94.54 94.66 94.85 94.99 95.15 95.42 95.65 95.81 95.99 96.13 96.29 96.44 96.55 96.45 96.29 96.10 95.72 95.32 94.99 94.65 94.37 94.06 93.82 93.63 93.37 93.58 93.28 93.20 93.16 93.01 92.88 92.69 92.79 92.63 92.52 92.50 92.42 92.36 92.27 92.23 92.17 92.09 92.06 91.94 91.90 91.82 91.77
93.73 93.93 94.08 94.25 94.43 94.65 94.76 94.93 95.04 95.33 95.55 95.68 95.81 95.94 96.12 96.28 96.43 96.55 96.42 96.32 96.13 95.77 95.36 95.06 94.72 94.47 94.19 93.93 93.87 93.92 93.61 93.33 93.32 93.24 93.09 92.98 92.56 92.92 92.83 92.69 92.66 92.53 92.49 92.43 92.38 92.31 92.23 92.17 92.10 92.04 91.96 91.90
93.77 93.96 94.15 94.32 94.48 94.63 94.79 95.01 95.26 95.40 95.56 95.73 95.88 96.02 96.09 96.32 96.47 96.51 96.40 96.33 96.15 95.81 95.43 95.12 94.83 94.56 94.29 94.10 94.17 94.03 93.70 93.47 93.43 93.30 93.20 93.10 93.06 93.22 93.01 92.77 92.78 92.69 92.64 92.58 92.53 92.46 92.38 92.32 92.25 92.18 92.12 92.03
93.78 93.96 94.15 94.33 94.50 94.67 94.84 95.06 95.22 95.37 95.57 95.81 95.96 96.06 96.15 96.35 96.51 96.49 96.41 96.35 96.17 95.81 95.49 95.18 94.94 94.68 94.46 94.26 93.96 94.12 93.78 93.62 93.53 93.44 93.31 93.23 93.27 93.42 93.26 93.00 92.96 92.86 92.79 92.74 92.65 92.60 92.50 92.44 92.39 92.33 92.24 92.17
93.78 93.98 94.21 94.37 94.52 94.69 94.88 95.07 95.23 95.40 95.54 95.72 95.90 96.06 96.23 96.36 96.47 96.41 96.46 96.38 96.20 95.84 95.53 95.22 95.03 94.83 94.59 94.54 94.61 94.22 93.86 93.78 93.67 93.54 93.43 93.36 93.43 93.45 93.57 93.21 93.09 93.01 92.96 92.90 92.81 92.75 92.65 92.62 92.54 92.48 92.40 92.35
93.76 94.00 94.24 94.40 94.58 94.74 94.90 95.09 95.24 95.36 95.54 95.71 95.85 96.00 96.15 96.29 96.41 96.51 96.47 96.38 96.19 95.97 95.67 95.32 95.10 94.96 94.81 94.85 94.70 94.33 94.07 93.96 93.79 93.67 93.55 93.50 93.55 93.68 93.71 93.48 93.22 93.16 93.12 93.05 92.99 92.89 92.84 92.79 92.67 92.61 92.57 92.52
93.78 94.03 94.26 94.47 94.62 94.80 94.97 95.13 95.24 95.33 95.49 95.65 95.82 95.96 96.12 96.24 96.33 96.37 96.36 96.35 96.26 96.04 95.80 95.51 95.30 95.17 95.11 95.13 94.76 94.41 94.24 94.08 93.85 93.71 93.64 93.65 93.76 93.88 93.65 93.55 93.49 93.37 93.29 93.22 93.15 93.09 93.00 92.96 92.87 92.83 92.76 92.71
93.85 94.11 94.32 94.51 94.69 94.87 95.03 95.18 95.26 95.37 95.49 95.64 95.79 95.96 96.06 96.22 96.32 96.35 96.35 96.31 96.21 96.04 95.81 95.67 95.53 95.31 95.27 95.32 94.83 94.45 94.36 94.18 93.95 93.85 93.84 93.89 93.96 93.99 94.15 94.14 93.77 93.51 93.43 93.44 93.34 93.28 93.19 93.12 93.06 93.00 92.96 92.90
93.90 94.17 94.37 94.57 94.74 94.92 95.11 95.25 95.33 95.44 95.54 95.68 95.81 95.95 96.07 96.16 96.25 96.29 96.34 96.35 96.27 96.08 95.89 95.72 95.59 95.52 95.46 95.39 94.91 94.61 94.46 94.24 94.07 94.00 94.04 94.13 94.19 94.19 94.31 94.32 94.04 93.76 93.65 93.57 93.48 93.43 93.36 93.32 93.25 93.20 93.18 93.15
93.95 94.21 94.41 94.61 94.79 94.98 95.12 95.26 95.36 95.45 95.56 95.68 95.83 95.98 96.11 96.19 96.25 96.27 96.31 96.30 96.25 96.11 95.94 95.86 95.78 95.75 95.72 95.40 95.00 94.74 94.57 94.32 94.19 94.18 94.26 94.34 94.36 94.40 94.42 94.47 94.43 94.04 93.88 93.75 93.65 93.62 93.54 93.52 93.45 93.44 93.40 93.33
93.99 94.25 94.46 94.67 94.85 95.01 95.18 95.31 95.39 95.48 95.60 95.67 95.82 95.97 96.13 96.22 96.26 96.29 96.29 96.29 96.22 96.14 96.03 95.95 95.90 95.99 95.83 95.47 95.07 94.93 94.71 94.48 94.41 94.42 94.54 94.58 94.53 94.51 94.50 94.60 94.62 94.30 93.99 93.92 93.84 93.80 93.75 93.71 93.68 93.64 93.60 93.52
93.97 94.26 94.49 94.67 94.87 95.06 95.21 95.32 95.42 95.54 95.62 95.72 95.84 95.98 96.14 96.24 96.30 96.30 96.33 96.32 96.25 96.20 96.09 96.04 96.05 96.06 95.95 95.54 95.26 95.15 94.90 94.71 94.68 94.73 94.81 94.80 94.71 94.68 94.69 94.75 94.52 94.40 94.15 94.07 94.05 94.01 93.96 93.93 93.85 93.81 93.74 93.66
94.02 94.28 94.50 94.68 94.89 95.08 95.23 95.35 95.51 95.62 95.72 95.82 95.92 96.05 96.17 96.28 96.30 96.32 96.33 96.35 96.35 96.31 96.22 96.19 96.18 96.29 95.96 95.57 95.40 95.26 95.06 94.93 94.97 95.03 95.04 95.01 94.92 94.88 94.89 94.86 94.90 94.84 94.44 94.31 94.27 94.23 94.15 94.07 94.01 93.92 93.88 93.81
94.01 94.26 94.51 94.73 94.91 95.09 95.25 95.44 95.57 95.68 95.79 95.90 95.98 96.10 96.20 96.27 96.31 96.34 96.40 96.40 96.40 96.35 96.33 96.33 96.38 96.36 96.05 95.65 95.56 95.39 95.21 95.18 95.25 95.30 95.28 95.23 95.15 95.10 95.04 95.06 95.10 94.95 94.79 94.62 94.52 94.43 94.34 94.22 94.13 94.04 94.03 93.97
94.08 94.32 94.54 94.75 94.94 95.10 95.28 95.44 95.57 95.71 95.83 95.95 96.04 96.14 96.24 96.26 96.31 96.40 96.44 96.46 96.48 96.46 96.46 96.49 96.51 96.46 96.12 95.81 95.77 95.61 95.47 95.48 95.54 95.56 95.49 95.42 95.33 95.28 95.19 95.23 95.20 95.27 95.21 94.90 94.81 94.62 94.50 94.39 94.32 94.22 94.24 94.10
94.17 94.38 94.57 94.76 94.94 95.12 95.29 95.44 95.61 95.73 95.85 95.95 96.02 96.15 96.25 96.32 96.36 96.39 96.48 96.54 96.55 96.57 96.59 96.68 96.67 96.51 96.18 96.04 95.94 95.83 95.77 95.79 95.83 95.79 95.74 95.61 95.53 95.46 95.40 95.39 95.35 95.44 95.54 95.20 94.95 94.80 94.69 94.61 94.54 94.47 94.41 94.31
94.24 94.43 94.62 94.78 94.96 95.15 95.35 95.50 95.64 95.73 95.85 95.93 96.04 96.13 96.26 96.29 96.35 96.41 96.49 96.56 96.56 96.56 96.61 96.78 96.76 96.56 96.29 96.28 96.18 96.04 96.01 96.04 96.06 96.04 95.93 95.85 95.79 95.69 95.61 95.57 95.52 95.58 95.45 95.36 95.12 94.93 94.89 94.79 94.72 94.64 94.58 94.47
94.28 94.49 94.65 94.82 94.97 95.19 95.38 95.53 95.66 95.76 95.86 95.96 96.04 96.17 96.28 96.31 96.33 96.39 96.45 96.50 96.54 96.61 96.66 96.74 96.78 96.60 96.44 96.47 96.38 96.29 96.19 96.20 96.25 96.24 96.17 96.12 96.08 95.97 95.91 95.79 95.69 95.70 95.83 95.86 95.30 95.07 95.04 94.95 94.91 94.83 94.78 94.69
94.35 94.53 94.75 94.89 95.06 95.27 95.44 95.59 95.68 95.81 95.89 95.95 96.04 96.15 96.26 96.29 96.32 96.35 96.46 96.52 96.55 96.57 96.66 96.88 96.80 96.60 96.60 96.62 96.54 96.51 96.46 96.41 96.46 96.50 96.44 96.40 96.35 96.24 96.17 96.08 95.99 95.92 96.02 95.79 95.60 95.38 95.20 95.12 95.08 95.01 94.96 94.93
94.49 94.72 94.85 94.99 95.15 95.35 95.55 95.68 95.75 95.82 95.88 95.94 96.03 96.12 96.21 96.26 96.28 96.35 96.44 96.54 96.59 96.64 96.76 96.89 96.83 96.68 96.76 96.77 96.72 96.73 96.71 96.69 96.71 96.73 96.68 96.64 96.59 96.53 96.45 96.36 96.27 96.18 96.18 96.19 96.00 95.62 95.43 95.32 95.27 95.19 95.18 95.17
94.51 94.76 94.94 95.18 95.31 95.49 95.60 95.65 95.75 95.82 95.87 95.95 96.01 96.10 96.17 96.25 96.31 96.34 96.43 96.54 96.65 96.74 96.79 96.85 96.82 96.79 96.90 96.94 96.93 96.94 96.93 96.95 96.92 96.91 96.87 96.87 96.82 96.81 96.75 96.63 96.53 96.44 96.33 96.32 96.29 95.86 95.55 95.49 95.46 95.43 95.44 95.40
94.49 94.66 94.95 95.12 95.35 95.48 95.67 95.68 95.75 95.78 95.84 95.92 96.03 96.10 96.18 96.23 96.30 96.35 96.42 96.54 96.58 96.74 96.90 96.96 96.81 96.90 97.00 97.04 97.08 97.08 97.07 97.11 97.11 97.09 97.12 97.12 97.09 97.07 96.99 96.86 96.75 96.60 96.48 96.46 96.31 96.10 95.84 95.68 95.70 95.67 95.63 95.62
94.66 94.85 95.05 95.17 95.19 95.39 95.55 95.64 95.74 95.88 95.87 95.99 96.05 96.09 96.14 96.21 96.26 96.30 96.35 96.49 96.60 96.75 97.02 96.97 96.81 96.99 97.05 97.06 97.15 97.18 97.17 97.23 97.26 97.27 97.34 97.32 97.30 97.28 97.19 97.08 96.92 96.71 96.67 96.60 96.61 96.54 96.10 95.92 95.93 95.90 95.91 95.87
94.78 94.96 95.09 95.23 95.27 95.37 95.42 95.51 95.68 95.76 95.85 96.02 96.08 96.19 96.21 96.26 96.24 96.22 96.25 96.39 96.54 96.70 96.86 96.91 96.91 97.07 97.10 97.07 97.17 97.24 97.31 97.32 97.35 97.39 97.44 97.43 97.41 97.39 97.31 97.21 97.08 96.87 96.81 96.80 96.78 96.50 96.42 96.22 96.15 96.14 96.14 96.10
94.85 94.94 95.09 95.20 95.26 95.37 95.46 95.59 95.75 95.76 95.81 95.94 95.96 96.07 96.21 96.25 96.34 96.26 96.33 96.43 96.60 96.83 96.93 96.90 96.99 97.11 97.15 97.12 97.20 97.28 97.36 97.41 97.44 97.50 97.54 97.57 97.58 97.56 97.47 97.35 97.29 97.17 97.02 96.93 96.99 97.04 96.85 96.54 96.45 96.39 96.33 96.27
94.90 95.01 95.11 95.22 95.28 95.38 95.45 95.58 95.70 95.84 95.90 95.98 96.03 96.07 96.15 96.22 96.30 96.32 96.36 96.52 96.61 97.11 97.02 96.90 97.03 97.16 97.20 97.23 97.29 97.37 97.44 97.50 97.54 97.61 97.66 97.75 97.79 97.76 97.67 97.56 97.64 97.54 97.32 97.23 97.17 97.32 97.06 96.84 96.57 96.54 96.51 96.46
94.91 95.01 95.10 95.19 95.29 95.37 95.48 95.60 95.73 95.88 95.96 96.02 96.07 96.16 96.21 96.31 96.39 96.39 96.40 96.52 96.79 96.98 96.99 96.91 97.06 97.17 97.25 97.32 97.38 97.46 97.53 97.59 97.66 97.73 97.79 97.89 97.96 97.92 97.82 97.74 97.75 97.77 97.61 97.57 97.50 97.48 97.37 96.96 96.79 96.71 96.72 96.65
94.87 94.95 95.07 95.17 95.34 95.45 95.54 95.68 95.83 95.92 96.05 96.06 96.12 96.15 96.23 96.30 96.39 96.45 96.51 96.71 97.03 96.93 96.90 96.94 97.08 97.20 97.28 97.36 97.42 97.51 97.58 97.67 97.76 97.82 97.90 98.05 98.10 98.07 97.96 97.86 97.85 97.91 97.89 97.85 97.83 97.76 97.92 97.31 97.04 96.90 96.89 96.85
94.87 94.94 95.10 95.18 95.33 95.48 95.64 95.71 95.81 95.94 96.09 96.12 96.19 96.19 96.28 96.35 96.41 96.47 96.54 96.78 97.06 96.99 96.82 97.00 97.15 97.24 97.32 97.39 97.47 97.56 97.65 97.74 97.85 97.92 98.02 98.15 98.24 98.22 98.14 97.99 97.91 98.03 98.13 98.03 97.93 98.06 98.05 97.08 97.24 97.20 97.11 97.04
94.92 95.01 95.13 95.24 95.36 95.47 95.63 95.71 95.79 95.94 96.08 96.14 96.21 96.25 96.27 96.38 96.42 96.47 96.57 96.83 97.00 96.93 96.86 97.08 97.23 97.32 97.38 97.45 97.55 97.62 97.70 97.82 97.97 98.03 98.12 98.25 98.35 98.39 98.31 98.16 98.15 98.18 98.17 97.53 98.23 98.12 98.16 98.29 97.63 97.50 97.42 97.29
94.93 95.04 95.18 95.32 95.41 95.50 95.63 95.72 95.79 95.90 96.02 96.10 96.15 96.26 96.31 96.41 96.46 96.52 96.62 96.99 96.77 96.84 96.89 97.12 97.30 97.39 97.45 97.51 97.61 97.73 97.80 97.93 98.07 98.16 98.26 98.37 98.49 98.53 98.45 98.40 98.41 98.31 98.39 98.42 98.73 98.46 98.28 98.21 97.81 97.79 97.53 97.48
95.01 95.14 95.23 95.39 95.46 95.52 95.61 95.75 95.83 95.93 96.03 96.12 96.16 96.25 96.31 96.43 96.49 96.56 96.76 97.11 97.03 96.84 96.99 97.19 97.34 97.45 97.53 97.58 97.69 97.83 97.95 98.09 98.19 98.30 98.40 98.52 98.64 98.71 98.68 98.65 98.64 98.62 98.58 98.62 98.93 98.61 98.33 98.33 98.29 97.94 97.74 97.57
95.04 95.18 95.28 95.43 95.49 95.58 95.70 95.82 95.87 95.99 96.07 96.15 96.17 96.24 96.33 96.43 96.51 96.64 96.83 96.99 97.03 96.89 97.11 97.29 97.43 97.54 97.58 97.67 97.79 97.92 98.08 98.24 98.35 98.47 98.61 98.73 98.88 98.97 98.97 98.95 98.92 98.92 98.94 98.89 98.83 98.71 98.73 98.53 98.53 98.18 97.90 97.69
95.08 95.22 95.35 95.47 95.54 95.65 95.74 95.82 95.91 95.96 96.09 96.19 96.24 96.32 96.41 96.49 96.55 96.69 96.97 96.74 96.96 97.00 97.22 97.39 97.51 97.57 97.63 97.73 97.86 97.99 98.15 98.32 98.47 98.66 98.86 99.02 99.17 99.27 99.29 99.25 99.24 99.24 99.24 99.22 99.04 98.90 98.79 98.72 98.69 98.51 98.00 97.93
95.15 95.26 95.40 95.47 95.56 95.65 95.82 95.86 95.95 96.03 96.16 96.25 96.38 96.41 96.51 96.55 96.65 96.81 97.09 97.09 96.98 97.10 97.30 97.46 97.56 97.63 97.70 97.83 97.94 98.06 98.22 98.37 98.57 98.81 99.06 99.25 99.39 99.48 99.54 99.47 99.45 99.44 99.49 99.40 99.20 99.08 98.96 98.96 98.91 98.81 98.65 98.19
95.08 95.24 95.39 95.51 95.60 95.74 95.86 95.90 96.00 96.04 96.22 96.31 96.45 96.50 96.57 96.65 96.75 96.92 97.09 97.13 97.08 97.25 97.44 97.58 97.67 97.71 97.81 97.91 98.01 98.11 98.28 98.43 98.67 98.93 99.19 99.43 99.53 99.59 99.68 99.66 99.58 99.61 99.76 99.60 99.46 99.24 99.17 99.11 99.57 99.93 98.66 98.48
95.04 95.24 95.44 95.58 95.66 95.77 95.88 95.94 95.97 96.08 96.26 96.38 96.53 96.64 96.64 96.70 96.80 97.09 96.80 97.14 97.18 97.36 97.55 97.70 97.77 97.82 97.90 98.03 98.12 98.22 98.39 98.57 98.83 99.10 99.35 99.58 99.67 99.73 99.76 99.78 99.73 99.76 99.89 99.83 99.67 99.51 99.53 99.62 99.18 99.07 99.01 98.71
95.13 95.32 95.44 95.58 95.67 95.85 95.88 95.97 96.05 96.15 96.29 96.43 96.56 96.66 96.69 96.74 96.92 97.21 97.15 97.14 97.21 97.42 97.60 97.75 97.85 97.89 98.00 98.14 98.25 98.42 98.59 98.82 99.05 99.30 99.54 99.77 99.88 99.91 99.92 99.92 99.90 99.93 99.95 99.98 99.84 99.61 99.62 99.39 99.24 99.10 99.16 99.02
95.18 95.33 95.46 95.57 95.71 95.86 95.92 96.02 96.05 96.16 96.22 96.39 96.54 96.71 96.74 96.83 96.98 97.14 97.20 97.18 97.31 97.52 97.71 97.82 97.92 98.00 98.11 98.23 98.36 98.58 98.79 99.02 99.24 99.47 99.76 100.02 100.15 100.19 100.19 100.15 100.15 100.13 100.22 100.24 100.10 99.90 99.67 99.52 99.44 99.31 99.26 99.04
95.20 95.38 95.49 95.62 95.78 95.88 95.95 95.98 96.07 96.18 96.29 96.40 96.61 96.71 96.73 96.85 97.14 97.18 97.22 97.27 97.45 97.69 97.85 97.94 98.01 98.11 98.22 98.32 98.45 98.65 98.88 99.21 99.46 99.71 99.98 100.23 100.40 100.43 100.43 100.41 100.38 100.36 100.46 100.35 100.27 100.15 99.90 99.76 99.65 99.53 99.35 99.33
95.20 95.35 95.51 95.64 95.82 95.92 95.96 96.04 96.10 96.22 96.34 96.46 96.58 96.68 96.74 96.90 97.25 97.21 97.25 97.32 97.54 97.78 97.96 98.06 98.11 98.21 98.34 98.45 98.58 98.75 99.04 99.38 99.69 99.96 100.21 100.45 100.60 100.69 100.67 100.67 100.66 100.58 100.60 100.51 100.49 100.36 100.12 99.96 99.83 99.69 99.46 99.37
95.04 95.29 95.46 95.66 95.85 95.92 96.01 96.01 96.13 96.19 96.34 96.43 96.59 96.67 96.82 96.97 97.23 97.25 97.22 97.35 97.59 97.82 97.97 98.08 98.17 98.29 98.42 98.56 98.74 98.93 99.24 99.60 99.93 100.22 100.46 100.60 100.74 100.81 100.89 100.88 100.83 100.80 100.78 100.68 100.64 100.55 100.35 100.15 100.01 99.83 99.58 99.46
95.00 95.20 95.43 95.65 95.84 95.91 95.93 95.98 96.06 96.18 96.30 96.46 96.54 96.65 96.80 97.11 96.63 97.26 97.26 97.42 97.64 97.82 97.95 98.04 98.15 98.31 98.45 98.64 98.86 99.11 99.44 99.76 100.08 100.37 100.62 100.78 100.91 100.98 101.06 101.10 101.06 101.08 100.98 100.85 100.80 100.70 100.53 100.37 100.19 99.98 99.73 99.46
94.90 95.07 95.36 95.59 95.76 95.83 95.93 96.00 96.10 96.16 96.26 96.39 96.47 96.60 96.83 97.17 97.21 97.26 97.32 97.49 97.65 97.85 97.99 98.07 98.22 98.40 98.58 98.79 99.00 99.26 99.58 99.89 100.18 100.47 100.74 100.93 101.06 101.15 101.25 101.29 101.24 101.23 101.18 101.07 100.97 100.87 100.73 100.53 100.30 100.09 99.91 99.62
94.42 95.01 95.22 95.53 95.69 95.83 95.89 95.99 96.06 96.14 96.26 96.36 96.49 96.66 96.85 97.21 97.29 97.26 97.40 97.54 97.69 97.87 98.01 98.17 98.30 98.49 98.71 98.96 99.18 99.45 99.77 100.07 100.39 100.68 100.86 101.06 101.18 101.28 101.40 101.43 101.41 101.42 101.37 101.24 101.14 101.05 100.88 100.66 100.41 100.17 99.93 99.82
95.29 95.06 95.26 95.44 95.63 95.76 95.83 95.93 96.08 96.21 96.33 96.40 96.49 96.67 97.01 96.65 97.29 97.29 97.40 97.55 97.73 97.88 98.01 98.17 98.36 98.54 98.81 99.08 99.32 99.64 99.94 100.30 100.62 100.90 101.10 101.25 101.34 101.44 101.53 101.60 101.61 101.57 101.50 101.37 101.26 101.13 101.00 100.78 100.43 100.28 100.22 99.97
95.44 95.35 95.24 95.43 95.48 95.72 95.83 96.03 96.16 96.27 96.32 96.46 96.57 96.79 97.22 97.18 97.33 97.33 97.40 97.56 97.76 97.92 98.04 98.21 98.43 98.65 98.92 99.18 99.46 99.76 100.08 100.42 100.76 101.03 101.24 101.39 101.45 101.56 101.66 101.71 101.70 101.65 101.62 101.50 101.38 101.23 101.06 100.81 100.64 100.43 99.24 99.30
95.58 95.55 95.51 95.43 95.51 95.68 95.90 96.04 96.21 96.29 96.40 96.48 96.68 96.89 97.29 97.30 97.36 97.42 97.53 97.69 97.86 98.00 98.15 98.32 98.50 98.74 99.04 99.29 99.57 99.87 100.18 100.54 100.87 101.08 101.33 101.52 101.62 101.71 101.74 101.79 101.73 101.67 101.60 101.53 101.44 101.31 101.22 100.98 100.46 99.67 98.94 100.07
95.71 95.69 95.75 95.49 95.60 95.72 95.87 96.10 96.27 96.38 96.50 96.58 96.72 96.99 96.65 97.31 97.38 97.50 97.64 97.78 97.96 98.07 98.21 98.40 98.59 98.87 99.15 99.41 99.71 100.00 100.31 100.66 100.94 101.22 101.44 101.64 101.76 101.82 101.87 101.89 101.79 101.76 101.66 101.54 101.55 101.43 101.04 99.96 99.74 100.33 100.31 100.12
95.79 95.81 95.90 95.91 95.33 95.80 95.88 96.13 96.32 96.41 96.55 96.61 96.83 97.20 97.10 97.27 97.33 97.49 97.66 97.83 97.99 98.10 98.26 98.46 98.68 98.95 99.23 99.50 99.78 100.07 100.39 100.70 101.03 101.32 101.61 101.77 101.90 101.92 101.91 101.91 101.87 101.78 101.72 101.73 101.58 99.99 100.23 100.58 100.53 100.46 100.35 100.21
