ncols 52
nrows 52
xllcorner 439296
yllcorner 5716992
cellsize 10
NODATA_value -9999
80.06 80.19 79.84 79.74 79.81 80.06 80.24 80.28 80.38 80.40 80.19 79.72 79.42 79.58 79.65 79.11 79.35 79.51 79.58 79.57 79.40 79.35 79.50 79.50 79.24 79.43 78.63 79.38 79.47 79.46 79.47 79.40 79.38 79.33 79.33 79.51 79.68 79.74 79.79 79.86 79.96 80.19 80.47 80.84 81.07 81.19 81.33 81.42 81.52 81.73 81.89 82.10
80.20 80.24 79.90 79.97 80.03 80.29 80.40 80.33 80.49 80.38 80.18 80.03 80.01 79.99 79.76 79.58 79.53 79.59 79.51 79.52 79.45 79.41 79.53 79.52 79.43 79.45 79.50 79.38 79.47 79.50 79.52 79.48 79.48 79.35 79.30 79.45 79.48 79.58 79.70 79.85 80.05 80.21 80.39 80.69 80.86 81.04 81.17 81.29 81.37 81.57 81.76 82.03
80.33 80.33 80.11 80.23 80.29 80.07 80.36 80.52 80.51 80.39 80.36 80.26 80.06 79.91 79.88 79.65 79.50 79.47 79.48 79.50 79.53 79.42 79.45 79.64 79.51 79.53 79.50 78.62 79.54 79.58 79.58 79.50 79.49 79.41 79.35 79.45 79.54 79.69 79.77 79.82 79.92 80.11 80.32 80.52 80.76 80.93 81.05 81.12 81.26 81.42 81.65 81.89
80.48 80.54 80.32 80.37 80.34 80.23 80.49 80.71 80.54 80.43 80.35 80.28 80.18 79.99 79.75 79.74 79.51 79.52 79.54 79.51 79.56 79.45 79.43 79.60 79.56 79.53 79.53 78.27 79.55 79.60 79.61 79.58 79.51 79.44 79.33 79.48 79.62 79.68 79.71 79.77 79.85 79.97 80.16 80.43 80.68 80.85 80.93 80.99 81.13 81.31 81.54 81.81
80.60 80.69 80.49 80.45 80.76 80.69 80.65 80.75 80.62 80.57 80.43 80.34 80.12 79.90 79.74 79.71 79.64 79.53 79.54 79.54 79.49 79.44 79.44 79.51 79.64 79.61 79.60 79.58 79.64 79.60 79.61 79.57 79.48 79.40 79.37 79.48 79.59 79.65 79.67 79.70 79.80 79.92 80.10 80.34 80.57 80.74 80.80 80.90 81.05 81.24 81.45 81.75
80.93 80.95 81.01 81.14 80.73 80.57 80.67 80.71 80.74 80.64 80.40 80.28 80.09 79.85 79.78 79.75 79.74 79.62 79.56 79.52 79.49 79.62 79.44 79.47 79.56 79.61 79.63 79.56 79.29 79.63 79.58 79.57 79.48 79.43 79.40 79.48 79.60 79.67 79.68 79.72 79.80 79.89 80.07 80.28 80.50 80.67 80.76 80.82 80.97 81.19 81.43 81.68
81.18 81.26 81.12 80.90 80.72 80.63 80.62 80.57 80.60 80.57 80.40 80.25 80.15 80.00 79.87 79.84 79.79 79.68 79.67 79.62 79.59 79.52 79.44 79.44 79.47 79.57 79.60 79.63 78.40 79.67 79.61 79.60 79.52 79.51 79.44 79.44 79.61 79.68 79.68 79.68 79.76 79.86 80.04 80.26 80.48 80.59 80.69 80.80 80.95 81.16 81.39 81.65
81.24 81.22 81.06 80.93 80.81 80.72 80.62 80.64 80.50 80.48 80.43 80.34 80.24 80.16 80.06 79.93 79.90 79.88 79.70 79.70 79.62 79.54 79.69 79.49 79.40 79.54 79.60 79.65 79.72 79.74 79.64 79.65 79.57 79.54 79.50 79.50 79.58 79.70 79.67 79.72 79.76 79.83 79.96 80.21 80.43 80.60 80.68 80.79 80.97 81.22 81.45 81.71
81.46 81.20 81.16 81.05 80.94 80.85 80.75 80.68 80.61 80.54 80.49 80.44 80.35 80.28 80.15 80.08 79.99 79.94 79.87 79.82 79.72 79.65 79.62 79.53 79.46 79.45 79.48 79.69 79.71 79.60 79.73 79.68 79.65 79.57 79.53 79.53 79.63 79.74 79.75 79.78 79.72 79.79 79.95 80.14 80.40 80.61 80.71 80.86 81.00 81.28 81.51 81.79
81.44 81.37 81.30 81.21 81.08 80.97 80.89 80.78 80.69 80.60 80.60 80.52 80.45 80.38 80.32 80.23 80.12 80.08 80.07 79.94 79.86 79.76 79.67 79.74 79.58 79.41 79.55 79.62 79.74 78.91 79.79 79.73 79.72 79.64 79.56 79.56 79.68 79.77 79.71 79.81 79.75 79.86 79.96 80.14 80.51 80.64 80.83 80.91 81.07 81.29 81.54 81.85
81.61 81.54 81.46 81.34 81.25 81.09 80.96 80.83 80.78 80.79 80.73 80.59 80.54 80.49 80.44 80.36 80.30 80.20 80.17 80.18 79.96 79.93 79.80 79.67 79.57 79.48 79.45 79.60 79.74 79.94 79.81 79.71 79.74 79.67 79.59 79.56 79.64 79.80 79.84 79.85 79.92 79.96 80.06 80.23 80.48 80.72 80.83 80.91 81.08 81.30 81.57 81.87
81.82 81.74 81.64 81.48 81.37 81.21 81.10 80.97 80.87 80.82 80.79 80.71 80.62 80.62 80.55 80.50 80.41 80.35 80.29 80.19 80.11 79.96 79.85 79.73 79.82 79.54 79.56 79.53 79.67 79.85 79.55 79.86 79.74 79.64 79.58 79.57 79.69 79.87 79.95 80.00 80.03 80.11 80.19 80.30 80.51 80.76 80.90 80.94 81.10 81.37 81.64 81.91
82.02 81.90 81.80 81.65 81.49 81.36 81.24 81.10 81.01 80.95 80.91 80.78 80.76 80.73 80.66 80.61 80.53 80.43 80.35 80.28 80.25 80.10 79.97 79.85 79.79 79.64 79.55 79.51 79.66 79.88 79.32 79.97 79.79 79.69 79.68 79.71 79.99 80.05 80.08 80.15 80.14 80.15 80.26 80.38 80.60 80.81 80.93 81.00 81.16 81.39 81.67 81.90
82.22 82.10 81.92 81.78 81.63 81.48 81.35 81.28 81.16 81.11 81.03 81.01 80.90 80.84 80.76 80.71 80.63 80.55 80.47 80.40 80.32 80.33 80.11 80.01 79.89 79.89 79.59 79.50 79.67 79.88 78.75 79.94 79.90 79.96 79.93 80.00 80.08 80.13 80.17 80.15 80.17 80.22 80.28 80.43 80.65 80.84 80.98 81.06 81.26 81.48 81.71 81.98
82.44 82.29 82.10 81.92 81.73 81.62 81.49 81.39 81.26 81.20 81.13 81.02 80.98 80.97 80.91 80.82 80.74 80.67 80.57 80.47 80.43 80.37 80.26 80.13 79.98 79.90 79.67 79.55 79.70 79.83 79.00 80.00 80.01 79.98 79.95 80.12 80.14 80.17 80.21 80.19 80.18 80.26 80.33 80.46 80.68 80.93 81.07 81.18 81.40 81.60 81.80 82.10
82.62 82.43 82.21 82.04 81.88 81.74 81.59 81.47 81.40 81.35 81.27 81.18 81.13 81.07 81.01 80.92 80.85 80.78 80.69 80.62 80.51 80.47 80.46 80.28 80.10 79.95 79.91 79.60 79.64 79.82 79.96 80.22 80.09 80.07 80.06 80.11 80.14 80.20 80.22 80.21 80.28 80.30 80.37 80.46 80.70 80.94 81.10 81.26 81.46 81.75 82.00 82.31
82.71 82.49 82.31 82.13 81.95 81.78 81.71 81.62 81.54 81.46 81.37 81.27 81.16 81.12 81.08 81.04 80.96 80.90 80.82 80.76 80.67 80.61 80.49 80.40 80.22 80.06 79.96 79.66 79.63 79.81 80.04 79.17 80.19 80.09 80.12 80.12 80.19 80.21 80.24 80.22 80.23 80.24 80.35 80.44 80.61 80.89 81.18 81.32 81.55 81.82 82.14 82.44
82.78 82.57 82.37 82.19 82.04 81.91 81.83 81.74 81.65 81.57 81.48 81.36 81.24 81.12 81.11 81.12 81.08 81.01 80.94 80.85 80.79 80.66 80.60 80.50 80.36 80.18 80.01 79.83 79.67 79.84 80.02 79.53 80.17 80.11 80.10 80.12 80.13 80.15 80.17 80.20 80.19 80.23 80.26 80.37 80.57 80.87 81.13 81.35 81.57 81.90 82.21 82.55
82.81 82.58 82.42 82.29 82.15 82.04 81.96 81.85 81.75 81.71 81.57 81.47 81.39 81.29 81.23 81.21 81.12 81.07 81.01 80.94 80.89 80.80 80.67 80.57 80.54 80.30 80.10 79.99 79.76 79.83 80.10 80.13 80.10 80.12 80.03 80.06 80.06 80.04 80.08 80.16 80.22 80.30 80.31 80.32 80.57 80.91 81.20 81.39 81.69 81.98 82.26 82.60
82.85 82.68 82.54 82.39 82.28 82.17 82.05 81.96 81.86 81.79 81.71 81.66 81.54 81.37 81.25 81.21 81.19 81.13 81.11 81.04 80.98 80.89 80.74 80.67 80.54 80.41 80.18 80.00 79.90 80.02 80.13 80.18 79.96 80.20 79.94 79.93 79.91 79.94 80.11 80.22 80.25 80.29 80.31 80.33 80.56 80.93 81.26 81.44 81.69 82.00 82.33 82.65
82.96 82.83 82.69 82.55 82.43 82.32 82.19 82.10 82.06 81.93 81.85 81.74 81.63 81.49 81.42 81.37 81.22 81.18 81.12 81.12 81.07 80.95 80.87 80.70 80.61 80.54 80.32 80.09 79.99 79.97 80.23 80.19 79.68 80.21 80.07 80.02 80.09 80.15 80.22 80.24 80.31 80.29 80.31 80.38 80.54 80.90 81.21 81.43 81.69 82.00 82.30 82.61
83.08 82.99 82.82 82.70 82.55 82.43 82.32 82.27 82.15 82.05 81.94 81.85 81.76 81.66 81.56 81.44 81.46 81.33 81.18 81.15 81.14 81.07 80.97 80.83 80.71 80.60 80.57 80.22 80.05 79.90 80.21 80.25 80.30 80.45 80.27 80.17 80.21 80.21 80.30 80.29 80.32 80.32 80.35 80.39 80.52 80.86 81.21 81.40 81.64 81.93 82.25 82.55
83.16 83.10 82.99 82.83 82.68 82.58 82.49 82.39 82.27 82.17 82.07 81.98 81.87 81.81 81.68 81.62 81.60 81.56 81.32 81.23 81.24 81.16 81.09 80.98 80.80 80.71 80.57 80.40 80.17 80.09 79.98 80.32 80.32 80.47 80.52 80.32 80.36 80.36 80.34 80.36 80.39 80.40 80.35 80.35 80.52 80.78 81.12 81.36 81.59 81.84 82.12 82.43
83.22 83.19 83.09 83.01 82.86 82.74 82.59 82.49 82.40 82.28 82.19 82.10 82.01 81.88 81.85 81.74 81.75 81.64 81.38 81.34 81.29 81.24 81.14 81.04 80.92 80.77 80.64 80.56 80.31 80.14 79.95 80.04 80.32 80.39 79.88 79.87 80.55 80.52 80.49 80.42 80.44 80.44 80.42 80.39 80.50 80.73 81.04 81.28 81.47 81.71 81.98 82.31
83.26 83.25 83.23 83.12 82.96 82.82 82.70 82.60 82.49 82.42 82.32 82.22 82.13 81.97 82.01 81.85 81.76 81.72 81.62 81.46 81.39 81.33 81.25 81.13 81.04 80.87 80.71 80.57 80.56 80.22 80.20 79.91 80.20 80.36 80.44 80.34 80.56 80.11 80.47 80.50 80.46 80.47 80.47 80.46 80.45 80.63 80.94 81.19 81.36 81.56 81.82 82.11
83.34 83.33 83.28 83.19 83.06 82.92 82.80 82.68 82.63 82.50 82.46 82.35 82.34 82.18 82.06 81.96 81.85 81.76 81.74 81.67 81.50 81.42 81.32 81.21 81.10 80.97 80.79 80.65 80.49 80.33 80.25 80.12 80.08 80.28 80.42 80.42 80.46 80.70 79.39 80.52 80.50 80.48 80.48 80.46 80.47 80.62 80.84 81.08 81.22 81.43 81.65 82.01
83.39 83.35 83.32 83.27 83.14 83.02 82.89 82.82 82.73 82.71 82.64 82.54 82.40 82.26 82.17 82.04 81.93 81.87 81.79 81.79 81.57 81.51 81.43 81.30 81.18 81.04 80.90 80.71 80.57 80.46 80.30 80.27 80.07 80.15 80.32 80.43 80.46 80.52 80.68 80.61 80.46 80.48 80.51 80.51 80.46 80.65 80.74 81.01 81.22 81.34 81.57 81.86
83.45 83.40 83.38 83.30 83.26 83.15 83.03 82.97 82.82 82.86 82.74 82.62 82.53 82.39 82.29 82.20 82.09 82.00 81.90 81.77 81.66 81.53 81.51 81.42 81.27 81.11 80.96 80.83 80.68 80.54 80.44 80.20 80.15 80.07 80.02 80.56 80.48 80.57 80.54 79.48 80.48 80.42 80.51 80.56 80.54 80.63 80.82 80.94 81.18 81.36 81.44 81.74
83.55 83.48 83.42 83.37 83.29 83.30 83.17 83.17 83.02 82.94 82.83 82.73 82.65 82.55 82.46 82.37 82.26 82.11 81.99 81.80 81.59 81.58 81.56 81.47 81.35 81.20 81.06 80.92 80.77 80.65 80.51 80.51 80.29 80.18 80.10 80.22 80.55 80.57 80.62 80.76 80.49 80.47 80.52 80.60 80.64 80.75 80.87 80.92 81.14 81.26 81.32 81.41
83.65 83.57 83.49 83.43 83.43 83.43 83.32 83.22 83.11 83.04 82.92 82.85 82.81 82.76 82.64 82.52 82.36 82.19 82.09 81.88 81.72 81.53 81.47 81.53 81.42 81.27 81.14 81.01 80.92 80.80 80.66 80.53 80.54 80.37 80.16 80.00 80.68 80.58 80.65 80.57 80.47 80.57 80.60 80.68 80.80 80.77 80.86 80.94 81.00 81.02 81.07 81.14
83.77 83.66 83.61 83.46 83.54 83.49 83.38 83.30 83.21 83.14 83.10 83.06 82.98 82.90 82.76 82.63 82.49 82.28 82.07 81.76 81.55 81.47 81.50 81.59 81.51 81.36 81.26 81.14 81.05 80.95 80.75 80.64 80.55 80.45 80.43 80.16 80.29 80.54 80.63 80.73 79.57 80.74 80.86 80.80 80.75 80.77 80.77 80.83 80.94 80.96 80.98 81.01
83.89 83.74 83.72 83.61 83.57 83.51 83.46 83.38 83.32 83.29 83.25 83.18 83.07 82.97 82.85 82.68 82.50 82.22 81.86 81.62 81.54 81.49 81.51 81.59 81.58 81.47 81.40 81.29 81.16 81.01 80.88 80.72 80.59 80.55 80.42 80.27 80.07 80.50 80.67 80.69 80.77 80.88 80.92 80.82 80.91 80.90 80.78 80.82 80.94 81.00 81.00 81.00
84.02 83.86 83.74 83.66 83.64 83.57 83.50 83.44 83.40 83.38 83.32 83.26 83.15 83.06 82.88 82.63 82.24 81.93 81.74 81.66 81.58 81.50 81.44 81.55 81.64 81.58 81.47 81.38 81.25 81.12 81.00 80.82 80.68 80.57 80.56 80.46 80.21 80.37 80.71 80.79 80.89 80.93 80.83 80.89 80.89 80.93 80.94 80.85 80.96 81.04 81.06 81.05
84.02 83.87 83.80 83.72 83.70 83.69 83.65 83.55 83.48 83.42 83.39 83.33 83.18 82.97 82.63 82.31 82.07 81.92 81.77 81.64 81.50 81.42 81.37 81.43 81.58 81.61 81.55 81.46 81.36 81.22 81.05 80.93 80.76 80.65 80.56 80.59 80.43 80.25 80.72 80.84 80.95 79.68 81.01 80.99 81.02 81.01 81.01 81.01 81.07 81.11 81.10 81.07
84.06 83.93 83.88 83.85 83.85 83.82 83.78 83.66 83.59 83.52 83.39 83.25 82.99 82.65 82.35 82.18 82.08 81.92 81.70 81.55 81.46 81.37 81.32 81.31 81.36 81.48 81.50 81.51 81.42 81.29 81.13 80.97 80.88 80.75 80.65 80.59 80.53 80.28 80.56 80.84 80.96 80.61 81.05 80.96 81.08 81.08 81.09 81.15 81.11 81.15 81.14 81.11
84.10 84.04 84.03 84.01 83.99 83.93 83.87 83.79 83.66 83.51 83.31 82.97 82.70 82.46 82.29 82.17 82.02 81.88 81.71 81.55 81.44 81.34 81.21 81.18 81.17 81.20 81.22 81.33 81.41 81.31 81.19 81.12 81.04 80.97 80.81 80.70 80.64 80.50 80.27 80.82 80.94 81.01 79.90 80.99 80.95 81.05 81.06 81.18 81.19 81.21 81.20 81.14
84.22 84.21 84.17 84.15 84.10 84.03 83.96 83.81 83.63 83.29 82.98 82.75 82.61 82.47 82.33 82.16 82.00 81.82 81.67 81.52 81.42 81.34 81.24 81.13 81.05 80.95 80.93 80.99 81.29 81.35 81.32 81.30 81.21 81.15 80.98 80.85 80.71 80.64 80.35 80.82 80.92 80.97 81.07 80.99 80.88 81.03 81.05 81.11 81.17 81.19 81.21 81.18
84.37 84.35 84.29 84.28 84.20 84.06 83.91 83.65 83.32 83.05 82.89 82.74 82.58 82.43 82.30 82.14 81.97 81.79 81.66 81.55 81.45 81.35 81.25 81.12 80.98 80.93 80.85 80.84 80.96 81.34 81.36 81.41 81.37 81.27 81.17 81.00 80.85 80.67 80.67 80.33 80.96 81.00 81.07 80.41 81.03 81.02 81.11 81.08 81.12 81.16 81.21 81.19
84.47 84.48 84.41 84.30 84.20 83.99 83.68 83.38 83.13 82.99 82.86 82.71 82.61 82.47 82.30 82.12 81.93 81.77 81.71 81.65 81.57 81.42 81.25 81.12 80.98 80.92 80.85 80.76 80.83 81.10 81.40 81.48 81.48 81.40 81.27 81.15 80.97 80.82 80.59 80.46 80.84 81.03 81.13 80.88 80.71 81.02 81.04 81.11 81.09 81.12 81.23 81.21
84.49 84.51 84.43 84.29 83.98 83.68 83.42 83.25 83.12 82.98 82.87 82.76 82.60 82.44 82.25 82.09 81.98 81.90 81.82 81.75 81.64 81.53 81.35 81.17 81.03 80.92 80.82 80.82 80.83 80.92 81.22 81.50 81.53 81.47 81.37 81.26 81.14 80.96 80.73 80.52 80.64 81.02 81.12 81.12 80.92 80.51 81.00 80.97 81.07 81.11 81.15 81.15
84.46 84.49 84.30 83.96 83.72 83.58 83.44 83.27 83.09 82.96 82.85 82.73 82.59 82.42 82.31 82.21 82.15 82.06 81.96 81.82 81.72 81.58 81.37 81.16 81.03 80.94 80.89 80.88 80.85 80.86 80.97 81.34 81.54 81.58 81.49 81.37 81.27 81.12 80.91 80.69 80.54 80.95 81.12 81.14 81.17 81.25 80.80 80.95 80.93 81.16 81.13 81.14
84.56 84.51 84.11 83.83 83.70 83.56 83.39 83.24 83.11 82.97 82.87 82.73 82.59 82.49 82.44 82.40 82.34 82.20 82.06 81.88 81.72 81.55 81.39 81.21 81.11 81.01 80.94 80.89 80.87 80.83 80.89 81.04 81.44 81.58 81.57 81.47 81.39 81.27 81.08 80.93 80.68 80.67 80.97 81.07 81.10 81.11 81.21 80.95 80.95 81.07 81.18 81.10
84.97 84.45 84.25 83.92 83.77 83.57 83.40 83.23 83.07 82.95 82.85 82.77 82.73 82.68 82.64 82.56 82.47 82.35 82.16 81.93 81.70 81.53 81.43 81.31 81.18 81.09 81.03 80.98 80.91 80.85 80.79 80.92 81.18 81.56 81.62 81.57 81.47 81.35 81.25 81.07 80.95 80.76 80.58 80.75 81.01 81.02 81.08 81.11 80.71 81.10 81.19 81.21
85.14 84.91 84.47 84.27 83.87 83.64 83.39 83.27 83.11 83.02 82.96 82.91 82.90 82.87 82.80 82.74 82.58 82.38 82.14 81.89 81.72 81.58 81.50 81.39 81.22 81.11 81.09 81.06 80.96 80.86 80.81 80.88 81.05 81.37 81.63 81.63 81.56 81.49 81.35 81.24 81.11 81.06 80.87 80.79 80.64 81.14 81.09 81.17 81.38 81.13 81.37 81.32
85.22 85.20 84.87 84.40 84.12 83.77 83.52 83.33 83.24 83.17 83.15 83.15 83.11 83.06 82.92 82.76 82.57 82.35 82.15 81.97 81.79 81.60 81.50 81.43 81.34 81.25 81.17 81.05 80.95 80.88 80.86 80.85 80.92 81.15 81.49 81.65 81.65 81.58 81.49 81.37 81.28 81.17 81.07 80.97 81.00 80.93 81.00 81.22 80.80 80.26 81.29 81.20
85.22 85.19 85.12 84.73 84.29 83.98 83.62 83.47 83.38 83.38 83.34 83.32 83.27 83.13 82.94 82.72 82.52 82.35 82.18 82.01 81.83 81.68 81.55 81.50 81.43 81.30 81.16 81.06 81.02 80.99 80.96 80.90 80.86 80.92 81.10 81.45 81.65 81.65 81.59 81.45 81.36 81.24 81.18 81.15 80.95 80.81 80.83 80.85 80.96 81.03 80.87 81.22
85.32 85.25 85.17 85.11 84.61 84.16 83.82 83.61 83.55 83.52 83.49 83.42 83.29 83.10 82.87 82.69 82.53 82.39 82.24 82.06 81.86 81.72 81.61 81.53 81.44 81.32 81.22 81.15 81.10 81.09 81.04 80.93 80.85 80.79 80.87 81.04 81.44 81.60 81.57 81.43 81.42 81.32 81.04 80.89 80.78 80.75 80.73 80.74 80.87 80.98 81.08 81.26
85.40 85.31 85.18 85.12 85.14 84.54 84.13 83.83 83.65 83.60 83.47 83.34 83.23 83.06 82.91 82.77 82.60 82.44 82.27 82.14 81.98 81.80 81.66 81.53 81.43 81.37 81.32 81.26 81.18 81.10 81.04 80.93 80.83 80.81 80.78 80.88 81.12 81.39 81.51 81.29 81.07 80.92 80.85 80.76 80.71 80.72 80.74 80.74 80.77 80.92 81.16 79.91
85.50 85.43 85.25 85.18 85.13 85.04 84.61 84.12 83.86 83.60 83.48 83.30 83.22 83.08 82.98 82.88 82.73 82.57 82.42 82.25 82.06 81.87 81.71 81.62 81.51 81.46 81.40 81.28 81.18 81.11 81.06 80.97 80.92 80.85 80.83 80.81 80.94 81.09 81.00 80.93 80.84 80.80 80.77 80.77 80.74 80.76 80.73 80.75 80.77 80.86 81.15 81.21
85.61 85.50 85.35 85.27 85.16 85.11 84.59 84.65 84.08 83.74 83.49 83.36 83.27 83.18 83.12 83.02 82.89 82.70 82.52 82.33 82.15 82.02 81.88 81.75 81.60 81.49 81.42 81.32 81.22 81.15 81.10 81.04 81.01 80.98 80.92 80.88 80.90 80.93 80.86 80.88 80.83 80.81 80.79 80.79 80.75 80.75 80.74 80.77 80.77 80.85 81.06 81.22
85.69 85.56 85.47 85.39 85.31 85.15 85.07 84.47 84.60 84.04 83.69 83.46 83.38 83.26 83.23 83.15 83.01 82.83 82.62 82.44 82.31 82.17 82.01 81.85 81.64 81.50 81.41 81.37 81.32 81.28 81.20 81.15 81.10 81.03 80.93 80.85 80.84 80.79 80.85 80.88 80.88 80.81 80.79 80.77 80.77 80.78 80.77 80.81 80.79 80.87 81.00 81.00
85.75 85.64 85.55 85.49 85.40 85.29 85.19 85.10 84.19 84.56 84.04 83.72 83.50 83.40 83.28 83.17 83.06 82.91 82.80 82.67 82.51 82.30 82.06 81.86 81.67 81.57 81.49 81.46 81.40 81.36 81.30 81.21 81.12 81.02 81.01 81.00 80.93 80.84 80.85 80.91 80.90 80.83 80.82 80.81 80.79 80.81 80.79 80.76 80.81 80.88 81.00 80.80
