ncols 52
nrows 52
xllcorner 439808
yllcorner 5713920
cellsize 10
NODATA_value -9999
104.32 104.04 103.78 103.33 103.08 102.56 103.47 102.37 102.24 101.90 101.64 101.58 101.50 101.46 101.45 101.37 101.29 101.29 101.49 101.54 101.46 101.40 101.31 101.15 101.19 101.18 101.11 101.08 101.06 101.07 101.11 101.15 101.09 101.10 101.03 101.06 100.90 100.78 100.53 100.24 99.48 98.65 99.19 99.63 99.67 99.62 99.59 99.04 98.59 95.48 96.07 95.75
104.28 103.96 103.44 102.75 102.57 101.93 102.29 102.35 101.66 101.51 101.50 101.47 101.60 101.53 101.60 101.54 101.48 101.32 101.36 101.32 101.26 101.15 101.18 101.21 101.17 101.18 101.15 101.09 101.09 101.07 101.03 101.20 94.78 99.99 99.77 99.57 98.71 99.06 99.66 99.65 99.67 99.62 99.17 98.68 99.19 99.04 98.96 99.04 98.83 95.26 95.61 95.33
101.93 101.89 102.07 102.18 101.79 101.60 101.71 101.81 101.96 101.76 101.57 101.46 101.49 101.49 101.62 101.47 101.36 101.37 101.33 101.35 101.36 101.29 101.33 101.38 101.17 101.11 101.16 101.11 101.12 100.83 100.54 99.50 99.07 99.54 99.67 99.77 99.64 99.35 98.92 98.94 99.14 99.02 99.10 98.99 99.00 98.90 98.92 98.95 98.06 95.31 95.33 95.47
101.90 102.17 101.99 102.04 101.86 101.75 101.78 101.70 101.68 101.57 101.85 101.54 101.50 101.47 101.39 101.32 101.35 101.35 101.40 101.24 101.14 101.14 101.28 101.32 101.31 100.38 99.62 99.05 99.38 99.66 99.76 99.63 99.62 98.13 98.23 97.26 97.06 97.25 97.07 96.43 96.20 96.48 97.56 98.51 98.85 98.71 98.73 98.52 96.00 95.29 95.43 95.46
102.05 101.91 101.83 101.88 101.84 101.80 101.80 101.75 101.67 101.64 101.68 101.58 101.23 101.14 101.14 101.15 101.10 101.21 101.21 100.90 100.79 99.85 99.35 99.16 99.64 99.72 99.64 99.64 98.84 98.38 97.63 97.26 96.52 95.00 96.05 96.26 96.16 96.23 96.06 95.86 95.88 95.94 95.82 96.11 97.49 101.52 102.61 103.43 99.88 95.51 95.49 95.50
101.07 101.00 101.00 100.96 100.97 100.96 101.05 100.96 100.92 101.00 101.51 101.72 101.19 101.06 101.02 100.89 100.19 99.65 98.96 99.65 99.61 99.70 99.65 99.16 98.41 97.55 97.18 97.18 97.13 97.10 96.84 97.23 96.93 94.57 95.98 96.24 96.37 95.90 96.22 96.05 96.12 96.01 96.00 96.15 100.79 106.14 107.38 108.36 102.96 96.15 95.60 95.59
101.00 100.81 100.15 100.07 100.20 100.34 100.47 100.84 101.05 100.92 100.94 100.60 99.89 98.96 99.47 99.61 99.73 99.61 99.43 99.52 100.74 98.02 97.25 97.13 97.23 97.41 97.29 96.86 97.09 97.51 97.27 97.48 97.24 95.23 96.03 96.18 96.35 96.34 96.34 96.41 95.87 96.29 96.27 96.25 99.14 105.69 108.35 108.49 102.25 95.81 95.71 95.78
100.18 100.12 100.09 100.24 100.44 100.52 100.65 100.16 99.37 99.23 99.61 99.69 99.61 99.54 99.10 100.42 101.90 102.30 101.10 100.14 98.83 97.37 97.19 97.21 97.37 97.30 96.17 97.64 98.07 97.83 97.45 97.34 97.25 95.71 96.12 96.25 96.46 96.39 96.36 96.37 96.30 96.28 96.21 96.34 97.67 104.63 108.31 108.50 102.44 96.10 95.89 95.97
100.30 100.23 100.31 99.76 99.05 99.64 99.63 99.62 99.63 98.95 99.41 100.75 102.10 102.26 101.10 100.04 98.75 97.92 97.98 97.70 97.51 97.37 97.29 97.28 97.35 96.20 97.23 97.60 97.77 97.33 97.21 97.35 97.42 96.45 96.13 96.33 96.44 96.50 96.39 96.36 96.32 96.38 96.28 96.29 97.09 103.96 108.28 108.49 103.15 96.40 95.99 96.11
99.47 99.59 99.72 99.59 99.22 99.92 101.14 101.49 102.25 102.51 101.58 100.27 98.94 98.05 98.14 98.54 98.61 98.50 98.45 98.06 97.66 97.37 97.32 97.32 97.32 97.18 97.22 97.40 97.37 97.23 97.23 97.34 97.27 96.88 94.88 96.37 96.46 96.49 96.35 96.33 96.27 96.32 96.38 96.33 96.75 103.25 108.23 108.48 103.62 96.94 96.06 96.21
99.33 101.01 102.76 104.05 104.13 103.61 102.29 100.74 99.18 98.26 98.49 99.58 99.82 99.90 99.82 98.69 98.56 98.43 98.08 97.76 97.53 97.46 97.33 97.38 97.21 97.24 97.16 97.24 97.32 97.31 97.33 97.31 97.29 97.10 94.67 96.38 96.52 96.52 96.43 96.39 96.34 96.26 96.32 96.36 96.52 102.81 108.17 108.42 104.15 97.39 96.10 96.25
105.93 104.53 102.95 101.46 99.82 99.27 100.59 101.12 101.19 101.13 100.69 99.88 99.47 99.15 98.84 98.53 98.32 98.39 98.20 97.93 97.65 97.61 97.47 97.54 97.00 97.44 97.29 97.34 97.27 97.32 97.36 97.29 97.26 97.05 95.83 96.43 96.49 96.50 96.51 96.41 96.43 96.32 96.33 96.38 96.16 102.28 108.10 108.37 104.65 97.95 96.14 96.32
105.22 102.09 100.88 101.65 101.84 102.62 102.47 101.97 101.39 100.76 100.30 99.86 99.56 99.22 98.76 98.56 98.43 98.31 98.10 97.96 97.80 97.68 97.48 97.51 97.38 97.51 97.26 97.49 97.28 97.34 97.27 97.29 97.19 96.96 96.29 96.57 96.49 96.48 96.53 96.52 96.44 96.30 96.31 96.34 95.88 101.71 107.97 108.31 105.02 98.61 96.10 96.29
105.53 104.88 104.11 104.00 103.35 102.80 102.43 101.93 101.41 100.92 100.45 99.82 99.47 99.15 98.87 98.61 98.42 98.41 98.33 98.07 97.88 97.93 97.68 97.06 96.39 97.30 97.54 97.38 97.23 97.32 97.33 97.38 97.27 96.87 96.27 96.56 96.61 96.64 96.60 96.58 96.44 96.43 96.23 96.31 96.06 101.18 107.75 108.25 105.58 99.38 96.12 96.26
105.83 104.93 104.31 103.96 103.47 103.04 102.77 101.93 101.67 100.87 100.40 99.97 99.55 99.22 98.72 98.57 98.52 98.47 98.27 98.06 98.17 97.90 97.72 96.79 96.36 97.08 96.79 97.23 97.39 97.40 97.35 97.32 97.37 96.98 95.59 96.61 96.63 96.69 96.66 96.58 96.50 96.38 96.26 96.35 96.24 100.62 107.26 108.16 106.39 99.88 96.20 96.29
106.45 105.06 104.32 104.11 103.82 103.45 102.63 102.14 101.49 100.85 100.39 99.88 99.57 99.14 98.82 98.71 98.60 98.53 98.59 98.26 97.88 97.88 97.84 96.78 96.43 96.40 96.39 96.85 97.19 97.24 97.54 97.33 97.47 96.70 96.56 96.67 96.78 96.72 96.71 96.56 96.51 96.47 96.40 96.37 96.36 100.08 106.67 108.07 106.98 100.41 96.00 96.36
105.89 104.99 104.56 104.31 103.94 103.19 102.59 102.35 101.67 100.89 100.39 99.94 99.53 99.25 98.87 98.76 98.75 98.74 98.41 97.96 97.75 97.86 97.84 96.43 96.38 96.43 96.33 96.49 97.17 97.39 97.42 97.74 97.54 96.24 96.80 96.94 96.82 96.78 96.79 96.66 96.62 96.50 96.37 96.27 96.33 99.51 106.23 108.00 107.49 100.88 95.74 96.50
105.46 105.15 104.60 104.31 103.78 103.29 102.71 102.36 101.51 100.97 100.75 100.25 99.56 99.48 99.19 99.08 98.77 98.66 98.36 97.96 97.73 97.10 96.68 96.35 96.37 96.36 96.35 96.42 97.22 97.51 97.45 97.68 97.60 95.15 96.93 97.09 97.05 96.96 96.98 96.73 96.67 96.61 96.42 96.27 96.26 99.05 105.53 107.92 107.81 101.41 96.42 96.58
105.40 105.08 104.53 104.22 103.77 103.42 102.77 102.22 101.66 101.13 100.57 100.07 99.68 99.39 99.13 98.92 98.78 98.75 98.24 98.19 97.74 96.93 96.37 96.35 96.37 96.43 96.42 96.82 97.41 97.62 97.49 97.65 97.28 95.05 97.03 97.02 97.12 97.09 97.14 96.81 96.65 96.64 96.49 96.50 96.38 98.84 105.10 107.84 107.86 97.04 96.99 96.43
105.38 104.85 104.58 104.16 103.69 103.27 102.78 102.15 101.71 101.19 100.61 100.21 99.61 99.50 99.21 98.85 98.75 98.78 98.36 97.98 97.59 97.11 96.41 96.36 96.37 96.34 96.62 97.22 97.79 97.83 97.80 97.77 97.09 96.38 97.07 97.15 97.22 97.22 97.19 96.99 96.86 96.72 96.73 96.72 96.83 97.06 100.96 107.71 107.89 102.62 96.43 96.94
105.35 104.79 104.61 104.18 103.72 103.19 102.68 102.17 101.78 101.29 100.81 100.47 99.97 99.57 99.31 99.00 98.89 98.77 98.56 98.08 97.68 97.46 96.62 96.38 96.37 96.46 96.68 97.00 97.58 98.03 97.95 97.45 95.68 97.34 97.31 97.39 97.43 97.41 97.43 97.35 97.36 97.28 97.14 97.12 97.00 96.90 103.57 107.60 107.72 103.43 97.50 96.93
105.48 104.85 104.75 104.19 103.70 103.18 102.72 102.18 101.65 101.23 100.92 100.27 100.14 99.60 99.40 99.15 98.94 98.72 98.46 98.08 97.76 97.48 96.81 96.45 96.43 96.57 96.65 97.66 97.49 97.89 97.73 97.65 95.46 97.32 97.41 97.40 97.33 97.35 97.27 97.19 97.06 96.85 96.80 96.73 97.08 96.57 102.97 107.49 107.63 105.04 99.24 96.73
105.27 105.01 104.62 104.19 103.72 103.21 102.73 102.23 101.74 101.22 100.82 100.58 100.06 99.64 99.44 99.19 99.00 98.82 98.54 98.17 97.82 97.62 97.35 96.78 96.51 96.65 97.38 97.28 97.28 97.74 97.68 97.39 95.52 97.21 97.24 97.26 97.21 97.21 97.15 97.13 97.06 96.88 96.81 96.91 97.06 96.68 102.37 107.38 107.42 107.24 103.14 99.88
105.35 105.07 104.60 104.17 103.70 103.38 102.82 102.33 101.87 101.43 100.88 100.47 100.02 99.72 99.41 99.25 99.09 98.95 98.67 98.32 98.06 97.83 97.82 97.43 97.34 97.43 97.62 97.24 97.47 97.87 97.83 97.47 97.35 97.28 97.36 97.34 97.29 97.29 97.22 97.11 97.10 96.96 96.99 97.14 97.10 96.62 102.33 107.26 107.42 107.35 106.97 105.94
105.32 105.13 104.81 104.43 103.80 103.40 102.98 102.53 102.07 101.61 101.15 100.49 100.11 99.79 99.51 99.36 99.21 99.03 98.74 98.45 98.22 98.17 98.25 98.17 97.94 98.09 97.36 97.46 97.51 97.61 97.83 95.51 97.47 97.41 97.45 97.32 97.31 97.28 97.14 97.15 97.08 97.01 96.95 97.24 97.24 96.70 102.28 107.16 107.37 107.47 107.18 106.71
105.33 105.12 104.71 104.33 103.88 103.45 103.11 102.55 102.19 101.63 101.19 100.60 100.19 99.86 99.63 99.45 99.28 99.04 98.82 98.49 98.38 98.35 98.26 98.26 98.10 98.04 97.69 97.68 97.61 97.73 97.31 97.43 97.49 97.49 97.45 97.47 97.31 97.32 97.17 97.16 97.12 97.12 96.75 97.37 97.30 96.87 102.08 107.06 107.30 107.37 107.09 106.26
105.32 105.07 104.63 104.30 103.98 103.48 102.98 102.43 102.22 101.66 101.21 100.68 100.40 99.93 99.76 99.60 99.38 99.12 98.87 98.74 98.42 98.37 98.30 98.04 98.11 96.89 98.03 97.71 97.68 97.72 95.79 97.61 97.48 97.56 97.50 97.55 97.32 97.29 97.24 97.20 97.23 97.25 97.40 97.46 97.41 97.13 101.84 106.95 107.19 107.34 106.43 105.98
105.25 104.97 104.81 104.36 103.94 103.46 102.97 102.49 102.18 101.81 101.28 100.84 100.38 100.04 99.91 99.65 99.50 99.19 98.93 98.69 98.50 98.45 98.46 98.10 97.96 98.06 98.12 98.03 97.74 95.70 97.60 97.51 97.55 97.54 97.52 97.51 97.42 97.34 97.24 97.22 97.23 97.31 97.60 97.47 97.47 97.43 101.62 106.85 107.08 106.79 106.43 102.68
105.32 104.93 104.97 104.53 104.10 103.65 103.01 102.49 102.17 101.86 101.40 100.65 100.37 100.12 99.96 99.82 99.63 99.33 99.05 98.79 98.61 98.42 98.43 98.12 96.99 97.81 98.17 98.10 97.76 96.82 97.59 97.53 97.61 97.60 97.62 97.49 97.43 97.38 97.25 97.29 97.27 97.42 97.70 97.53 97.44 97.56 101.16 106.72 106.97 106.88 104.16 101.16
105.34 104.99 104.59 104.31 103.81 103.42 103.12 102.47 102.17 101.68 101.22 100.78 100.42 100.21 99.98 99.86 99.71 99.37 99.09 98.75 98.62 98.43 98.36 97.99 97.73 97.86 98.13 98.14 95.82 97.65 97.59 97.61 97.73 97.66 97.67 97.50 97.38 97.33 97.35 97.24 97.33 97.49 97.65 97.50 97.42 97.54 100.55 106.59 106.87 106.75 101.70 100.94
105.39 105.01 104.65 104.31 103.82 103.40 103.11 102.60 102.22 101.62 101.18 101.27 100.65 100.26 100.04 99.93 99.69 99.39 99.08 98.82 98.65 98.54 98.20 98.39 98.13 98.08 98.29 98.01 97.46 97.73 97.62 97.73 97.72 97.74 97.62 97.51 97.39 97.40 97.43 97.31 97.45 97.72 97.55 97.66 97.66 97.65 100.10 106.34 106.77 106.61 100.77 100.64
106.20 105.40 104.74 104.58 104.35 104.11 103.65 102.74 102.27 101.92 101.11 101.18 100.77 100.36 100.12 99.96 99.78 99.52 99.31 98.92 98.77 98.53 98.43 98.28 98.23 98.10 98.12 95.97 97.81 97.64 97.69 97.79 97.78 97.77 97.69 97.56 97.43 97.51 97.43 97.42 97.47 97.78 97.80 97.77 97.76 97.77 99.76 106.04 106.67 106.39 100.49 100.32
106.28 105.58 105.16 104.93 104.37 103.82 103.39 103.11 102.50 101.99 101.30 101.32 100.91 100.40 100.20 100.04 99.96 99.75 99.47 99.06 98.82 98.49 98.31 97.53 98.18 98.13 98.06 96.25 97.92 97.74 97.87 97.90 97.85 97.73 97.65 97.52 97.48 97.55 97.48 97.49 97.30 97.82 97.97 97.90 97.88 97.84 99.26 105.51 106.57 106.57 100.49 100.13
105.93 105.72 105.31 105.11 104.51 103.96 103.61 103.07 102.57 101.86 101.72 101.18 100.86 100.53 100.36 100.10 100.02 99.79 99.35 99.12 98.61 98.54 98.39 97.39 98.10 98.07 97.51 98.13 98.03 97.92 98.04 97.95 97.87 97.81 97.65 97.61 97.60 97.54 97.57 97.57 97.87 97.97 97.96 97.91 97.97 97.96 98.94 105.10 106.49 106.62 101.01 99.93
106.16 105.78 105.29 105.06 104.57 103.74 103.30 102.97 102.26 101.97 101.47 101.21 101.02 100.70 100.20 99.96 99.71 99.40 99.24 98.82 98.89 98.48 98.37 97.58 98.12 98.26 96.17 98.14 98.01 98.05 98.00 97.97 97.95 97.80 97.71 97.66 97.59 97.60 97.61 97.66 98.02 97.99 97.99 98.10 98.06 98.12 98.23 104.73 106.38 106.63 101.60 99.78
106.22 105.94 105.14 104.79 104.68 104.19 103.68 103.17 102.56 101.31 101.25 101.21 101.51 101.22 100.18 100.19 100.33 99.91 99.43 99.01 98.65 98.46 98.39 98.11 97.96 98.09 97.48 98.12 98.07 98.15 98.03 97.98 97.96 97.86 97.81 97.69 97.68 97.62 97.67 97.52 98.05 97.99 98.06 98.11 98.04 98.22 97.96 104.43 106.29 106.54 102.56 99.47
106.25 105.85 105.18 105.03 104.57 104.17 103.64 103.07 102.56 101.29 101.26 101.26 101.29 101.18 100.18 100.10 100.13 100.18 99.06 98.92 98.66 98.42 98.38 98.35 98.15 96.45 98.16 98.11 98.17 98.18 98.17 98.06 97.93 97.86 97.85 97.68 97.77 97.69 97.84 98.16 98.18 98.18 98.24 98.34 98.31 98.44 98.12 104.55 106.21 106.27 103.19 99.24
106.36 105.99 105.37 105.18 104.63 104.04 103.45 103.00 102.30 101.28 101.23 101.27 101.28 100.33 100.16 100.05 100.13 100.18 99.60 98.97 98.71 98.64 98.53 98.11 97.89 97.29 98.22 98.14 98.25 98.24 98.16 98.06 97.99 97.88 97.76 97.78 97.83 97.80 97.90 98.33 98.36 98.44 98.48 98.39 98.48 98.56 98.10 103.36 103.47 102.11 100.25 98.98
106.47 105.85 105.49 105.15 104.71 104.16 103.65 103.18 101.76 101.26 101.22 101.27 101.38 100.24 100.16 100.10 100.14 99.86 99.49 99.20 98.73 98.64 98.23 98.18 96.82 98.36 98.18 98.28 98.33 98.29 98.18 98.08 98.06 97.98 97.87 97.87 97.98 97.94 97.86 98.46 98.56 98.55 98.56 98.57 98.73 98.68 98.52 99.26 99.74 99.87 99.96 99.94
106.17 105.77 105.71 105.25 104.76 104.15 103.64 103.09 101.81 102.34 102.74 101.96 101.34 101.30 100.45 100.11 100.15 99.61 99.66 99.13 98.94 98.44 98.37 98.24 98.60 98.30 98.26 98.35 98.36 98.37 98.25 98.12 98.06 98.03 98.00 98.08 98.02 98.00 98.18 98.61 98.54 98.58 98.68 98.65 98.79 99.95 100.15 100.15 100.00 99.90 99.91 99.75
106.44 105.80 105.69 105.21 104.83 104.12 103.57 103.07 101.81 101.76 101.75 101.80 101.36 101.22 100.66 100.35 100.38 99.67 99.68 99.04 98.67 98.70 98.69 97.04 98.40 98.22 98.24 98.38 98.47 98.39 98.35 98.26 98.19 98.12 98.11 98.11 98.08 98.36 99.74 98.56 98.41 98.99 100.29 100.34 100.35 100.32 100.19 100.09 99.88 99.73 99.39 99.03
106.32 105.94 105.64 105.20 104.81 104.15 103.56 102.84 101.78 101.73 101.78 101.82 101.93 100.84 100.31 100.46 100.22 99.70 99.43 98.92 99.00 98.62 98.40 98.46 98.44 98.22 98.35 98.39 98.47 98.49 98.44 98.41 98.27 98.29 98.44 98.31 98.14 98.13 100.42 100.50 100.55 100.54 100.48 100.39 100.24 99.55 98.97 100.93 102.95 103.56 104.04 99.11
106.44 106.06 105.61 105.24 104.78 104.12 103.50 101.89 101.76 101.72 101.79 101.87 101.52 100.74 100.38 100.24 100.20 99.77 99.32 99.10 98.98 98.63 97.23 98.80 98.48 98.36 98.35 98.49 98.54 98.65 98.58 98.53 98.32 98.24 98.66 100.53 100.70 100.75 100.72 100.64 100.53 100.40 99.34 98.82 99.34 99.38 99.16 103.58 105.71 105.97 103.83 99.31
106.14 105.49 104.98 105.21 104.67 104.14 103.40 103.14 102.58 101.83 101.79 101.78 101.58 101.10 100.33 100.21 100.01 99.87 99.51 99.09 98.94 98.51 98.66 98.80 98.55 98.40 98.43 98.60 98.56 98.55 98.16 99.81 100.92 100.99 100.98 100.93 100.85 100.77 100.61 100.45 99.86 99.07 99.08 99.31 99.59 99.80 99.71 102.17 105.64 105.91 104.03 99.39
105.98 105.25 104.91 104.31 104.39 104.02 103.57 103.14 102.75 102.66 102.32 101.90 101.64 100.72 100.30 100.29 99.98 100.07 99.41 99.15 98.79 97.78 98.86 98.66 98.67 98.47 98.39 98.71 100.30 101.14 101.17 101.19 101.11 100.99 100.81 100.64 100.56 100.51 100.51 100.43 98.80 99.30 99.59 99.99 100.29 100.71 101.13 102.65 105.58 105.82 103.97 99.71
106.04 105.48 104.99 104.69 103.87 104.00 103.42 103.13 103.04 102.32 102.24 101.82 101.13 100.67 100.42 100.19 100.22 99.99 99.49 99.12 97.68 99.08 98.93 98.81 99.08 100.77 101.33 101.40 101.39 101.29 101.13 100.88 99.80 99.38 98.63 98.68 99.24 99.47 100.26 100.50 100.26 99.57 100.07 100.56 100.87 101.44 102.13 103.68 105.55 105.78 104.18 100.09
106.08 105.89 105.28 104.96 104.39 103.92 103.46 103.37 102.83 102.14 101.76 101.76 101.14 100.85 100.36 100.36 100.15 99.96 97.94 98.76 99.06 99.93 101.21 101.40 101.51 101.52 101.44 101.25 100.57 99.13 98.71 98.86 98.81 98.73 98.68 98.67 98.72 99.02 99.35 100.46 100.48 99.82 100.33 100.85 101.29 101.77 102.78 104.32 105.53 105.74 104.43 100.16
106.19 106.07 105.60 105.24 104.71 104.37 103.91 103.04 102.43 102.22 101.67 101.68 100.94 100.71 100.70 100.60 100.46 99.04 100.03 101.44 101.44 101.44 101.44 101.40 101.31 100.00 98.71 98.82 98.84 98.85 98.79 98.67 98.79 98.76 98.80 98.75 98.73 98.81 98.98 100.46 100.71 99.99 100.63 101.10 101.56 102.08 102.93 104.65 105.49 105.70 104.46 100.21
106.20 105.90 105.74 105.32 105.03 104.06 104.11 103.41 102.90 102.44 102.18 101.89 101.53 101.10 101.01 100.98 101.71 101.66 101.54 101.43 101.32 101.10 99.66 99.08 98.91 98.74 98.67 98.60 98.71 98.86 98.93 98.93 98.94 98.90 98.84 98.82 98.86 98.80 99.25 99.94 100.98 100.60 100.86 101.21 101.68 102.35 102.98 104.69 105.44 105.64 104.36 100.21
106.23 105.81 105.86 105.50 104.87 104.73 104.14 103.70 103.18 102.79 102.51 101.90 101.67 102.22 102.00 101.81 101.64 101.38 99.17 100.76 99.69 99.43 99.15 98.99 98.82 98.77 98.75 98.82 98.93 99.04 99.08 99.06 98.99 98.93 98.87 98.92 98.95 98.99 99.22 99.63 101.29 101.32 101.16 101.43 101.94 102.54 103.09 104.88 105.42 105.58 104.46 100.21
106.37 105.57 105.92 105.61 104.82 104.72 104.28 103.78 103.35 102.65 102.88 102.49 102.25 101.99 101.80 101.57 101.31 100.75 99.78 100.27 99.51 99.38 99.30 99.25 99.10 98.98 98.97 99.00 99.08 99.15 99.17 99.16 99.09 98.96 98.92 98.99 99.09 99.13 99.20 99.25 101.62 101.83 101.56 101.76 102.09 102.65 103.51 104.96 105.33 105.54 104.25 100.15
105.95 105.53 106.10 105.04 105.28 104.53 103.61 103.67 103.31 102.96 102.65 102.43 102.21 101.79 101.72 101.39 101.22 100.10 100.18 100.01 99.52 99.57 99.48 99.42 99.29 99.18 99.16 99.14 99.24 99.26 99.23 99.18 99.13 99.01 99.01 99.11 99.19 99.26 99.29 99.77 101.33 102.29 102.37 102.17 102.38 102.91 104.21 104.98 105.28 105.48 104.06 100.11
