ncols 52
nrows 52
xllcorner 439808
yllcorner 5716480
cellsize 10
NODATA_value -9999
81.26 81.48 81.19 81.43 81.34 81.36 81.35 81.32 81.40 81.39 81.53 81.71 81.93 82.07 82.21 82.34 82.49 82.68 82.90 83.11 83.41 83.71 83.93 84.15 84.36 84.54 84.68 84.79 84.29 83.25 83.36 83.46 83.61 83.82 83.99 84.15 84.36 84.71 84.96 85.22 85.58 85.74 85.95 86.39 87.37 87.67 87.72 87.35 87.72 87.78 87.79 87.82
81.40 81.39 81.55 81.04 81.42 81.37 81.39 81.35 81.35 81.38 81.47 81.60 81.84 82.00 82.14 82.30 82.44 82.60 82.74 82.96 83.17 83.41 83.68 83.86 84.11 84.26 83.60 82.81 82.91 83.02 83.07 83.29 83.52 83.80 83.99 84.17 84.36 84.58 84.94 85.31 85.49 85.72 86.03 86.36 86.80 87.42 87.40 87.50 87.54 87.60 87.71 87.89
81.05 81.40 81.42 81.79 81.41 81.42 81.40 81.35 81.38 81.36 81.45 81.50 81.69 81.90 82.08 82.22 82.37 82.46 82.60 82.72 82.94 83.16 83.39 83.56 82.89 82.38 82.44 82.55 82.60 82.81 83.04 83.25 83.51 83.77 83.97 84.17 84.40 84.63 84.89 85.17 85.49 85.78 86.04 86.96 87.01 87.18 87.27 87.32 87.52 87.70 87.85 88.02
80.55 81.31 81.35 81.55 80.30 81.50 81.46 81.44 81.41 81.40 81.41 81.44 81.55 81.79 82.00 82.14 82.26 82.35 82.44 82.54 82.69 82.93 82.70 82.12 82.17 82.20 82.24 82.40 82.54 82.77 83.01 83.24 83.50 83.75 83.97 84.20 84.44 84.65 84.86 85.18 85.28 85.67 86.76 86.59 87.00 87.04 87.19 87.42 87.63 87.80 87.95 88.14
80.22 81.24 81.23 81.32 81.45 81.42 81.52 81.48 81.43 81.38 81.42 81.47 81.48 81.63 81.89 82.05 82.16 82.21 82.31 82.50 82.53 81.97 81.96 81.96 81.99 82.13 82.22 82.33 82.53 82.74 82.96 83.20 83.44 83.69 83.91 84.16 84.38 84.60 84.93 85.10 86.13 86.50 86.65 86.79 86.78 86.99 87.23 87.47 87.70 87.90 88.08 88.25
79.93 81.19 81.17 81.20 81.35 81.33 81.61 81.47 81.52 81.41 81.43 81.42 81.51 81.56 81.77 81.93 82.10 82.32 82.33 81.78 81.83 81.86 81.88 81.94 82.02 82.08 82.17 82.30 82.44 82.65 82.86 83.11 83.33 83.57 83.81 84.05 84.30 84.68 84.99 86.14 86.18 86.49 86.57 86.57 86.83 87.07 87.33 87.57 87.73 87.96 88.14 88.32
80.92 81.15 81.17 81.16 81.28 81.41 80.74 81.62 81.53 81.52 81.51 81.48 81.51 81.61 81.83 82.03 81.36 81.74 81.71 81.78 81.84 81.84 81.86 81.90 81.95 81.99 82.07 82.19 82.34 82.57 82.77 83.04 83.23 83.48 83.73 84.01 84.40 84.80 85.86 85.68 86.29 86.50 86.51 86.66 86.87 87.09 87.38 87.62 87.82 88.00 88.14 88.30
80.52 81.20 81.18 81.22 81.32 81.46 81.60 81.71 81.65 81.61 81.47 81.69 81.62 81.26 81.81 81.79 81.83 81.79 81.78 81.75 81.74 81.76 81.76 81.80 81.86 81.94 82.06 82.19 82.36 82.57 82.76 82.97 83.20 83.43 83.72 84.08 84.46 85.48 85.35 85.96 86.18 86.34 86.57 86.76 86.94 87.18 87.43 87.65 87.85 88.03 88.19 88.36
81.05 81.22 81.18 81.24 81.36 81.42 81.54 81.54 81.48 81.59 81.57 81.69 81.65 81.68 81.72 81.81 81.81 81.83 81.79 81.75 81.73 81.75 81.81 81.84 81.90 82.01 82.15 82.31 82.45 82.62 82.78 82.96 83.17 83.40 83.71 84.09 84.98 85.24 85.65 85.81 86.12 86.40 86.60 86.76 87.01 87.20 87.42 87.65 87.87 88.12 88.33 88.55
81.56 81.24 81.21 81.28 81.39 81.45 81.51 81.57 81.46 81.58 81.59 81.68 81.65 81.65 81.72 81.81 81.84 81.86 81.83 81.82 81.86 81.88 81.91 81.96 82.03 82.16 82.28 82.43 82.58 82.73 82.89 83.05 83.24 83.47 83.77 84.53 85.09 85.28 85.51 85.74 86.14 86.43 86.61 86.79 86.99 87.21 87.50 87.78 88.07 88.38 88.67 89.01
81.78 81.24 81.19 81.30 81.42 81.49 81.45 81.44 81.57 81.61 81.72 81.64 81.66 81.71 81.74 81.83 81.86 81.90 81.92 81.95 81.96 82.03 82.09 82.16 82.21 82.31 82.42 82.51 82.65 82.79 82.93 83.09 83.29 83.56 83.98 84.74 84.93 85.15 85.31 85.71 86.06 86.31 86.55 86.78 87.05 87.39 87.74 88.10 88.46 88.82 89.17 89.50
81.93 81.28 81.17 81.32 81.40 81.43 81.42 81.37 81.38 81.49 80.27 81.80 81.73 81.75 81.82 81.80 81.89 81.91 81.94 81.96 81.97 82.06 82.13 82.20 82.29 82.36 82.41 82.50 82.58 82.64 82.77 82.97 83.25 83.70 84.38 84.15 84.75 84.81 85.25 85.56 85.90 86.22 86.54 86.85 87.29 87.75 88.15 88.54 88.85 89.23 89.56 89.82
83.84 81.39 81.19 81.24 81.30 81.31 81.29 81.32 81.31 81.41 81.54 81.60 81.80 81.82 81.81 81.83 81.83 81.87 81.90 81.92 81.95 81.99 82.11 82.21 82.24 82.31 82.40 82.44 82.48 82.60 82.76 82.93 83.57 84.07 83.89 84.37 84.51 84.82 85.12 85.40 85.75 86.12 86.54 87.03 87.55 88.03 88.43 88.77 89.08 89.38 89.65 89.96
82.65 81.34 81.18 81.16 81.21 81.25 81.28 81.30 81.31 81.31 81.44 81.38 81.88 81.83 81.82 81.82 81.84 81.84 81.87 81.90 81.93 82.00 82.07 82.16 82.23 82.31 82.41 82.49 82.53 82.64 82.81 83.47 83.74 83.75 83.97 84.13 84.41 84.74 84.99 85.29 85.58 85.89 86.32 86.79 87.30 87.86 88.32 88.71 89.05 89.34 89.64 89.93
82.86 81.24 81.11 81.10 81.21 81.25 81.28 81.30 81.35 81.36 81.45 81.55 81.42 81.89 81.85 81.84 81.86 81.84 81.87 81.90 81.91 81.95 82.04 82.14 82.25 82.33 82.42 82.51 82.58 82.67 83.33 83.35 83.53 83.68 83.76 84.05 84.39 84.61 84.88 85.12 85.42 85.69 86.00 86.35 86.75 87.22 87.74 88.26 88.70 89.12 89.52 89.85
83.69 81.04 81.13 81.10 81.17 81.24 81.26 81.29 81.37 81.42 81.44 81.54 81.67 81.44 81.98 81.86 81.84 81.89 81.85 81.88 81.93 81.95 82.03 82.17 82.25 82.38 82.49 82.70 82.93 83.17 83.17 83.44 83.58 83.68 83.84 84.09 84.29 84.51 84.81 85.04 85.30 85.54 85.79 86.07 86.36 86.67 87.10 87.57 88.08 88.61 89.09 89.59
83.78 80.49 81.13 81.10 81.18 81.22 81.27 81.32 81.40 81.46 81.52 81.52 81.62 81.77 80.55 82.05 81.93 81.89 81.88 81.89 81.93 82.01 82.14 82.29 82.38 82.48 82.55 82.82 82.66 82.87 83.23 83.38 83.47 83.77 83.89 84.05 84.26 84.45 84.67 84.96 85.23 85.43 85.69 85.94 86.19 86.44 86.69 87.09 87.49 87.93 88.44 89.05
84.07 80.68 81.15 81.12 81.17 81.22 81.29 81.37 81.42 81.50 81.57 81.64 81.65 81.72 81.82 80.93 82.03 81.98 81.90 81.90 82.02 82.21 82.38 82.46 82.48 82.62 82.38 82.51 82.54 82.68 82.94 83.27 83.55 83.64 83.81 84.07 84.23 84.39 84.60 84.85 85.14 85.43 85.68 85.92 86.15 86.36 86.58 86.86 87.11 87.46 87.87 88.35
84.56 81.24 81.14 81.13 81.18 81.26 81.34 81.41 81.49 81.57 81.61 81.68 81.72 81.74 81.85 82.03 82.03 82.03 81.93 82.02 82.25 82.38 82.69 82.63 82.42 82.46 82.43 82.35 82.47 82.60 82.76 83.01 83.28 83.74 83.99 84.06 84.15 84.42 84.59 84.75 85.04 85.32 85.64 85.89 86.12 86.36 86.59 86.83 87.05 87.28 87.57 87.93
84.19 81.33 81.18 81.21 81.24 81.34 81.41 81.46 81.55 81.63 81.67 81.72 81.79 81.84 81.89 82.01 81.37 82.15 82.17 82.18 82.71 82.77 82.60 82.40 82.40 82.34 82.37 82.36 82.38 82.54 82.66 82.83 83.13 83.44 83.81 84.19 84.38 84.45 84.58 84.82 85.02 85.26 85.53 85.82 86.09 86.35 86.55 86.84 87.10 87.35 87.57 87.76
83.21 81.36 81.27 81.28 81.29 81.39 81.44 81.53 81.60 81.66 81.73 81.79 81.86 81.96 82.02 82.12 80.71 81.97 82.33 82.80 82.70 82.36 82.40 82.33 82.22 82.31 82.29 82.35 82.33 82.43 82.62 82.64 82.92 83.21 83.65 84.05 84.28 84.62 84.81 84.81 85.07 85.35 85.55 85.79 86.06 86.32 86.58 86.85 87.06 87.35 87.58 87.80
81.88 81.40 81.32 81.31 81.33 81.41 81.46 81.57 81.67 81.74 81.82 81.87 81.97 82.03 82.18 82.39 81.54 82.81 82.64 82.36 82.35 82.27 82.23 82.27 82.27 82.28 82.29 82.32 82.32 82.35 82.53 82.64 82.72 83.00 83.43 83.87 84.26 84.52 84.75 85.08 85.32 85.40 85.68 85.89 86.07 86.33 86.60 86.86 87.11 87.35 87.56 87.79
80.86 81.37 81.33 81.32 81.41 81.46 81.52 81.60 81.72 81.79 81.87 81.96 81.99 82.17 82.43 82.84 82.70 81.45 82.41 82.29 82.23 82.26 82.24 82.26 82.27 82.28 82.26 82.31 82.32 82.30 82.33 82.56 82.78 82.90 83.25 83.73 84.12 84.44 84.69 84.92 85.30 85.63 85.96 85.95 86.24 86.46 86.61 86.88 87.11 87.36 87.58 87.80
82.49 81.46 81.32 81.39 81.49 81.54 81.60 81.68 81.80 81.90 81.94 82.00 82.19 82.39 82.74 82.60 82.23 82.10 82.15 82.32 82.19 82.25 82.27 82.27 82.27 82.25 82.27 82.29 82.32 82.33 82.32 82.40 82.58 82.85 83.13 83.41 83.84 84.28 84.58 84.89 85.16 85.47 85.83 86.16 86.49 86.52 86.78 86.97 87.13 87.38 87.59 87.79
82.59 82.75 81.51 81.50 81.55 81.59 81.69 81.76 81.87 81.93 82.03 82.24 82.76 82.68 82.31 82.28 82.31 82.16 81.38 82.43 82.38 82.29 82.31 82.29 82.24 82.27 82.27 82.30 82.34 82.35 82.36 82.37 82.45 82.69 82.98 83.24 83.51 83.91 84.42 84.81 85.09 85.38 85.64 86.03 86.44 86.75 87.03 87.06 87.32 87.45 87.58 87.82
82.68 82.78 83.09 81.70 81.65 81.66 81.76 81.86 81.86 81.99 82.24 82.89 82.65 82.46 82.34 82.28 82.16 82.22 82.21 81.05 82.51 82.40 82.35 82.34 82.29 82.29 82.31 82.32 82.32 82.38 82.37 82.38 82.42 82.51 82.79 83.05 83.33 83.63 84.07 84.57 84.96 85.22 85.58 85.96 86.32 86.67 86.93 87.21 87.39 87.54 87.68 87.85
82.37 82.36 82.80 83.15 81.87 81.79 81.86 81.82 81.98 82.16 82.88 82.61 82.42 82.39 82.32 82.15 82.17 82.21 82.25 82.26 82.33 82.46 82.36 82.35 82.35 82.35 82.33 82.35 82.37 82.38 82.41 82.40 82.43 82.51 82.65 82.85 83.18 83.48 83.85 84.29 84.79 85.14 85.45 85.86 86.20 86.67 86.89 87.09 87.48 87.61 87.81 87.95
82.26 82.26 82.37 82.46 82.94 82.05 81.90 82.02 82.18 82.90 82.63 82.47 82.39 82.20 82.22 82.18 82.20 82.22 82.24 82.25 82.08 82.47 82.48 82.36 82.38 82.38 82.36 82.39 82.37 82.39 82.43 82.40 82.43 82.55 82.64 82.76 82.98 83.26 83.65 84.01 84.52 84.96 85.26 85.63 85.95 86.99 87.06 87.11 87.90 87.99 87.83 87.87
82.31 82.40 82.38 82.31 82.30 83.07 82.33 82.23 82.93 82.66 82.56 82.43 82.25 82.20 82.21 82.18 82.21 82.25 82.24 82.29 82.28 81.18 82.54 82.45 82.41 82.41 82.38 82.38 82.42 82.44 82.43 82.43 82.47 82.57 82.63 82.69 82.84 83.10 83.44 83.82 84.24 84.68 85.01 85.38 86.96 87.04 87.08 87.11 87.74 88.20 88.22 89.57
82.47 82.50 82.47 82.39 82.19 82.35 82.98 82.93 82.64 82.62 82.49 82.29 82.23 82.22 82.23 82.21 82.22 82.26 82.28 82.30 82.31 82.29 82.26 82.54 82.45 82.45 82.43 82.42 82.44 82.47 82.48 82.47 82.53 82.63 82.67 82.72 82.82 83.03 83.33 83.64 83.93 84.34 84.84 86.06 87.01 87.05 87.03 87.05 87.50 87.61 87.79 88.07
82.53 82.66 82.62 82.49 82.40 82.10 82.93 82.65 82.68 82.54 82.38 82.35 82.28 82.24 82.24 82.23 82.24 82.26 82.31 82.32 82.33 82.32 82.38 82.50 82.56 82.46 82.47 82.48 82.46 82.50 82.51 82.52 82.57 82.65 82.69 82.76 82.89 83.04 83.22 83.45 83.75 84.10 84.47 84.91 85.33 87.03 86.32 86.64 87.05 87.18 87.06 87.18
82.81 82.76 82.81 82.74 82.74 82.96 82.81 82.71 82.57 82.42 82.40 82.38 82.35 82.30 82.23 82.25 82.25 82.28 82.30 82.33 82.33 82.37 82.37 80.86 82.61 82.51 82.51 82.52 82.51 82.53 82.57 82.57 82.62 82.73 82.73 82.79 82.93 83.05 83.15 83.33 83.57 83.90 84.28 84.61 84.97 86.62 86.08 86.33 86.60 86.75 86.55 86.46
82.86 82.82 83.01 82.91 83.04 82.81 82.78 82.65 82.50 82.46 82.42 82.39 82.39 82.36 82.26 82.23 82.28 82.32 82.31 82.36 82.36 82.35 82.40 82.33 82.22 82.59 82.50 82.53 82.56 82.59 82.61 82.65 82.75 82.74 82.75 82.82 82.91 83.04 83.10 83.20 83.40 83.71 84.03 84.42 86.12 85.70 85.86 86.01 86.23 86.32 86.12 86.02
82.78 82.85 82.98 83.10 82.83 82.76 82.63 82.53 82.54 82.49 82.46 82.42 82.41 82.41 82.33 82.25 82.27 82.32 82.35 82.34 82.37 82.35 82.38 82.37 82.47 82.52 82.57 82.51 82.56 82.60 82.60 82.68 82.74 82.75 82.76 82.79 82.88 82.95 83.05 83.11 83.25 83.58 83.85 84.22 85.78 85.59 85.71 85.85 86.03 85.95 85.90 86.10
82.94 82.97 83.03 82.81 82.68 82.61 82.56 82.55 82.57 82.55 82.51 82.45 82.43 82.42 82.39 82.32 82.27 82.31 82.35 82.33 82.36 82.36 82.36 82.43 82.43 81.29 82.57 82.50 82.51 82.57 82.61 82.67 82.71 82.80 82.75 82.78 82.84 82.89 83.00 83.11 83.21 83.37 83.72 86.02 86.37 85.72 85.87 86.03 85.85 85.76 85.88 86.19
82.99 83.03 83.13 82.67 82.65 82.58 82.59 82.57 82.58 82.60 82.57 82.54 82.50 82.47 82.46 82.42 82.34 82.33 82.33 82.35 82.36 82.40 82.42 82.40 82.47 82.47 82.29 82.60 82.51 82.53 82.59 82.68 82.72 82.77 82.78 82.76 82.82 82.90 83.00 83.12 83.21 83.26 83.44 83.90 87.10 87.76 85.97 85.79 85.66 85.67 85.96 86.44
83.02 83.31 82.69 82.82 82.68 82.69 82.70 82.63 82.57 82.58 82.60 82.59 82.58 82.56 82.54 82.54 82.48 82.41 82.37 82.35 82.38 82.41 82.42 82.44 82.49 82.53 82.30 82.69 82.67 82.49 82.53 82.61 82.66 82.75 82.79 82.78 82.82 82.90 83.00 83.09 83.19 83.26 83.43 83.69 86.80 89.22 86.71 85.93 85.60 85.76 86.06 86.40
83.34 82.52 82.82 82.72 82.78 82.71 82.76 82.74 82.63 82.57 82.57 82.61 82.63 82.63 82.61 82.60 82.58 82.50 82.42 82.40 82.40 82.40 82.45 82.46 82.48 82.57 82.61 81.03 82.70 82.60 82.51 82.57 82.64 82.70 82.80 82.81 82.81 82.91 82.97 83.04 83.18 83.29 83.43 83.58 85.09 86.24 86.23 86.06 85.80 85.89 86.18 86.46
82.90 82.82 82.90 82.86 82.83 82.74 82.78 82.83 82.74 82.67 82.59 82.58 82.65 82.68 82.69 82.67 82.66 82.60 82.52 82.47 82.43 82.43 82.43 82.47 82.50 82.52 82.60 82.59 81.54 82.72 82.58 82.58 82.65 82.71 82.80 82.85 82.87 82.90 82.93 83.05 83.17 83.30 83.36 83.40 83.93 86.92 86.32 86.12 86.06 86.04 86.43 86.49
82.92 82.92 82.93 82.94 82.89 82.79 82.79 82.85 82.83 82.74 82.68 82.62 82.61 82.68 82.75 82.74 82.71 82.69 82.60 82.55 82.51 82.48 82.48 82.50 82.52 82.53 82.58 82.60 82.72 82.76 82.79 82.66 82.66 82.68 82.73 82.82 82.88 82.90 82.93 83.04 83.20 83.26 83.34 83.39 83.57 86.98 86.11 86.03 86.09 86.14 86.46 86.67
83.02 83.01 83.05 82.96 82.90 82.90 82.87 82.86 82.90 82.88 82.79 82.74 82.65 82.64 82.74 82.76 82.76 82.73 82.68 82.61 82.56 82.56 82.54 82.53 82.56 82.55 82.57 82.62 82.64 81.22 82.88 82.82 82.75 82.73 82.72 82.79 82.89 82.93 82.91 83.04 83.13 83.25 83.32 83.39 83.58 86.17 85.96 85.95 86.04 85.96 86.39 86.49
83.06 83.12 83.07 83.04 82.93 82.97 82.96 82.91 82.90 82.96 82.88 82.83 82.78 82.68 82.68 82.76 82.79 82.79 82.75 82.70 82.62 82.62 82.59 82.58 82.58 82.59 82.58 82.60 82.67 82.70 81.94 82.90 82.80 82.78 82.79 82.83 82.91 82.89 82.92 83.00 83.12 83.25 83.33 83.40 83.60 84.76 85.94 85.93 85.94 85.89 85.82 86.01
83.18 83.18 83.12 83.07 83.00 83.01 83.03 82.97 82.95 83.00 83.00 82.92 82.86 82.81 82.75 82.71 82.79 82.85 82.83 82.82 82.71 82.66 82.65 82.62 82.63 82.62 82.63 82.62 82.67 82.74 82.84 82.85 82.94 82.81 82.83 82.88 82.93 82.88 82.89 82.96 83.07 83.20 83.36 83.45 83.48 84.30 85.97 85.91 85.92 85.98 86.05 86.23
83.26 83.24 83.19 83.11 83.08 83.08 83.10 83.09 83.04 83.04 83.07 83.04 82.93 82.91 82.85 82.75 82.76 82.82 82.88 82.87 82.82 82.73 82.68 82.66 82.65 82.67 82.68 82.66 82.69 82.76 82.78 82.11 82.94 82.90 82.88 82.93 82.98 82.95 82.93 82.94 83.03 83.16 83.26 83.42 83.42 83.65 86.04 85.95 85.78 86.00 86.11 86.17
83.33 83.30 83.27 83.19 83.14 83.15 83.17 83.20 83.17 83.10 83.09 83.10 83.03 82.99 82.96 82.88 82.79 82.77 82.88 82.91 82.93 82.87 82.76 82.72 82.70 82.70 82.72 82.75 82.73 82.72 82.81 82.78 81.55 82.94 82.93 82.97 83.01 82.99 82.99 82.99 83.04 83.18 83.23 83.32 83.47 83.59 83.72 84.91 87.40 85.87 86.04 86.10
83.38 83.35 83.32 83.27 83.23 83.24 83.23 83.26 83.24 83.16 83.12 83.13 83.14 83.07 83.03 82.96 82.89 82.82 82.82 82.88 82.96 82.98 82.88 82.80 82.76 82.76 82.77 82.77 82.79 82.76 82.81 82.85 82.94 82.88 83.06 83.01 83.02 82.99 82.98 83.03 83.05 83.14 83.22 83.30 83.45 83.57 83.63 83.85 84.03 86.51 86.20 86.05
83.43 83.40 83.38 83.37 83.32 83.32 83.33 83.34 83.29 83.27 83.19 83.18 83.21 83.19 83.10 83.05 83.00 82.88 82.85 82.85 82.94 83.01 82.98 82.91 82.82 82.82 82.81 82.79 82.80 82.79 82.79 82.84 82.86 81.98 83.07 83.12 83.02 83.03 82.99 83.04 83.05 83.12 83.22 83.27 83.40 83.54 83.65 83.78 83.91 84.07 85.08 87.51
83.46 83.44 83.45 83.40 83.42 83.43 83.40 83.40 83.39 83.37 83.33 83.26 83.24 83.26 83.19 83.12 83.06 82.98 82.92 82.89 82.92 82.99 83.04 83.04 82.93 82.89 82.87 82.84 82.85 82.85 82.83 82.84 82.90 82.93 81.31 83.20 83.13 83.04 83.02 83.02 83.10 83.08 83.17 83.28 83.36 83.49 83.67 83.77 83.89 83.96 84.06 84.07
83.51 83.54 83.51 83.48 83.51 83.52 83.53 83.50 83.44 83.43 83.44 83.36 83.31 83.29 83.28 83.18 83.11 83.04 83.02 82.97 82.96 82.96 83.02 83.10 83.06 83.02 82.96 82.92 82.93 82.93 82.94 82.90 82.87 82.94 82.99 81.83 83.20 83.15 83.04 83.00 83.07 83.11 83.10 83.22 83.35 83.45 83.56 83.70 83.81 83.89 83.99 83.87
83.63 83.62 83.58 83.56 83.58 83.60 83.59 83.54 83.51 83.51 83.52 83.50 83.38 83.30 83.33 83.31 83.18 83.11 83.08 83.04 83.05 83.03 82.99 83.05 83.11 83.13 83.05 83.00 82.98 83.02 83.04 83.00 82.96 82.92 82.98 83.05 81.48 83.22 83.13 83.05 83.01 83.07 83.07 83.12 83.23 83.36 83.45 83.52 83.67 83.77 83.85 83.37
83.74 83.69 83.65 83.59 83.65 83.65 83.65 83.60 83.58 83.57 83.61 83.60 83.52 83.37 83.35 83.40 83.29 83.18 83.13 83.10 83.11 83.09 83.06 83.03 83.08 83.21 83.17 83.10 83.07 83.11 83.12 83.10 83.02 82.90 82.94 83.02 83.06 82.69 83.21 83.13 83.06 83.06 83.05 83.00 83.10 83.24 83.36 83.46 83.50 83.68 83.54 83.76
83.84 83.77 83.76 83.71 83.71 83.71 83.69 83.64 83.64 83.68 83.69 83.63 83.59 83.46 83.39 83.42 83.41 83.28 83.20 83.15 83.18 83.17 83.18 83.14 83.08 83.19 83.26 83.23 83.19 83.19 83.21 83.17 83.08 82.96 82.94 83.00 82.99 83.25 83.01 83.21 83.16 83.12 83.09 83.04 83.06 83.21 83.41 83.42 83.54 83.53 83.46 83.74
