ncols 52
nrows 52
xllcorner 439808
yllcorner 5714944
cellsize 10
NODATA_value -9999
91.40 91.31 91.26 91.22 91.21 91.06 90.92 90.77 90.68 90.55 90.34 90.17 90.04 90.00 89.87 89.75 89.60 89.47 89.29 89.15 89.07 89.13 89.09 89.00 88.79 88.56 88.37 88.28 88.27 88.21 89.35 88.87 88.32 88.32 88.32 88.38 88.40 88.33 88.15 87.99 88.00 88.06 88.24 88.36 88.26 88.56 88.78 89.00 89.50 90.57 90.84 91.15
91.57 91.49 91.40 91.35 90.77 91.20 91.10 91.05 90.94 90.88 90.74 90.53 90.30 90.23 90.12 90.04 89.92 89.77 89.61 89.50 89.53 89.44 89.26 89.21 89.04 88.84 88.60 88.39 88.36 88.23 89.28 89.47 88.39 88.62 88.57 88.49 88.47 88.34 88.23 88.05 88.07 88.19 88.40 87.59 88.37 88.68 88.96 89.70 90.49 90.79 91.21 91.60
91.74 91.64 91.52 91.39 91.46 91.45 91.45 91.43 91.38 91.26 91.28 91.13 90.67 90.50 90.44 90.36 90.21 90.11 89.97 89.82 89.71 89.54 89.43 89.36 89.27 89.12 88.86 88.57 88.43 88.36 88.83 89.49 88.38 88.53 88.57 88.50 88.44 88.31 88.25 88.17 88.19 88.31 88.49 87.60 88.51 88.80 89.10 89.79 90.76 91.02 91.47 92.06
91.89 91.81 91.68 91.64 91.71 91.56 91.74 91.69 91.75 91.69 91.91 92.27 91.11 90.85 90.72 90.61 90.52 90.42 90.46 90.21 90.00 89.79 89.65 89.51 89.43 89.35 89.11 88.87 88.63 88.52 88.14 89.44 89.11 88.57 88.57 88.54 88.45 88.37 88.26 88.22 88.28 88.43 88.61 88.32 88.71 88.99 89.29 89.98 91.03 91.32 91.90 92.50
92.00 91.93 91.85 91.78 91.78 91.82 91.65 91.90 91.96 92.50 92.41 92.33 91.59 91.19 90.99 90.92 90.76 90.67 90.46 90.49 90.37 90.12 89.89 89.73 89.64 89.54 89.40 89.19 88.85 88.74 88.55 89.32 89.64 88.60 88.71 88.60 88.54 88.49 88.34 88.32 88.39 88.49 88.65 88.58 88.88 89.17 89.92 90.97 91.32 91.75 92.22 92.86
92.16 92.07 91.99 91.93 91.91 91.90 91.87 91.89 92.40 92.51 92.48 92.43 92.31 91.54 91.22 91.17 91.08 91.04 90.82 90.67 90.50 90.44 90.20 89.99 89.84 89.75 89.62 89.44 89.14 88.96 88.77 89.06 89.64 88.67 88.77 88.68 88.58 88.57 88.45 88.32 88.38 88.58 88.58 88.83 89.07 89.37 90.04 91.15 91.49 91.96 92.51 93.18
92.32 92.26 92.17 92.13 92.10 92.08 92.04 91.32 92.21 92.56 92.54 92.54 92.60 91.99 91.62 91.40 91.29 91.28 91.14 90.89 90.76 90.71 90.58 90.29 90.10 90.00 89.81 89.65 89.40 89.14 88.98 88.47 89.62 89.49 88.82 88.82 88.67 88.71 88.54 88.39 88.43 88.64 87.52 88.96 89.17 89.54 90.29 91.29 91.72 92.24 92.85 93.44
92.50 92.48 92.40 92.38 92.34 92.29 92.17 92.12 92.16 92.43 92.58 92.72 92.19 91.95 91.85 91.74 91.71 91.56 91.49 91.26 91.15 90.98 90.84 90.67 90.41 90.22 90.08 89.86 89.59 89.30 89.14 88.93 89.51 89.84 88.90 88.96 88.83 88.78 88.62 88.50 88.52 88.63 88.20 89.02 89.30 90.11 91.13 91.47 91.90 92.45 93.11 93.68
92.69 92.67 92.62 92.63 92.59 92.51 92.38 92.37 92.21 92.37 92.54 92.67 92.62 92.19 92.60 92.49 92.04 91.89 91.77 91.64 91.49 91.32 91.11 90.99 90.73 90.51 90.32 90.09 89.78 89.42 89.26 89.14 89.32 89.88 88.98 89.08 88.88 88.85 88.70 88.63 88.59 88.65 88.78 89.08 89.35 90.31 91.16 91.53 92.12 92.68 93.32 93.92
92.90 92.89 92.85 92.86 92.81 92.66 92.58 92.52 92.49 92.42 92.73 92.85 92.66 92.53 92.78 92.60 92.21 92.18 92.05 91.88 91.74 91.68 91.55 91.47 91.03 90.74 90.54 90.27 89.89 89.48 89.38 89.37 89.05 89.87 89.76 89.14 89.09 88.95 88.84 88.76 88.72 88.72 88.86 89.08 89.37 90.62 91.20 91.63 92.25 92.85 93.46 94.06
93.14 93.11 93.07 93.03 92.96 92.88 92.78 92.68 92.60 92.53 92.77 92.89 92.76 92.69 92.67 92.58 92.41 92.38 92.28 92.22 92.11 91.97 91.81 91.63 91.24 90.92 90.57 90.19 89.78 89.46 89.51 89.40 89.39 89.85 90.12 89.28 89.33 89.18 89.07 88.97 88.84 88.61 88.92 89.09 89.38 91.01 91.19 91.71 92.22 92.94 93.63 94.23
93.34 93.31 93.25 93.18 93.15 93.05 92.95 92.87 92.77 92.76 92.12 92.90 92.94 92.84 92.75 92.86 93.34 92.74 92.61 92.49 92.32 92.33 92.15 91.89 91.63 91.07 90.62 90.14 89.79 89.50 89.56 89.93 89.73 89.78 90.18 89.60 89.47 89.32 89.31 89.15 88.87 87.83 88.99 89.10 89.44 91.41 91.19 91.68 92.33 93.05 93.75 94.36
93.53 93.43 93.38 93.32 93.29 93.21 93.14 93.04 92.97 92.97 92.96 93.13 93.24 92.99 93.00 93.02 93.04 92.94 92.82 92.85 92.67 92.41 92.26 91.82 91.39 90.90 90.67 90.28 90.59 90.29 90.11 89.77 89.54 89.38 90.19 89.74 89.41 89.01 89.62 89.63 89.22 88.14 89.14 89.39 89.56 91.80 91.11 91.61 92.32 93.03 93.76 94.39
93.66 93.58 93.54 93.49 93.47 93.38 93.31 93.25 93.17 93.17 93.14 93.02 93.25 93.30 93.15 93.12 93.12 93.01 92.94 92.77 92.51 92.23 91.90 91.32 90.17 90.86 90.82 91.10 90.96 90.65 90.29 89.89 89.73 89.47 90.22 90.41 89.72 89.54 89.38 89.31 88.92 88.96 89.65 89.61 89.80 92.16 91.04 91.50 92.12 92.82 93.52 94.23
93.81 93.74 93.65 93.62 93.57 93.53 93.50 93.40 93.36 93.31 93.30 93.35 93.28 93.29 93.23 93.08 92.98 93.01 92.79 92.56 92.27 91.54 91.13 91.21 91.06 91.91 91.76 91.59 91.39 91.09 90.68 90.24 89.85 89.70 90.00 90.55 89.87 89.80 89.59 89.48 88.44 89.43 89.56 89.50 89.50 92.38 89.52 89.95 91.94 92.48 93.08 93.82
93.95 93.85 93.82 93.78 93.77 93.68 93.64 93.58 93.55 93.56 93.59 93.65 93.68 93.35 93.26 93.11 92.85 92.87 92.61 91.61 91.92 91.88 92.32 92.35 92.31 92.24 92.14 91.99 91.79 91.51 91.08 90.55 90.08 89.88 89.75 90.62 89.92 89.93 89.71 89.40 88.17 89.08 89.22 89.28 90.40 92.51 90.86 91.24 91.32 91.19 90.96 90.66
94.11 94.04 93.97 93.96 93.94 93.87 93.82 93.82 93.83 93.83 93.85 93.79 93.86 93.42 93.21 93.04 92.66 92.33 92.29 92.41 92.94 92.86 92.79 92.72 92.66 92.58 92.44 92.27 92.05 91.79 91.40 90.90 90.43 90.09 89.72 90.69 90.26 90.00 89.79 90.74 88.20 93.63 94.01 93.61 93.09 92.19 90.90 90.18 90.40 91.11 91.80 92.46
94.29 94.18 94.18 94.14 94.14 94.07 94.08 94.09 94.11 94.10 94.08 94.08 93.98 93.80 92.96 92.79 92.40 92.33 93.23 93.22 93.27 93.23 93.17 93.08 92.92 92.78 92.60 92.47 92.28 92.04 91.71 91.26 90.74 90.38 89.83 90.64 91.00 90.85 94.35 95.72 95.16 94.29 92.50 90.10 89.49 89.58 89.77 90.09 90.55 91.13 91.82 92.51
94.48 94.40 94.40 94.36 94.36 94.35 94.35 94.35 94.37 94.35 94.32 94.31 94.17 93.95 93.57 92.71 92.39 93.42 93.43 93.54 93.61 93.57 93.44 93.28 93.08 92.92 92.80 92.67 92.47 92.24 91.89 91.44 91.01 90.64 90.23 90.31 91.11 90.98 95.14 93.99 88.94 89.04 89.75 89.72 89.66 89.61 89.67 89.86 90.32 90.92 91.57 92.26
94.67 94.65 94.62 94.58 94.59 94.57 94.57 94.55 94.57 94.60 94.54 94.48 94.32 94.02 93.72 93.34 92.60 93.55 93.77 93.85 93.82 93.75 93.60 93.40 93.21 93.07 92.96 92.82 92.62 92.33 92.03 91.64 91.29 92.23 94.78 90.75 91.21 91.13 90.57 89.40 89.37 89.86 89.75 89.69 89.58 89.58 89.66 89.84 90.17 90.71 91.36 92.04
94.92 94.85 94.85 94.79 94.79 94.76 94.78 94.79 94.79 94.77 94.72 94.67 94.49 94.21 93.82 93.57 92.72 93.83 94.08 94.10 94.01 93.92 93.74 93.52 93.32 93.19 93.11 92.99 92.76 92.52 92.27 92.40 95.29 97.44 96.99 92.62 91.29 91.33 89.88 89.87 89.82 89.83 89.78 89.72 89.65 89.64 89.70 89.85 90.10 90.57 91.17 91.84
95.15 95.10 95.03 94.99 94.99 94.99 94.97 94.99 94.96 94.93 94.90 94.84 94.64 94.38 94.05 93.80 92.88 94.03 94.26 94.26 94.21 94.07 93.86 93.63 93.46 93.36 93.28 93.16 92.96 92.78 92.81 96.66 97.57 96.32 92.70 90.76 91.43 91.65 90.06 89.99 89.97 89.07 89.75 89.73 89.71 89.68 89.76 89.85 90.03 90.42 90.94 91.64
95.40 95.31 95.24 95.22 95.21 95.17 95.16 95.13 95.12 95.11 95.05 94.93 94.76 94.57 94.36 94.06 93.47 93.70 94.39 94.40 94.36 94.20 94.01 93.81 93.63 93.54 93.47 93.40 93.26 93.07 96.39 97.41 95.08 91.76 91.71 91.47 91.24 91.79 90.01 90.12 89.99 88.46 89.73 89.69 89.73 89.73 89.80 89.85 89.99 90.29 90.75 91.33
95.64 95.57 95.52 95.45 95.41 95.36 95.26 95.27 95.28 95.26 95.17 95.04 94.93 94.83 94.69 94.40 94.01 93.28 94.41 94.53 94.46 94.33 94.14 94.00 93.88 93.77 93.74 93.75 93.63 96.08 97.17 94.08 92.72 92.35 92.02 91.75 90.59 91.93 90.39 90.39 90.07 88.82 89.68 89.65 89.69 89.73 89.83 89.82 89.93 90.15 90.54 91.07
95.86 95.81 95.75 95.65 95.59 95.52 95.47 95.46 95.42 95.41 95.34 95.25 95.19 95.07 94.96 94.67 94.37 93.85 93.72 94.62 94.57 94.44 94.32 94.23 94.15 94.10 94.10 94.11 95.85 96.89 93.34 93.40 93.04 92.65 92.26 92.03 91.20 92.06 91.70 90.74 90.43 89.64 89.82 89.64 89.59 89.67 89.71 89.77 89.88 90.05 90.35 90.81
96.10 95.98 95.93 95.85 95.77 95.74 95.68 95.65 95.60 95.58 95.53 95.50 95.39 95.30 95.17 94.96 94.62 94.25 93.71 94.67 94.72 94.62 94.54 94.49 94.51 94.49 94.50 95.31 96.66 93.40 93.89 93.64 93.25 92.90 92.54 92.21 91.96 92.18 92.35 90.88 90.71 90.12 89.83 89.67 89.60 89.70 89.72 89.76 89.81 89.94 90.21 90.64
96.25 96.18 96.09 96.01 95.97 95.93 95.86 95.83 95.78 95.76 95.72 95.68 95.60 95.51 95.41 95.22 94.93 94.60 94.12 93.91 94.91 94.88 94.85 94.78 94.82 94.79 94.67 96.48 93.73 94.28 94.08 93.73 93.45 93.12 92.72 92.42 92.10 92.13 92.63 90.81 90.92 90.42 88.47 89.73 89.71 89.79 89.83 89.86 89.85 89.93 90.12 90.47
96.45 96.35 96.25 96.19 96.12 96.10 96.03 95.97 95.89 95.90 95.88 95.85 95.78 95.69 95.57 95.43 95.19 94.89 94.58 94.09 95.09 95.21 95.04 95.02 95.00 94.90 96.25 93.90 94.63 94.44 94.15 93.92 93.66 93.30 92.86 92.57 92.19 91.91 92.78 90.90 90.98 90.71 88.64 89.78 89.76 89.82 89.88 89.94 89.94 89.96 90.07 90.35
96.62 96.51 96.39 96.37 96.33 96.31 96.19 96.12 96.06 96.04 96.02 95.97 95.90 95.79 95.71 95.58 95.41 95.13 94.85 94.52 94.49 95.34 95.20 95.18 95.08 95.98 94.35 94.90 94.74 94.49 94.26 94.04 93.80 93.43 93.07 92.64 92.22 90.96 92.95 91.22 91.05 90.89 89.03 89.80 89.79 89.83 89.88 89.98 90.01 90.00 90.04 90.25
96.79 96.68 96.58 96.57 96.51 96.44 96.34 96.31 96.24 96.18 96.14 96.09 96.05 95.96 95.86 95.76 95.61 95.35 95.12 94.89 94.49 95.28 95.29 95.20 95.46 95.08 95.11 94.94 94.73 94.56 94.37 94.14 93.86 93.48 93.14 92.65 92.18 91.50 93.13 92.21 91.11 91.00 90.18 89.90 89.82 89.79 89.86 89.96 90.03 90.01 90.03 90.18
97.02 96.91 96.82 96.76 96.66 96.59 96.57 96.49 96.39 96.31 96.26 96.26 96.21 96.14 96.04 95.94 95.79 95.63 95.40 95.17 94.67 95.13 95.19 95.22 95.52 95.18 95.06 94.93 94.76 94.60 94.39 94.15 93.82 93.44 93.03 92.56 92.10 91.86 93.28 93.30 91.07 91.02 90.48 89.99 89.85 89.88 89.88 89.92 90.04 90.04 90.05 90.17
97.24 97.11 96.99 96.90 96.82 96.78 96.69 96.62 96.52 96.43 96.43 96.40 96.38 96.30 96.21 96.10 96.03 95.87 95.61 95.35 94.90 95.12 95.26 95.56 95.24 95.07 94.97 94.86 94.75 94.57 94.33 94.07 93.72 93.29 92.90 92.43 92.07 91.86 93.31 93.74 90.99 91.02 90.49 90.00 89.93 89.93 89.94 89.93 90.01 90.10 90.12 90.19
97.43 97.31 97.17 97.07 96.99 96.91 96.85 96.72 96.62 96.60 96.57 96.54 96.55 96.45 96.36 96.26 96.16 95.99 95.69 95.50 95.07 95.31 95.49 95.17 95.10 95.02 94.90 94.79 94.67 94.46 94.24 93.99 93.70 93.33 92.96 92.49 92.08 91.89 92.78 93.96 90.88 90.97 90.59 88.93 90.04 90.01 89.95 89.99 90.04 90.16 90.18 90.24
97.53 97.43 97.33 97.23 97.14 97.09 96.99 96.88 96.79 96.77 96.71 96.68 96.63 96.54 96.49 96.36 96.21 95.95 95.68 95.62 95.37 95.36 95.25 95.16 95.07 94.97 94.86 94.73 94.58 94.43 94.24 93.99 93.72 93.39 93.01 92.58 92.16 91.88 92.10 94.21 91.16 90.98 90.70 89.20 90.08 90.07 90.02 90.01 90.09 90.23 90.22 90.26
97.71 97.63 97.51 97.40 97.29 97.24 97.16 97.05 96.99 96.93 96.88 96.82 96.76 96.63 96.49 96.30 96.12 95.96 95.42 95.54 95.07 95.58 95.48 95.36 95.21 95.06 94.93 94.74 94.68 94.52 94.29 94.06 93.74 93.39 93.04 92.70 92.29 91.98 91.46 94.41 92.35 91.03 90.80 89.93 90.15 90.10 90.10 90.06 90.17 90.27 90.31 90.32
97.86 97.79 97.69 97.60 97.51 97.42 97.34 97.23 97.17 97.07 96.99 96.92 96.83 96.60 96.34 96.20 96.00 95.60 95.55 95.94 95.87 95.80 95.65 95.51 95.38 95.18 95.03 94.95 94.82 94.63 94.39 94.12 93.81 93.46 93.18 92.88 92.46 92.18 91.45 94.64 93.51 91.15 90.91 90.40 90.18 90.12 90.09 90.06 90.23 90.32 90.33 90.31
98.13 98.00 97.91 97.81 97.71 97.61 97.49 97.38 97.31 97.21 97.15 97.03 96.75 96.41 96.16 95.80 95.79 96.35 96.13 96.00 95.98 95.90 95.76 95.59 95.48 95.29 95.12 94.99 94.88 94.72 94.48 94.25 93.93 93.62 93.35 93.10 92.76 92.51 92.17 94.85 94.62 91.29 91.04 90.63 90.24 90.15 90.13 90.17 90.30 90.39 90.36 90.33
98.40 98.21 98.08 98.01 97.90 97.78 97.65 97.53 97.45 97.37 97.21 96.92 96.65 95.94 95.94 96.44 96.38 96.29 96.19 96.10 96.02 95.94 95.81 95.69 95.58 95.37 95.20 95.06 94.97 94.83 94.64 94.40 94.10 93.84 93.65 93.40 93.14 92.84 92.50 94.99 95.30 91.49 91.22 90.85 89.53 90.24 90.20 90.30 90.38 90.42 90.42 90.42
98.44 98.33 98.25 98.20 98.06 97.90 97.82 97.69 97.61 97.38 97.11 96.94 96.17 96.06 96.54 96.46 96.43 96.42 96.30 96.18 96.05 95.96 95.84 95.71 95.57 95.40 95.22 95.15 95.10 95.01 94.87 94.68 94.46 94.27 94.03 93.78 93.43 93.10 92.75 94.77 95.56 91.58 91.42 91.17 90.29 90.36 90.26 90.35 90.45 90.44 90.42 90.40
98.97 98.54 98.44 98.30 98.16 98.07 97.98 97.83 97.60 97.30 96.66 96.38 96.85 96.71 96.61 96.64 96.56 96.48 96.33 96.20 95.99 96.04 95.94 95.80 95.61 95.42 95.30 95.26 95.26 95.21 95.15 95.03 94.86 94.65 94.43 94.12 93.68 93.27 92.91 94.34 95.78 92.06 91.71 91.53 89.79 90.36 90.35 90.48 90.50 90.58 90.55 90.51
99.07 98.77 98.51 98.36 98.29 98.19 98.06 97.77 97.56 96.66 96.67 96.74 96.93 96.75 96.77 96.70 96.65 96.54 96.39 96.27 96.15 96.09 96.01 95.88 95.71 95.57 95.46 95.40 95.44 95.43 95.39 95.29 95.09 94.89 94.65 94.26 93.82 93.41 93.06 93.85 96.00 93.16 91.98 91.87 89.41 90.73 90.00 90.56 90.67 90.70 90.61 90.42
99.33 99.06 98.65 98.41 98.35 98.21 97.96 97.69 97.08 96.75 97.41 97.21 97.14 96.94 96.93 96.81 96.66 96.57 96.47 96.32 96.21 96.15 96.08 95.99 95.93 95.82 95.71 95.67 95.65 95.67 95.61 95.48 95.29 95.02 94.69 94.32 93.90 93.54 93.29 93.23 96.25 94.11 92.15 92.03 89.17 90.72 90.58 90.60 90.66 90.82 90.82 90.72
99.38 99.39 98.83 98.53 98.29 98.05 97.80 97.36 97.81 97.79 97.59 97.45 97.28 97.25 97.03 96.88 96.77 96.65 96.51 96.38 96.26 96.19 96.15 96.14 96.10 96.05 96.00 95.96 95.91 95.83 95.71 95.53 95.33 95.06 94.78 94.42 94.11 93.74 93.50 92.33 96.47 95.21 92.26 92.17 89.85 90.72 90.76 90.19 90.64 90.68 90.85 90.75
99.41 99.32 98.84 98.60 98.17 97.77 97.56 98.10 98.06 97.88 97.66 97.56 97.39 97.28 97.05 96.97 96.85 96.73 96.59 96.42 96.30 96.25 96.22 96.22 96.18 96.16 96.16 96.17 96.07 95.91 95.75 95.52 95.29 95.04 94.80 94.51 94.24 93.93 93.64 92.02 96.70 96.22 92.35 92.14 89.76 90.73 90.89 90.91 90.67 90.70 90.78 90.81
99.48 99.53 99.15 98.51 97.78 97.64 98.41 98.28 98.14 97.98 97.83 97.71 97.30 97.26 97.14 97.07 96.97 96.83 96.68 96.54 96.46 96.36 96.32 96.31 96.27 96.25 96.26 96.22 96.12 95.95 95.75 95.56 95.33 95.05 94.82 94.61 94.34 93.99 93.74 92.37 96.91 96.97 92.40 92.30 91.58 90.79 90.71 90.90 90.78 90.84 90.82 90.89
99.57 99.55 98.78 97.99 97.99 98.74 98.54 98.34 98.19 98.07 97.93 97.76 97.68 97.29 97.17 97.17 97.09 96.96 96.86 96.70 96.58 96.50 96.44 96.41 96.34 96.28 96.22 96.20 96.14 95.96 95.71 95.57 95.41 95.20 94.97 94.72 94.43 94.10 93.80 93.00 97.03 97.39 92.45 92.21 91.69 90.85 91.05 91.02 90.87 90.59 90.96 90.94
99.81 99.52 98.40 98.32 98.93 98.78 98.55 98.42 98.24 98.12 97.97 97.83 97.77 97.48 97.18 97.11 97.13 97.08 96.92 96.80 96.64 96.53 96.49 96.44 96.35 96.28 96.23 96.24 96.15 95.99 95.74 95.60 95.47 95.29 95.06 94.80 94.51 94.19 93.89 93.50 97.00 97.65 92.92 92.25 91.91 90.96 91.10 91.18 91.09 90.97 91.05 90.94
99.88 98.86 98.55 99.13 98.94 98.76 98.61 98.46 98.26 98.15 98.04 97.86 97.82 97.64 97.28 97.18 97.17 97.08 96.93 96.83 96.74 96.65 96.57 96.50 96.38 96.31 96.30 96.31 96.23 96.05 95.83 95.65 95.47 95.32 95.08 94.81 94.51 94.18 93.91 93.65 96.60 97.87 93.85 92.31 92.04 90.91 91.02 91.16 91.22 91.05 90.57 91.03
99.23 99.56 99.33 99.16 98.93 98.80 98.68 98.52 98.33 98.20 98.08 97.93 97.89 97.56 97.33 97.33 97.26 97.19 97.04 96.96 96.90 96.80 96.67 96.57 96.45 96.37 96.36 96.35 96.26 96.10 95.93 95.73 95.52 95.31 95.05 94.79 94.49 94.23 93.92 93.62 96.31 98.10 94.71 92.46 92.07 90.37 91.24 91.22 91.31 91.17 90.90 90.53
100.01 99.70 99.46 99.25 99.05 98.91 98.76 98.58 98.39 98.27 98.15 98.00 97.93 97.91 97.50 97.54 97.40 97.29 97.18 97.14 97.02 96.86 96.71 96.58 96.45 96.42 96.40 96.34 96.28 96.21 96.05 95.85 95.58 95.30 95.05 94.79 94.50 94.21 93.88 93.58 95.93 98.33 95.57 92.44 92.07 90.04 91.31 91.31 91.35 91.30 91.05 90.96
100.10 99.80 99.64 99.40 99.19 99.00 98.83 98.65 98.48 98.38 98.27 98.16 98.04 97.92 97.81 97.53 97.42 97.38 97.33 97.25 97.12 96.93 96.77 96.66 96.53 96.50 96.45 96.35 96.25 96.21 96.13 95.93 95.60 95.24 94.96 94.73 94.44 94.11 93.81 93.55 95.63 98.57 96.38 92.43 92.20 90.40 91.43 91.35 91.39 91.39 91.26 91.07
100.18 100.00 99.79 99.54 99.34 99.07 98.89 98.76 98.62 98.50 98.40 98.31 98.12 98.06 98.02 97.68 97.54 97.58 97.50 97.39 97.24 97.08 96.92 96.78 96.64 96.59 96.50 96.34 96.22 96.17 96.07 95.88 95.50 95.11 94.82 94.53 94.29 93.96 93.68 93.46 95.26 98.79 97.30 92.46 92.33 90.60 91.58 91.47 91.44 91.40 91.31 91.28
