ncols 52
nrows 52
xllcorner 439808
yllcorner 5714432
cellsize 10
NODATA_value -9999
100.21 100.04 99.82 99.57 99.36 99.08 98.90 98.79 98.65 98.53 98.41 98.31 98.14 98.12 98.07 97.67 97.57 97.62 97.53 97.43 97.27 97.11 96.95 96.81 96.67 96.62 96.50 96.33 96.22 96.14 96.05 95.85 95.49 95.10 94.79 94.52 94.27 93.94 93.67 93.46 95.16 98.83 97.48 92.45 92.35 90.65 91.64 91.49 91.49 91.43 91.48 91.50
100.26 100.11 99.89 99.67 99.41 99.15 99.00 98.88 98.74 98.58 98.47 98.38 98.25 98.15 98.12 97.90 97.81 97.78 97.67 97.54 97.39 97.20 97.00 96.84 96.71 96.64 96.47 96.28 96.10 95.98 95.90 95.76 95.44 95.09 94.75 94.44 94.17 93.89 93.58 93.43 94.78 99.07 98.37 92.60 92.50 91.45 91.90 91.89 91.78 91.65 91.56 91.54
100.32 100.10 99.89 99.64 99.43 99.21 99.02 98.93 98.79 98.67 98.58 98.43 98.32 98.23 98.18 98.11 97.87 97.86 97.70 97.55 97.39 97.19 96.97 96.81 96.71 96.60 96.43 96.24 96.02 95.89 95.82 95.67 95.39 95.04 94.72 94.42 94.11 93.82 93.49 93.39 94.42 99.30 99.13 93.11 92.60 92.26 91.82 91.94 91.80 91.77 91.57 91.55
100.32 100.07 99.83 99.63 99.41 99.20 99.06 98.97 98.87 98.73 98.65 98.53 98.44 98.35 98.35 98.41 97.98 97.85 97.73 97.56 97.39 97.25 97.07 96.89 96.72 96.55 96.38 96.19 95.97 95.85 95.76 95.57 95.32 95.00 94.65 94.30 93.98 93.66 93.38 93.35 94.17 99.50 99.67 93.81 92.68 92.34 91.69 92.08 91.92 91.79 91.70 91.67
100.32 100.03 99.79 99.61 99.42 99.20 99.07 99.00 98.90 98.84 98.74 98.66 98.54 98.43 98.42 98.41 98.14 97.95 97.79 97.56 97.46 97.29 97.13 96.91 96.74 96.54 96.35 96.15 95.94 95.75 95.60 95.37 95.12 94.83 94.51 94.17 93.84 93.53 93.29 93.29 93.87 99.58 100.03 94.60 92.67 92.41 91.67 92.12 91.99 91.90 91.72 91.70
100.33 100.01 99.78 99.62 99.45 99.25 99.12 99.04 98.98 98.94 98.85 98.75 98.62 98.51 98.48 98.50 98.32 98.04 97.83 97.65 97.49 97.32 97.13 96.90 96.69 96.46 96.24 96.01 95.78 95.56 95.35 95.15 94.92 94.68 94.39 94.03 93.67 93.41 93.23 93.26 93.74 99.46 100.28 95.43 92.61 92.39 91.43 92.28 92.09 91.98 91.69 91.74
100.33 100.04 99.83 99.63 99.48 99.27 99.18 99.12 99.05 99.01 98.93 98.84 98.70 98.60 98.49 98.47 98.46 98.05 97.85 97.64 97.45 97.29 97.08 96.86 96.62 96.36 96.11 95.87 95.60 95.35 95.08 94.91 94.70 94.48 94.24 93.91 93.60 93.38 93.17 93.24 93.26 99.13 100.52 96.28 92.51 92.36 91.51 92.39 92.10 92.03 91.83 91.76
100.34 100.09 99.85 99.62 99.49 99.34 99.28 99.22 99.10 99.04 98.98 98.90 98.74 98.64 98.54 98.50 98.59 98.08 97.81 97.60 97.46 97.25 97.06 96.79 96.51 96.22 95.96 95.67 95.39 95.12 94.89 94.70 94.51 94.34 94.12 93.88 93.61 93.35 93.15 93.24 92.89 98.99 100.76 97.15 92.58 92.41 90.79 92.35 92.18 92.04 91.89 91.92
100.39 100.12 99.87 99.66 99.54 99.45 99.36 99.30 99.17 99.10 99.06 98.96 98.82 98.68 98.56 98.56 98.65 98.20 97.87 97.57 97.32 97.19 96.97 96.68 96.38 96.05 95.78 95.52 95.25 94.97 94.75 94.54 94.34 94.21 94.05 93.81 93.57 93.32 93.12 93.15 92.76 98.50 100.99 97.94 92.68 92.58 91.27 92.40 92.27 92.15 92.12 92.12
100.40 100.25 100.02 99.80 99.69 99.61 99.51 99.44 99.31 99.24 99.14 99.04 98.89 98.79 98.66 98.58 98.67 98.39 97.95 97.58 97.35 97.17 96.95 96.63 96.28 95.92 95.63 95.38 95.10 94.86 94.60 94.39 94.24 94.07 93.89 93.69 93.43 93.22 93.04 93.01 92.87 98.30 101.22 98.74 93.01 92.71 90.96 92.34 92.69 92.39 92.42 92.34
100.56 100.38 100.19 99.95 99.87 99.79 99.67 99.58 99.44 99.34 99.23 99.11 98.96 98.83 98.69 98.57 98.58 98.57 98.01 97.66 97.37 97.10 96.84 96.50 96.17 95.89 95.52 95.23 94.98 94.66 94.48 94.27 94.09 93.88 93.73 93.57 93.33 93.15 93.05 93.04 92.90 98.14 101.44 99.71 93.95 92.77 91.30 91.77 92.52 92.53 92.42 92.17
100.94 100.55 100.25 100.06 99.99 99.90 99.77 99.66 99.52 99.40 99.26 99.14 98.96 98.79 98.67 98.52 98.53 98.64 98.00 97.67 97.32 97.03 96.75 96.46 96.12 95.74 95.38 95.10 94.82 94.60 94.37 94.15 94.00 93.81 93.68 93.49 93.32 93.18 93.06 93.04 93.04 97.84 101.66 100.44 94.71 92.68 91.65 92.37 92.59 92.45 92.44 92.34
100.86 100.72 100.28 100.11 100.05 99.94 99.81 99.70 99.58 99.43 99.28 99.09 98.90 98.76 98.62 98.47 98.49 98.38 97.92 97.49 97.29 96.99 96.78 96.54 96.17 95.82 95.25 94.93 94.75 94.52 94.30 94.08 93.92 93.74 93.60 93.44 93.31 93.19 93.10 93.07 93.10 97.43 101.91 101.25 95.51 92.89 91.30 92.42 92.15 92.42 92.41 92.43
101.27 101.17 100.40 100.19 100.12 100.01 99.86 99.76 99.60 99.44 99.31 99.08 98.89 98.74 98.60 98.46 98.42 98.47 98.08 97.64 97.39 97.00 96.71 96.46 96.08 95.77 95.21 94.83 94.62 94.40 94.25 94.02 93.90 93.72 93.60 93.45 93.35 93.24 93.10 93.09 93.06 97.28 102.15 101.91 96.10 93.08 91.45 92.37 92.34 92.31 92.50 92.56
101.48 101.33 100.52 100.31 100.22 100.08 99.93 99.82 99.63 99.47 99.30 99.11 98.93 98.77 98.61 98.47 98.37 98.44 98.15 97.88 97.46 97.16 96.68 96.33 95.98 95.64 95.22 94.77 94.57 94.38 94.23 94.04 93.91 93.75 93.63 93.51 93.37 93.22 93.08 93.10 93.18 97.01 102.35 102.47 96.62 93.37 91.48 92.00 92.47 92.37 92.57 92.65
101.79 101.33 100.65 100.43 100.30 100.17 99.99 99.82 99.61 99.46 99.26 99.09 98.95 98.77 98.60 98.43 98.30 98.35 98.29 97.99 97.58 97.10 96.75 96.21 95.89 95.92 95.24 94.79 94.57 94.38 94.24 94.08 93.94 93.76 93.68 93.52 93.39 93.20 93.10 93.15 93.26 96.58 102.55 102.86 97.30 93.83 93.19 91.86 92.42 92.20 92.69 92.75
101.88 101.43 100.70 100.48 100.34 100.18 99.99 99.83 99.64 99.43 99.22 99.08 98.95 98.79 98.58 98.39 98.26 98.26 98.14 97.49 97.04 96.93 96.43 96.15 95.92 95.73 95.22 94.81 94.59 94.42 94.26 94.10 93.92 93.76 93.65 93.50 93.36 93.26 93.19 93.23 93.39 96.41 102.64 103.11 97.80 94.41 94.12 92.51 91.39 92.74 92.77 92.80
101.53 101.40 100.72 100.50 100.35 100.18 100.00 99.87 99.70 99.50 99.24 99.11 98.98 98.79 98.57 98.39 98.25 98.23 98.06 97.37 96.79 96.72 96.17 95.83 95.57 95.40 95.11 94.82 94.57 94.39 94.21 94.06 93.89 93.72 93.62 93.50 93.40 93.35 93.31 93.32 93.52 96.35 102.52 103.36 98.40 95.05 94.58 94.20 91.96 92.86 92.85 92.84
101.79 101.31 100.74 100.50 100.34 100.16 99.99 99.89 99.77 99.57 99.35 99.18 99.03 98.81 98.58 98.39 98.21 98.16 97.79 97.01 96.62 96.30 96.00 95.78 95.58 95.26 95.01 94.77 94.56 94.36 94.19 94.02 93.86 93.71 93.60 93.49 93.42 93.35 93.31 93.42 93.65 96.04 102.32 103.59 99.25 95.75 94.92 94.50 91.93 92.30 92.90 92.86
102.43 101.89 100.77 100.51 100.37 100.17 100.01 99.94 99.82 99.63 99.42 99.26 99.08 98.83 98.58 98.38 98.22 98.09 97.72 96.90 96.46 96.12 95.87 95.58 95.38 95.16 94.93 94.69 94.50 94.30 94.14 93.98 93.83 93.69 93.62 93.52 93.43 93.36 93.40 93.52 93.73 95.59 102.00 103.82 100.02 96.64 95.23 94.60 91.82 91.39 92.90 92.86
101.67 101.44 100.79 100.57 100.43 100.21 100.06 99.98 99.85 99.67 99.44 99.28 99.08 98.85 98.60 98.38 98.21 98.10 97.68 96.92 96.46 96.10 95.82 95.56 95.29 95.05 94.86 94.65 94.48 94.32 94.16 94.03 93.91 93.79 93.69 93.59 93.50 93.49 93.60 93.63 93.79 95.32 101.70 104.04 100.76 97.46 95.24 94.60 92.23 91.98 92.94 92.90
101.38 101.31 100.88 100.64 100.53 100.34 100.18 100.06 99.87 99.68 99.44 99.24 99.10 98.86 98.63 98.40 98.20 98.04 97.72 96.98 96.49 96.10 95.81 95.52 95.27 95.03 94.85 94.68 94.52 94.38 94.24 94.11 94.02 93.90 93.79 93.64 93.60 93.62 93.66 93.73 93.85 95.12 101.65 104.26 101.45 98.12 95.20 94.26 92.51 92.91 92.99 92.96
101.81 101.55 100.97 100.76 100.61 100.44 100.27 100.09 99.90 99.69 99.46 99.25 99.09 98.87 98.62 98.38 98.21 98.05 97.74 96.99 96.49 96.12 95.82 95.52 95.25 95.07 94.86 94.70 94.56 94.45 94.29 94.18 94.09 93.97 93.85 93.77 93.73 93.69 93.69 93.85 93.93 95.21 101.54 104.46 102.37 98.51 94.76 93.05 92.21 93.17 93.07 93.00
102.68 101.64 101.06 100.82 100.67 100.47 100.29 100.11 99.90 99.69 99.51 99.27 99.05 98.83 98.60 98.39 98.21 98.10 97.71 96.99 96.49 96.12 95.82 95.53 95.26 95.04 94.86 94.71 94.58 94.44 94.33 94.24 94.16 94.06 94.04 93.96 93.79 93.73 93.82 93.97 94.10 95.44 101.48 104.68 103.16 98.79 93.55 92.19 93.41 93.15 93.12 93.07
102.24 101.75 101.14 100.86 100.65 100.49 100.30 100.12 99.93 99.72 99.53 99.28 99.01 98.75 98.54 98.36 98.21 98.08 97.69 96.98 96.50 96.11 95.78 95.51 95.24 95.03 94.84 94.71 94.56 94.46 94.35 94.27 94.19 94.19 94.17 94.03 93.86 93.81 93.93 94.06 94.24 95.76 101.26 104.92 103.92 98.80 92.46 93.68 93.74 93.16 93.16 93.09
102.31 101.86 101.19 100.87 100.64 100.49 100.32 100.14 99.94 99.77 99.56 99.29 98.99 98.68 98.50 98.32 98.18 98.08 97.71 96.97 96.47 96.06 95.72 95.46 95.19 94.96 94.82 94.69 94.56 94.46 94.37 94.29 94.26 94.30 94.21 94.06 93.96 93.96 94.11 94.13 94.46 96.11 101.15 105.10 104.78 98.69 96.60 94.19 93.92 93.18 93.17 93.08
102.32 102.13 101.26 100.91 100.68 100.51 100.37 100.23 100.01 99.84 99.61 99.32 99.01 98.68 98.46 98.26 98.11 98.01 97.68 96.89 96.40 96.01 95.69 95.42 95.17 94.94 94.83 94.65 94.54 94.44 94.35 94.26 94.32 94.32 94.20 94.14 94.14 94.23 94.62 94.33 92.44 92.50 100.19 105.26 105.30 99.19 96.85 94.33 93.90 93.22 93.22 93.16
102.64 102.22 101.32 100.97 100.74 100.59 100.48 100.31 100.07 99.86 99.63 99.35 99.04 98.70 98.43 98.23 98.07 97.95 97.75 96.79 96.32 95.95 95.67 95.40 95.15 94.97 94.82 94.67 94.54 94.43 94.37 94.30 94.42 94.39 94.35 94.26 94.38 94.80 93.42 92.81 93.45 93.60 99.64 105.39 105.62 100.05 97.09 94.46 93.93 93.34 93.35 93.29
102.79 102.18 101.39 101.12 100.87 100.71 100.58 100.34 100.12 99.87 99.63 99.37 99.05 98.69 98.42 98.22 98.06 97.97 98.24 96.68 96.29 95.94 95.63 95.38 95.21 94.98 94.84 94.70 94.61 94.55 94.49 94.43 94.55 94.45 94.35 94.31 94.39 95.17 92.12 93.58 94.69 94.29 98.93 105.34 105.84 101.18 96.93 94.65 94.00 93.45 93.46 93.42
102.90 102.05 101.51 101.21 101.02 100.85 100.71 100.47 100.21 99.98 99.73 99.47 99.21 98.93 98.66 98.42 98.18 97.96 98.31 98.79 96.42 95.86 95.53 95.44 95.13 95.03 94.88 94.74 94.63 94.54 94.43 94.40 94.50 94.41 94.49 94.67 95.16 94.53 92.22 94.84 94.90 94.57 98.41 105.07 106.00 102.33 96.62 94.91 94.16 93.55 93.57 93.57
103.46 102.08 101.68 101.47 101.28 101.11 100.83 100.56 100.22 100.16 100.18 100.39 100.85 100.94 100.85 100.90 100.50 99.92 99.32 98.81 98.47 98.32 97.52 96.62 96.35 96.68 96.68 96.55 96.29 96.11 95.91 95.72 95.53 95.21 95.49 95.54 95.50 93.20 92.16 95.05 95.07 94.76 97.92 104.80 106.17 103.61 96.96 95.23 94.28 93.63 93.65 93.63
102.90 102.54 102.26 102.06 101.82 101.53 100.99 101.03 101.03 101.00 101.00 100.99 101.00 101.00 101.01 100.95 100.84 100.39 99.77 98.84 98.35 98.11 98.02 97.76 97.29 96.96 96.71 96.50 96.33 96.12 95.95 95.74 95.39 95.46 95.57 93.76 93.36 92.57 93.97 95.11 95.10 94.96 97.66 104.34 106.32 104.73 97.97 95.53 94.42 93.70 93.70 93.70
102.74 102.46 102.07 101.88 101.79 101.54 100.98 101.02 101.02 100.99 100.99 100.99 101.02 101.06 101.03 101.01 100.99 100.93 100.91 100.92 100.92 98.03 97.96 97.78 97.27 96.93 96.72 96.50 96.32 96.14 95.93 95.76 95.63 94.47 93.39 92.96 92.99 93.88 94.97 95.05 95.14 95.05 97.55 104.27 106.44 106.07 99.52 95.61 94.51 93.74 93.74 93.68
102.48 102.17 101.85 101.71 101.63 101.51 100.97 101.02 101.01 101.01 100.99 101.01 101.02 101.01 100.99 100.98 100.99 100.94 100.96 100.96 100.96 98.04 97.99 97.88 97.15 96.92 96.71 96.52 96.34 96.16 95.92 95.74 94.74 93.28 93.35 95.07 95.14 94.71 94.78 95.04 95.04 95.10 97.57 104.29 106.57 107.01 101.32 95.50 94.56 93.78 93.78 93.69
102.21 101.87 101.63 101.54 101.44 101.37 101.07 101.02 101.01 101.01 100.99 101.01 101.03 101.01 101.00 100.99 100.96 100.94 100.95 100.98 100.99 98.04 97.99 97.79 97.16 96.93 96.76 96.56 96.39 96.17 95.97 95.59 93.15 94.18 95.45 94.92 94.81 94.88 94.53 94.93 94.94 95.04 96.91 102.38 102.30 101.76 99.65 95.29 94.59 93.98 93.89 93.83
101.94 101.57 101.40 101.35 101.25 101.22 101.05 101.02 101.01 101.01 100.98 101.02 101.03 101.01 101.02 101.04 101.02 100.92 100.69 100.16 99.83 97.99 97.96 97.68 97.18 96.95 96.78 96.57 96.39 96.19 96.02 94.16 94.00 95.73 95.26 95.14 94.97 94.90 94.59 94.70 94.76 94.81 94.70 97.09 97.22 96.21 94.82 94.75 94.82 94.08 93.83 93.94
101.67 101.26 101.16 101.18 101.07 101.07 101.04 101.02 101.00 101.00 101.00 100.95 100.86 101.01 101.02 101.04 101.11 99.15 98.40 98.19 97.98 97.85 97.70 97.31 97.21 97.02 96.81 96.60 96.40 96.22 95.71 93.79 95.74 95.94 95.76 95.54 95.35 95.03 94.72 94.68 94.62 94.59 94.53 94.38 94.64 95.10 95.24 95.27 95.26 95.21 95.16 95.07
101.03 101.04 101.02 101.00 101.02 101.02 100.98 100.97 101.04 100.88 100.69 100.65 100.49 100.48 100.74 101.08 100.24 98.62 98.39 98.19 98.00 97.82 97.71 97.27 97.21 97.03 96.83 96.68 96.54 96.29 95.43 93.67 95.88 96.36 96.26 95.98 95.79 95.46 95.49 95.87 95.84 95.78 95.69 95.62 95.58 95.61 95.37 95.22 95.40 96.74 97.61 98.21
101.01 101.01 101.03 101.02 101.03 101.03 101.04 101.06 100.89 99.50 98.79 99.42 99.96 99.15 99.46 99.51 98.81 98.59 98.40 98.42 97.99 97.79 97.59 97.30 97.28 97.09 97.04 97.02 96.83 96.18 95.54 96.55 96.85 96.72 96.61 96.55 96.47 96.39 96.31 96.22 96.13 95.99 95.88 95.98 96.58 97.03 97.32 97.87 98.86 99.28 98.88 98.82
101.03 101.05 101.02 101.03 101.02 101.02 101.02 101.05 100.85 99.46 99.03 99.63 99.67 99.21 98.88 98.86 98.79 98.59 98.40 98.20 97.99 97.84 97.75 97.40 97.15 97.30 97.55 97.57 97.50 97.44 97.34 97.21 97.08 96.98 96.90 96.92 96.79 96.64 96.35 96.32 96.38 96.49 96.86 98.04 99.36 99.64 99.61 99.49 99.40 99.28 98.88 98.74
101.07 101.03 101.02 101.02 101.01 101.03 101.10 101.04 101.00 100.35 100.33 100.24 99.60 99.29 98.85 99.03 98.82 98.60 98.61 98.31 98.22 98.27 98.32 98.28 98.18 98.08 98.01 97.93 97.79 97.81 97.69 97.36 97.17 97.09 96.88 96.63 96.54 96.66 97.57 98.97 99.49 99.58 99.71 99.94 99.89 99.74 99.60 99.49 99.36 99.24 98.93 98.74
101.23 101.02 101.02 101.02 101.02 101.05 101.04 101.15 101.06 100.53 100.43 100.35 99.73 99.30 99.04 98.86 98.69 98.68 99.03 98.96 98.88 98.79 98.69 98.75 99.30 99.52 100.87 100.88 100.97 101.07 98.47 94.67 96.32 97.24 97.09 97.71 98.28 98.90 99.31 99.59 99.68 99.73 99.80 99.94 99.99 99.79 99.60 99.42 99.27 99.12 99.01 98.79
101.25 101.00 101.02 101.02 101.02 101.02 101.04 101.17 101.08 100.61 100.53 100.47 100.07 99.91 99.75 99.63 99.51 99.44 99.84 99.93 100.48 101.04 101.07 101.12 101.14 101.14 101.12 101.11 101.08 101.07 98.90 94.73 95.60 97.53 97.35 97.92 98.49 98.94 99.26 99.47 99.62 99.67 99.73 99.93 100.13 99.81 99.30 98.96 99.00 99.06 99.04 98.96
101.10 101.01 101.02 101.02 101.05 101.21 101.40 101.02 100.71 100.60 100.48 100.37 100.25 100.14 100.07 100.66 100.65 100.99 100.85 100.90 101.00 101.07 101.09 101.12 101.14 101.15 101.14 101.07 101.10 101.51 99.38 94.89 95.71 98.31 97.68 97.57 98.30 98.70 99.02 99.31 99.17 98.61 98.57 98.70 98.82 98.88 99.02 99.19 99.15 99.14 99.16 99.04
102.54 101.99 101.60 101.47 101.36 101.25 101.19 101.19 101.03 100.68 100.43 100.01 100.41 100.46 100.73 100.87 100.82 100.90 100.86 100.96 101.05 101.08 101.14 101.15 101.17 101.18 101.23 101.12 101.08 101.66 99.53 95.36 95.71 99.57 99.92 98.15 97.93 98.05 98.20 98.38 98.59 98.82 99.43 99.65 99.58 99.60 100.02 100.26 100.06 99.93 100.07 99.86
102.02 101.94 102.54 102.60 102.25 101.99 101.79 101.77 101.79 100.70 100.50 100.10 100.48 100.71 100.65 100.75 100.94 100.97 100.98 100.92 100.95 101.02 101.20 101.16 101.22 101.24 101.19 101.11 101.15 101.92 99.28 95.41 95.80 100.27 100.36 100.27 100.22 100.02 100.13 100.07 100.11 100.58 100.33 100.15 100.43 100.60 100.66 100.60 100.76 100.65 100.59 100.49
103.79 103.66 103.32 103.03 102.82 102.20 102.19 102.46 102.20 100.77 100.56 100.42 100.44 100.69 100.93 100.94 100.94 100.98 100.94 100.90 100.99 101.12 101.16 101.28 101.34 101.37 101.37 101.37 101.18 102.29 99.82 94.97 98.70 100.68 100.67 100.33 100.29 100.51 100.68 100.67 100.73 100.81 100.82 100.86 100.82 100.71 100.72 100.64 100.88 100.85 100.72 100.60
103.86 103.67 103.38 103.15 102.83 102.32 102.11 102.26 102.10 100.81 100.65 100.66 100.69 100.85 100.92 100.94 100.97 100.94 101.16 101.21 101.24 101.22 101.29 101.41 101.46 101.42 101.50 101.38 103.04 104.83 101.69 101.45 101.07 100.65 100.76 100.72 100.93 100.90 100.81 100.86 100.79 100.72 100.93 100.86 100.69 100.69 100.67 100.64 100.59 100.48 100.60 100.65
103.90 103.68 103.44 103.16 102.91 102.45 102.25 102.21 102.13 100.85 100.71 100.84 100.98 101.02 100.89 100.87 101.18 101.16 101.80 101.35 101.29 101.24 101.26 101.28 101.37 103.24 102.90 102.82 102.47 100.99 100.85 101.04 101.01 100.94 100.89 100.79 100.99 101.01 101.01 100.90 100.81 100.64 100.73 100.63 100.75 100.88 100.93 100.75 100.60 100.54 100.59 100.56
104.00 103.80 103.49 103.23 102.93 102.44 102.13 102.43 102.11 101.08 100.81 100.96 101.20 101.34 101.57 101.19 101.35 101.59 101.28 101.26 101.23 101.24 101.21 101.25 101.33 101.30 101.01 101.08 100.97 100.95 101.10 101.18 101.25 101.14 100.94 100.84 100.87 100.96 100.89 100.86 100.75 100.67 100.73 100.68 100.89 100.76 100.92 100.84 100.71 100.75 100.38 99.31
103.96 103.87 103.57 103.07 102.96 102.33 102.21 102.11 102.11 101.65 101.19 101.48 101.55 101.59 101.37 101.45 101.43 101.37 101.28 101.34 101.44 101.29 101.22 101.09 101.16 101.16 101.26 101.30 101.13 100.91 100.97 101.06 101.15 100.99 100.95 101.01 100.92 100.85 100.97 100.92 100.86 100.89 100.78 100.65 100.85 100.60 99.55 98.87 99.43 99.59 99.69 99.68
104.38 104.02 103.76 103.35 103.06 102.74 103.11 103.46 102.26 101.93 101.60 101.65 101.49 101.45 101.43 101.44 101.41 101.28 101.31 101.42 101.42 101.52 101.34 101.12 101.14 101.09 101.20 101.12 101.07 101.05 101.07 101.01 101.16 100.99 101.03 101.04 100.95 100.88 100.72 100.75 100.24 99.26 98.78 99.25 99.62 99.74 99.62 99.56 99.18 95.41 97.21 96.39
