ncols 52
nrows 52
xllcorner 439808
yllcorner 5715456
cellsize 10
NODATA_value -9999
87.27 87.01 86.86 86.71 86.46 86.22 86.06 85.90 85.76 85.69 85.71 85.86 86.03 85.87 85.73 85.68 85.69 85.67 85.60 85.55 85.52 85.50 85.43 85.40 85.37 85.35 85.34 85.33 85.32 85.29 85.26 85.26 85.20 85.18 85.14 85.04 85.14 84.97 84.96 84.93 84.85 84.82 84.83 84.83 84.80 84.79 84.79 84.78 84.79 84.82 84.84 84.83
87.46 87.10 86.83 86.67 86.44 86.24 86.06 85.91 85.81 85.74 85.79 85.79 86.02 85.91 85.75 85.74 85.68 85.66 85.60 85.54 85.51 85.47 85.40 85.39 85.39 85.35 85.33 85.29 85.29 85.27 85.25 85.24 85.19 85.16 85.11 85.09 85.23 85.10 85.00 85.00 84.91 84.85 84.88 84.85 84.82 84.85 84.82 84.81 84.82 84.86 84.86 84.83
87.64 87.31 86.87 86.60 86.36 86.20 86.06 85.93 85.84 85.83 85.88 85.07 86.00 85.89 85.79 85.80 85.71 85.65 85.59 85.55 85.52 85.49 85.40 85.41 85.36 85.32 85.30 85.30 85.26 85.23 85.23 85.21 85.18 85.13 85.11 85.15 85.36 85.15 85.04 85.03 84.98 84.91 84.94 84.93 84.91 84.87 84.83 84.82 84.86 84.88 84.90 84.91
87.19 87.70 87.10 86.63 86.37 86.17 86.06 85.93 85.89 85.88 85.96 84.87 86.00 85.88 85.79 85.77 85.71 85.66 85.62 85.61 85.54 85.49 85.45 85.42 85.38 85.35 85.30 85.29 85.29 85.24 85.22 85.21 85.17 85.15 85.17 85.21 85.42 85.22 85.13 85.08 85.02 85.01 84.98 84.95 84.96 84.93 84.87 84.85 84.90 84.92 84.93 84.93
87.39 87.40 87.75 86.76 86.38 86.19 86.03 85.95 85.93 85.94 86.02 85.52 85.96 85.82 85.77 85.74 85.68 85.64 85.63 85.61 85.57 85.51 85.49 85.43 85.40 85.37 85.35 85.31 85.28 85.28 85.25 85.24 85.23 85.20 85.20 85.31 85.34 85.21 85.18 85.11 85.06 85.07 85.05 85.03 85.02 84.98 84.93 84.93 84.95 84.98 84.97 84.95
87.31 87.15 87.59 87.82 86.38 86.15 86.07 85.97 85.96 85.99 86.09 86.03 85.93 85.79 85.76 85.71 85.67 85.64 85.62 85.59 85.56 85.50 85.47 85.43 85.42 85.38 85.35 85.34 85.32 85.30 85.29 85.26 85.27 85.27 85.23 85.42 85.35 85.26 85.19 85.15 85.10 85.11 85.12 85.09 85.08 85.05 84.99 85.02 85.03 85.01 85.00 84.94
87.31 87.15 86.92 87.69 87.88 86.26 86.09 86.03 85.99 86.04 86.15 86.09 85.95 85.85 85.79 85.74 85.72 85.68 85.64 85.62 85.55 85.49 85.49 85.46 85.42 85.40 85.35 85.33 85.32 85.32 85.30 85.28 85.26 85.25 85.29 85.49 85.40 85.29 85.24 85.18 85.19 85.20 85.17 85.18 85.15 85.09 85.07 85.07 85.10 85.05 85.02 84.95
87.31 87.13 86.94 86.64 87.76 87.82 86.19 86.06 86.01 86.07 85.78 86.03 85.96 85.84 85.82 85.82 85.79 85.75 85.71 85.66 85.59 85.57 85.54 85.49 85.48 85.43 85.42 85.40 85.37 85.35 85.34 85.31 85.30 85.29 85.36 85.57 85.43 85.32 85.29 85.21 85.26 85.27 85.26 85.27 85.21 85.13 85.08 85.12 85.14 85.14 85.06 85.00
87.29 87.08 86.87 86.72 86.50 87.84 87.40 86.23 86.01 86.10 85.31 86.04 86.01 85.92 85.90 85.87 85.85 85.81 85.77 85.71 85.67 85.65 85.61 85.57 85.54 85.51 85.49 85.48 85.46 85.43 85.44 85.41 85.34 85.37 85.46 85.73 85.46 85.39 85.32 85.26 85.29 85.30 85.30 85.27 85.24 85.16 85.18 85.18 85.18 85.15 85.06 85.08
87.26 87.03 86.76 86.59 86.58 87.13 87.90 86.77 86.23 86.14 85.50 86.09 86.00 85.97 85.94 85.94 85.92 85.87 85.82 85.79 85.72 85.69 85.65 85.64 85.61 85.60 85.56 85.54 85.54 85.51 85.49 85.49 85.43 85.43 85.53 85.58 85.49 85.45 85.36 85.31 85.34 85.34 85.32 85.32 85.28 85.21 85.20 85.24 85.24 85.18 85.02 85.18
87.24 87.01 86.77 86.60 86.53 86.42 87.64 87.99 86.41 86.26 86.08 86.11 86.00 85.99 85.98 85.95 85.94 85.89 85.83 85.79 85.73 85.75 85.69 85.68 85.65 85.60 85.60 85.57 85.56 85.57 85.55 85.53 85.53 85.51 85.65 85.60 85.53 85.51 85.40 85.36 85.37 85.36 85.36 85.36 85.31 85.24 85.26 85.26 85.28 85.21 85.04 85.26
87.29 87.04 86.78 86.54 86.42 86.43 86.45 87.87 88.06 85.35 86.27 86.17 86.05 86.04 86.03 86.01 85.97 85.93 85.87 85.82 85.76 85.79 85.75 85.70 85.68 85.65 85.62 85.61 85.62 85.62 85.60 85.61 85.59 85.60 85.84 85.69 85.58 85.56 85.46 85.42 85.46 85.43 85.44 85.40 85.35 85.29 85.32 85.32 85.31 85.24 85.14 85.31
87.27 87.03 86.79 86.58 86.46 86.50 86.51 86.34 87.97 87.89 86.19 86.19 86.08 86.07 86.11 86.05 86.01 85.95 85.90 85.86 85.86 85.82 85.80 85.80 85.72 85.74 85.73 85.70 85.70 85.72 85.70 85.68 85.69 85.76 86.07 85.75 85.67 85.56 85.53 85.51 85.50 85.49 85.48 85.45 85.34 85.35 85.38 85.36 85.37 85.24 85.25 85.43
87.24 86.97 86.74 86.57 86.42 86.43 86.44 86.38 87.24 88.05 87.12 86.26 86.22 86.18 86.13 86.15 86.10 86.06 85.99 85.94 85.96 85.91 85.86 85.85 85.82 85.79 85.80 85.81 85.78 85.79 85.78 85.75 85.76 85.86 86.08 85.76 85.69 85.60 85.57 85.56 85.55 85.54 85.51 85.49 85.43 85.44 85.44 85.44 85.37 85.22 85.38 85.51
87.20 86.95 86.71 86.53 86.41 86.40 86.48 86.50 86.33 87.75 88.14 86.44 86.37 86.34 86.20 86.18 86.15 86.13 86.09 86.08 86.05 86.03 86.01 85.95 85.93 85.92 85.89 85.89 85.89 85.85 85.87 85.84 85.80 85.90 85.90 85.78 85.71 85.68 85.68 85.59 85.57 85.58 85.57 85.50 85.46 85.46 85.50 85.47 85.41 85.29 85.47 85.66
87.18 86.91 86.71 86.54 86.46 86.48 86.50 86.52 86.48 86.06 87.99 88.20 86.37 86.36 86.28 86.19 86.19 86.19 86.12 86.10 86.13 86.11 86.07 86.07 86.02 86.00 85.98 85.96 85.98 85.95 85.94 85.90 85.85 85.98 86.00 85.88 85.85 85.80 85.76 85.71 85.63 85.64 85.62 85.58 85.53 85.53 85.55 85.49 85.42 85.39 85.51 84.97
87.15 86.93 86.73 86.63 86.54 86.53 86.56 86.56 86.49 86.42 86.56 88.12 87.82 86.39 86.31 86.21 86.16 86.17 86.10 86.10 86.14 86.11 86.08 86.04 86.04 86.01 85.97 86.01 86.00 85.99 86.00 85.99 85.97 86.14 86.04 85.90 85.93 85.90 85.86 85.83 85.78 85.74 85.72 85.67 85.65 85.67 85.60 85.57 85.49 85.49 85.55 85.26
87.15 86.95 86.80 86.68 86.61 86.60 86.61 86.60 86.54 86.53 86.57 87.52 88.20 86.96 86.42 86.22 86.28 86.23 86.19 86.20 86.21 86.15 86.13 86.07 86.03 86.03 85.98 85.98 85.99 85.96 85.96 85.99 86.03 86.11 86.05 85.92 85.91 85.91 85.90 85.86 85.81 85.81 85.81 85.77 85.78 85.76 85.69 85.64 85.61 85.58 85.70 85.69
87.14 86.99 86.84 86.76 86.72 86.74 86.69 86.64 86.60 86.60 86.72 86.70 88.06 88.32 86.53 86.48 86.34 86.35 86.28 86.29 86.27 86.23 86.18 86.17 86.10 86.01 85.99 86.01 86.01 86.00 85.97 85.99 86.09 86.15 86.04 85.93 85.84 85.85 85.86 85.83 85.77 85.79 85.80 85.80 85.81 85.78 85.74 85.68 85.66 85.70 85.95 85.72
87.18 87.05 86.94 86.86 86.83 86.81 86.77 86.74 86.69 86.63 86.70 86.85 86.51 88.21 88.17 86.53 86.48 86.38 86.36 86.32 86.31 86.27 86.21 86.18 86.14 86.07 86.04 86.04 86.03 86.01 86.02 86.04 86.18 86.27 86.19 86.06 85.98 85.94 85.82 85.78 85.81 85.80 85.77 85.73 85.76 85.71 85.68 85.64 85.66 85.76 85.79 85.83
87.25 87.09 87.01 86.88 86.85 86.82 86.82 86.79 86.68 86.67 86.73 86.83 86.92 87.63 88.30 87.14 86.60 86.38 86.38 86.41 86.36 86.33 86.29 86.27 86.20 86.12 86.10 86.12 86.08 86.07 86.05 86.07 86.12 86.17 86.08 86.02 86.06 85.95 86.03 86.05 85.88 85.89 85.89 85.75 85.73 85.67 85.68 85.67 85.70 85.81 84.83 85.86
87.31 87.17 87.03 86.93 86.88 86.86 86.84 86.83 86.78 86.75 86.74 86.85 86.96 86.92 88.16 88.43 86.68 86.54 86.46 86.44 86.39 86.43 86.37 86.32 86.30 86.21 86.19 86.19 86.15 86.14 86.13 86.14 86.14 86.23 86.10 86.00 86.04 86.04 85.97 85.93 85.90 85.79 85.88 85.83 85.82 85.82 85.74 85.74 85.76 85.93 85.83 85.98
87.37 87.19 87.06 86.97 86.89 86.90 86.86 86.85 86.83 86.76 86.75 86.81 87.01 87.05 86.52 88.31 88.21 86.67 86.51 86.46 86.45 86.43 86.42 86.38 86.35 86.32 86.26 86.25 86.24 86.22 86.21 86.21 86.18 86.19 86.09 86.03 85.99 85.95 85.90 85.92 85.88 85.88 85.89 85.79 85.74 85.77 85.71 85.89 85.95 86.06 85.88 86.07
87.38 87.24 87.12 87.03 86.94 86.90 86.87 86.85 86.83 86.77 86.75 86.84 86.99 87.01 87.01 87.68 88.43 87.03 86.61 86.45 86.47 86.43 86.43 86.42 86.35 86.34 86.33 86.29 86.30 86.27 86.25 86.28 86.30 86.17 86.14 86.10 86.01 86.06 85.94 85.95 85.90 85.88 85.87 85.81 85.78 85.77 85.81 85.82 85.87 85.90 86.01 86.19
87.42 87.25 87.18 87.08 87.00 86.93 86.89 86.88 86.84 86.82 86.86 86.90 86.96 87.02 87.05 86.89 88.30 88.54 86.72 86.56 86.50 86.45 86.46 86.43 86.40 86.38 86.36 86.32 86.31 86.29 86.26 86.30 86.28 86.22 86.27 86.19 86.09 86.10 86.06 86.00 85.95 85.90 85.84 85.79 85.78 85.86 85.75 85.93 86.01 85.88 86.11 86.25
87.49 87.37 87.26 87.14 87.02 86.94 86.92 86.87 86.88 86.92 86.96 86.97 87.00 87.03 87.03 86.98 86.93 88.46 87.93 86.71 86.60 86.53 86.54 86.48 86.43 86.44 86.39 86.39 86.32 86.27 86.29 86.28 86.36 86.31 86.25 86.24 86.22 86.19 86.10 86.12 86.07 85.96 85.90 85.82 85.89 85.92 85.89 86.00 86.18 85.45 86.26 86.33
87.64 87.50 87.32 87.18 87.07 86.96 86.92 86.92 86.95 86.97 86.99 87.03 87.02 87.02 87.06 87.00 86.90 88.11 88.57 86.90 86.72 86.68 86.59 86.56 86.51 86.45 86.46 86.39 86.37 86.38 86.40 86.39 86.39 86.33 86.29 86.26 86.22 86.20 86.18 86.18 86.12 86.04 85.93 85.88 85.94 86.02 85.99 86.09 86.29 86.25 86.38 86.42
87.75 87.57 87.38 87.23 87.10 87.02 86.99 86.97 86.97 86.99 86.98 87.04 87.04 87.03 87.03 87.00 86.98 86.59 88.46 88.54 86.88 86.78 86.63 86.60 86.54 86.47 86.42 86.41 86.44 86.45 86.52 86.51 86.47 86.35 86.29 86.23 86.21 86.24 86.24 86.22 86.15 86.08 85.96 85.95 86.01 86.11 86.06 86.13 86.35 86.28 86.46 86.54
87.83 87.65 87.45 87.31 87.18 87.10 87.03 86.99 86.97 86.94 86.98 87.01 87.01 87.04 87.02 86.98 86.99 87.02 87.76 88.61 87.37 86.83 86.75 86.65 86.55 86.49 86.42 86.42 86.48 86.51 86.58 86.64 86.46 86.36 86.33 86.22 86.29 86.25 86.22 86.21 86.17 86.05 86.00 86.05 86.10 86.07 86.14 86.35 86.33 86.34 86.58 86.68
87.86 87.72 87.56 87.42 87.28 87.16 87.10 87.03 86.98 86.97 86.96 86.98 87.04 87.05 87.03 87.07 87.06 87.15 87.04 88.49 88.73 87.03 86.84 86.71 86.61 86.49 86.47 86.49 86.54 86.57 86.67 86.65 86.52 86.45 86.26 86.22 86.28 86.27 86.30 86.26 86.18 86.10 86.06 86.11 86.12 86.15 86.23 86.43 85.83 86.55 86.72 86.79
87.96 87.82 87.69 87.49 87.34 87.25 87.17 87.08 87.03 86.99 86.96 86.95 87.04 87.09 87.11 87.14 87.15 87.17 87.20 87.21 88.66 87.81 86.98 86.83 86.68 86.57 86.57 86.60 86.62 86.65 86.68 86.72 86.62 86.42 86.34 86.31 86.34 86.38 86.37 86.29 86.21 86.11 86.09 86.15 86.16 86.17 86.32 86.51 85.99 86.71 86.78 86.90
88.14 87.96 87.75 87.62 87.47 87.35 87.23 87.16 87.11 87.05 87.00 87.01 87.07 87.12 87.21 87.26 87.22 87.17 87.22 87.18 88.41 88.78 87.10 86.90 86.72 86.68 86.69 86.75 86.76 86.74 86.77 86.82 86.72 86.57 86.51 86.47 86.50 86.49 86.40 86.37 86.24 86.18 86.18 86.22 86.25 86.25 86.42 86.65 86.61 86.87 86.90 87.01
88.28 88.07 87.92 87.78 87.61 87.46 87.35 87.27 87.20 87.14 87.10 87.11 87.14 87.21 87.29 87.33 87.22 87.13 87.18 87.26 86.90 88.69 88.25 86.92 86.76 86.66 86.71 86.81 86.82 86.83 86.89 86.83 86.82 86.79 86.66 86.64 86.65 86.62 86.51 86.44 86.35 86.32 86.27 86.36 86.39 86.34 86.51 86.71 86.69 86.91 87.04 87.12
88.45 88.24 88.08 87.90 87.72 87.57 87.47 87.39 87.32 87.24 87.18 87.14 87.18 87.24 87.32 87.38 87.29 87.19 87.18 87.17 87.21 88.28 88.83 87.05 86.81 86.72 86.82 86.87 86.84 86.86 86.93 86.92 86.93 86.74 86.64 86.71 86.71 86.68 86.61 86.57 86.51 86.43 86.47 86.54 86.42 86.43 86.65 86.55 86.83 87.03 87.12 87.21
88.63 88.40 88.20 88.03 87.91 87.75 87.57 87.48 87.38 87.29 87.24 87.21 87.16 87.21 87.30 87.38 87.40 87.32 87.23 87.19 87.25 86.72 88.75 88.49 86.96 86.88 86.91 86.94 86.92 86.88 87.00 86.98 86.97 86.83 86.70 86.72 86.72 86.74 86.68 86.57 86.53 86.52 86.58 86.52 86.56 86.63 86.75 85.51 86.92 87.12 87.23 87.31
88.85 88.67 88.45 88.21 88.01 87.83 87.68 87.57 87.45 87.39 87.33 87.28 87.21 87.15 87.26 87.35 87.44 87.40 87.26 87.16 87.21 87.25 88.23 88.90 87.16 87.04 87.02 87.04 87.01 86.97 87.07 87.08 87.10 86.90 86.79 86.80 86.85 86.82 86.71 86.62 86.60 86.59 86.60 86.58 86.56 86.77 86.85 85.91 87.03 87.18 87.31 87.50
89.08 88.87 88.63 88.33 88.14 87.95 87.79 87.68 87.59 87.49 87.43 87.34 87.28 87.22 87.22 87.32 87.39 87.44 87.38 87.31 87.24 87.29 86.86 88.79 88.68 87.18 87.10 87.11 87.13 87.04 87.21 87.20 87.10 86.94 86.86 86.92 86.93 86.87 86.77 86.72 86.69 86.68 86.68 86.66 86.66 86.84 86.96 86.85 87.10 87.25 87.45 87.68
89.27 89.08 88.82 88.52 88.28 88.07 87.93 87.81 87.69 87.61 87.52 87.44 87.35 87.32 87.25 87.28 87.40 87.47 87.44 87.37 87.28 87.19 87.20 88.26 88.95 87.32 87.21 87.16 87.12 87.15 87.16 87.24 87.22 87.04 87.02 87.00 86.97 86.95 86.88 86.86 86.75 86.82 86.78 86.76 86.70 86.88 86.98 87.01 87.25 87.39 87.61 87.83
89.47 89.27 88.99 88.68 88.43 88.22 88.02 87.92 87.79 87.72 87.68 87.58 87.53 87.41 87.34 87.33 87.36 87.42 87.45 87.45 87.29 87.18 87.18 87.01 88.88 88.76 87.32 87.25 87.18 87.18 87.21 87.31 87.29 87.14 87.06 87.05 87.03 87.04 86.95 86.93 86.90 86.95 86.88 86.83 86.76 86.93 86.71 87.13 87.33 87.49 87.79 88.04
89.58 89.40 89.16 88.84 88.54 88.31 88.14 87.99 87.94 87.86 87.82 87.71 87.63 87.56 87.44 87.40 87.39 87.43 87.50 87.43 87.38 87.25 87.18 87.24 88.32 89.02 87.48 87.31 87.21 87.27 87.31 87.46 87.36 87.24 87.14 87.14 87.12 87.11 87.02 87.00 86.95 86.99 87.00 86.97 86.94 87.11 86.42 87.29 87.38 87.61 87.90 88.30
89.70 89.53 89.27 88.99 88.75 88.51 88.32 88.18 88.11 88.04 87.90 87.83 87.77 87.65 87.55 87.51 87.51 87.52 87.54 87.52 87.45 87.34 87.23 87.28 87.18 88.95 88.71 87.44 87.38 87.41 87.44 87.45 87.39 87.32 87.26 87.24 87.21 87.14 87.07 87.03 86.96 87.03 87.08 87.02 87.09 87.25 87.10 87.41 87.59 87.79 88.15 88.62
89.81 89.68 89.47 89.20 89.00 88.82 88.60 88.43 88.27 88.16 88.06 87.96 87.84 87.77 87.72 87.66 87.62 87.61 87.61 87.59 87.52 87.43 87.37 87.38 87.50 88.53 89.10 87.60 87.53 87.54 87.53 87.53 87.48 87.40 87.40 87.32 87.25 87.20 87.10 86.94 87.03 87.12 87.15 87.09 87.17 87.31 87.16 87.39 87.70 88.07 88.42 88.93
89.97 89.84 89.62 89.43 89.29 89.10 88.92 88.68 88.53 88.37 88.18 88.04 87.96 87.91 87.82 87.75 87.73 87.69 87.65 87.60 87.56 87.51 87.42 87.36 87.52 87.34 89.03 88.75 87.65 87.68 87.62 87.60 87.51 87.50 87.44 87.38 87.25 87.19 87.08 86.99 87.07 87.24 87.25 87.25 87.46 87.43 87.43 87.73 87.93 87.89 88.66 88.74
90.17 89.96 89.86 89.71 89.54 89.36 89.19 89.00 88.77 88.53 88.33 88.22 88.10 88.01 87.91 87.89 87.83 87.79 87.71 87.62 87.63 87.61 87.53 87.38 87.54 87.67 88.76 89.19 87.75 87.73 87.63 87.64 87.55 87.54 87.54 87.42 87.29 87.19 87.14 87.06 87.15 87.29 87.34 87.34 87.51 86.90 87.55 87.69 88.00 88.38 88.95 89.08
90.28 90.25 90.10 89.94 89.80 89.64 89.46 89.23 89.00 88.75 88.55 88.35 88.19 88.09 88.04 87.96 87.92 87.90 87.85 87.78 87.74 87.70 87.63 87.53 87.49 87.75 87.78 89.12 88.57 87.79 87.79 87.68 87.68 87.65 87.57 87.43 87.32 87.24 87.19 87.07 87.21 87.44 87.43 87.44 87.58 86.82 87.64 87.80 87.97 88.34 89.17 89.34
90.53 90.40 90.24 90.11 90.01 89.86 89.67 89.47 89.25 89.04 88.76 88.53 88.34 88.22 88.15 88.08 88.07 88.04 87.98 87.93 87.84 87.79 87.73 87.62 87.53 87.72 87.83 88.99 89.27 87.87 87.94 87.74 87.74 87.64 87.54 87.41 87.35 87.29 87.22 87.17 87.26 87.42 87.48 87.52 87.73 87.55 87.78 87.93 88.10 88.51 89.07 89.43
90.64 90.65 90.42 90.30 90.16 90.04 89.88 89.69 89.46 89.22 89.01 88.78 88.57 88.43 88.32 88.24 88.19 88.16 88.10 88.07 88.01 87.92 87.84 87.72 87.67 87.66 87.95 88.40 89.21 88.20 87.94 87.87 87.72 87.65 87.51 87.39 87.36 87.39 87.32 87.29 87.39 87.45 87.52 87.68 87.69 87.67 87.92 88.02 88.29 89.09 89.56 89.66
90.91 90.33 90.57 90.37 90.30 90.26 90.12 89.90 89.68 89.49 89.23 89.07 88.86 88.73 88.59 88.45 88.35 88.29 88.23 88.20 88.18 88.08 88.00 87.90 87.78 87.74 87.88 87.93 89.14 89.26 88.02 88.01 87.84 87.68 87.54 87.49 87.50 87.51 87.49 87.45 87.44 87.50 87.53 87.76 87.65 87.85 88.02 88.15 88.48 89.34 89.74 89.88
90.97 90.90 90.96 90.62 90.50 90.44 90.32 90.15 89.94 89.70 89.49 89.35 89.21 89.07 88.92 88.75 88.60 88.54 88.46 88.37 88.31 88.27 88.22 88.10 87.96 87.88 88.01 87.98 88.74 89.33 88.07 88.10 87.85 87.77 87.75 87.71 87.74 87.73 87.64 87.56 87.53 87.63 87.62 87.81 86.81 87.96 88.15 88.36 88.66 89.29 89.95 90.15
91.16 91.06 90.79 90.94 90.74 90.63 90.54 90.35 90.16 89.94 89.76 89.63 89.51 89.38 89.24 89.09 88.92 88.79 88.70 88.58 88.50 88.44 88.40 88.29 88.26 88.18 88.10 88.03 87.82 89.25 89.07 88.10 88.10 87.96 87.99 88.03 88.06 88.04 87.89 87.64 87.72 87.79 87.84 87.93 87.61 88.17 88.34 88.56 89.34 90.01 90.22 90.45
91.25 91.15 91.10 91.11 90.89 90.82 90.76 90.57 90.42 90.24 90.03 89.88 89.78 89.70 89.54 89.43 89.25 89.08 88.97 88.82 88.70 88.64 88.66 88.65 88.53 88.38 88.21 88.13 88.10 89.04 89.43 88.17 88.15 88.12 88.15 88.24 88.35 88.24 88.01 87.86 87.79 87.94 88.08 88.19 87.99 88.33 88.53 88.77 89.67 90.29 90.44 90.80
91.38 91.27 91.23 91.12 91.12 91.04 90.89 90.74 90.65 90.50 90.30 90.13 90.01 89.94 89.83 89.68 89.54 89.40 89.24 89.07 88.99 89.05 89.05 88.96 88.73 88.54 88.33 88.26 88.24 88.40 89.37 88.62 88.34 88.35 88.31 88.38 88.40 88.31 88.17 87.96 87.97 88.03 88.20 88.37 88.22 88.51 88.72 88.99 89.50 90.51 90.79 91.06
