ncols 52
nrows 52
xllcorner 439808
yllcorner 5713408
cellsize 10
NODATA_value -9999
105.92 105.64 106.03 104.84 105.12 104.25 103.96 103.58 103.28 102.96 102.65 102.47 102.19 101.78 101.74 101.35 100.59 99.69 100.28 99.99 99.55 99.59 99.52 99.44 99.34 99.21 99.17 99.19 99.25 99.29 99.24 99.19 99.11 99.06 99.04 99.13 99.20 99.28 99.31 99.70 101.17 102.38 102.48 102.32 102.56 103.21 104.34 104.93 105.27 105.48 104.05 100.11
105.85 105.37 104.96 104.68 104.38 104.04 103.85 103.52 103.22 103.11 102.66 102.60 102.18 101.43 101.00 100.81 100.14 99.06 100.62 99.97 99.66 99.69 99.60 99.53 99.43 99.35 99.35 99.34 99.39 99.40 99.36 99.28 99.23 99.15 99.17 99.25 99.33 99.42 99.40 99.75 100.25 102.77 102.82 103.25 103.53 104.04 104.53 104.60 105.21 105.40 103.76 100.05
105.43 105.16 104.85 104.68 104.42 104.14 103.84 103.61 103.33 102.65 102.56 101.68 101.35 101.05 100.44 100.35 100.30 98.09 100.53 99.96 99.76 99.76 99.65 99.57 99.51 99.48 99.52 99.53 99.53 99.50 99.44 99.37 99.32 99.25 99.29 99.38 99.44 99.51 99.57 99.72 99.80 102.81 103.21 103.29 103.82 104.23 104.27 104.51 105.18 105.35 103.31 100.11
105.32 105.24 105.26 105.29 104.34 104.04 103.74 103.55 102.68 102.33 101.77 101.24 101.02 100.62 100.46 100.35 100.24 98.74 100.43 99.99 99.79 99.73 99.64 99.57 99.57 99.59 99.67 99.71 99.68 99.62 99.54 99.47 99.42 99.37 99.39 99.49 99.57 99.64 99.74 99.70 100.19 100.86 103.73 103.70 103.91 104.26 104.34 104.47 105.13 105.31 102.79 100.19
105.88 105.61 105.56 105.05 104.32 103.92 103.63 103.26 102.22 102.10 101.59 100.99 100.76 100.59 100.35 100.35 100.53 99.64 100.25 99.99 99.81 99.75 99.63 99.58 99.60 99.68 99.75 99.76 99.74 99.72 99.66 99.57 99.50 99.43 99.50 99.59 99.69 99.79 99.90 99.93 99.96 100.35 100.81 103.37 104.17 104.47 104.55 104.60 105.07 105.27 102.24 100.26
106.03 105.46 105.43 104.88 104.42 104.04 103.48 103.64 102.29 102.03 101.44 100.94 100.86 100.69 100.44 100.35 100.80 99.96 100.56 100.03 99.86 99.76 99.64 99.63 99.67 99.72 99.79 99.81 99.79 99.76 99.76 99.72 99.60 99.53 99.54 99.64 99.77 99.90 100.04 100.10 100.07 100.12 100.44 100.41 102.06 104.09 104.65 104.82 105.00 105.20 102.03 100.38
105.46 105.26 105.22 104.40 104.14 103.93 103.21 102.93 102.19 101.94 101.33 100.93 100.74 100.60 100.46 100.42 99.89 100.16 100.68 100.05 99.89 99.78 99.64 99.65 99.68 99.75 99.82 99.85 99.82 99.81 99.81 99.82 99.74 99.62 99.62 99.71 99.81 99.97 100.12 100.21 100.30 100.31 100.30 100.46 101.04 101.17 103.78 104.79 104.94 105.15 101.61 100.46
105.07 104.80 104.59 104.15 103.87 104.03 102.99 102.87 101.95 101.68 101.32 100.90 100.88 100.60 100.53 100.43 98.69 100.47 100.58 100.09 99.94 99.82 99.70 99.73 99.77 99.79 99.86 99.92 99.92 99.89 99.85 99.87 99.80 99.73 99.74 99.75 99.77 99.90 100.08 100.23 100.35 100.46 100.54 100.54 100.61 101.04 101.68 104.62 104.89 105.08 101.41 100.57
105.00 104.56 104.22 103.87 103.52 103.20 102.83 103.15 101.85 101.69 101.31 101.14 100.85 100.89 100.72 100.42 99.01 100.51 100.51 100.10 99.96 99.85 99.79 99.84 99.87 99.90 99.96 99.96 99.96 99.93 99.93 99.94 99.89 99.80 99.86 99.88 99.88 99.92 100.08 100.20 100.29 100.49 100.66 100.75 100.70 100.98 101.10 104.21 104.84 105.02 101.29 100.71
105.02 104.60 104.09 103.70 103.36 103.57 102.89 102.52 101.87 101.72 101.71 101.39 101.25 100.86 100.75 100.54 100.03 100.87 100.53 100.12 99.99 99.93 99.90 99.93 99.93 99.93 99.98 100.00 100.04 100.00 99.99 99.99 99.93 99.90 99.95 99.97 99.97 100.02 100.11 100.23 100.32 100.46 100.64 100.81 100.81 100.96 100.93 103.59 104.77 104.96 101.15 100.82
104.96 104.62 104.07 103.63 103.26 103.13 102.65 102.23 102.01 101.78 101.46 101.43 101.03 100.97 100.93 100.01 100.54 100.85 100.44 100.11 100.02 99.99 99.98 99.99 99.99 99.96 100.00 99.99 100.05 100.06 100.06 100.07 100.02 100.02 100.06 100.06 100.08 100.10 100.17 100.26 100.37 100.47 100.62 100.78 100.87 100.95 100.99 103.41 104.71 104.94 101.26 100.89
105.06 104.68 104.20 103.89 103.40 103.03 102.76 102.11 102.06 101.75 101.47 101.24 101.12 100.92 100.93 98.58 100.50 100.76 100.36 100.17 100.14 100.11 100.08 100.12 100.08 100.07 100.03 100.04 100.07 100.10 100.12 100.17 100.11 100.10 100.14 100.17 100.17 100.16 100.29 100.38 100.44 100.53 100.65 100.79 100.88 101.00 101.11 103.60 104.68 104.83 101.21 100.92
105.14 104.79 104.46 103.88 103.26 103.08 102.80 102.16 102.16 102.04 101.52 101.28 101.13 100.97 100.72 99.93 100.53 100.74 100.34 100.28 100.28 100.20 100.22 100.22 100.21 100.18 100.14 100.14 100.17 100.18 100.21 100.22 100.20 100.20 100.21 100.27 100.24 100.26 100.37 100.46 100.53 100.62 100.76 100.88 100.97 101.02 101.21 104.03 104.65 104.66 101.20 100.95
105.44 104.90 104.61 103.89 103.30 103.20 102.62 102.40 102.56 102.34 101.64 101.34 101.35 101.22 100.70 100.35 100.63 100.74 100.41 100.40 100.33 100.30 100.27 100.31 100.31 100.27 100.23 100.21 100.29 100.29 100.34 100.35 100.29 100.28 100.32 100.37 100.39 100.39 100.46 100.55 100.62 100.72 100.83 100.93 101.05 101.11 101.31 104.22 104.61 104.43 101.22 101.08
104.99 104.86 104.35 103.95 103.25 103.26 102.46 102.28 102.29 102.03 101.78 101.33 101.21 101.21 100.80 100.56 100.95 100.85 100.49 100.46 100.44 100.38 100.38 100.38 100.40 100.35 100.29 100.30 100.36 100.44 100.47 100.49 100.41 100.38 100.42 100.50 100.53 100.54 100.60 100.66 100.71 100.79 100.92 100.99 101.12 101.21 101.39 104.32 104.57 104.13 101.30 101.18
104.93 104.98 104.41 103.94 103.02 102.95 102.51 102.37 102.19 102.01 101.69 101.61 101.39 101.21 101.23 100.46 100.99 101.00 100.61 100.58 100.51 100.46 100.49 100.53 100.53 100.49 100.43 100.43 100.52 100.59 100.66 100.62 100.55 100.54 100.58 100.64 100.68 100.72 100.75 100.76 100.82 100.90 100.99 101.04 101.13 101.25 101.52 104.34 104.54 103.90 101.39 101.34
104.89 104.78 104.49 103.97 102.97 102.88 102.47 102.18 102.37 102.15 101.60 101.55 101.58 101.45 101.25 99.90 101.10 101.15 100.76 100.65 100.60 100.57 100.60 100.67 100.68 100.62 100.63 100.65 100.69 100.78 100.82 100.79 100.72 100.72 100.78 100.80 100.85 100.88 100.90 100.89 100.92 100.99 101.07 101.10 101.14 101.36 101.64 104.28 104.51 103.48 101.48 101.46
105.12 104.57 104.68 103.88 103.24 102.82 102.34 102.18 102.15 102.18 101.86 101.84 101.79 101.66 101.22 99.08 101.26 101.24 100.88 100.81 100.75 100.76 100.80 100.85 100.87 100.85 100.83 100.84 100.89 100.93 100.94 100.89 100.83 100.82 100.90 100.89 100.94 100.99 101.02 101.00 100.98 101.05 101.13 101.17 101.16 101.44 101.62 104.23 104.47 103.17 101.55 101.56
104.85 104.64 104.72 103.83 103.11 102.92 102.65 102.21 102.21 102.08 101.90 101.81 101.83 101.53 101.16 99.15 101.10 101.36 101.19 101.15 101.12 101.01 101.00 101.00 101.02 101.03 101.01 101.01 101.00 101.01 101.01 101.05 101.03 100.97 101.00 101.00 101.01 101.07 101.08 101.03 101.03 101.08 101.15 101.16 101.22 101.40 101.67 104.20 104.42 102.69 101.55 101.59
104.55 104.44 103.90 103.33 102.95 102.53 102.18 101.98 101.87 101.75 101.63 101.48 101.37 101.19 101.25 99.85 100.50 101.32 101.44 101.27 101.45 101.54 101.53 101.48 101.52 101.43 101.34 101.28 101.22 101.19 101.22 101.21 101.17 101.11 101.10 101.09 101.11 101.14 101.14 101.11 101.08 101.15 101.19 101.21 101.23 101.44 101.86 104.17 104.38 102.37 101.64 101.60
104.19 103.85 103.58 103.26 102.94 102.92 102.38 102.26 102.09 101.89 101.86 101.69 101.74 101.52 101.60 99.90 101.26 101.55 101.35 101.33 101.41 101.45 101.47 101.73 101.65 101.46 101.21 101.35 101.47 101.60 101.65 101.67 101.62 101.46 101.34 101.24 101.22 101.22 101.23 101.20 101.23 101.26 101.29 101.35 101.58 101.67 102.12 104.14 104.37 102.21 101.63 101.64
104.90 104.69 103.63 103.54 103.06 102.99 102.62 102.31 102.08 101.97 102.00 102.01 101.78 101.70 101.58 100.76 101.27 101.39 101.37 101.41 101.35 101.33 101.40 101.48 101.48 101.44 101.53 101.38 101.31 101.44 101.55 101.74 101.65 101.40 101.09 101.31 101.54 101.60 101.59 101.70 101.69 101.64 101.63 101.56 101.85 101.72 102.34 104.11 104.33 102.06 101.85 101.75
105.60 104.92 103.59 103.57 102.98 102.95 102.79 102.50 102.48 102.12 102.04 101.96 101.82 101.71 101.78 101.45 100.43 101.42 101.47 101.42 101.38 101.36 101.38 101.42 101.42 101.35 101.31 101.28 101.27 101.31 101.38 101.45 101.46 101.49 101.50 101.52 101.51 101.60 101.76 101.78 101.74 101.56 101.40 101.69 102.02 102.08 102.64 104.06 104.32 102.22 102.21 102.19
105.98 105.27 104.28 103.63 103.13 102.82 102.96 102.77 102.61 102.24 102.04 102.07 102.15 102.10 101.90 100.09 99.38 101.52 101.56 101.56 101.51 101.47 101.51 101.53 101.44 101.37 101.33 101.37 101.37 101.35 101.38 101.46 101.51 101.47 101.46 101.49 101.52 101.59 101.59 101.68 101.67 101.70 101.67 101.68 101.78 102.15 102.83 104.02 104.25 101.68 102.21 102.24
105.78 105.55 104.51 104.42 104.04 103.21 103.18 103.21 103.05 102.92 102.91 102.87 102.72 102.42 101.99 100.98 100.08 101.45 101.61 101.60 101.61 101.60 101.56 101.58 101.60 101.48 101.45 101.42 101.39 101.45 101.46 101.52 101.57 101.54 101.56 101.55 101.56 101.59 101.64 101.67 101.68 101.67 101.68 101.82 101.89 102.15 102.97 104.01 104.22 102.38 102.43 102.28
105.25 104.89 104.44 104.67 104.47 104.52 103.76 103.51 103.29 103.17 103.12 103.11 103.22 102.53 102.14 102.07 101.49 101.32 101.60 101.60 101.64 101.66 101.63 101.59 101.70 101.69 101.64 101.60 101.55 101.59 101.57 101.54 101.56 101.60 101.61 101.62 101.60 101.58 101.63 101.72 101.70 101.72 101.81 102.01 102.09 102.24 103.21 103.97 104.10 102.44 102.43 102.35
105.04 104.73 104.65 104.65 104.36 104.15 103.82 103.53 103.38 103.17 103.03 103.05 103.19 102.91 101.96 100.61 102.13 100.31 101.66 101.68 101.71 101.71 101.72 101.78 101.71 101.77 101.76 101.78 101.71 101.65 101.61 101.64 101.69 101.72 101.71 101.68 101.68 101.70 101.71 101.72 101.72 101.83 101.94 102.07 102.16 102.43 103.43 103.95 103.87 102.41 102.50 102.54
105.20 104.87 104.73 104.50 104.19 103.99 103.78 103.61 103.53 103.13 103.00 102.88 102.70 102.52 101.94 100.57 101.93 99.50 101.66 101.75 101.75 101.77 101.79 101.83 101.81 101.81 101.87 101.93 101.93 101.86 101.77 101.82 101.85 101.81 101.82 101.83 101.81 101.83 101.83 101.82 101.90 101.90 102.03 102.17 102.24 102.44 103.57 103.93 103.43 102.55 102.53 102.49
105.12 105.03 104.66 104.53 104.28 104.19 103.99 103.89 103.89 102.88 102.86 102.91 102.54 101.53 102.35 100.56 101.00 100.43 101.60 101.71 101.74 101.83 101.93 101.90 101.91 101.89 101.93 101.98 102.03 102.06 102.03 102.03 102.08 102.03 102.07 102.04 101.94 101.93 101.96 101.96 101.97 102.04 102.10 102.33 102.31 102.55 103.56 103.89 103.11 102.62 102.64 102.61
105.07 105.08 104.77 104.86 104.33 104.32 104.06 103.90 103.82 102.97 102.93 102.85 102.81 102.78 102.57 100.65 100.59 101.81 101.48 101.73 101.76 101.86 101.93 101.94 101.97 101.99 102.01 102.05 102.12 102.18 102.21 102.24 102.28 102.28 102.28 102.20 102.17 102.15 102.15 102.17 102.14 102.12 102.21 102.31 102.59 102.74 103.58 103.86 103.11 102.71 102.73 102.68
105.33 105.18 104.89 104.92 104.26 104.12 104.07 103.89 103.74 102.82 102.74 102.90 102.91 103.03 102.74 101.29 100.57 102.16 100.07 101.68 101.78 101.89 101.97 102.04 102.03 102.09 102.14 102.22 102.20 102.26 102.29 102.33 102.38 102.42 102.39 102.35 102.37 102.35 102.37 102.39 102.34 102.35 102.24 102.44 102.61 102.69 103.58 103.85 103.01 102.82 102.82 102.78
105.07 105.14 104.95 104.96 104.06 104.00 104.16 103.64 103.93 103.48 102.76 103.04 103.04 103.00 102.94 101.50 100.66 102.03 99.97 101.67 101.80 101.90 101.93 102.06 102.14 102.20 102.27 102.32 102.37 102.39 102.44 102.46 102.51 102.47 102.52 102.51 102.46 102.47 102.49 102.50 102.50 102.47 102.51 102.68 102.71 102.89 103.58 103.82 102.88 102.99 102.92 102.91
105.08 105.00 104.83 104.91 104.07 104.21 104.14 103.72 103.79 103.53 103.47 103.12 103.07 103.00 103.07 102.33 100.63 100.90 100.99 101.63 101.81 101.89 101.92 102.04 102.15 102.27 102.35 102.38 102.42 102.50 102.55 102.53 102.53 102.57 102.56 102.56 102.56 102.51 102.55 102.58 102.59 102.64 102.62 102.79 102.86 102.99 103.59 103.79 103.20 103.12 103.07 103.03
105.05 105.00 104.74 105.07 104.35 104.23 104.10 103.77 103.73 103.44 103.27 103.07 102.90 102.95 102.93 102.82 102.29 102.22 102.24 100.68 101.79 101.94 102.07 102.13 102.26 102.35 102.40 102.47 102.54 102.56 102.55 102.60 102.60 102.65 102.60 102.55 102.57 102.59 102.58 102.60 102.59 102.72 102.75 102.82 102.99 103.06 103.54 103.75 103.32 103.25 103.16 103.17
104.92 104.93 104.68 104.44 104.19 103.97 103.84 103.71 103.56 103.42 103.28 103.10 102.89 103.05 103.18 103.03 101.28 101.18 101.91 100.01 101.75 101.96 102.17 102.27 102.35 102.43 102.54 102.63 102.62 102.62 102.65 102.76 102.74 102.72 102.70 102.67 102.63 102.61 102.60 102.68 102.68 102.71 102.76 102.91 103.07 103.26 103.50 103.67 103.35 103.41 103.31 103.35
104.96 104.93 104.86 104.36 104.27 104.06 103.92 103.79 103.71 103.53 103.56 103.48 103.26 103.14 103.06 103.14 102.13 101.10 101.25 101.29 101.86 102.01 102.01 102.21 102.41 102.46 102.61 102.66 102.71 102.79 102.84 102.83 102.83 102.82 102.77 102.76 102.66 102.62 102.71 102.74 102.78 102.84 102.90 102.96 103.16 103.33 103.48 103.61 103.46 103.55 103.53 103.56
104.78 104.73 104.53 104.28 104.38 104.32 104.04 103.89 103.76 103.70 103.60 103.49 103.15 103.04 103.10 103.03 102.90 102.55 102.36 102.36 101.00 102.19 102.35 102.40 102.51 102.60 102.64 102.68 102.70 102.74 102.74 102.84 102.88 102.84 102.82 102.77 102.79 102.83 102.85 102.90 102.98 102.95 103.02 103.11 103.25 103.43 103.46 103.35 103.54 103.64 103.64 103.71
104.74 104.68 104.59 104.18 104.31 104.27 104.03 104.01 103.68 103.58 103.54 103.51 103.00 103.23 103.22 103.12 103.05 102.58 102.55 102.69 100.32 102.18 102.34 102.42 102.56 102.67 102.75 102.84 102.92 102.90 102.88 102.88 102.87 102.83 102.84 102.80 102.77 102.79 102.82 102.90 102.95 103.01 103.01 103.12 103.28 103.49 103.44 103.37 103.65 103.71 103.71 103.79
104.71 104.64 104.32 104.06 104.10 104.21 104.28 104.23 104.28 103.46 103.46 103.45 103.52 103.32 103.23 103.39 103.24 102.77 102.71 102.10 100.60 102.35 102.51 102.52 102.69 102.81 102.88 102.92 102.99 102.98 103.00 102.98 103.00 102.97 102.99 103.00 102.94 102.97 103.03 103.05 103.04 102.99 103.07 103.35 103.35 103.39 103.43 103.63 103.78 103.75 103.80 103.90
104.79 104.49 104.38 103.99 104.05 104.22 104.21 104.26 104.23 103.62 103.47 103.51 103.46 103.35 103.29 103.36 103.34 103.00 102.90 101.60 101.35 102.53 102.74 102.78 102.89 102.99 103.07 103.14 103.21 103.22 103.25 103.21 103.19 103.19 103.18 103.11 103.05 103.04 103.04 103.06 103.10 103.18 103.32 103.56 103.53 103.19 103.43 103.97 103.94 103.92 103.92 103.99
105.03 104.50 104.18 103.99 104.06 104.12 104.09 104.06 104.21 103.62 103.53 103.49 103.42 103.32 103.13 103.24 103.18 102.96 102.87 101.48 101.79 102.85 102.93 103.01 103.09 103.18 103.26 103.33 103.35 103.41 103.41 103.36 103.39 103.38 103.35 103.26 103.19 103.17 103.17 103.15 103.21 103.31 103.43 103.61 103.75 103.21 103.39 104.09 104.06 104.08 104.04 104.12
105.22 104.57 104.23 104.21 103.99 103.88 103.88 103.77 103.74 103.75 103.74 103.66 103.63 103.42 103.06 103.19 103.25 103.21 103.23 102.77 101.40 102.80 103.12 103.14 103.19 103.28 103.35 103.40 103.43 103.47 103.49 103.47 103.46 103.46 103.46 103.38 103.29 103.26 103.28 103.28 103.32 103.43 103.56 103.74 103.80 103.34 103.33 104.48 104.19 104.15 104.17 104.25
105.45 104.94 104.13 104.14 104.07 104.10 103.70 103.89 103.90 103.87 103.80 103.62 103.67 103.52 103.53 103.36 103.25 103.33 102.89 103.06 100.47 103.10 103.24 103.22 103.26 103.33 103.39 103.47 103.49 103.52 103.56 103.51 103.49 103.51 103.53 103.46 103.38 103.36 103.36 103.40 103.44 103.54 103.69 103.86 103.94 103.39 103.29 104.58 104.30 104.24 104.30 104.38
105.45 105.09 104.16 104.01 104.01 104.03 103.81 103.89 103.85 103.87 103.73 103.48 103.40 103.45 103.47 103.33 103.26 103.49 102.17 103.36 101.06 103.27 103.31 103.29 103.33 103.37 103.46 103.54 103.57 103.61 103.61 103.56 103.55 103.57 103.60 103.53 103.49 103.45 103.46 103.52 103.57 103.60 103.80 103.96 103.98 103.39 103.21 104.69 104.41 104.31 104.43 104.53
105.51 105.25 104.81 104.03 103.94 104.01 103.93 104.07 104.19 104.00 103.75 103.61 103.43 103.49 103.47 103.42 103.29 103.57 101.88 102.84 101.32 103.29 103.34 103.35 103.39 103.47 103.56 103.62 103.66 103.66 103.61 103.61 103.62 103.63 103.69 103.63 103.59 103.56 103.56 103.61 103.65 103.71 103.92 104.09 104.06 103.39 103.15 104.72 104.50 104.44 104.55 104.68
105.49 105.21 104.88 104.49 104.24 104.07 103.99 104.18 104.18 104.12 104.02 103.85 103.53 103.54 103.46 103.71 103.75 103.56 102.11 102.54 101.69 103.40 103.35 103.43 103.52 103.58 103.66 103.74 103.75 103.73 103.68 103.68 103.67 103.74 103.80 103.77 103.72 103.69 103.69 103.74 103.78 103.82 104.08 104.22 104.10 103.38 103.03 104.66 104.63 104.58 104.68 104.79
105.48 105.13 105.04 104.63 104.32 104.20 104.10 104.18 104.13 104.12 104.04 104.03 103.66 103.61 103.67 103.82 103.69 103.48 102.32 102.29 102.03 103.40 103.32 103.52 103.64 103.67 103.75 103.83 103.86 103.85 103.82 103.82 103.82 103.89 103.96 103.96 103.92 103.90 103.92 103.97 103.98 104.05 104.32 104.31 104.02 103.34 102.89 104.82 104.78 104.76 104.88 104.90
105.69 105.22 105.07 104.87 104.43 104.44 104.16 104.18 104.16 104.19 104.21 104.09 103.65 103.62 103.66 103.74 103.74 103.43 102.28 102.31 101.72 103.33 103.33 103.50 103.65 103.75 103.83 103.90 103.94 103.94 103.89 103.94 103.96 104.05 104.15 104.14 104.11 104.10 104.12 104.17 104.19 104.32 104.50 104.23 103.85 103.32 103.21 104.96 104.92 104.94 105.06 105.04
105.74 105.49 105.01 104.85 104.77 104.29 104.14 104.16 104.06 104.07 103.97 103.86 103.82 103.69 103.66 103.73 103.74 103.31 101.97 103.41 100.89 103.38 103.42 103.52 103.65 103.78 103.90 103.98 103.99 103.99 103.96 104.01 104.05 104.18 104.27 104.25 104.24 104.21 104.23 104.27 104.34 104.49 104.62 104.38 103.43 103.30 103.73 105.07 105.05 105.11 105.24 105.15
105.83 105.50 105.24 104.92 104.62 104.35 104.43 104.38 104.07 104.06 103.92 103.94 103.97 104.13 103.79 103.88 103.74 103.49 101.83 103.61 100.64 103.59 103.53 103.57 103.70 103.83 103.94 104.03 104.05 104.06 104.04 104.07 104.14 104.28 104.37 104.35 104.29 104.27 104.28 104.35 104.42 104.58 104.70 104.53 103.22 103.29 104.26 105.17 105.19 105.24 105.35 105.26
105.64 105.53 105.30 105.04 104.92 104.81 104.42 104.49 104.10 104.29 104.18 104.02 104.11 104.28 103.99 103.89 103.89 103.82 101.82 103.82 101.85 103.56 103.68 103.71 103.79 103.90 104.01 104.06 104.13 104.14 104.11 104.16 104.22 104.36 104.45 104.43 104.36 104.32 104.34 104.38 104.47 104.60 104.80 104.70 103.25 103.26 104.79 105.26 105.31 105.38 105.46 105.36
105.61 105.53 105.50 105.17 104.93 104.88 104.36 104.38 104.37 104.39 104.31 104.20 104.03 104.50 104.11 104.15 104.12 104.14 103.92 103.97 103.62 102.29 103.81 103.83 103.89 104.01 104.08 104.14 104.19 104.20 104.21 104.24 104.32 104.46 104.55 104.50 104.43 104.38 104.39 104.43 104.52 104.69 104.97 104.75 103.43 103.27 105.14 105.25 105.40 105.52 105.54 105.43
