ncols 52
nrows 52
xllcorner 439808
yllcorner 5716992
cellsize 10
NODATA_value -9999
82.15 82.39 82.68 82.90 82.74 83.70 83.31 83.79 83.85 83.92 83.96 84.00 84.17 84.32 84.42 84.48 84.54 84.61 84.63 84.71 84.82 84.94 85.06 85.16 85.29 85.41 85.57 85.71 85.78 85.95 86.10 86.49 86.56 86.79 86.88 87.07 87.21 87.46 87.54 87.72 87.85 88.10 88.29 88.46 88.66 88.82 89.01 89.26 89.58 89.71 90.05 90.16
82.07 82.25 82.45 82.67 82.91 83.18 83.21 83.92 83.95 84.08 84.03 84.08 84.12 84.24 84.36 84.43 84.51 84.60 84.68 84.73 84.84 84.95 85.10 85.22 85.35 85.47 85.61 85.74 85.84 85.98 86.31 86.54 86.68 86.81 87.13 87.13 87.39 87.56 87.69 87.86 88.04 88.18 88.39 88.47 88.79 89.06 89.29 89.49 89.65 89.94 90.02 90.07
81.94 82.21 82.44 82.63 82.78 82.95 83.15 83.36 83.57 83.99 84.21 83.94 84.29 84.35 84.35 84.38 84.45 84.60 84.69 84.78 84.86 85.01 85.14 85.29 85.40 85.52 85.70 85.80 86.14 86.31 86.51 86.62 86.75 86.96 87.15 87.26 87.39 87.48 87.79 87.95 88.15 88.24 88.44 88.66 88.92 89.24 89.38 89.63 89.82 89.88 89.99 90.12
81.87 82.13 82.39 82.65 82.87 83.00 83.13 83.26 83.42 83.65 83.82 83.58 84.35 83.94 84.53 84.49 84.49 84.56 84.66 84.81 84.90 85.02 85.16 85.35 85.50 85.68 85.81 86.17 86.23 86.42 86.48 86.68 86.81 87.03 87.14 87.35 87.43 87.66 87.82 88.01 88.18 88.44 88.58 88.79 89.08 89.27 89.59 89.79 89.80 89.88 89.99 90.18
81.81 82.11 82.35 82.64 82.85 83.07 83.29 83.34 83.47 83.67 83.73 83.89 84.09 84.17 84.48 84.61 84.68 84.65 84.72 84.81 84.91 85.05 85.21 85.42 85.65 85.86 86.36 86.32 86.39 86.40 86.66 86.69 86.92 87.05 87.20 87.34 87.50 87.71 87.90 88.08 88.33 88.50 88.79 89.02 89.18 89.46 89.60 89.70 89.83 89.96 90.08 90.28
81.74 82.03 82.34 82.62 82.93 83.07 83.39 83.52 83.68 83.77 83.88 83.97 84.05 84.22 84.28 84.41 84.55 84.82 84.74 84.93 85.01 85.12 85.36 85.58 86.03 86.03 86.18 86.24 86.33 86.55 86.70 86.77 86.94 87.10 87.25 87.47 87.63 87.83 88.05 88.23 88.48 88.70 88.81 89.17 89.37 89.47 89.60 89.76 89.97 90.09 90.26 90.44
81.70 82.10 82.32 82.68 82.97 83.20 83.40 83.60 83.72 83.87 83.96 84.05 84.10 84.20 84.32 84.41 84.50 84.66 84.67 85.12 85.16 85.12 85.43 85.68 85.90 86.06 86.09 86.26 86.36 86.57 86.70 86.99 87.06 87.19 87.37 87.49 87.65 87.94 88.12 88.32 88.54 88.75 89.09 89.32 89.40 89.53 89.67 89.86 90.08 90.27 90.43 90.57
81.78 82.12 82.45 82.70 83.00 83.19 83.40 83.54 83.73 83.84 83.95 84.07 84.21 84.27 84.43 84.55 84.65 84.77 84.85 85.11 85.16 85.47 85.72 85.76 85.89 86.00 86.14 86.28 86.41 86.60 86.75 87.04 87.21 87.33 87.48 87.59 87.89 88.09 88.29 88.52 88.69 89.03 89.16 89.33 89.49 89.67 89.81 90.00 90.22 90.46 90.58 90.76
81.86 82.15 82.45 82.71 82.96 83.23 83.40 83.59 83.72 83.88 84.00 84.13 84.29 84.48 84.67 84.81 84.92 84.98 84.93 85.02 85.25 85.19 85.30 85.82 85.87 86.05 86.24 86.37 86.56 86.67 86.94 87.08 87.25 87.46 87.58 87.78 87.99 88.11 88.35 88.68 88.93 89.05 89.24 89.40 89.64 89.82 89.96 90.17 90.36 90.55 90.75 90.95
81.90 82.16 82.45 82.74 83.01 83.22 83.42 83.60 83.73 83.94 84.08 84.22 84.47 84.57 84.76 84.82 84.93 84.97 85.05 85.13 85.23 85.44 85.38 85.43 85.93 86.00 86.24 86.48 86.65 86.85 86.98 87.18 87.31 87.53 87.72 87.92 88.08 88.28 88.57 88.76 88.96 89.15 89.33 89.54 89.75 89.96 90.16 90.31 90.47 90.69 90.91 91.09
81.96 82.22 82.49 82.76 83.04 83.27 83.53 83.67 83.84 84.04 84.14 84.26 84.35 84.49 84.57 84.74 84.86 84.99 85.10 85.24 85.33 85.44 85.58 85.62 85.55 86.12 86.21 86.56 86.72 86.90 87.07 87.24 87.49 87.65 87.83 88.01 88.23 88.42 88.62 88.86 89.07 89.27 89.45 89.68 89.90 90.08 90.22 90.42 90.62 90.80 90.99 91.21
81.93 82.22 82.54 82.83 83.13 83.36 83.53 83.68 83.83 83.92 84.01 84.12 84.23 84.39 84.51 84.66 84.83 84.97 85.08 85.24 85.34 85.47 85.57 85.78 85.88 85.90 86.41 86.46 86.77 86.97 87.18 87.42 87.58 87.77 87.92 88.24 88.43 88.50 88.74 88.98 89.19 89.39 89.57 89.80 89.98 90.13 90.35 90.56 90.75 90.91 91.12 91.31
81.94 82.28 82.61 82.87 83.14 83.28 83.43 83.51 83.65 83.83 83.97 84.12 84.22 84.36 84.51 84.59 84.77 84.94 85.12 85.29 85.41 85.55 85.66 85.82 86.05 86.14 86.31 86.68 86.79 87.10 87.23 87.45 87.59 87.92 88.14 88.24 88.41 88.64 88.90 89.11 89.29 89.51 89.69 89.86 90.04 90.26 90.48 90.68 90.84 91.03 91.19 91.37
82.02 82.32 82.61 82.87 83.09 83.28 83.42 83.58 83.74 83.93 84.04 84.16 84.23 84.33 84.46 84.61 84.79 84.97 85.15 85.33 85.50 85.62 85.77 85.91 86.03 86.28 86.35 86.71 86.99 87.09 87.29 87.49 87.75 88.07 88.15 88.33 88.52 88.80 89.02 89.22 89.41 89.57 89.72 89.90 90.12 90.33 90.53 90.76 90.95 91.13 91.30 91.42
82.14 82.47 82.79 83.04 83.26 83.43 83.59 83.74 83.89 84.00 84.11 84.19 84.27 84.38 84.51 84.63 84.83 85.01 85.12 85.30 85.49 85.66 85.82 85.97 86.13 86.25 86.51 86.60 86.96 87.25 87.30 87.65 87.92 88.04 88.23 88.41 88.65 88.91 89.12 89.28 89.44 89.62 89.79 90.02 90.19 90.37 90.58 90.79 91.00 91.15 91.29 91.43
82.35 82.65 83.00 83.24 83.42 83.64 83.78 83.82 83.91 84.01 84.12 84.23 84.29 84.42 84.55 84.70 84.87 85.03 85.12 85.33 85.53 85.74 85.89 86.06 86.18 86.31 86.46 86.73 86.87 87.13 87.28 87.65 87.89 88.08 88.30 88.50 88.76 88.99 89.15 89.29 89.46 89.69 89.89 90.07 90.23 90.39 90.58 90.77 90.92 91.06 91.22 91.40
82.49 82.76 83.04 83.33 83.54 83.72 83.85 83.94 83.99 84.05 84.15 84.25 84.35 84.47 84.60 84.70 84.87 85.07 85.22 85.36 85.58 85.79 86.00 86.18 86.37 86.51 86.60 86.76 86.85 87.11 87.30 87.74 87.95 88.22 88.34 88.55 88.80 88.96 89.09 89.29 89.50 89.74 89.92 90.11 90.28 90.42 90.53 90.65 90.79 90.97 91.11 91.25
82.58 82.83 83.11 83.45 83.63 83.83 83.96 83.99 84.05 84.10 84.17 84.28 84.35 84.49 84.62 84.76 84.93 85.08 85.26 85.41 85.71 85.93 86.13 86.28 86.49 86.60 86.68 86.82 87.03 87.13 87.33 87.75 87.93 88.18 88.39 88.58 88.76 88.95 89.13 89.33 89.54 89.72 89.93 90.11 90.27 90.38 90.48 90.58 90.72 90.86 91.00 91.18
82.66 82.94 83.21 83.50 83.68 83.83 84.00 84.10 84.12 84.12 84.17 84.29 84.39 84.54 84.64 84.79 84.93 85.21 85.43 85.57 85.83 86.05 86.22 86.29 86.56 86.76 86.85 86.88 87.15 87.24 87.39 87.45 88.01 88.17 88.37 88.56 88.78 89.00 89.19 89.38 89.58 89.75 89.95 90.12 90.21 90.35 90.46 90.60 90.71 90.86 91.01 91.20
82.71 82.98 83.23 83.46 83.72 83.88 84.02 84.11 84.15 84.18 84.25 84.32 84.44 84.55 84.72 84.92 85.04 85.28 85.51 85.75 85.79 86.02 86.28 86.43 86.59 86.75 86.95 87.01 87.24 87.33 87.58 87.35 87.40 88.18 88.35 88.53 88.82 89.10 89.26 89.45 89.62 89.81 89.99 90.10 90.22 90.37 90.50 90.63 90.78 90.93 91.06 91.18
82.68 82.97 83.23 83.45 83.68 83.84 84.02 84.17 84.22 84.22 84.28 84.35 84.57 84.72 84.82 84.94 85.16 85.23 85.43 85.74 85.94 86.09 86.26 86.45 86.64 86.82 86.99 87.11 87.25 87.52 87.65 87.88 87.51 87.78 88.33 88.56 88.98 89.14 89.34 89.51 89.68 89.86 89.98 90.12 90.24 90.41 90.54 90.71 90.85 90.96 91.07 91.18
82.61 82.88 83.14 83.37 83.63 83.84 84.00 84.19 84.22 84.34 84.41 84.46 84.63 84.77 84.84 84.86 85.13 85.36 85.53 85.72 85.93 86.14 86.32 86.50 86.71 86.87 87.03 87.18 87.36 87.54 87.79 87.88 88.07 87.94 88.62 88.63 88.91 89.20 89.36 89.55 89.68 89.85 90.02 90.16 90.29 90.44 90.60 90.73 90.83 90.93 91.04 91.14
82.50 82.81 83.06 83.27 83.51 83.76 84.02 84.22 84.34 84.36 84.47 84.60 84.54 84.73 84.88 85.03 85.16 85.36 85.57 85.76 85.97 86.19 86.38 86.54 86.71 86.90 87.08 87.22 87.43 87.62 87.82 87.99 88.18 88.36 88.33 88.87 88.94 89.18 89.39 89.53 89.74 89.90 90.06 90.18 90.33 90.48 90.60 90.70 90.81 90.89 91.00 91.10
82.36 82.68 82.96 83.17 83.45 83.73 83.93 84.15 84.36 84.32 84.40 84.57 84.70 84.80 84.90 85.04 85.17 85.40 85.59 85.81 86.01 86.20 86.43 86.61 86.79 86.95 87.14 87.34 87.51 87.71 87.89 88.04 88.21 88.43 88.55 88.53 89.01 89.12 89.40 89.53 89.74 89.89 90.04 90.19 90.33 90.46 90.58 90.66 90.76 90.88 90.98 91.09
82.16 82.54 82.85 83.14 83.42 83.70 83.92 83.97 84.26 84.42 84.50 84.57 84.67 84.82 84.93 85.06 85.21 85.40 85.64 85.87 86.07 86.28 86.47 86.68 86.88 87.05 87.24 87.42 87.64 87.82 88.01 88.11 88.39 88.46 88.74 88.53 88.64 89.15 89.31 89.57 89.67 89.85 90.02 90.16 90.29 90.43 90.54 90.64 90.75 90.84 90.98 91.12
82.04 82.35 82.72 83.08 83.28 83.59 83.77 83.95 84.13 84.31 84.45 84.56 84.68 84.83 84.97 85.11 85.26 85.43 85.67 85.90 86.15 86.36 86.57 86.78 86.97 87.17 87.35 87.55 87.70 87.86 88.02 88.21 88.37 88.57 88.74 88.92 89.07 89.28 89.27 89.46 89.69 89.82 90.00 90.14 90.27 90.41 90.52 90.61 90.72 90.85 90.99 91.05
81.96 82.19 82.53 82.85 83.10 83.25 83.42 83.66 83.92 84.18 84.38 84.55 84.70 84.86 85.02 85.18 85.32 85.52 85.74 86.01 86.25 86.45 86.67 86.87 87.06 87.27 87.42 87.57 87.68 87.82 88.02 88.25 88.40 88.58 88.76 88.92 89.06 89.29 89.46 89.52 89.69 89.87 89.97 90.11 90.24 90.38 90.49 90.60 90.71 90.88 90.96 90.99
81.79 81.99 82.21 82.40 82.65 82.88 83.11 83.37 83.69 84.02 84.31 84.51 84.69 84.93 85.08 85.27 85.44 85.66 85.88 86.09 86.32 86.53 86.74 86.88 87.04 87.24 87.33 87.48 87.66 87.82 88.05 88.24 88.39 88.54 88.70 88.85 89.13 89.08 89.12 89.65 89.74 89.93 89.95 90.08 90.21 90.33 90.44 90.59 90.68 90.95 90.90 90.91
81.42 81.57 81.80 82.02 82.26 82.49 82.76 83.06 83.41 83.82 84.15 84.47 84.73 84.97 85.20 85.40 85.58 85.77 85.95 86.18 86.35 86.49 86.67 86.80 86.97 87.13 87.29 87.45 87.62 87.84 88.06 88.24 88.41 88.57 88.68 88.91 89.13 89.35 89.56 89.84 89.80 89.85 90.02 90.04 90.18 90.32 90.49 90.55 90.71 90.79 90.75 90.85
81.16 81.31 81.49 81.68 81.88 82.12 82.38 82.71 83.12 83.55 84.02 84.42 84.74 85.02 85.27 85.46 85.60 85.76 85.93 86.07 86.25 86.39 86.58 86.77 86.89 87.06 87.26 87.44 87.64 87.82 88.04 88.28 88.44 88.62 88.77 88.92 89.20 89.34 89.42 89.77 89.89 89.86 89.97 90.06 90.17 90.33 90.46 90.52 90.53 90.63 90.71 90.82
81.02 81.12 81.25 81.37 81.55 81.79 82.05 82.38 82.84 83.37 83.90 84.30 84.66 84.93 85.16 85.34 85.49 85.68 85.82 86.01 86.16 86.35 86.54 86.71 86.86 87.07 87.25 87.45 87.65 87.84 88.08 88.31 88.49 88.67 88.82 88.96 89.08 89.20 89.39 89.36 89.72 89.89 89.97 90.09 90.14 90.28 90.31 90.39 90.49 90.58 90.69 90.78
81.02 81.06 81.11 81.21 81.35 81.54 81.74 82.07 82.52 83.15 83.67 84.10 84.44 84.72 84.97 85.20 85.43 85.62 85.81 85.97 86.14 86.35 86.52 86.66 86.89 87.06 87.27 87.46 87.66 87.90 88.14 88.33 88.52 88.63 88.74 88.81 88.93 89.09 89.24 89.42 89.34 89.41 89.96 90.03 90.14 90.18 90.24 90.36 90.46 90.59 90.69 90.77
81.06 81.04 81.09 81.15 81.26 81.40 81.55 81.87 82.30 82.85 83.42 83.84 84.25 84.57 84.90 85.17 85.40 85.59 85.77 85.97 86.17 86.32 86.50 86.68 86.86 87.10 87.29 87.46 87.68 87.89 88.05 88.20 88.32 88.48 88.61 88.72 88.83 88.97 89.17 89.39 89.47 89.76 89.90 90.04 90.01 90.04 90.24 90.36 90.47 90.57 90.66 90.73
81.08 81.06 81.13 81.18 81.25 81.36 81.56 81.78 82.12 82.62 83.17 83.69 84.13 84.50 84.84 85.11 85.37 85.58 85.76 85.94 86.15 86.32 86.51 86.70 86.89 87.15 87.29 87.46 87.60 87.72 87.88 88.05 88.20 88.36 88.50 88.67 88.79 88.93 89.10 89.33 89.46 89.50 89.76 90.13 90.00 90.06 90.21 90.33 90.43 90.57 90.64 90.69
81.11 81.10 81.14 81.20 81.30 81.40 81.57 81.81 82.08 82.51 83.07 83.64 84.08 84.47 84.82 85.10 85.36 85.58 85.76 85.93 86.12 86.35 86.52 86.70 86.86 87.00 87.14 87.28 87.43 87.62 87.80 87.96 88.14 88.27 88.45 88.59 88.72 88.86 89.01 89.20 89.38 89.54 89.33 89.50 90.16 90.06 90.22 90.32 90.43 90.49 90.54 90.61
81.15 81.09 81.15 81.21 81.33 81.45 81.58 81.83 82.09 82.51 83.07 83.64 84.10 84.47 84.80 85.06 85.35 85.56 85.75 85.95 86.16 86.33 86.44 86.54 86.67 86.82 87.02 87.17 87.32 87.51 87.72 87.93 88.07 88.21 88.36 88.51 88.64 88.82 88.95 89.12 89.29 89.41 89.53 89.53 89.71 90.16 90.15 90.27 90.32 90.39 90.49 90.59
81.17 81.17 81.22 81.23 81.32 81.47 81.65 81.85 82.13 82.58 83.09 83.68 84.14 84.48 84.80 85.06 85.29 85.55 85.72 85.87 85.98 86.07 86.21 86.39 86.56 86.72 86.89 87.09 87.27 87.46 87.65 87.82 87.98 88.12 88.29 88.46 88.59 88.71 88.89 89.02 89.18 89.39 89.45 89.46 89.64 90.25 90.17 90.15 90.23 90.35 90.43 90.51
81.21 81.20 81.21 81.22 81.30 81.45 81.62 81.78 82.15 82.60 83.12 83.66 84.10 84.51 84.80 85.00 85.18 85.31 85.47 85.58 85.74 85.92 86.10 86.26 86.46 86.63 86.85 87.04 87.23 87.43 87.56 87.74 87.93 88.08 88.24 88.36 88.51 88.65 88.78 88.92 89.07 89.23 89.40 89.47 89.51 89.46 90.28 90.11 90.15 90.24 90.35 90.45
81.20 81.19 81.17 81.18 81.25 81.36 81.53 81.82 82.16 82.55 83.06 83.60 84.10 84.42 84.58 84.71 84.86 85.06 85.24 85.39 85.55 85.77 85.97 86.21 86.40 86.60 86.77 86.96 87.15 87.36 87.53 87.67 87.86 88.01 88.15 88.27 88.42 88.58 88.70 88.85 88.99 89.13 89.31 89.50 89.58 88.96 88.83 90.16 90.08 90.21 90.27 90.35
81.18 81.16 81.13 81.15 81.19 81.33 81.56 81.81 82.12 82.53 82.92 83.35 83.74 83.98 84.19 84.37 84.57 84.81 85.04 85.27 85.47 85.71 85.91 86.11 86.32 86.54 86.72 86.92 87.09 87.29 87.49 87.62 87.78 87.91 88.03 88.18 88.34 88.47 88.61 88.76 88.91 89.11 89.29 89.49 89.57 89.66 89.27 89.79 90.07 90.07 90.18 90.28
81.12 81.20 81.10 81.17 81.29 81.42 81.61 81.81 82.06 82.30 82.59 82.94 83.28 83.60 83.86 84.07 84.35 84.60 84.88 85.15 85.39 85.61 85.82 86.05 86.27 86.50 86.67 86.85 87.05 87.25 87.39 87.55 87.68 87.83 87.95 88.11 88.23 88.39 88.55 88.72 88.91 89.08 89.28 89.39 89.52 89.58 89.67 89.23 90.08 90.06 90.10 90.20
81.11 81.17 81.24 81.30 81.42 81.50 81.58 81.68 81.84 82.09 82.36 82.62 82.90 83.25 83.56 83.86 84.14 84.44 84.72 85.02 85.27 85.51 85.74 86.00 86.20 86.42 86.62 86.79 86.98 87.17 87.32 87.48 87.61 87.74 87.91 88.00 88.14 88.30 88.49 88.69 88.87 89.03 89.18 89.31 89.46 89.54 89.67 89.51 89.04 90.07 89.99 90.12
81.22 81.21 81.35 81.35 81.35 81.39 81.47 81.61 81.81 82.01 82.20 82.43 82.71 83.01 83.32 83.62 83.93 84.21 84.53 84.85 85.15 85.36 85.62 85.86 86.09 86.32 86.54 86.74 86.93 87.06 87.24 87.40 87.53 87.65 87.80 87.98 88.12 88.30 88.46 88.61 88.76 88.92 89.07 89.26 89.36 89.50 89.53 89.63 88.70 88.50 89.99 89.96
81.31 81.26 81.21 81.23 81.24 81.29 81.42 81.59 81.80 81.98 82.15 82.35 82.56 82.82 83.09 83.35 83.74 84.05 84.33 84.63 84.94 85.22 85.49 85.71 85.99 86.23 86.44 86.66 86.82 86.98 87.13 87.31 87.46 87.60 87.75 87.92 88.08 88.20 88.36 88.50 88.67 88.80 88.95 89.13 89.22 89.32 89.47 89.52 89.58 88.92 89.79 89.76
81.19 81.21 81.16 81.21 81.26 81.28 81.37 81.55 81.77 81.93 82.09 82.27 82.43 82.65 82.85 83.19 83.49 83.81 84.14 84.41 84.76 85.10 85.36 85.61 85.86 86.11 86.32 86.49 86.69 86.84 87.03 87.24 87.39 87.54 87.65 87.76 87.96 88.08 88.22 88.38 88.53 88.68 88.78 88.91 89.09 89.24 89.35 89.41 89.49 89.49 88.84 89.55
81.19 81.21 81.18 81.21 81.26 81.28 81.34 81.48 81.69 81.88 81.99 82.14 82.31 82.45 82.71 82.96 83.27 83.58 83.92 84.24 84.59 84.92 85.23 85.47 85.72 85.94 86.15 86.37 86.55 86.76 86.98 87.14 87.25 87.34 87.47 87.64 87.75 87.88 88.02 88.14 88.32 88.48 88.62 88.76 88.91 89.07 89.19 89.30 89.38 89.34 88.49 88.41
81.25 81.25 81.25 81.22 81.21 81.28 81.35 81.41 81.64 81.82 81.92 82.03 82.17 82.35 82.56 82.80 83.09 83.39 83.74 84.07 84.41 84.72 85.03 85.31 85.53 85.75 86.03 86.23 86.46 86.64 86.79 86.90 86.99 87.11 87.26 87.37 87.49 87.65 87.69 87.88 88.02 88.25 88.41 88.51 88.70 88.86 88.99 89.13 89.27 89.13 89.07 88.35
80.75 81.32 81.26 81.22 81.24 81.30 81.29 81.40 81.57 81.74 81.85 81.95 82.08 82.26 82.44 82.67 82.91 83.20 83.55 83.86 84.17 84.47 84.79 85.14 85.38 85.68 85.90 86.08 86.26 86.39 86.48 86.61 86.69 86.82 86.90 87.01 87.15 87.26 87.35 87.51 87.69 87.87 88.07 88.29 88.49 88.68 88.79 88.92 88.96 88.94 88.89 88.50
81.35 81.26 81.32 81.27 81.26 81.29 81.35 81.41 81.51 81.64 81.78 81.90 82.04 82.18 82.37 82.55 82.76 83.02 83.31 83.63 83.95 84.24 84.60 84.98 85.28 85.51 85.69 85.84 85.97 86.05 86.12 86.21 86.34 86.42 86.56 86.68 86.79 87.03 87.11 87.29 87.43 87.60 87.78 88.03 88.27 88.47 88.59 88.67 88.77 88.82 88.92 87.97
81.32 79.90 81.42 81.32 81.34 81.32 81.39 81.43 81.48 81.58 81.72 81.86 82.01 82.16 82.32 82.48 82.66 82.87 83.11 83.40 83.73 84.10 84.45 84.80 85.10 85.27 85.40 85.52 85.58 85.68 85.75 85.87 86.08 86.22 86.36 86.42 86.18 85.88 85.61 86.40 86.99 87.43 87.76 87.98 88.26 88.43 88.53 88.61 88.73 87.76 88.08 88.22
81.40 81.71 81.33 81.36 81.35 81.35 81.37 81.40 81.42 81.48 81.65 81.80 81.96 82.12 82.26 82.42 82.56 82.76 82.98 83.24 83.62 83.99 84.25 84.51 84.78 84.94 85.10 85.15 85.21 85.34 85.45 84.81 83.97 84.00 84.14 84.26 84.49 84.75 84.92 85.18 85.50 85.87 85.96 86.47 86.97 87.46 88.25 87.07 87.94 87.85 87.88 87.98
81.35 81.53 80.21 81.37 81.34 81.37 81.38 81.32 81.43 81.44 81.55 81.74 81.93 82.07 82.22 82.36 82.51 82.68 82.90 83.15 83.46 83.74 83.99 84.19 84.42 84.61 84.72 84.87 84.96 83.40 83.40 83.51 83.66 83.85 84.01 84.17 84.39 84.70 84.97 85.20 85.57 85.88 85.85 86.43 87.38 87.67 87.78 87.68 87.73 87.79 87.84 87.82
