ncols 52
nrows 52
xllcorner 439808
yllcorner 5717504
cellsize 10
NODATA_value -9999
82.26 82.28 82.33 82.36 82.50 82.65 82.75 82.86 83.01 83.00 83.11 83.19 83.30 83.46 83.51 83.59 83.68 83.75 83.83 83.94 83.97 83.88 83.76 83.68 83.60 83.42 83.43 83.38 83.29 83.11 83.15 83.47 83.53 83.50 83.56 83.68 83.49 83.50 83.55 83.64 83.66 83.70 83.76 83.82 83.88 83.94 84.01 84.04 84.10 84.31 84.53 84.60
82.29 82.31 82.35 82.39 82.50 82.64 82.69 82.83 83.06 83.01 83.11 83.23 83.34 83.49 83.53 83.62 83.69 83.79 83.87 83.92 83.99 83.86 83.74 83.65 83.55 83.51 83.44 83.38 83.29 83.11 83.16 83.57 83.76 83.57 83.56 83.68 83.60 83.68 83.78 83.85 83.96 84.02 84.03 84.18 84.24 84.29 84.14 83.70 84.26 84.39 84.48 84.55
82.30 82.32 82.34 82.40 82.49 82.62 82.74 82.86 83.07 83.07 83.13 83.25 83.35 83.49 83.61 83.65 83.72 83.82 83.89 83.93 83.96 83.85 83.72 83.62 83.53 83.52 83.40 83.41 83.39 83.21 83.20 82.99 83.65 83.87 83.58 83.78 83.96 84.03 84.07 84.18 83.78 83.47 84.02 84.14 84.19 84.22 84.24 84.22 84.27 84.40 84.43 84.60
82.29 82.36 82.32 82.38 82.41 82.52 82.68 82.86 83.09 83.10 83.15 83.26 83.36 83.48 83.64 83.65 83.76 83.87 83.93 83.93 83.92 83.84 83.71 83.56 83.48 83.52 83.46 83.57 83.55 83.44 83.25 83.33 83.44 83.57 83.13 83.16 84.08 83.90 83.93 84.04 84.08 84.19 84.19 84.20 84.32 84.26 84.36 84.35 84.29 84.47 84.56 84.71
82.24 82.36 82.40 82.42 82.49 82.60 82.74 82.79 83.03 83.21 83.17 83.26 83.37 83.49 83.65 83.67 83.76 83.85 83.85 83.90 83.89 83.91 83.84 83.78 83.75 83.66 83.65 83.56 83.39 83.38 83.31 83.37 83.45 83.57 83.65 83.85 84.08 83.85 84.09 84.08 84.07 84.25 84.27 84.21 84.35 84.44 84.54 84.54 84.59 84.60 84.78 84.90
82.20 82.32 82.42 82.44 82.50 82.59 82.68 82.79 82.98 83.22 83.22 83.25 83.35 83.42 83.59 83.73 83.85 83.94 84.04 84.13 84.05 84.04 83.93 83.79 83.47 83.50 83.62 83.57 83.46 83.64 83.49 83.43 83.55 83.59 83.74 83.80 83.90 84.26 84.04 84.17 84.26 84.25 84.41 84.40 84.44 84.54 84.65 84.78 84.78 84.80 84.95 85.08
82.23 82.32 82.41 82.46 82.46 82.54 82.66 82.85 82.96 83.24 83.31 83.36 83.50 83.64 83.76 83.85 83.97 83.97 84.02 83.93 83.96 83.66 83.89 83.73 83.65 83.65 83.68 83.66 83.50 83.63 83.58 83.50 83.52 83.77 83.81 83.98 84.14 84.19 84.32 84.38 84.44 84.43 84.51 84.54 84.62 84.67 84.72 84.82 85.04 85.02 85.07 85.29
82.34 82.43 82.56 82.65 82.70 82.79 82.96 83.15 83.21 83.37 83.51 83.61 83.58 83.70 83.77 83.84 83.90 83.91 83.87 83.85 83.94 83.95 83.94 83.81 83.69 83.61 83.67 83.68 83.54 83.68 83.58 83.55 83.61 83.82 83.93 84.03 84.14 84.26 84.50 83.98 84.64 84.56 84.64 84.71 84.73 84.74 84.86 84.98 85.09 85.28 85.35 85.43
82.68 82.75 82.76 82.77 82.81 82.82 82.76 82.80 83.00 83.32 83.49 83.43 83.54 83.59 83.69 83.73 83.79 83.82 83.83 83.81 83.86 83.94 83.91 83.84 83.76 83.69 83.67 83.68 83.61 83.58 83.62 83.68 83.74 83.87 84.12 84.38 84.43 84.51 84.58 84.67 84.61 84.77 84.71 84.75 84.87 84.86 84.93 85.13 85.24 85.47 85.54 85.72
82.45 82.56 82.65 82.75 82.82 83.07 83.22 83.26 83.22 83.32 83.47 83.42 83.47 83.59 83.66 83.74 83.78 83.82 83.80 83.77 83.81 83.88 83.87 83.75 83.65 83.61 83.69 83.65 83.63 83.78 83.85 83.83 83.85 83.99 84.09 84.22 84.31 84.47 84.51 84.68 84.81 84.71 84.89 84.92 84.90 85.08 85.10 85.26 85.38 85.60 85.82 85.90
82.43 82.48 82.65 82.77 83.00 83.02 83.01 83.18 83.29 83.38 83.42 83.42 83.46 83.55 83.62 83.69 83.72 83.76 83.78 83.79 83.79 83.90 83.75 83.69 83.95 83.96 84.01 83.96 83.94 83.91 83.92 83.83 83.88 83.91 84.08 84.22 84.35 84.40 84.53 84.70 84.82 84.75 85.00 85.02 85.08 85.21 85.29 85.43 85.51 85.68 85.81 86.12
82.65 82.68 82.72 82.69 82.75 83.00 83.08 83.06 83.18 83.38 83.45 83.46 83.46 83.51 83.62 83.69 83.76 83.77 83.81 83.85 83.89 83.96 83.90 83.79 83.87 83.89 83.93 83.90 83.94 84.01 84.01 83.99 84.01 84.02 84.15 84.30 84.42 84.50 84.61 84.71 84.86 84.99 84.45 85.20 85.19 85.27 85.39 85.54 85.58 85.82 86.00 86.17
82.55 82.76 82.78 82.93 82.89 82.85 82.98 82.79 82.78 83.09 83.39 83.44 83.49 83.56 83.67 83.73 83.76 83.82 83.87 83.89 83.83 83.85 83.76 83.76 83.85 83.94 83.93 84.01 84.04 84.10 84.12 84.15 84.12 84.13 84.21 84.37 84.47 84.61 84.68 84.75 84.86 85.04 85.26 85.11 85.36 85.39 85.42 85.65 85.74 85.88 86.09 86.29
82.54 82.60 82.28 82.06 82.66 82.69 82.96 83.03 83.22 83.69 83.20 83.39 83.48 83.56 83.65 83.69 83.75 83.80 83.85 83.83 83.86 83.85 83.76 83.82 83.91 84.00 84.05 84.06 84.11 84.16 84.20 84.22 84.23 84.22 84.27 84.39 84.58 84.65 84.74 84.79 84.87 84.99 85.21 85.42 85.37 85.53 85.60 85.72 85.90 85.99 86.20 86.35
81.82 82.15 82.62 82.88 82.84 82.99 83.12 83.22 83.33 83.54 83.19 83.36 83.48 83.54 83.60 83.68 83.76 83.81 83.84 83.87 83.89 83.85 83.83 83.88 83.99 84.03 84.08 84.11 84.18 84.22 84.28 84.30 84.33 84.29 84.32 84.46 84.57 84.69 84.81 84.90 84.96 84.99 85.25 85.46 85.21 85.70 85.71 85.84 85.98 86.12 86.24 86.47
82.85 82.54 82.69 82.77 82.87 83.00 83.11 83.20 83.34 83.47 83.29 83.40 83.51 83.56 83.62 83.71 83.77 83.79 83.85 83.87 83.89 83.89 83.85 83.93 84.01 84.12 84.13 84.19 84.23 84.26 84.32 84.36 84.41 84.40 84.40 84.49 84.62 84.78 84.89 84.97 85.00 85.06 85.20 85.50 85.70 85.29 85.87 85.89 85.97 86.19 86.33 86.42
82.72 82.51 82.74 82.77 82.85 82.99 83.15 83.25 83.39 82.48 83.29 83.43 83.47 83.58 83.64 83.71 83.74 83.85 83.85 83.89 83.93 83.91 83.88 83.95 84.04 84.13 84.18 84.22 84.25 84.33 84.38 84.43 84.50 84.49 84.46 84.47 84.60 84.73 84.85 84.92 85.04 85.07 85.21 85.38 85.71 85.97 85.77 85.98 86.06 86.12 86.41 86.53
82.55 82.36 82.78 82.81 82.89 82.98 83.10 83.28 83.45 82.96 83.24 83.39 83.50 83.61 83.68 83.72 83.81 83.81 83.88 83.93 83.92 83.91 83.89 83.97 84.07 84.17 84.26 84.24 84.29 84.34 84.40 84.41 84.47 84.47 84.48 84.49 84.56 84.67 84.84 84.93 85.03 85.13 85.19 85.38 85.54 85.68 86.01 86.00 86.15 86.27 86.40 86.59
82.61 82.45 82.85 82.82 82.94 83.02 83.05 83.13 83.40 82.78 83.13 83.34 83.48 83.58 83.67 83.70 83.77 83.84 83.86 83.91 83.92 83.90 83.91 84.01 84.07 84.18 84.23 84.25 84.25 84.35 84.38 84.43 84.50 84.54 84.55 84.55 84.56 84.71 84.83 84.96 85.08 85.13 85.20 85.32 85.49 85.73 86.06 85.48 86.36 86.32 86.54 86.67
82.52 82.49 82.44 82.76 82.94 83.08 83.16 83.15 82.87 82.82 83.07 83.28 83.43 83.55 83.62 83.70 83.75 83.83 83.85 83.90 83.86 83.87 83.86 83.99 84.09 84.19 84.23 84.29 84.35 84.38 84.39 84.49 84.52 84.57 84.58 84.59 84.60 84.70 84.86 84.99 85.06 85.12 85.25 85.35 85.52 85.63 85.93 86.32 86.12 86.52 86.56 86.72
82.51 82.49 81.59 81.99 82.11 82.79 82.92 82.76 82.46 82.83 83.04 83.29 83.43 83.53 83.61 83.68 83.79 83.84 83.90 83.92 83.94 83.89 83.93 84.04 84.14 84.22 84.31 84.35 84.38 84.38 84.46 84.49 84.58 84.57 84.63 84.61 84.61 84.74 84.89 84.98 85.06 85.18 85.32 85.41 85.54 85.74 85.83 86.10 86.49 86.43 86.63 86.80
81.31 80.80 82.71 82.91 82.26 82.86 82.79 82.50 82.26 83.01 83.22 83.33 83.49 83.60 83.65 83.76 83.83 83.93 83.99 84.04 84.05 83.99 84.00 84.07 84.17 84.28 84.32 84.35 84.38 84.43 84.43 84.50 84.54 84.61 84.64 84.68 84.69 84.81 84.90 85.04 85.11 85.23 85.35 85.45 85.58 85.71 85.85 85.99 86.32 86.58 86.71 86.87
82.68 82.79 82.94 83.21 82.70 82.44 82.17 82.33 83.15 83.21 83.28 83.42 83.51 83.62 83.68 83.77 83.84 83.95 83.99 84.10 84.07 84.05 84.00 84.04 84.16 84.24 84.29 84.31 84.36 84.40 84.42 84.50 84.55 84.59 84.67 84.72 84.78 84.86 85.00 85.07 85.17 85.27 85.40 85.50 85.64 85.76 85.87 85.99 86.22 86.61 86.09 87.02
83.05 83.18 83.34 83.35 82.99 81.49 81.89 82.52 83.14 83.25 83.34 83.42 83.54 83.61 83.70 83.76 83.86 83.94 84.06 84.11 84.13 84.07 83.98 84.03 84.11 84.17 84.28 84.32 84.38 84.39 84.48 84.53 84.60 84.68 84.72 84.77 84.82 84.93 85.05 85.12 85.23 85.35 85.46 85.57 85.71 85.84 85.93 86.12 86.24 86.51 86.97 86.96
83.11 83.09 83.21 83.45 83.12 81.94 82.43 82.99 83.21 83.28 83.36 83.42 83.52 83.63 83.71 83.82 83.92 83.96 84.07 84.12 84.10 84.04 83.94 83.95 84.08 84.20 84.29 84.35 84.41 84.48 84.51 84.58 84.64 84.72 84.74 84.85 84.93 85.05 85.11 85.22 85.30 85.40 85.50 85.64 85.78 85.91 86.02 86.18 86.34 86.50 86.83 87.23
83.29 83.43 83.29 83.37 83.20 82.71 82.82 83.12 83.21 83.26 83.38 83.45 83.58 83.66 83.73 83.85 83.91 83.97 84.09 84.09 84.02 83.99 83.92 84.07 84.04 84.24 84.29 84.40 84.46 84.51 84.57 84.62 84.68 84.72 84.75 84.88 84.98 85.10 85.20 85.26 85.37 85.44 85.59 85.69 85.83 85.97 86.10 86.25 86.40 86.60 86.80 87.21
83.27 83.15 83.15 83.17 82.88 82.83 82.99 83.26 83.20 83.28 83.38 83.49 83.60 83.70 83.76 83.87 83.92 84.01 84.05 84.12 84.11 84.01 83.95 83.97 84.11 84.26 84.33 84.42 84.49 84.54 84.57 84.62 84.67 84.72 84.82 84.92 85.01 85.16 85.24 85.33 85.41 85.53 85.62 85.74 85.86 86.01 86.15 86.30 86.46 86.61 86.84 87.11
83.29 83.12 83.10 83.12 82.96 82.51 83.14 83.28 83.37 83.41 83.48 83.58 83.67 83.77 83.82 83.90 83.99 83.99 84.03 83.97 84.07 83.74 83.89 83.96 84.12 84.24 84.36 84.44 84.48 84.53 84.57 84.62 84.68 84.76 84.83 84.95 85.06 85.20 85.26 85.38 85.43 85.55 85.66 85.80 85.94 86.09 86.24 86.37 86.53 86.68 86.85 87.03
82.97 83.08 82.98 82.82 82.80 82.53 83.38 83.42 83.42 83.43 83.51 83.60 83.66 83.72 83.76 83.86 83.82 83.46 83.62 83.90 84.18 84.17 84.03 83.99 84.12 84.26 84.35 84.42 84.49 84.48 84.53 84.64 84.69 84.75 84.85 84.93 85.07 85.22 85.35 85.42 85.52 85.60 85.73 85.85 85.99 86.13 86.25 86.44 86.59 86.74 86.92 87.10
82.61 82.53 82.89 83.01 83.01 82.82 83.48 83.32 83.01 83.27 83.50 83.70 83.89 83.89 83.99 83.92 83.85 83.85 83.92 83.92 84.03 84.05 84.12 83.98 84.18 84.22 84.36 84.40 84.46 84.50 84.58 84.67 84.73 84.82 84.89 84.97 85.10 85.24 85.36 85.42 85.53 85.65 85.75 85.87 86.01 86.15 86.35 86.51 86.71 86.90 87.08 87.30
82.37 82.92 83.06 83.15 83.13 83.01 83.47 83.54 83.54 83.48 83.56 83.60 83.65 83.77 83.84 83.97 84.04 84.04 84.08 84.14 84.16 84.05 84.00 83.97 84.16 84.26 84.32 84.37 84.48 84.54 84.64 84.74 84.80 84.88 84.93 85.02 85.13 85.22 85.31 85.37 85.53 85.64 85.78 85.92 86.12 86.30 86.50 86.65 86.86 87.06 87.22 87.38
82.87 83.04 83.17 83.30 83.24 83.16 83.59 83.69 83.70 83.67 83.69 83.65 83.39 83.74 83.81 83.77 83.90 83.90 83.99 84.10 84.22 84.24 84.15 83.92 84.14 84.25 84.30 84.43 84.53 84.60 84.68 84.75 84.80 84.90 85.00 85.02 85.08 85.18 85.21 85.33 85.50 85.65 85.81 86.03 86.21 86.39 86.52 86.67 86.85 87.01 87.19 87.35
82.92 83.15 83.23 83.37 83.36 83.26 83.61 83.78 83.86 83.93 83.94 83.90 83.92 83.93 83.92 83.88 83.89 83.95 84.01 84.17 84.19 84.18 83.95 83.93 84.15 84.23 84.35 84.44 84.55 84.60 84.66 84.71 84.79 84.88 84.95 84.97 85.04 85.11 85.17 85.25 85.39 85.59 85.76 85.97 86.13 86.35 86.50 86.68 86.86 87.04 87.25 87.42
82.90 83.16 83.30 83.45 83.49 82.97 83.57 83.68 83.48 83.60 83.57 83.60 83.62 83.60 83.69 83.66 83.69 83.71 83.74 83.76 83.83 83.74 83.78 83.87 84.08 84.20 84.31 84.41 84.47 84.53 84.58 84.65 84.67 84.75 84.81 84.87 84.94 85.02 85.12 85.24 85.42 85.53 85.70 85.90 86.14 86.35 86.57 86.74 86.90 87.11 87.29 87.50
82.93 83.23 83.43 83.53 83.62 83.26 83.40 83.59 83.48 83.43 83.53 83.53 83.57 83.56 83.62 83.67 83.70 83.74 83.77 83.80 83.83 83.86 83.82 83.90 84.01 84.12 84.19 84.29 84.33 84.39 84.46 84.54 84.56 84.67 84.78 84.92 85.02 85.13 85.28 85.48 85.61 85.61 85.79 85.99 86.22 86.43 86.63 86.82 87.01 87.22 87.40 87.62
83.06 83.31 83.48 83.55 83.68 83.71 83.15 83.78 83.55 83.59 83.62 83.65 83.63 83.70 83.76 83.78 83.82 83.80 83.83 83.89 83.94 83.96 83.97 83.96 84.03 84.13 84.23 84.27 84.33 84.43 84.52 84.64 84.72 84.80 84.93 85.07 85.19 85.35 85.51 85.69 85.75 85.77 85.89 86.13 86.32 86.48 86.70 86.89 87.13 87.33 87.46 87.66
83.22 83.36 83.43 83.57 83.71 83.77 83.47 83.81 83.63 83.68 83.71 83.70 83.74 83.76 83.83 83.82 83.81 83.84 83.89 83.91 83.99 84.03 84.04 84.06 84.12 84.23 84.37 84.46 84.50 84.60 84.68 84.79 84.90 84.99 85.09 85.23 85.38 85.51 85.66 85.81 85.91 85.92 86.04 86.22 86.41 86.64 86.82 87.00 87.23 87.38 87.55 87.67
83.26 83.48 83.62 83.68 83.72 83.85 83.96 83.62 83.65 83.71 83.73 83.74 83.76 83.82 83.87 83.90 83.87 83.90 83.90 83.94 84.02 84.09 84.10 84.13 84.25 84.39 84.53 84.62 84.66 84.74 84.84 84.93 85.05 85.14 85.23 85.38 85.53 85.65 85.76 85.94 86.05 86.06 86.15 86.35 86.55 86.76 86.90 87.08 87.25 87.41 87.61 88.06
83.40 83.63 83.67 83.68 83.74 83.85 83.80 83.05 83.60 83.74 83.73 83.72 83.76 83.78 83.87 83.85 83.82 83.87 83.92 83.94 84.01 84.06 84.08 84.15 84.31 84.49 84.62 84.72 84.82 84.88 84.94 85.02 85.12 85.26 85.36 85.49 85.62 85.75 85.89 86.08 86.18 86.21 86.32 86.46 86.64 86.82 86.96 87.10 87.24 87.59 87.90 88.06
83.39 83.61 83.75 83.75 83.78 83.87 83.91 83.44 83.57 83.68 83.76 83.74 83.78 83.80 83.82 83.79 83.81 83.85 83.86 83.90 83.94 83.99 84.04 84.15 84.36 84.54 84.71 84.83 84.90 85.00 85.06 85.10 85.22 85.34 85.44 85.58 85.71 85.85 86.00 86.21 86.32 86.38 86.45 86.57 86.76 86.89 87.02 87.15 87.64 87.79 88.01 88.14
83.44 83.65 83.76 83.81 83.84 83.85 83.87 83.81 83.65 83.73 83.80 83.87 83.89 83.88 83.88 83.88 83.88 83.90 83.92 83.95 84.01 84.07 84.12 84.27 84.43 84.62 84.82 84.95 85.02 85.08 85.17 85.23 85.31 85.44 85.54 85.68 85.82 85.95 86.10 86.31 86.47 86.53 86.60 86.71 86.87 86.98 87.26 87.53 87.87 87.98 88.07 88.38
83.49 83.71 83.76 83.79 83.74 83.77 83.77 83.84 83.82 83.85 83.92 83.98 83.95 84.00 84.01 84.01 84.03 84.06 84.07 84.11 84.18 84.24 84.28 84.38 84.55 84.71 84.91 85.03 85.06 85.18 85.28 85.33 85.39 85.50 85.67 85.78 85.93 86.07 86.23 86.42 86.61 86.69 86.75 86.85 86.94 87.36 87.65 87.84 87.90 88.07 88.22 88.44
83.51 83.62 83.68 83.69 83.73 83.78 83.83 83.85 83.91 83.89 83.97 84.02 84.09 84.12 84.15 84.16 84.16 84.20 84.25 84.29 84.36 84.38 84.46 84.55 84.65 84.79 84.97 85.10 85.16 85.26 85.35 85.42 85.48 85.60 85.75 85.89 86.03 86.20 86.36 86.54 86.71 86.79 86.79 86.91 87.32 87.59 87.72 87.82 88.03 88.18 88.42 88.60
83.51 83.59 83.67 83.72 83.78 83.80 83.82 83.92 83.89 83.85 83.96 84.09 84.17 84.23 84.25 84.27 84.30 84.32 84.38 84.43 84.48 84.54 84.61 84.68 84.75 84.82 85.01 85.17 85.24 85.31 85.43 85.52 85.58 85.72 85.86 85.99 86.17 86.32 86.47 86.61 86.80 86.88 87.10 87.31 87.51 87.63 87.78 88.07 88.19 88.39 88.55 88.74
83.40 83.59 83.65 83.72 83.74 83.76 83.83 83.83 83.83 83.89 83.99 84.11 84.25 84.31 84.32 84.37 84.38 84.44 84.46 84.52 84.58 84.64 84.70 84.76 84.84 84.91 85.07 85.23 85.28 85.39 85.52 85.61 85.70 85.83 85.99 86.11 86.26 86.45 86.57 86.71 86.85 87.31 87.32 87.53 87.56 87.73 87.93 88.17 88.36 88.56 88.69 88.93
83.26 83.42 83.54 83.56 83.65 83.71 83.72 83.77 83.82 83.93 84.00 84.17 84.29 84.35 84.41 84.41 84.44 84.47 84.52 84.54 84.63 84.71 84.76 84.83 84.92 84.98 85.13 85.29 85.38 85.47 85.58 85.67 85.82 85.96 86.09 86.21 86.36 86.54 86.68 86.84 87.50 87.42 87.44 87.50 87.75 87.87 88.11 88.30 88.49 88.68 88.93 89.13
83.13 83.29 83.38 83.52 83.53 83.60 83.66 83.73 83.86 83.93 84.01 84.17 84.31 84.39 84.42 84.43 84.45 84.51 84.55 84.59 84.65 84.72 84.80 84.91 85.00 85.04 85.18 85.34 85.44 85.56 85.65 85.78 85.93 86.04 86.19 86.32 86.51 86.60 86.97 87.09 87.33 87.42 87.53 87.68 87.85 87.99 88.21 88.37 88.68 88.89 89.03 89.40
82.96 83.07 83.31 83.38 83.49 83.57 83.71 83.77 83.90 83.97 84.03 84.16 84.30 84.40 84.41 84.44 84.49 84.54 84.57 84.62 84.67 84.77 84.86 84.99 85.06 85.12 85.28 85.41 85.52 85.64 85.76 85.87 86.03 86.17 86.29 86.45 86.58 86.86 87.06 87.25 87.33 87.61 87.64 87.81 87.97 88.12 88.32 88.58 88.78 88.98 89.25 89.61
82.92 82.94 83.20 83.27 83.42 83.54 83.66 83.80 83.91 83.97 84.01 84.15 84.29 84.38 84.43 84.46 84.50 84.56 84.58 84.65 84.73 84.81 84.90 85.01 85.13 85.22 85.33 85.45 85.59 85.71 85.84 85.98 86.10 86.24 86.38 86.62 86.79 87.05 87.14 87.30 87.51 87.69 87.93 87.95 88.10 88.35 88.43 88.67 88.90 89.18 89.56 89.86
83.17 83.19 83.21 83.35 83.40 83.43 83.54 83.77 83.90 83.95 84.01 84.13 84.26 84.36 84.43 84.46 84.50 84.56 84.62 84.69 84.75 84.82 84.93 85.07 85.18 85.30 85.40 85.53 85.64 85.79 85.94 86.07 86.20 86.32 86.61 86.78 87.02 87.08 87.23 87.43 87.62 87.77 87.94 88.09 88.29 88.42 88.57 88.86 89.17 89.43 89.72 89.95
82.38 82.72 83.32 83.44 83.43 83.50 83.61 83.72 83.82 83.92 83.96 84.07 84.23 84.36 84.43 84.46 84.50 84.57 84.64 84.73 84.79 84.88 84.98 85.10 85.22 85.38 85.50 85.61 85.69 85.84 86.01 86.15 86.28 86.80 86.83 86.97 87.04 87.23 87.39 87.60 87.71 87.93 88.16 88.30 88.48 88.55 88.71 88.97 89.36 89.71 89.86 89.93
82.18 82.42 82.72 82.97 83.45 83.66 83.57 83.75 83.83 83.85 83.92 84.04 84.19 84.32 84.41 84.46 84.51 84.60 84.62 84.71 84.85 84.93 85.06 85.15 85.26 85.44 85.57 85.69 85.74 85.93 86.08 86.44 86.56 86.87 86.94 87.04 87.23 87.42 87.57 87.72 87.76 88.10 88.26 88.42 88.62 88.73 88.98 89.19 89.56 89.75 89.96 90.11
