ncols 52
nrows 52
xllcorner 439808
yllcorner 5715968
cellsize 10
NODATA_value -9999
83.88 83.79 83.79 83.74 83.72 83.72 83.69 83.64 83.65 83.68 83.71 83.64 83.61 83.49 83.40 83.42 83.42 83.30 83.23 83.16 83.19 83.18 83.19 83.15 83.11 83.19 83.26 83.24 83.20 83.21 83.23 83.17 83.10 82.97 82.93 82.98 82.96 83.14 82.26 83.26 83.19 83.14 83.11 83.06 83.07 83.22 83.43 83.45 83.52 83.49 83.57 83.75
83.99 83.92 83.89 83.84 83.80 83.79 83.74 83.72 83.74 83.76 83.74 83.68 83.63 83.58 83.51 83.46 83.47 83.42 83.29 83.24 83.24 83.25 83.26 83.23 83.22 83.23 83.26 83.31 83.32 83.32 83.32 83.24 83.13 83.05 82.93 82.96 83.00 83.15 83.19 82.19 83.29 83.26 83.19 83.14 83.16 83.26 83.40 83.46 83.44 83.35 83.50 83.72
84.11 84.07 84.01 83.94 83.89 83.84 83.79 83.79 83.82 83.84 83.78 83.74 83.71 83.68 83.64 83.54 83.48 83.50 83.39 83.29 83.31 83.31 83.31 83.31 83.27 83.32 83.30 83.34 83.40 83.41 83.41 83.33 83.19 83.08 83.02 82.99 83.07 83.11 83.17 83.29 82.98 83.34 83.28 83.22 83.26 83.31 83.43 83.29 83.35 83.37 83.50 83.67
84.28 84.22 84.15 84.04 83.99 83.91 83.89 83.89 83.93 83.89 83.84 83.80 83.77 83.75 83.73 83.62 83.52 83.49 83.48 83.38 83.36 83.35 83.37 83.36 83.34 83.39 83.39 83.44 83.44 83.44 83.46 83.43 83.31 83.15 83.07 83.02 83.04 83.09 83.11 83.20 83.38 83.13 83.35 83.30 83.25 83.38 83.31 83.45 83.45 83.49 83.50 83.65
84.36 84.40 84.31 84.20 84.09 84.03 84.00 84.02 84.00 83.94 83.91 83.87 83.88 83.83 83.81 83.74 83.62 83.53 83.51 83.47 83.40 83.40 83.43 83.42 83.41 83.46 83.50 83.54 83.51 83.50 83.53 83.46 83.34 83.24 83.09 83.12 83.11 83.09 83.10 83.16 83.26 83.38 83.30 83.38 83.42 83.41 83.20 83.49 83.46 83.49 83.54 83.59
84.41 84.46 84.41 84.35 84.27 84.19 84.15 84.15 84.07 84.02 83.98 83.96 83.93 83.88 83.86 83.84 83.79 83.65 83.53 83.52 83.49 83.43 83.49 83.48 83.46 83.53 83.56 83.60 83.57 83.58 83.57 83.46 83.39 83.30 83.23 83.19 83.18 83.15 83.14 83.14 83.22 83.35 83.46 83.32 83.51 83.49 83.47 83.49 83.49 83.49 83.52 83.56
84.44 84.49 84.49 84.46 84.41 84.35 84.33 84.26 84.15 84.11 84.08 84.07 84.03 83.96 83.91 83.86 83.88 83.73 83.57 83.53 83.57 83.50 83.52 83.53 83.53 83.59 83.65 83.64 83.60 83.60 83.51 83.49 83.46 83.40 83.35 83.29 83.23 83.21 83.19 83.18 83.19 83.29 83.45 83.00 83.77 83.22 83.43 83.45 83.45 83.46 83.50 83.56
84.44 84.46 84.52 84.54 84.51 84.49 84.45 84.32 84.28 84.22 84.19 84.17 84.11 84.04 84.00 83.93 83.90 83.77 83.62 83.56 83.59 83.60 83.57 83.56 83.57 83.65 83.68 83.67 83.69 83.60 83.55 83.51 83.49 83.47 83.40 83.33 83.29 83.30 83.27 83.25 83.25 83.25 83.37 83.62 83.20 83.51 83.50 83.47 83.50 83.44 83.48 83.56
84.45 84.48 84.53 84.60 84.60 84.60 84.50 84.40 84.37 84.36 84.32 84.28 84.21 84.12 84.07 84.06 83.93 83.86 83.71 83.64 83.61 83.67 83.67 83.61 83.63 83.69 83.70 83.68 83.67 83.60 83.59 83.53 83.55 83.51 83.43 83.39 83.35 83.36 83.33 83.29 83.29 83.31 83.37 83.49 83.67 82.81 83.63 83.56 83.54 83.53 83.54 83.51
84.48 84.53 84.60 84.64 84.70 84.67 84.53 84.46 84.45 84.47 84.42 84.39 84.30 84.24 84.17 84.09 84.00 83.88 83.83 83.71 83.64 83.69 83.75 83.71 83.69 83.75 83.73 83.69 83.67 83.64 83.55 83.63 83.60 83.54 83.52 83.47 83.42 83.39 83.38 83.41 83.42 83.40 83.43 83.40 83.52 83.58 82.19 83.64 83.60 83.59 83.57 83.56
84.54 84.60 84.65 84.73 84.80 84.72 84.58 84.51 84.54 84.50 84.51 84.49 84.41 84.36 84.32 84.16 84.10 83.97 83.91 83.81 83.74 83.72 83.79 83.83 83.79 83.75 83.75 83.73 83.70 83.61 83.65 83.68 83.67 83.65 83.65 83.60 83.49 83.47 83.46 83.47 83.48 83.48 83.43 83.47 83.48 83.49 83.56 82.00 83.61 83.60 83.60 83.63
84.64 84.67 84.72 84.86 84.86 84.75 84.62 84.58 84.58 84.59 84.57 84.54 84.51 84.47 84.36 84.27 84.18 84.09 84.00 83.90 83.87 83.79 83.81 83.91 83.88 83.79 83.78 83.80 83.71 83.69 83.67 83.70 83.69 83.72 83.74 83.68 83.61 83.57 83.53 83.49 83.53 83.54 83.51 83.49 83.52 83.48 83.54 83.61 82.91 83.60 83.67 83.68
84.74 84.76 84.84 84.93 84.89 84.73 84.66 84.61 84.61 84.65 84.61 84.58 84.57 84.51 84.39 84.34 84.27 84.15 84.10 84.04 83.98 83.91 83.87 83.93 83.90 83.79 83.82 83.80 83.71 83.71 83.73 83.74 83.71 83.76 83.81 83.78 83.73 83.69 83.60 83.57 83.56 83.57 83.56 83.56 83.52 83.49 83.50 83.61 83.89 83.78 83.68 83.66
84.80 84.83 84.93 84.97 84.88 84.76 84.68 84.63 84.69 84.68 84.64 84.62 84.61 84.49 84.38 84.37 84.32 84.22 84.16 84.12 84.12 84.03 84.03 84.04 83.94 83.86 83.88 83.73 83.73 83.73 83.71 83.75 83.76 83.80 83.84 83.82 83.79 83.74 83.67 83.60 83.60 83.60 83.61 83.60 83.57 83.49 83.50 83.60 83.72 82.04 83.74 83.71
84.90 84.90 84.96 84.98 84.89 84.81 84.71 84.69 84.75 84.71 84.68 84.67 84.62 84.48 84.41 84.39 84.35 84.27 84.23 84.22 84.19 84.13 84.15 84.12 83.91 83.92 83.81 83.78 83.78 83.77 83.78 83.78 83.80 83.83 83.87 83.89 83.85 83.78 83.71 83.65 83.64 83.66 83.65 83.65 83.61 83.59 83.58 83.62 83.73 83.60 83.57 83.78
84.99 84.99 84.99 84.98 84.91 84.86 84.80 84.81 84.80 84.75 84.72 84.70 84.61 84.49 84.44 84.43 84.34 84.27 84.25 84.22 84.29 84.21 84.21 84.07 84.05 83.97 83.91 83.86 83.84 83.83 83.85 83.86 83.85 83.85 83.88 83.88 83.85 83.83 83.75 83.72 83.73 83.74 83.72 83.69 83.66 83.65 83.63 83.63 83.65 83.72 83.62 83.92
85.07 85.09 85.06 85.01 84.98 84.92 84.88 84.89 84.84 84.79 84.78 84.71 84.59 84.53 84.49 84.45 84.35 84.31 84.29 84.28 84.32 84.32 84.19 83.99 84.10 84.04 84.04 83.99 83.94 83.88 83.88 83.92 83.92 83.89 83.89 83.88 83.87 83.85 83.80 83.78 83.80 83.82 83.81 83.79 83.75 83.70 83.69 83.68 83.71 83.65 83.73 82.87
85.18 85.19 85.17 85.09 85.02 84.97 84.98 84.93 84.91 84.85 84.83 84.71 84.58 84.55 84.52 84.44 84.39 84.35 84.36 84.33 84.33 84.31 84.23 84.11 84.11 84.16 84.13 84.09 84.07 84.00 83.98 83.96 83.95 83.93 83.89 83.90 83.89 83.86 83.82 83.83 83.82 83.87 83.89 83.88 83.82 83.74 83.73 83.77 83.62 83.65 83.74 83.78
85.27 85.25 85.22 85.17 85.08 85.04 85.01 84.99 84.94 84.91 84.83 84.71 84.62 84.60 84.54 84.45 84.39 84.40 84.40 84.38 84.36 84.33 84.23 84.17 84.13 84.18 84.15 84.16 84.15 84.10 84.07 84.02 84.00 83.96 83.93 83.90 83.92 83.89 83.88 83.83 83.86 83.88 83.93 83.93 83.88 83.82 83.84 83.79 83.67 83.64 83.69 83.81
85.33 85.33 85.30 85.20 85.14 85.10 85.07 85.01 84.98 84.95 84.86 84.72 84.68 84.65 84.55 84.49 84.45 84.43 84.46 84.46 84.44 84.39 83.57 84.18 84.11 84.21 84.19 84.18 84.15 84.13 84.13 84.11 84.06 84.04 83.98 83.93 83.92 83.92 83.93 83.92 83.89 83.90 83.92 83.92 83.95 83.88 83.93 83.75 83.65 83.68 83.74 83.83
85.36 85.40 85.36 85.26 85.21 85.16 85.13 85.09 85.07 84.99 84.88 84.78 84.73 84.67 84.59 84.55 84.49 84.47 84.51 84.47 84.47 84.45 84.18 84.16 84.24 84.21 84.20 84.19 84.15 84.15 84.12 84.10 84.09 84.08 84.07 84.01 83.97 83.96 83.95 83.94 83.94 83.96 83.96 84.00 83.96 84.01 83.80 83.75 83.71 83.69 83.73 83.86
85.42 85.45 85.40 85.31 85.24 85.25 85.18 85.17 85.13 85.05 84.92 84.85 84.78 84.68 84.61 84.55 84.53 84.53 84.54 84.54 84.51 84.49 84.18 84.20 84.29 84.27 84.24 84.22 84.20 84.15 84.13 84.10 84.09 84.08 84.06 84.04 84.01 84.00 83.99 83.99 83.98 84.01 84.01 84.02 84.06 83.88 83.80 83.76 83.73 83.71 83.74 83.79
85.45 85.50 85.46 85.39 85.34 85.32 85.29 85.27 85.22 85.11 85.02 84.94 84.83 84.71 84.65 84.60 84.58 84.60 84.59 84.56 84.58 83.66 84.26 84.30 84.38 84.32 84.30 84.25 84.21 84.18 84.15 84.12 84.11 84.10 84.07 84.07 84.04 84.03 84.03 84.04 84.01 84.04 84.03 84.07 83.97 83.86 83.79 83.77 83.78 83.75 83.78 83.77
85.48 85.56 85.53 85.44 85.42 85.41 85.41 85.38 85.31 85.18 85.14 85.03 84.86 84.74 84.70 84.66 84.65 84.66 84.63 84.62 84.62 84.28 84.29 84.36 84.42 84.37 84.30 84.29 84.27 84.23 84.21 84.17 84.13 84.11 84.09 84.07 84.08 84.04 84.04 84.02 84.02 84.13 84.10 84.09 83.92 83.84 83.81 83.78 83.80 83.78 83.81 83.79
85.76 85.67 85.60 85.57 85.53 85.50 85.47 85.46 85.35 85.29 85.20 85.12 84.94 84.79 84.71 84.71 84.69 84.68 84.65 84.68 84.25 84.36 84.39 84.45 84.43 84.37 84.37 84.33 84.29 84.26 84.22 84.19 84.15 84.13 84.11 84.10 84.09 84.07 84.04 84.00 84.03 84.01 84.08 83.99 83.88 83.86 83.83 83.82 83.80 83.82 83.83 83.83
86.04 85.90 85.85 85.76 85.61 85.57 85.59 85.46 85.36 85.35 85.28 85.15 84.99 84.84 84.77 84.76 84.73 84.71 84.71 84.72 84.34 84.36 84.37 84.44 84.44 84.38 84.38 84.35 84.29 84.29 84.25 84.20 84.19 84.17 84.16 84.12 84.10 84.07 84.05 84.04 84.08 84.34 84.07 84.02 83.93 83.87 83.84 83.83 83.85 83.84 83.84 83.84
86.11 86.10 86.14 85.88 85.85 85.75 85.60 85.49 85.42 85.35 85.33 85.19 85.05 84.91 84.80 84.77 84.76 84.73 84.75 84.53 84.33 84.38 84.45 84.45 84.42 84.40 84.40 84.36 84.35 84.31 84.30 84.25 84.21 84.17 84.16 84.17 84.12 84.09 84.07 84.10 84.19 84.05 84.04 84.06 84.01 83.92 83.88 83.88 83.89 83.88 83.85 83.85
86.09 85.98 85.70 85.87 86.09 85.82 85.77 85.60 85.44 85.39 85.31 85.19 85.06 84.94 84.83 84.80 84.79 84.80 84.82 84.21 84.33 84.38 84.48 84.45 84.42 84.39 84.41 84.38 84.35 84.36 84.31 84.28 84.23 84.22 84.18 84.15 84.12 84.07 84.12 83.74 84.08 84.03 84.05 84.08 84.05 83.97 83.94 83.93 83.93 83.92 83.90 83.86
86.10 86.20 85.72 85.69 85.72 85.57 86.03 85.77 85.61 85.47 85.24 85.15 85.06 84.95 84.85 84.81 84.81 84.83 84.75 84.34 84.38 84.51 84.49 84.47 84.43 84.43 84.41 84.40 84.36 84.33 84.32 84.26 84.26 84.22 84.19 84.11 84.08 84.07 84.19 84.18 84.05 84.03 84.10 84.11 84.08 84.04 83.98 83.97 83.94 83.96 83.95 83.87
86.17 86.10 85.74 85.63 85.74 85.79 85.77 85.32 85.93 85.67 85.49 85.25 85.11 85.01 84.89 84.82 84.82 84.85 83.99 84.49 84.51 84.60 84.54 84.52 84.46 84.42 84.41 84.40 84.37 84.35 84.32 84.28 84.22 84.17 84.10 84.06 84.10 84.21 84.39 84.09 84.07 84.10 84.12 84.11 84.09 84.09 84.07 84.04 83.97 83.96 83.95 83.91
86.24 86.06 85.82 85.72 85.74 85.75 85.76 85.66 85.68 85.34 85.76 85.58 85.29 85.08 84.98 84.92 84.81 84.71 84.66 84.59 84.68 84.65 84.60 84.57 84.51 84.49 84.46 84.43 84.39 84.37 84.33 84.28 84.23 84.10 84.07 84.11 84.23 84.56 84.15 84.10 84.10 84.13 84.12 84.15 84.13 84.14 84.12 84.10 84.02 83.98 83.96 83.94
86.24 85.99 85.90 85.79 85.78 85.68 85.65 85.60 85.61 85.56 85.51 85.33 85.56 85.50 85.17 85.02 84.82 83.89 84.86 84.75 84.74 84.68 84.65 84.58 84.57 84.55 84.52 84.46 84.43 84.39 84.35 84.28 84.17 84.08 84.12 84.22 84.40 84.17 84.14 84.12 84.13 84.12 84.14 84.18 84.20 84.15 84.15 84.16 84.10 84.02 83.99 84.00
86.22 86.08 85.95 85.90 85.83 85.73 85.67 85.58 85.53 85.44 85.43 85.41 85.32 85.13 85.31 85.45 84.98 84.94 84.86 84.86 84.78 84.75 84.64 84.63 84.60 84.58 84.55 84.54 84.47 84.44 84.35 84.29 84.14 84.11 84.22 83.70 84.18 84.11 84.15 84.16 84.15 84.16 84.18 84.23 84.21 84.21 84.21 84.23 84.19 84.08 84.04 84.05
85.98 86.16 86.02 85.97 85.89 85.81 85.72 85.65 85.56 85.44 85.32 85.24 85.19 85.14 85.15 85.14 85.04 85.39 85.10 85.05 84.94 84.79 84.69 84.67 84.60 84.59 84.60 84.54 84.49 84.44 84.39 84.28 84.17 84.21 84.29 84.31 84.13 84.09 84.18 84.18 84.17 84.22 84.23 84.26 84.26 84.26 84.31 84.28 84.24 84.18 84.11 84.14
86.36 86.23 86.11 86.06 85.97 85.86 85.76 85.68 85.57 85.46 85.33 85.21 85.11 85.01 85.05 85.07 84.07 85.22 85.07 85.31 85.21 85.04 84.90 84.71 84.65 84.62 84.58 84.53 84.46 84.41 84.37 84.32 84.31 84.44 84.55 84.22 84.18 84.18 84.22 84.21 84.25 84.25 84.26 84.28 84.30 84.31 84.35 84.32 84.29 84.26 84.24 84.23
86.57 86.28 86.18 86.12 86.04 85.95 85.80 85.68 85.59 85.49 85.33 85.22 85.10 85.03 85.06 85.15 85.19 85.16 85.16 85.00 84.93 85.18 85.15 85.00 84.86 84.69 84.60 84.51 84.50 84.40 84.40 84.40 84.46 84.68 84.29 84.27 84.25 84.27 84.27 84.28 84.29 84.27 84.30 84.32 84.31 84.35 84.38 84.34 84.34 84.31 84.29 84.33
86.57 86.32 86.22 86.18 86.10 86.01 85.86 85.72 85.59 85.49 85.35 85.26 85.18 85.15 85.15 84.01 85.04 85.14 84.96 85.01 84.99 84.93 84.87 85.06 85.11 84.98 84.83 84.64 84.53 84.45 84.42 84.45 84.48 84.33 84.29 84.31 84.32 84.32 84.32 84.31 84.35 84.34 84.35 84.33 84.35 84.38 84.39 84.39 84.38 84.37 84.31 84.39
86.57 86.35 86.27 86.21 86.12 86.01 85.89 85.75 85.62 85.53 85.42 85.31 85.19 85.16 85.15 84.97 85.12 85.02 84.96 84.95 84.91 84.88 84.90 84.85 84.82 84.96 85.05 84.92 84.76 84.63 84.44 84.17 84.39 84.40 84.33 84.33 84.32 84.34 84.33 84.38 84.37 84.36 84.33 84.39 84.40 84.42 84.44 84.42 84.43 84.41 84.34 84.37
86.54 86.36 86.25 86.24 86.14 86.06 85.94 85.79 85.63 85.54 85.45 85.34 85.22 85.20 85.15 85.43 85.18 85.10 85.01 84.92 84.90 84.87 84.82 84.74 84.67 84.66 84.67 84.61 84.99 84.85 84.61 84.62 84.42 84.35 84.42 84.38 84.33 84.35 84.39 84.40 84.37 84.36 84.37 84.43 84.41 84.46 84.46 84.44 84.45 84.43 84.36 84.33
86.51 86.39 86.32 86.27 86.18 86.09 86.00 85.84 85.65 85.53 85.45 85.36 85.29 85.19 84.38 85.24 85.24 85.10 85.07 84.99 84.91 84.83 84.78 84.74 84.61 84.69 84.60 84.66 84.74 84.50 84.97 84.94 84.47 84.49 84.43 84.42 84.38 84.41 84.40 84.38 84.40 84.41 84.44 84.47 84.44 84.47 84.46 84.46 84.48 84.43 84.41 84.42
86.57 86.45 86.41 86.35 86.25 86.10 86.01 85.85 85.68 85.54 85.44 85.37 85.29 85.22 84.47 85.31 85.19 85.12 85.08 84.99 84.90 84.89 84.82 84.76 84.81 84.75 84.64 84.62 84.65 84.71 84.72 84.60 84.99 84.91 84.55 84.59 84.50 84.48 84.43 84.48 84.44 84.45 84.49 84.46 84.49 84.49 84.45 84.47 84.49 84.48 84.49 84.50
86.66 86.54 86.53 86.43 86.31 86.17 86.00 85.85 85.71 85.57 85.46 85.37 85.32 85.29 85.35 85.27 85.21 85.15 85.08 84.98 84.94 84.90 84.85 84.84 84.81 84.83 84.66 84.60 84.65 84.64 84.63 84.68 84.72 84.72 84.85 84.93 84.58 84.61 84.55 84.49 84.53 84.54 84.50 84.49 84.51 84.51 84.48 84.53 84.57 84.57 84.54 84.53
86.68 86.57 86.55 86.44 86.35 86.22 86.06 85.86 85.73 85.57 85.44 85.38 85.36 85.32 85.25 85.28 85.20 85.16 85.07 85.02 84.95 84.94 84.89 84.87 84.84 84.85 84.72 84.65 84.65 84.68 84.64 84.66 84.67 84.68 84.66 84.69 84.77 84.93 84.64 84.58 84.55 84.55 84.56 84.51 84.54 84.54 84.54 84.59 84.59 84.57 84.56 84.50
86.73 86.61 86.53 86.44 86.35 86.23 86.07 85.91 85.75 85.59 85.48 85.37 85.39 84.35 85.30 85.29 85.23 85.19 85.11 85.03 85.00 84.96 84.92 84.89 84.86 84.84 84.75 84.69 84.67 84.67 84.67 84.69 84.74 84.65 84.61 84.60 84.60 84.59 84.77 84.88 84.83 84.62 84.54 84.62 84.57 84.58 84.58 84.62 84.59 84.58 84.54 84.53
86.79 86.68 86.57 86.47 86.36 86.22 86.05 85.93 85.78 85.65 85.50 85.39 85.36 84.90 85.38 85.32 85.26 85.21 85.12 85.06 85.06 84.97 84.93 84.95 84.92 84.90 84.79 84.76 84.72 84.71 84.74 84.72 84.73 84.68 84.65 84.56 84.54 84.63 84.68 84.65 84.52 84.89 85.07 84.74 84.65 84.67 84.65 84.65 84.59 84.59 84.58 84.56
86.84 86.75 86.63 86.51 86.38 86.21 86.05 85.90 85.73 85.61 85.50 85.39 85.35 85.55 85.44 85.37 85.27 85.22 85.19 85.11 85.07 85.05 85.03 85.01 85.00 84.90 84.85 84.85 84.77 84.76 84.81 84.80 84.76 84.79 84.68 84.60 84.56 84.62 84.85 84.68 84.70 84.78 84.76 84.95 84.92 84.80 84.70 84.75 84.73 84.66 84.59 84.57
86.90 86.81 86.70 86.54 86.40 86.24 86.08 85.89 85.72 85.56 85.44 85.38 85.30 85.49 85.46 85.41 85.35 85.29 85.26 85.22 85.14 85.11 85.12 85.08 85.06 84.94 84.90 84.88 84.87 84.86 84.88 84.89 84.84 84.81 84.78 84.73 84.65 84.72 84.87 84.65 84.58 84.68 84.75 84.82 84.76 84.96 85.03 84.73 84.73 84.71 84.70 84.64
86.95 86.89 86.78 86.60 86.42 86.25 86.09 85.90 85.72 85.56 85.45 85.42 84.95 85.58 85.54 85.47 85.44 85.38 85.35 85.28 85.21 85.18 85.17 85.15 85.12 85.00 84.95 84.98 84.98 84.99 85.00 84.97 84.97 84.88 84.83 84.79 84.72 84.82 84.79 84.74 84.65 84.68 84.72 84.76 84.80 84.90 84.78 84.93 85.05 84.71 84.71 84.67
87.00 86.95 86.82 86.64 86.44 86.25 86.08 85.89 85.72 85.58 85.53 85.56 84.71 85.65 85.61 85.59 85.59 85.50 85.46 85.38 85.29 85.26 85.27 85.22 85.21 85.06 85.04 85.10 85.08 85.07 85.09 85.04 85.01 84.96 84.87 84.79 84.77 84.83 84.83 84.76 84.72 84.72 84.69 84.72 84.75 84.79 84.85 84.87 84.83 84.86 84.99 84.69
87.06 86.99 86.85 86.67 86.49 86.27 86.09 85.90 85.74 85.63 85.60 85.69 85.03 85.78 85.72 85.71 85.70 85.65 85.57 85.54 85.47 85.39 85.38 85.35 85.29 85.20 85.21 85.20 85.20 85.20 85.13 85.12 85.08 85.02 84.92 84.82 84.83 84.98 84.90 84.84 84.83 84.76 84.76 84.77 84.75 84.77 84.75 84.69 84.87 84.89 84.87 84.72
87.10 86.96 86.86 86.68 86.49 86.25 86.07 85.90 85.75 85.65 85.69 85.79 85.88 85.84 85.73 85.71 85.71 85.70 85.62 85.59 85.54 85.51 85.46 85.40 85.34 85.31 85.31 85.31 85.29 85.28 85.23 85.20 85.15 85.12 85.02 84.95 84.97 85.15 84.92 84.89 84.87 84.81 84.78 84.77 84.78 84.77 84.76 84.74 84.74 84.79 84.89 84.92
87.24 87.02 86.84 86.71 86.46 86.22 86.07 85.90 85.76 85.67 85.72 85.84 86.03 85.84 85.74 85.69 85.71 85.64 85.61 85.57 85.54 85.49 85.43 85.39 85.37 85.35 85.35 85.34 85.32 85.28 85.28 85.25 85.20 85.18 85.13 85.02 85.12 84.99 84.96 84.93 84.85 84.81 84.82 84.82 84.80 84.79 84.78 84.76 84.76 84.82 84.84 84.85
