ncols 52
nrows 52
xllcorner 440320
yllcorner 5714944
cellsize 10
NODATA_value -9999
91.23 91.76 92.33 92.86 93.31 93.71 94.08 94.45 94.79 95.09 95.44 95.76 95.98 96.10 96.16 96.29 96.41 96.56 96.57 96.30 96.88 97.04 97.31 97.48 97.71 98.00 98.30 98.56 98.89 99.21 99.54 99.80 99.96 100.12 100.21 100.28 100.48 100.49 100.47 100.49 100.52 100.60 100.69 100.71 100.80 100.88 100.91 100.96 101.07 101.15 101.24 101.26
91.70 92.29 92.85 93.29 93.74 94.10 94.45 94.75 95.06 95.36 95.71 95.99 96.18 96.22 96.31 96.33 96.48 96.58 96.53 96.30 96.88 97.03 97.28 97.48 97.66 97.90 98.20 98.47 98.85 99.18 99.54 99.81 100.00 100.15 100.26 100.37 100.49 100.59 100.52 100.56 100.57 100.64 100.71 100.75 100.81 100.89 100.94 101.00 101.10 101.18 101.26 101.33
92.14 92.76 93.31 93.76 94.14 94.43 94.72 94.97 95.27 95.55 95.86 96.18 96.33 96.44 96.44 96.42 96.54 96.58 96.61 96.49 96.84 97.05 97.29 97.44 97.66 97.87 98.16 98.47 98.83 99.15 99.55 99.86 100.06 100.20 100.29 100.42 100.50 100.75 100.57 100.60 100.65 100.67 100.79 100.81 100.88 100.94 101.01 101.07 101.16 101.24 101.31 101.37
92.61 93.12 93.66 94.07 94.46 94.74 94.94 95.24 95.50 95.76 96.04 96.32 96.45 96.53 96.54 96.54 96.55 96.63 96.67 96.62 96.86 97.07 97.29 97.47 97.67 97.91 98.21 98.49 98.85 99.17 99.53 99.88 100.12 100.21 100.35 100.46 100.53 100.71 100.65 100.67 100.72 100.73 100.81 100.88 100.92 100.96 101.03 101.10 101.17 101.28 101.35 101.43
92.97 93.52 94.00 94.39 94.74 94.98 95.20 95.44 95.64 95.94 96.20 96.46 96.62 96.62 96.62 96.65 96.62 96.64 96.74 96.75 96.90 97.09 97.30 97.51 97.67 97.90 98.21 98.51 98.82 99.14 99.51 99.86 100.11 100.26 100.38 100.47 100.54 100.71 100.73 100.71 100.74 100.81 100.88 100.96 100.96 101.04 101.13 101.17 101.22 101.34 101.40 101.48
93.30 93.85 94.30 94.66 94.94 95.24 95.44 95.67 95.87 96.14 96.36 96.59 96.72 96.71 96.72 96.68 96.70 96.75 96.76 96.81 96.94 97.15 97.34 97.50 97.72 97.92 98.21 98.50 98.79 99.15 99.50 99.86 100.12 100.26 100.39 100.51 100.59 100.75 100.83 100.78 100.85 100.88 100.94 100.98 101.02 101.06 101.15 101.21 101.29 101.40 101.48 101.51
93.57 94.09 94.55 94.92 95.19 95.43 95.59 95.75 95.95 96.22 96.51 96.68 96.86 96.83 96.80 96.79 96.74 96.83 96.76 96.83 96.99 97.16 97.34 97.52 97.72 97.97 98.23 98.51 98.82 99.17 99.50 99.84 100.13 100.27 100.39 100.48 100.62 100.73 100.96 100.83 100.88 100.93 100.96 101.02 101.07 101.15 101.21 101.31 101.41 101.53 101.59 101.58
93.79 94.29 94.72 95.06 95.34 95.60 95.79 95.94 96.11 96.37 96.62 96.82 96.94 96.86 96.88 96.87 96.85 96.85 96.80 96.89 97.01 97.19 97.39 97.56 97.75 98.00 98.25 98.59 98.85 99.16 99.49 99.77 100.08 100.24 100.36 100.45 100.58 100.71 100.96 100.89 100.95 100.99 100.99 101.07 101.18 101.24 101.33 101.41 101.49 101.57 101.65 101.62
94.01 94.50 94.90 95.24 95.47 95.76 96.00 96.15 96.29 96.50 96.71 96.94 97.04 97.01 96.96 96.91 96.96 96.99 96.93 96.90 97.09 97.27 97.46 97.62 97.83 98.07 98.32 98.64 98.90 99.17 99.46 99.78 100.07 100.21 100.32 100.45 100.56 100.68 100.89 100.94 100.92 100.99 101.06 101.17 101.28 101.36 101.43 101.52 101.54 101.58 101.66 101.64
94.15 94.67 95.08 95.39 95.66 95.88 96.06 96.26 96.39 96.57 96.82 97.02 97.13 97.10 96.99 97.04 97.04 97.02 97.01 96.99 97.14 97.38 97.58 97.75 97.93 98.17 98.39 98.67 98.93 99.15 99.47 99.77 99.99 100.18 100.28 100.39 100.52 100.65 100.82 100.98 100.99 101.05 101.13 101.26 101.39 101.48 101.50 101.53 101.53 101.57 101.64 101.69
94.32 94.83 95.24 95.61 95.84 96.03 96.18 96.31 96.44 96.62 96.86 97.15 97.27 97.18 97.19 97.15 97.13 97.04 97.12 97.05 97.24 97.47 97.69 97.85 98.06 98.23 98.47 98.69 98.93 99.17 99.43 99.68 99.93 100.11 100.23 100.35 100.46 100.59 100.74 101.07 101.04 101.13 101.22 101.35 101.46 101.54 101.52 101.52 101.56 101.65 101.66 101.68
94.50 94.98 95.35 95.70 95.93 96.14 96.28 96.44 96.58 96.69 96.93 97.18 97.30 97.31 97.29 97.18 97.17 97.13 97.18 97.17 97.36 97.58 97.82 97.96 98.12 98.33 98.55 98.74 98.96 99.20 99.42 99.61 99.81 100.04 100.16 100.32 100.45 100.57 100.73 101.07 101.11 101.27 101.34 101.34 101.39 101.48 101.50 101.53 101.65 101.70 101.74 101.82
94.48 95.02 95.40 95.69 95.99 96.22 96.40 96.50 96.63 96.75 96.91 97.10 97.31 97.35 97.36 97.29 97.31 97.19 97.32 97.30 97.51 97.73 97.92 98.03 98.22 98.45 98.63 98.88 99.11 99.28 99.47 99.67 99.90 100.11 100.25 100.41 100.53 100.68 100.85 101.06 101.24 101.33 101.37 101.35 101.33 101.33 101.41 101.61 101.70 101.91 102.04 102.11
94.34 94.86 95.28 95.62 95.91 96.16 96.37 96.47 96.65 96.75 96.83 97.04 97.23 97.31 97.31 97.35 97.31 97.42 97.36 97.50 97.81 97.96 98.12 98.29 98.43 98.58 98.72 98.92 99.07 99.26 99.41 99.60 99.80 100.07 100.20 100.34 100.60 100.91 101.21 101.37 101.48 101.54 101.58 101.59 101.58 101.48 101.51 101.48 101.43 101.40 101.45 101.53
93.94 94.58 95.07 95.47 95.80 96.04 96.24 96.40 96.53 96.68 96.78 96.99 97.16 97.37 97.43 97.46 97.46 97.49 97.59 97.54 97.82 97.99 98.31 98.52 98.73 98.91 99.10 99.29 99.48 99.57 99.66 99.72 99.90 100.04 100.18 100.31 100.43 100.55 100.70 100.85 100.95 101.02 101.03 101.00 101.02 101.07 101.18 101.18 101.15 101.18 101.22 101.30
90.67 90.99 91.73 91.90 92.36 92.70 92.84 93.04 93.37 93.94 94.47 95.00 95.38 95.74 96.15 96.51 96.79 97.28 97.69 97.93 98.20 98.41 98.47 98.59 98.83 98.91 99.11 99.20 99.13 99.08 99.35 99.61 99.77 99.96 100.03 100.08 100.27 100.35 100.55 100.72 100.69 100.77 100.78 100.79 100.85 100.89 100.98 101.04 101.05 101.10 101.11 101.14
92.56 92.56 93.53 93.74 94.52 94.68 94.02 95.50 97.27 97.62 97.18 97.25 97.43 97.53 97.62 97.65 97.79 97.90 97.98 98.12 98.26 98.39 98.53 98.62 98.69 98.84 98.89 99.04 99.13 99.10 99.16 99.43 99.58 99.74 99.93 100.03 100.13 100.26 100.39 100.57 100.61 100.63 100.62 100.64 100.71 100.75 100.83 100.91 101.00 100.99 101.03 101.01
92.65 93.34 94.03 94.74 95.46 95.87 95.82 97.42 97.21 97.18 97.19 97.29 97.43 97.57 97.76 97.72 97.80 97.96 97.95 98.25 98.31 98.37 98.54 98.57 98.68 98.80 98.93 99.12 99.11 99.17 99.26 99.34 99.44 99.60 99.79 99.94 100.04 100.16 100.26 100.40 100.47 100.46 100.48 100.53 100.60 100.66 100.70 100.81 100.88 100.92 100.94 100.95
92.39 93.09 93.75 94.47 95.15 95.82 96.29 96.82 97.07 97.12 97.22 97.35 97.44 97.63 97.79 97.82 97.92 97.93 98.06 98.33 98.47 98.40 98.49 98.60 98.69 98.82 98.93 99.12 99.15 99.19 99.35 99.32 99.38 99.49 99.65 99.82 99.96 100.05 100.16 100.28 100.37 100.36 100.40 100.48 100.50 100.53 100.61 100.70 100.77 100.79 100.79 100.83
92.17 92.89 93.51 94.25 94.92 95.53 96.05 96.62 97.24 97.38 97.50 97.80 97.57 97.53 97.80 97.89 97.93 98.00 98.12 98.24 98.43 98.42 98.52 98.65 98.74 98.76 98.92 98.97 99.15 99.21 99.40 99.35 99.38 99.44 99.57 99.71 99.88 99.96 100.11 100.19 100.30 100.29 100.32 100.38 100.39 100.40 100.44 100.54 100.63 100.69 100.70 100.70
91.98 92.68 93.35 94.06 94.71 95.30 95.81 96.29 97.45 97.51 97.75 97.97 97.74 97.62 97.85 97.93 97.92 98.00 98.15 98.28 98.45 98.40 98.46 98.56 98.74 98.79 98.83 99.00 99.06 99.15 99.25 99.32 99.38 99.48 99.57 99.68 99.79 99.89 100.02 100.08 100.17 100.22 100.19 100.26 100.27 100.26 100.29 100.39 100.48 100.56 100.59 100.60
91.76 92.44 93.13 93.81 94.45 95.05 95.59 96.09 97.60 97.58 98.40 100.44 97.62 97.76 97.88 97.94 97.94 97.99 98.08 98.25 98.37 98.38 98.46 98.53 98.58 98.75 98.75 98.86 98.99 99.06 99.18 99.28 99.32 99.38 99.50 99.58 99.70 99.78 99.87 99.96 100.05 100.08 100.05 100.09 100.15 100.15 100.20 100.24 100.35 100.43 100.45 100.47
91.48 92.18 92.88 93.52 94.18 94.78 95.35 95.88 96.93 97.61 98.70 99.88 97.53 97.57 97.74 97.85 97.95 98.00 98.03 98.19 98.32 98.37 98.36 98.46 98.63 98.67 98.60 98.71 98.93 99.00 99.08 99.21 99.22 99.28 99.38 99.43 99.51 99.66 99.73 99.82 99.87 99.94 99.90 99.93 99.99 100.03 100.06 100.15 100.21 100.30 100.38 100.40
91.19 91.89 92.60 93.28 93.94 94.57 95.13 95.61 96.10 98.07 98.78 99.29 97.33 97.09 97.66 97.76 97.90 97.93 98.01 98.10 98.22 98.33 98.30 98.42 98.47 98.60 98.59 98.73 98.80 98.94 98.94 99.11 99.10 99.18 99.27 99.31 99.40 99.48 99.57 99.62 99.68 99.74 99.75 99.76 99.82 99.88 99.95 100.01 100.07 100.16 100.29 100.33
90.94 91.61 92.30 93.00 93.68 94.29 94.89 95.44 96.12 96.63 96.93 97.01 97.15 97.33 97.46 97.61 97.78 97.88 97.95 98.02 98.16 98.29 98.26 98.33 98.40 98.48 98.54 98.64 98.71 98.86 98.85 98.99 99.01 99.04 99.14 99.19 99.25 99.35 99.37 99.43 99.48 99.58 99.60 99.60 99.66 99.73 99.82 99.88 99.92 100.02 100.11 100.18
90.71 91.36 91.98 92.71 93.36 94.04 94.66 95.21 95.77 96.42 96.67 96.79 96.96 97.15 97.30 97.43 97.71 97.85 97.90 97.95 98.07 98.28 98.29 98.24 98.36 98.36 98.47 98.48 98.58 98.71 98.80 98.86 98.92 98.92 98.99 99.05 99.09 99.18 99.22 99.24 99.31 99.37 99.44 99.43 99.49 99.59 99.70 99.76 99.82 99.86 99.97 100.07
90.55 91.06 91.72 92.39 93.07 93.77 94.44 95.02 95.55 96.11 96.46 96.62 96.85 97.03 97.22 97.38 97.58 97.75 97.82 97.89 97.94 98.06 98.19 98.15 98.21 98.28 98.38 98.45 98.52 98.50 98.69 98.71 98.80 98.79 98.86 98.92 98.94 98.98 99.04 99.05 99.11 99.17 99.28 99.28 99.35 99.46 99.58 99.68 99.75 99.82 99.92 100.01
90.42 90.89 91.46 92.11 92.79 93.50 94.17 94.78 95.36 95.87 96.25 96.49 96.71 96.96 97.10 97.29 97.46 97.66 97.74 97.80 97.89 98.01 98.12 98.11 98.13 98.18 98.23 98.32 98.41 98.49 98.50 98.59 98.64 98.70 98.71 98.75 98.81 98.82 98.88 98.87 98.94 98.97 99.09 99.16 99.24 99.38 99.48 99.60 99.69 99.79 99.90 100.00
90.33 90.69 91.26 91.82 92.51 93.21 93.92 94.55 95.10 95.64 96.10 96.36 96.63 96.84 97.02 97.19 97.33 97.55 97.66 97.73 97.78 97.89 98.01 98.10 98.04 98.08 98.10 98.18 98.27 98.39 98.46 98.49 98.57 98.59 98.58 98.64 98.63 98.64 98.70 98.72 98.75 98.81 98.93 99.04 99.14 99.25 99.40 99.53 99.64 99.74 99.81 99.92
90.23 90.60 91.03 91.53 92.19 92.91 93.64 94.32 94.88 95.40 95.90 96.21 96.46 96.71 96.89 97.06 97.23 97.39 97.57 97.63 97.68 97.77 97.84 97.95 97.91 97.95 97.98 98.10 98.11 98.26 98.27 98.39 98.47 98.48 98.42 98.47 98.47 98.46 98.48 98.55 98.57 98.64 98.78 98.89 98.99 99.12 99.27 99.39 99.51 99.60 99.70 99.79
90.20 90.53 90.90 91.30 91.88 92.61 93.32 94.01 94.58 95.10 95.64 96.04 96.28 96.53 96.71 96.89 97.10 97.27 97.43 97.51 97.56 97.64 97.73 97.84 97.81 97.86 97.88 97.99 98.05 98.10 98.18 98.25 98.28 98.23 98.27 98.28 98.30 98.29 98.33 98.39 98.43 98.53 98.58 98.76 98.89 98.99 99.14 99.28 99.38 99.48 99.61 99.69
90.21 90.46 90.78 91.14 91.64 92.34 93.03 93.71 94.31 94.81 95.36 95.81 96.08 96.36 96.59 96.75 96.97 97.14 97.31 97.40 97.46 97.52 97.61 97.72 97.71 97.74 97.76 97.83 97.93 97.95 98.05 98.09 98.11 98.12 98.13 98.12 98.12 98.06 98.11 98.18 98.23 98.33 98.46 98.63 98.79 98.90 99.00 99.15 99.27 99.39 99.51 99.61
90.25 90.46 90.72 91.05 91.51 92.13 92.77 93.46 94.06 94.54 95.05 95.57 95.90 96.17 96.45 96.61 96.80 97.00 97.17 97.30 97.32 97.37 97.48 97.57 97.58 97.60 97.67 97.71 97.80 97.84 97.86 97.93 98.04 98.15 97.97 97.86 97.89 97.82 97.82 97.89 98.01 98.12 98.30 98.50 98.70 98.79 98.96 99.07 99.17 99.30 99.44 99.56
90.26 90.46 90.68 90.96 91.40 91.96 92.59 93.21 93.82 94.32 94.80 95.36 95.75 95.97 96.25 96.46 96.67 96.87 97.05 97.18 97.20 97.24 97.32 97.40 97.47 97.43 97.51 97.61 97.61 97.74 97.72 97.75 97.72 97.71 97.68 97.61 97.57 97.51 97.48 97.58 97.69 97.85 98.07 98.29 98.52 98.66 98.82 99.01 99.10 99.21 99.35 99.47
90.32 90.42 90.63 90.88 91.29 91.82 92.44 93.00 93.60 94.11 94.61 95.12 95.57 95.83 96.08 96.32 96.49 96.72 96.89 97.05 97.10 97.07 97.10 97.24 97.36 97.32 97.30 97.34 97.57 97.74 97.68 97.48 97.45 97.41 97.45 97.32 97.23 97.18 97.15 97.25 97.37 97.52 97.76 98.03 98.31 98.50 98.67 98.82 98.96 99.10 99.24 99.36
90.34 90.43 90.59 90.82 91.18 91.67 92.28 92.81 93.39 93.92 94.40 94.89 95.36 95.65 95.92 96.18 96.36 96.55 96.71 96.88 96.92 96.89 96.89 96.97 97.17 97.06 97.03 97.12 97.32 97.50 97.49 97.29 97.20 97.06 97.15 97.04 96.91 96.91 96.94 97.00 97.13 97.26 97.44 97.74 98.01 98.25 98.43 98.57 98.76 98.95 99.07 99.18
90.36 90.48 90.60 90.80 91.09 91.56 92.14 92.66 93.18 93.72 94.21 94.65 95.17 95.50 95.72 95.97 96.17 96.35 96.51 96.61 96.68 96.64 96.64 96.70 96.71 96.85 96.75 96.82 97.06 97.23 97.14 97.04 97.00 96.90 96.99 97.07 96.79 96.82 96.89 96.97 97.06 97.13 97.24 97.43 97.68 97.92 98.12 98.30 98.53 98.77 98.94 99.04
90.41 90.53 90.60 90.79 91.01 91.44 91.97 92.52 93.00 93.49 93.99 94.42 94.89 95.29 95.50 95.71 95.90 96.03 96.21 96.30 96.38 96.35 96.33 96.41 96.43 96.52 96.46 96.53 96.66 96.68 96.72 96.79 96.81 96.75 96.78 96.79 96.83 96.92 96.95 97.05 97.05 97.18 97.25 97.29 97.43 97.57 97.77 97.97 98.20 98.48 98.68 98.91
90.38 90.50 90.60 90.73 90.95 91.33 91.83 92.36 92.82 93.28 93.74 94.17 94.59 94.96 95.18 95.39 95.54 95.65 95.78 95.88 96.01 96.00 96.04 96.03 96.12 96.29 96.17 96.16 96.18 96.26 96.33 96.42 96.47 96.53 96.61 96.79 97.08 97.19 97.11 97.18 97.20 97.28 97.34 97.33 97.38 97.48 97.62 97.81 98.00 98.21 98.50 98.66
90.53 90.61 90.61 90.74 90.93 91.24 91.65 92.12 92.57 93.01 93.43 93.81 94.17 94.54 94.76 94.94 95.12 95.25 95.35 95.47 95.62 95.72 95.81 95.81 95.94 96.10 95.99 95.97 96.10 96.22 96.29 96.43 96.50 96.60 96.65 96.73 96.93 97.06 97.14 97.39 97.72 97.94 98.01 98.03 98.08 98.06 98.03 98.07 98.03 98.00 97.98 98.06
90.43 90.56 90.63 90.78 91.01 91.25 91.62 91.96 92.36 92.76 93.17 93.51 93.84 94.13 94.36 94.53 94.69 94.82 95.00 95.18 95.31 95.40 95.51 94.95 94.96 95.77 95.62 96.06 96.44 96.74 97.02 97.23 97.46 97.61 97.78 97.78 97.76 97.83 97.80 97.85 97.93 97.96 98.07 98.07 98.18 98.28 98.43 98.42 98.37 98.36 98.35 98.42
90.70 90.70 90.72 90.78 90.88 90.93 91.36 91.82 92.19 92.58 92.92 93.17 93.43 93.46 93.43 93.11 92.86 92.94 93.20 93.46 93.93 94.54 94.97 95.32 96.05 96.02 96.28 96.50 96.70 96.94 97.06 97.24 97.38 97.52 97.64 97.73 97.78 97.77 97.76 97.84 97.88 97.97 98.06 98.12 98.30 98.42 98.51 98.54 98.54 98.49 98.53 98.62
90.75 90.74 90.76 90.84 90.97 91.21 91.46 91.65 91.82 92.03 92.28 92.58 92.89 93.17 93.45 93.72 93.99 94.28 94.56 94.82 95.06 95.26 95.63 95.82 96.31 96.33 96.48 96.66 96.82 97.02 97.17 97.29 97.43 97.49 97.68 97.81 97.89 97.89 97.94 97.95 97.98 98.11 98.21 98.26 98.38 98.51 98.65 98.68 98.68 98.72 98.79 98.90
90.77 90.74 90.83 90.88 91.06 91.21 91.54 91.83 92.06 92.33 92.64 92.93 93.21 93.56 93.93 94.28 94.57 94.85 95.11 95.33 95.62 95.87 96.06 96.44 96.53 96.56 96.68 96.89 97.00 97.15 97.28 97.35 97.43 97.53 97.76 97.95 98.00 98.04 98.07 98.17 98.23 98.34 98.38 98.40 98.49 98.58 98.71 98.76 98.82 98.88 98.97 99.06
90.93 90.77 90.86 90.95 91.02 91.19 91.48 91.82 92.15 92.51 92.88 93.22 93.53 93.93 94.34 94.70 94.97 95.21 95.43 95.62 95.84 96.08 96.35 96.81 96.68 96.68 96.82 97.01 97.15 97.23 97.31 97.45 97.54 97.62 97.86 98.02 98.14 98.20 98.23 98.32 98.42 98.50 98.54 98.56 98.61 98.70 98.79 98.88 98.91 99.02 99.10 99.16
90.93 90.85 90.87 91.02 91.06 91.17 91.44 91.79 92.15 92.54 92.97 93.31 93.65 94.03 94.43 94.80 95.08 95.33 95.55 95.74 95.92 96.17 96.50 96.82 96.80 96.75 96.92 97.07 97.22 97.31 97.38 97.51 97.60 97.76 97.90 98.12 98.20 98.30 98.36 98.45 98.59 98.65 98.72 98.69 98.72 98.82 98.88 98.93 99.02 99.11 99.21 99.23
90.93 90.97 90.91 91.00 91.08 91.17 91.35 91.68 92.05 92.49 92.93 93.32 93.70 94.06 94.44 94.81 95.11 95.36 95.58 95.80 96.00 96.24 96.57 96.82 96.82 96.87 96.98 97.18 97.22 97.32 97.44 97.59 97.69 97.81 97.94 98.10 98.29 98.37 98.45 98.54 98.68 98.79 98.78 98.84 98.86 98.90 99.00 99.06 99.08 99.18 99.26 99.29
91.02 91.00 91.03 91.02 91.12 91.23 91.32 91.57 91.93 92.33 92.80 93.23 93.66 94.06 94.42 94.78 95.07 95.34 95.57 95.77 95.97 96.18 96.54 96.86 96.83 96.87 96.96 97.17 97.25 97.34 97.49 97.65 97.78 97.86 98.01 98.22 98.38 98.48 98.58 98.68 98.81 98.87 98.88 98.95 98.97 99.00 99.06 99.07 99.10 99.20 99.29 99.31
91.04 91.07 91.10 91.08 91.17 91.24 91.33 91.50 91.76 92.15 92.61 93.08 93.52 93.93 94.33 94.70 95.01 95.27 95.51 95.71 95.90 96.11 96.45 96.82 96.79 96.83 96.95 97.08 97.20 97.34 97.50 97.65 97.81 97.93 98.10 98.26 98.38 98.48 98.64 98.69 98.83 98.94 98.94 98.99 99.04 99.06 99.11 99.11 99.18 99.30 99.33 99.32
90.71 91.13 91.10 91.12 91.19 91.29 91.38 91.50 91.68 91.99 92.42 92.90 93.37 93.82 94.21 94.58 94.92 95.19 95.43 95.62 95.83 96.04 96.47 96.78 96.77 96.82 96.94 97.06 97.20 97.37 97.52 97.67 97.80 97.99 98.12 98.26 98.35 98.52 98.68 98.79 98.93 98.94 98.94 98.97 99.06 99.09 99.14 99.17 99.23 99.27 99.32 99.30
91.21 90.55 91.03 91.08 91.13 91.21 91.34 91.51 91.67 91.92 92.31 92.76 93.25 93.72 94.14 94.51 94.83 95.12 95.36 95.55 95.81 95.91 96.43 96.64 96.70 96.83 96.90 97.03 97.18 97.32 97.49 97.65 97.87 97.98 98.09 98.23 98.38 98.58 98.72 98.83 98.93 98.95 98.97 99.01 99.07 99.12 99.13 99.15 99.23 99.29 99.29 99.32
91.82 91.19 91.08 91.15 91.25 91.46 91.57 91.67 91.72 91.98 92.36 92.81 93.26 93.69 94.07 94.45 94.78 95.07 95.29 95.49 95.65 95.79 96.39 96.52 96.71 96.78 96.89 97.00 97.12 97.29 97.47 97.65 97.80 97.97 98.09 98.25 98.39 98.54 98.71 98.84 98.96 98.98 98.99 99.03 99.09 99.12 99.14 99.10 99.19 99.32 99.31 99.35
