ncols 52
nrows 52
xllcorner 440320
yllcorner 5715456
cellsize 10
NODATA_value -9999
84.83 84.81 84.93 84.25 84.98 85.50 85.72 85.61 85.44 85.39 85.38 85.46 85.47 85.45 85.48 85.50 85.60 85.68 85.79 85.91 86.06 86.22 86.31 86.36 86.46 86.56 86.75 86.94 87.15 87.46 87.61 88.40 88.62 88.74 89.07 89.43 89.79 90.15 90.56 90.96 91.33 91.61 92.00 92.16 91.79 92.79 93.05 93.25 93.61 93.83 94.01 94.18
84.86 84.83 84.93 84.14 85.15 85.16 85.19 85.54 85.68 85.71 85.60 85.50 85.47 85.58 85.59 85.62 85.68 85.77 85.90 86.08 86.23 86.32 86.39 86.45 86.57 86.68 86.84 87.09 87.43 87.72 88.38 88.60 88.72 88.94 89.27 89.74 90.12 90.49 90.92 91.32 91.70 92.03 92.35 92.55 92.65 91.53 93.24 93.49 93.72 93.99 94.25 94.49
84.92 84.90 85.06 85.05 85.18 85.20 85.21 85.32 85.38 85.55 85.82 85.83 85.69 85.63 85.64 85.74 85.81 85.91 86.04 86.23 86.36 86.42 86.46 86.57 86.64 86.79 86.99 87.38 87.71 88.35 88.59 88.74 88.89 89.23 89.61 90.03 90.45 90.88 91.27 91.68 92.08 92.35 92.67 92.83 93.05 92.94 92.79 93.66 93.96 94.20 94.48 94.67
84.92 84.95 85.08 84.97 85.07 85.10 85.25 85.37 85.45 85.49 85.52 85.65 85.96 85.97 85.92 85.84 85.90 86.05 86.21 86.35 86.43 86.50 86.57 86.68 86.82 86.97 87.34 87.71 88.08 88.54 88.72 88.86 89.14 89.57 89.98 90.38 90.84 91.24 91.68 92.08 92.43 92.73 92.96 93.17 93.31 93.50 92.86 93.86 94.07 94.42 94.63 94.84
84.92 84.97 85.07 85.02 85.04 85.14 85.27 85.42 85.50 85.57 85.58 85.57 85.58 85.64 86.15 86.28 86.24 86.21 86.33 86.46 86.54 86.55 86.68 86.82 86.96 87.38 87.72 87.74 88.57 88.71 88.87 89.10 89.47 89.91 90.38 90.81 91.25 91.63 92.08 92.46 92.81 93.11 93.31 93.46 93.64 93.76 93.87 93.17 94.26 94.39 94.76 94.93
84.94 85.01 84.39 85.07 85.14 85.23 85.34 85.46 85.53 85.61 85.67 85.66 85.66 85.72 85.77 85.88 86.36 86.66 86.67 86.61 86.65 86.67 86.84 86.96 87.33 87.78 87.82 88.63 88.70 88.89 89.09 89.41 89.83 90.25 90.75 91.26 91.65 92.03 92.48 92.85 93.17 93.44 93.65 93.75 93.88 94.00 94.13 94.16 94.23 94.52 94.72 95.00
84.97 85.07 84.69 85.20 85.24 85.23 85.39 85.50 85.57 85.68 85.76 85.79 85.81 85.86 85.93 86.09 86.28 86.39 86.69 86.99 86.97 86.94 87.04 87.26 87.71 87.97 88.71 88.75 88.83 89.11 89.44 89.81 90.21 90.65 91.13 91.61 92.03 92.43 92.83 93.21 93.53 93.79 93.97 94.09 94.15 94.28 94.35 94.47 93.87 94.63 94.79 95.06
85.03 85.28 85.16 85.10 85.19 85.28 85.40 85.55 85.69 85.79 85.85 85.87 85.91 86.00 86.13 86.30 86.44 86.59 86.68 86.74 86.96 87.34 87.36 87.58 87.92 88.73 88.78 88.86 89.11 89.43 89.82 90.19 90.59 91.05 91.51 91.96 92.40 92.79 93.18 93.53 93.88 94.12 94.31 94.42 94.47 94.53 94.65 94.65 94.70 94.72 94.90 95.10
85.11 85.42 85.17 85.29 85.22 85.35 85.56 85.67 85.77 85.87 85.93 85.96 86.01 86.13 86.32 86.50 86.63 86.73 86.76 86.91 87.01 87.16 87.65 88.02 88.81 88.81 88.98 89.11 89.42 89.77 90.19 90.62 91.05 91.47 91.92 92.33 92.73 93.13 93.53 93.84 94.15 94.41 94.60 94.73 94.82 94.89 94.93 94.90 94.93 94.67 95.03 95.29
85.18 85.15 85.09 85.45 85.39 85.53 85.68 85.79 85.85 85.94 86.00 86.06 86.15 86.31 86.47 86.66 86.75 86.82 86.89 87.08 87.24 87.49 88.12 88.67 88.81 88.99 89.10 89.40 89.81 90.18 90.56 91.00 91.44 91.90 92.30 92.71 93.10 93.46 93.86 94.15 94.46 94.70 94.89 95.07 95.15 95.24 95.28 95.25 95.15 94.84 95.20 95.31
85.24 84.33 85.34 85.37 85.54 85.70 85.79 85.88 85.98 86.07 86.11 86.19 86.31 86.49 86.71 86.82 86.88 86.97 87.10 87.36 87.58 88.25 88.54 88.75 88.96 89.18 89.39 89.75 90.22 90.63 91.01 91.41 91.85 92.27 92.68 93.06 93.43 93.80 94.18 94.47 94.74 94.99 95.21 95.37 95.47 95.54 95.55 95.55 95.46 95.43 95.22 95.46
85.39 85.36 85.43 85.45 85.57 85.68 85.85 86.03 86.08 86.18 86.24 86.34 86.46 86.69 86.87 86.93 87.01 87.12 87.29 87.65 88.25 88.15 88.78 88.99 89.19 89.47 89.78 90.18 90.63 91.07 91.45 91.82 92.24 92.61 93.04 93.43 93.81 94.17 94.51 94.81 95.04 95.27 95.50 95.67 95.73 95.77 95.79 95.78 95.72 95.67 95.30 95.58
85.46 85.35 85.40 85.46 85.63 85.85 86.00 86.08 86.19 86.32 86.39 86.46 86.64 86.85 86.96 87.08 87.17 87.32 87.62 88.18 88.08 88.79 89.02 89.17 89.52 89.83 90.18 90.62 91.03 91.49 91.89 92.26 92.69 93.04 93.43 93.83 94.18 94.52 94.85 95.10 95.36 95.58 95.80 95.95 96.00 96.03 96.08 96.00 95.96 95.92 95.75 95.66
85.60 85.42 85.46 85.59 85.75 85.97 86.08 86.25 86.39 86.52 86.55 86.69 86.83 86.97 87.13 87.26 87.40 87.66 87.97 88.35 88.85 89.01 89.12 89.50 89.96 90.19 90.58 91.03 91.45 91.88 92.32 92.71 93.13 93.48 93.86 94.23 94.54 94.84 95.12 95.40 95.67 95.87 96.09 96.22 96.30 96.35 96.32 96.25 96.16 96.08 96.07 95.78
85.16 85.48 85.53 85.67 85.84 86.05 86.21 86.33 86.47 86.57 86.74 86.87 87.08 87.19 87.32 87.46 87.64 87.80 88.38 88.71 89.07 89.21 89.55 89.81 90.35 90.62 90.98 91.43 91.87 92.30 92.75 93.17 93.58 93.94 94.26 94.57 94.88 95.12 95.40 95.64 95.92 96.11 96.33 96.47 96.58 96.63 96.60 96.51 96.35 96.27 96.25 96.16
85.20 85.60 85.62 85.78 85.97 86.12 86.29 86.43 86.53 86.64 86.74 86.91 87.13 87.29 87.49 87.54 87.72 88.31 88.84 88.99 89.18 90.07 90.05 90.24 90.72 90.97 91.38 91.84 92.30 92.75 93.18 93.57 93.97 94.35 94.61 94.87 95.12 95.38 95.64 95.87 96.13 96.34 96.56 96.73 96.84 96.91 96.86 96.80 96.64 96.48 96.39 96.41
85.71 85.71 85.79 85.92 86.07 86.25 86.38 86.49 86.65 86.73 86.89 87.01 87.17 87.34 87.61 87.68 88.27 88.29 88.68 89.03 89.57 89.85 90.62 91.11 90.99 91.27 91.76 92.24 92.74 93.20 93.60 93.96 94.32 94.64 94.92 95.13 95.37 95.63 95.89 96.14 96.33 96.55 96.78 96.95 97.07 97.16 97.12 97.06 96.95 96.78 96.68 96.63
85.70 85.75 85.87 86.04 86.21 86.36 86.50 86.61 86.75 86.87 86.98 87.11 87.32 87.51 87.69 88.09 87.97 88.51 88.90 89.32 89.71 90.17 90.49 90.94 91.24 91.55 92.07 92.64 93.12 93.57 93.96 94.32 94.65 94.89 95.19 95.39 95.60 95.88 96.12 96.39 96.62 96.85 97.06 97.25 97.35 97.41 97.37 97.28 97.14 96.99 96.87 96.77
85.76 85.85 85.96 86.13 86.31 86.47 86.60 86.78 86.90 87.01 87.15 87.32 87.51 87.73 87.96 88.28 88.50 88.76 89.16 89.60 90.14 90.46 90.54 90.94 91.44 91.79 92.35 92.97 93.47 93.90 94.29 94.63 94.93 95.18 95.43 95.67 95.89 96.16 96.41 96.68 96.92 97.14 97.36 97.53 97.62 97.61 97.53 97.40 97.29 97.14 97.01 96.90
85.85 85.96 86.09 86.25 86.42 86.54 86.70 86.85 87.03 87.15 87.30 87.51 87.68 88.01 88.37 88.57 88.75 89.08 89.50 90.02 90.49 90.86 91.21 91.42 91.79 92.06 92.60 93.23 93.79 94.18 94.54 94.91 95.18 95.45 95.71 95.96 96.17 96.42 96.64 96.89 97.10 97.29 97.50 97.66 97.74 97.72 97.65 97.53 97.42 97.29 97.15 97.04
85.94 86.04 86.19 86.33 86.51 86.66 86.82 86.97 87.12 87.24 87.45 87.66 87.96 88.34 88.42 88.82 89.07 89.48 89.85 90.35 90.81 91.15 91.51 91.70 92.19 92.40 92.92 93.51 94.08 94.47 94.81 95.15 95.42 95.68 95.92 96.12 96.33 96.55 96.73 96.94 97.19 97.40 97.59 97.75 97.82 97.81 97.77 97.68 97.56 97.43 97.33 97.23
85.96 86.05 86.22 86.41 86.62 86.82 86.96 87.11 87.26 87.41 87.61 87.84 88.22 88.46 88.91 89.10 89.51 89.81 90.20 90.66 91.11 91.55 91.91 91.80 92.62 92.83 93.28 93.82 94.31 94.69 95.00 95.30 95.56 95.79 96.01 96.21 96.40 96.62 96.85 97.05 97.29 97.54 97.73 97.85 97.94 97.93 97.88 97.82 97.69 97.59 97.51 97.43
86.10 86.17 86.35 86.47 86.71 86.90 87.11 87.27 87.42 87.58 87.73 88.10 88.62 88.97 89.20 89.48 89.75 90.10 90.54 90.96 91.46 91.85 92.38 92.59 93.14 93.37 93.76 94.08 94.43 94.81 95.10 95.40 95.67 95.91 96.13 96.37 96.57 96.79 96.98 97.21 97.43 97.71 97.93 98.03 98.07 98.07 98.01 97.94 97.86 97.76 97.70 97.64
86.19 86.28 86.44 86.60 86.79 86.99 87.17 87.38 87.59 87.75 88.01 88.58 88.82 89.19 89.46 89.76 90.05 90.41 90.81 91.30 91.78 92.22 92.79 93.50 93.53 93.76 94.06 94.33 94.61 94.99 95.36 95.64 95.92 96.12 96.37 96.60 96.79 97.01 97.20 97.43 97.67 97.90 98.08 98.20 98.20 98.21 98.15 98.10 98.03 97.96 97.91 97.87
86.27 86.34 86.49 86.67 86.90 87.04 87.24 87.43 87.64 87.91 88.29 88.60 89.13 89.35 89.75 90.06 90.46 90.82 91.26 91.69 92.16 92.59 93.17 93.72 93.83 94.10 94.40 94.69 95.00 95.36 95.66 95.94 96.21 96.42 96.61 96.81 97.03 97.21 97.43 97.69 97.90 98.10 98.26 98.34 98.36 98.38 98.32 98.28 98.22 98.16 98.15 98.12
86.38 86.48 86.60 86.77 87.02 87.17 87.39 87.62 87.83 88.18 88.71 89.07 89.34 89.71 90.04 90.44 90.79 91.21 91.65 92.11 92.56 92.97 93.54 93.91 94.10 94.48 94.81 95.08 95.44 95.74 96.01 96.24 96.43 96.66 96.85 97.00 97.22 97.43 97.64 97.91 98.12 98.30 98.42 98.49 98.54 98.53 98.49 98.47 98.39 98.36 98.33 98.36
86.44 86.55 86.74 86.93 87.12 87.31 87.58 87.74 88.11 88.71 88.93 89.28 89.56 90.01 90.47 90.88 91.29 91.69 92.12 92.57 92.97 93.35 93.88 94.24 94.46 94.85 95.17 95.45 95.77 96.04 96.30 96.49 96.68 96.88 97.06 97.21 97.43 97.65 97.86 98.10 98.33 98.49 98.60 98.67 98.71 98.68 98.66 98.64 98.56 98.53 98.53 98.50
86.58 86.69 86.85 87.06 87.25 87.47 87.74 88.02 88.40 88.68 89.18 89.47 89.95 90.34 90.75 91.25 91.67 92.10 92.51 92.92 93.36 93.80 94.22 94.61 94.79 95.16 95.49 95.76 96.04 96.31 96.52 96.71 96.91 97.10 97.28 97.45 97.64 97.85 98.08 98.27 98.46 98.67 98.78 98.84 98.85 98.86 98.82 98.81 98.76 98.72 98.71 98.69
86.70 86.81 87.00 87.19 87.43 87.65 87.93 88.30 88.87 89.17 89.45 89.76 90.16 90.68 91.18 91.59 92.03 92.49 92.93 93.31 93.77 94.14 94.52 94.95 95.10 95.46 95.77 96.06 96.31 96.55 96.74 96.93 97.12 97.29 97.49 97.66 97.86 98.04 98.26 98.46 98.65 98.82 98.94 99.02 99.02 99.02 99.01 98.96 98.94 98.93 98.92 98.88
86.82 86.96 87.10 87.32 87.57 87.81 88.19 88.93 89.14 89.35 89.69 90.08 90.51 91.11 91.56 91.98 92.42 92.80 93.27 93.68 94.13 94.50 94.54 95.22 95.39 95.72 96.04 96.34 96.57 96.77 96.96 97.12 97.33 97.49 97.65 97.86 98.04 98.21 98.46 98.66 98.85 99.01 99.11 99.18 99.18 99.18 99.18 99.15 99.10 99.11 99.10 99.08
86.90 87.04 87.24 87.48 87.73 88.04 88.41 88.81 89.29 89.52 89.94 90.34 90.89 91.44 91.90 92.34 92.76 93.20 93.63 93.99 94.36 94.83 94.78 95.48 95.67 96.01 96.26 96.55 96.79 96.96 97.17 97.33 97.54 97.71 97.85 98.05 98.22 98.42 98.64 98.85 99.02 99.18 99.26 99.30 99.33 99.31 99.32 99.26 99.25 99.25 99.28 99.30
87.01 87.14 87.38 87.63 87.91 88.28 88.90 89.12 89.41 89.65 90.08 90.58 91.18 91.75 92.21 92.63 93.09 93.50 93.93 94.30 94.62 95.09 95.68 95.72 95.92 96.24 96.50 96.76 97.00 97.21 97.39 97.53 97.72 97.90 98.05 98.24 98.39 98.58 98.78 98.95 99.15 99.31 99.40 99.43 99.44 99.47 99.46 99.45 99.44 99.46 99.52 99.59
87.15 87.28 87.54 87.81 88.17 88.87 89.17 89.36 89.58 89.93 90.43 90.89 91.49 92.04 92.47 92.89 93.32 93.77 94.22 94.58 94.89 95.38 95.99 95.96 96.19 96.51 96.74 97.00 97.22 97.41 97.60 97.74 97.90 98.04 98.19 98.36 98.51 98.72 98.89 99.07 99.28 99.44 99.57 99.60 99.65 99.72 99.69 99.71 99.74 99.76 99.76 99.74
87.21 87.42 87.67 88.04 88.47 88.77 89.39 89.57 89.92 90.27 90.75 91.27 91.89 92.32 92.78 93.23 93.62 94.06 94.43 94.83 95.21 95.64 96.14 96.17 96.47 96.73 96.98 97.25 97.42 97.61 97.79 97.90 98.03 98.18 98.35 98.53 98.69 98.86 99.04 99.23 99.49 99.64 99.76 99.83 99.86 99.89 99.88 99.86 99.92 100.00 99.91 99.98
87.33 87.56 87.83 88.23 88.86 89.35 89.54 89.90 90.21 90.64 91.15 91.65 92.20 92.68 93.10 93.47 93.90 94.35 94.71 95.07 95.45 95.91 96.30 96.35 96.68 96.89 97.18 97.44 97.61 97.79 97.97 98.08 98.20 98.37 98.60 98.79 98.90 99.12 99.30 99.46 99.61 99.72 99.82 99.97 100.07 99.99 99.99 99.90 99.85 99.85 99.92 99.96
87.53 87.72 88.10 88.81 89.21 89.47 89.69 90.04 90.47 90.94 91.48 92.01 92.55 92.99 93.38 93.86 94.15 94.62 94.98 95.31 95.66 96.06 96.46 96.55 96.83 97.10 97.37 97.60 97.84 98.07 98.22 98.35 98.52 98.67 98.85 98.99 99.10 99.25 99.49 99.62 99.70 99.78 99.76 99.92 99.98 100.02 99.97 99.95 99.93 99.93 99.94 100.05
87.71 87.96 88.48 88.86 89.26 89.55 89.95 90.26 90.76 91.31 91.79 92.35 92.86 93.30 93.73 94.17 94.51 94.88 95.17 95.55 95.85 96.20 96.67 96.77 97.06 97.37 97.68 97.92 98.13 98.31 98.43 98.53 98.68 98.86 99.04 99.11 99.18 99.34 99.40 99.49 99.62 99.68 99.83 99.92 100.01 100.07 100.04 100.00 99.98 100.01 100.06 100.15
87.86 88.22 88.73 89.25 89.38 89.82 90.12 90.64 91.18 91.67 92.26 92.78 93.26 93.68 94.09 94.50 94.84 95.17 95.45 95.76 96.07 96.36 96.93 97.04 97.31 97.53 97.79 98.02 98.23 98.42 98.62 98.80 99.00 99.04 99.06 99.05 99.12 99.32 99.47 99.55 99.67 99.74 99.85 99.97 100.07 100.12 100.15 100.12 100.10 100.11 100.17 100.24
88.14 88.79 89.17 89.37 89.60 89.99 90.45 91.00 91.57 92.15 92.71 93.22 93.71 94.16 94.54 94.89 95.14 95.41 95.62 95.91 96.29 96.26 97.00 97.10 97.39 97.69 97.94 98.29 98.52 98.63 98.79 98.86 98.98 99.06 99.12 99.12 99.20 99.32 99.46 99.56 99.67 99.78 99.89 100.00 100.15 100.21 100.22 100.23 100.24 100.21 100.25 100.32
88.36 88.96 89.31 89.46 89.91 90.30 90.83 91.32 91.91 92.50 93.00 93.56 93.98 94.42 94.86 95.22 95.51 95.78 95.92 96.26 96.62 96.97 97.27 97.44 97.62 97.91 98.12 98.35 98.57 98.69 98.89 98.99 99.02 99.14 99.22 99.20 99.30 99.38 99.51 99.64 99.70 99.81 99.89 100.01 100.13 100.25 100.30 100.34 100.33 100.33 100.36 100.44
88.84 89.19 89.41 89.62 90.02 90.53 91.14 91.66 92.29 92.78 93.35 93.83 94.26 94.70 95.06 95.47 95.79 96.05 96.33 96.58 96.90 97.19 97.32 97.49 97.73 97.99 98.26 98.45 98.63 98.80 98.99 99.16 99.18 99.25 99.40 99.32 99.40 99.48 99.52 99.65 99.75 99.82 99.95 100.06 100.18 100.29 100.36 100.39 100.42 100.42 100.48 100.52
88.86 89.28 89.42 89.83 90.17 90.60 91.23 91.89 92.50 93.06 93.56 94.04 94.52 94.94 95.36 95.78 96.04 96.32 96.52 96.75 97.07 97.29 97.38 97.61 97.86 98.11 98.34 98.51 98.74 98.88 99.06 99.24 99.32 99.36 99.57 99.44 99.51 99.57 99.64 99.73 99.82 99.88 99.98 100.07 100.19 100.32 100.41 100.49 100.51 100.56 100.57 100.61
88.86 89.37 89.64 89.89 90.32 90.83 91.44 92.01 92.63 93.23 93.77 94.22 94.62 95.05 95.49 95.96 96.29 96.52 96.74 96.88 97.17 97.33 97.43 97.69 97.93 98.18 98.43 98.61 98.82 98.98 99.14 99.35 99.47 99.47 99.57 99.56 99.59 99.64 99.67 99.78 99.86 99.93 100.03 100.10 100.21 100.36 100.47 100.53 100.61 100.65 100.65 100.71
89.26 89.43 89.67 89.90 90.43 91.03 91.58 92.23 92.79 93.29 93.82 94.29 94.72 95.14 95.52 96.01 96.36 96.59 96.82 96.97 97.17 97.32 97.43 97.73 98.01 98.25 98.52 98.72 98.93 99.11 99.24 99.47 99.59 99.60 99.68 99.68 99.68 99.71 99.78 99.89 99.96 99.99 100.04 100.13 100.22 100.33 100.47 100.57 100.65 100.71 100.76 100.80
89.37 89.51 89.80 90.09 90.58 91.04 91.71 92.29 92.87 93.42 93.89 94.42 94.85 95.26 95.62 96.03 96.31 96.55 96.75 97.02 96.99 97.33 97.45 97.73 98.06 98.30 98.58 98.82 99.01 99.19 99.33 99.54 99.68 99.74 99.76 99.85 99.76 99.79 99.86 99.93 100.01 100.04 100.10 100.20 100.28 100.41 100.54 100.66 100.74 100.82 100.88 100.92
89.44 89.68 89.99 90.34 90.74 91.26 91.78 92.33 92.84 93.43 93.92 94.41 94.86 95.33 95.73 96.09 96.34 96.51 96.74 96.99 97.04 97.32 97.47 97.75 98.05 98.34 98.61 98.86 99.07 99.25 99.40 99.59 99.75 99.86 99.86 100.04 99.86 99.87 99.97 99.99 100.07 100.15 100.21 100.26 100.32 100.45 100.63 100.74 100.83 100.90 100.97 101.00
89.73 90.00 90.23 90.64 91.10 91.52 92.05 92.51 92.93 93.44 93.93 94.41 94.84 95.31 95.73 96.10 96.29 96.47 96.75 96.95 97.14 97.24 97.46 97.76 98.02 98.34 98.62 98.89 99.08 99.33 99.51 99.64 99.84 99.97 99.99 100.07 99.99 99.98 100.03 100.07 100.15 100.21 100.27 100.33 100.43 100.56 100.69 100.82 100.93 101.01 101.07 101.09
89.92 90.24 90.58 91.07 91.54 91.96 92.45 92.81 93.29 93.72 94.08 94.54 94.92 95.33 95.77 96.04 96.28 96.42 96.57 96.92 97.01 97.15 97.45 97.69 98.03 98.32 98.60 98.90 99.15 99.37 99.58 99.77 99.90 100.04 100.08 100.15 100.06 100.05 100.11 100.17 100.25 100.33 100.38 100.49 100.56 100.64 100.77 100.87 100.98 101.08 101.13 101.15
90.24 90.49 90.94 91.43 91.95 92.39 92.81 93.36 93.78 94.16 94.54 94.92 95.16 95.52 95.85 96.12 96.32 96.41 96.57 96.93 96.97 97.07 97.39 97.63 97.98 98.28 98.57 98.89 99.17 99.43 99.63 99.79 99.97 100.10 100.18 100.26 100.29 100.16 100.24 100.28 100.35 100.43 100.49 100.54 100.65 100.73 100.80 100.94 101.02 101.08 101.15 101.16
90.52 90.85 91.34 91.84 92.35 92.83 93.25 93.69 94.07 94.58 94.96 95.33 95.52 95.71 95.94 96.18 96.37 96.55 96.68 96.97 96.94 97.04 97.29 97.57 97.89 98.24 98.54 98.85 99.13 99.39 99.59 99.81 99.95 100.10 100.25 100.27 100.46 100.29 100.31 100.40 100.42 100.50 100.57 100.62 100.68 100.76 100.83 100.94 101.01 101.11 101.15 101.17
90.85 91.28 91.74 92.27 92.76 93.25 93.68 94.07 94.44 94.79 95.16 95.51 95.79 95.97 96.10 96.24 96.43 96.54 96.70 96.84 96.90 97.07 97.29 97.55 97.84 98.13 98.44 98.74 99.03 99.28 99.60 99.80 99.93 100.10 100.23 100.31 100.44 100.39 100.43 100.44 100.47 100.51 100.59 100.66 100.71 100.78 100.85 100.93 101.05 101.12 101.21 101.22
91.18 91.65 92.22 92.72 93.22 93.65 94.04 94.42 94.73 95.04 95.40 95.70 95.97 96.07 96.13 96.24 96.36 96.56 96.57 96.29 96.88 97.03 97.32 97.50 97.73 98.01 98.31 98.58 98.90 99.21 99.54 99.81 99.97 100.12 100.22 100.28 100.48 100.47 100.45 100.48 100.50 100.57 100.68 100.71 100.78 100.88 100.90 100.94 101.07 101.15 101.25 101.25
