ncols 52
nrows 52
xllcorner 440320
yllcorner 5713920
cellsize 10
NODATA_value -9999
95.71 95.65 95.65 95.02 95.19 95.19 95.17 95.34 95.29 95.21 95.11 95.01 94.98 94.98 94.98 94.97 94.96 94.81 94.81 94.71 94.71 94.82 94.90 94.86 94.84 94.75 94.69 94.64 94.64 94.47 94.45 94.54 94.56 94.71 94.66 94.69 94.62 94.76 94.77 94.73 94.76 94.81 94.88 94.88 94.72 94.58 94.49 94.43 94.35 94.35 94.35 94.25
95.40 95.28 95.32 95.33 95.38 95.24 95.25 95.37 95.35 95.27 95.19 95.16 95.16 95.12 95.15 95.11 95.10 94.90 94.86 94.80 94.81 94.95 95.03 95.01 94.94 94.85 94.81 94.70 94.63 94.62 94.49 94.58 94.66 94.76 94.81 94.78 94.83 94.87 94.87 94.82 94.82 94.84 94.89 94.92 94.74 94.52 94.49 94.43 94.46 94.36 94.38 94.35
95.45 95.40 95.35 95.31 95.29 95.31 95.40 95.51 95.43 95.35 95.29 95.26 95.29 95.26 95.29 95.30 95.24 95.12 95.08 94.96 94.97 95.06 95.12 95.09 95.03 94.93 94.88 94.85 94.83 94.77 94.72 94.77 94.84 94.82 94.84 94.90 95.00 94.99 94.92 94.89 94.89 94.96 95.01 94.89 94.72 94.64 94.67 94.57 94.59 94.59 94.57 94.60
95.46 95.42 95.43 95.40 95.36 95.40 95.49 95.61 95.51 95.42 95.36 95.37 95.39 95.37 95.40 95.35 95.35 95.27 95.24 95.12 95.09 95.18 95.20 95.16 95.09 95.03 94.96 94.94 94.94 94.92 94.90 94.92 94.90 94.86 94.95 94.96 95.08 95.12 95.07 95.00 95.01 95.06 95.08 94.89 94.81 94.81 94.74 94.71 94.83 94.96 95.00 94.97
95.51 95.49 95.53 95.50 95.46 95.52 95.60 95.66 95.57 95.51 95.44 95.43 95.46 95.46 95.49 95.47 95.46 95.38 95.37 95.22 95.25 95.28 95.24 95.21 95.12 95.06 95.02 95.04 95.08 95.06 95.04 95.06 95.07 94.95 94.99 95.05 95.20 95.23 95.18 95.15 95.12 95.17 95.13 95.09 94.97 95.04 95.11 95.08 95.08 94.33 94.87 94.78
95.62 95.61 95.61 95.62 95.60 95.61 95.71 95.72 95.63 95.57 95.53 95.47 95.55 95.56 95.56 95.56 95.57 95.50 95.43 95.35 95.32 95.33 95.32 95.26 95.21 95.10 95.04 95.12 95.14 95.12 95.24 95.17 95.16 95.07 95.12 95.16 95.20 95.35 95.27 95.23 95.25 95.34 95.32 95.23 95.21 94.87 94.82 94.81 94.70 94.75 94.76 94.77
95.79 95.79 95.77 95.77 95.73 95.74 95.83 95.80 95.69 95.67 95.64 95.59 95.59 95.65 95.62 95.62 95.67 95.57 95.42 95.41 95.44 95.41 95.37 95.32 95.25 95.16 95.15 95.19 95.25 95.22 95.29 95.35 95.28 95.23 95.29 95.31 95.37 95.41 95.61 95.50 95.57 95.45 94.84 95.07 95.00 94.89 94.82 94.83 94.80 94.80 94.82 94.80
95.98 95.96 95.92 95.92 95.87 95.86 95.93 95.89 95.79 95.77 95.73 95.71 95.68 95.71 95.69 95.74 95.74 95.61 95.45 95.51 95.54 95.47 95.44 95.38 95.27 95.19 95.25 95.30 95.32 95.35 95.54 95.49 95.42 95.47 95.49 95.50 95.68 95.62 95.35 95.41 95.28 95.18 95.07 95.03 95.09 94.96 94.88 94.89 94.91 94.88 94.85 94.85
96.13 96.08 96.07 96.08 96.02 96.00 96.03 95.97 95.89 95.90 95.86 95.84 95.78 95.80 95.81 95.82 95.81 95.70 95.52 95.60 95.62 95.56 95.47 95.40 95.35 95.34 95.41 95.46 95.50 95.59 95.64 95.64 95.67 95.79 95.69 95.36 95.52 95.49 95.45 95.33 95.25 95.21 95.14 95.16 95.18 95.06 95.03 95.03 95.02 95.01 94.96 94.90
96.19 96.19 96.18 96.17 96.14 96.11 96.12 96.03 95.96 95.95 95.96 95.95 95.90 95.90 95.89 95.90 95.88 95.82 95.68 95.72 95.67 95.62 95.54 95.53 95.51 95.52 95.65 95.75 95.75 95.84 95.80 95.39 95.52 95.45 95.51 95.44 95.46 95.53 95.52 95.42 95.33 95.28 95.26 95.25 95.32 95.17 95.16 95.17 95.13 95.05 95.05 94.97
96.26 96.25 96.23 96.22 96.16 96.16 96.14 96.05 96.01 96.00 96.04 96.02 95.98 96.00 95.96 95.99 95.96 95.88 95.85 95.86 95.81 95.83 95.80 95.82 95.79 95.87 95.89 95.82 95.34 95.72 95.63 95.57 95.60 95.60 95.54 95.57 95.54 95.61 95.62 95.52 95.43 95.38 95.37 95.38 95.39 95.29 95.25 95.21 95.19 95.13 95.07 95.04
96.31 96.31 96.27 96.24 96.21 96.20 96.16 96.10 96.04 96.04 96.08 96.04 96.01 96.04 96.00 96.01 96.01 96.00 95.92 96.11 96.07 96.06 96.12 96.10 95.55 95.67 95.75 95.70 95.69 95.76 95.68 95.75 95.68 95.73 95.68 95.70 95.64 95.68 95.64 95.57 95.49 95.47 95.41 95.42 95.43 95.35 95.30 95.30 95.23 95.21 95.13 95.10
96.31 96.32 96.28 96.25 96.28 96.27 96.21 96.15 96.07 96.11 96.16 96.09 96.03 96.09 96.17 96.18 96.12 96.19 96.29 96.30 96.19 95.54 95.93 95.83 95.80 95.75 95.74 95.75 95.79 95.83 95.83 95.83 95.82 95.88 95.77 95.79 95.74 95.77 95.71 95.65 95.56 95.54 95.54 95.51 95.52 95.44 95.39 95.35 95.29 95.27 95.23 95.18
96.31 96.34 96.29 96.29 96.33 96.32 96.25 96.18 96.13 96.23 96.23 96.24 96.29 96.35 96.38 96.40 96.40 95.88 96.07 96.08 96.03 96.03 95.97 95.87 95.87 95.87 95.92 95.83 95.88 95.93 95.90 95.92 95.88 95.94 95.87 95.87 95.84 95.82 95.80 95.69 95.63 95.61 95.61 95.59 95.58 95.49 95.46 95.46 95.44 95.40 95.33 95.31
96.30 96.35 96.32 96.34 96.34 96.35 96.32 96.29 96.35 96.41 96.46 96.66 96.64 96.64 96.02 96.21 96.23 96.25 96.25 96.09 96.07 96.08 96.01 96.07 95.99 95.92 95.99 95.98 96.02 96.09 96.10 96.06 96.13 96.07 96.07 96.02 95.94 95.95 95.86 95.83 95.73 95.72 95.70 95.68 95.73 95.60 95.56 95.54 95.51 95.49 95.41 95.31
96.39 96.40 96.39 96.46 96.46 96.42 96.42 96.47 96.70 96.70 96.19 96.30 96.34 96.40 96.41 96.11 96.23 96.26 96.30 96.22 96.16 96.09 96.10 96.11 96.13 96.11 96.12 96.11 96.20 96.24 96.23 96.27 96.29 96.26 96.39 96.11 96.02 96.06 96.00 95.94 95.83 95.79 95.79 95.76 95.79 95.71 95.64 95.58 95.53 95.43 95.34 95.22
96.53 96.59 96.60 96.62 96.78 96.78 96.60 96.07 96.41 96.48 96.51 96.52 96.44 96.36 96.35 96.28 96.40 96.34 96.26 96.30 96.20 96.19 96.16 96.21 96.17 96.19 96.25 96.22 96.28 96.32 96.36 96.40 96.41 96.42 96.47 96.18 96.15 96.11 96.08 96.01 95.83 95.81 95.78 95.76 95.74 95.69 95.58 95.51 95.42 95.33 95.20 95.10
96.64 96.91 96.93 96.53 96.71 96.68 96.64 96.57 96.55 96.43 96.46 96.43 96.43 96.43 96.40 96.35 96.47 96.40 96.32 96.33 96.28 96.26 96.24 96.33 96.30 96.27 96.32 96.22 96.23 96.30 96.36 96.37 96.37 96.37 96.53 96.19 96.15 96.13 96.09 95.97 95.83 95.74 95.71 95.67 95.67 95.58 95.49 95.41 95.30 95.20 95.15 95.09
96.49 96.72 96.86 96.87 96.78 96.63 96.51 96.47 96.49 96.53 96.56 96.57 96.55 96.51 96.47 96.46 96.54 96.51 96.42 96.47 96.38 96.35 96.33 96.44 96.36 96.34 96.29 96.28 96.24 96.29 96.37 96.38 96.34 96.36 96.49 96.29 96.18 96.15 96.08 95.98 95.87 95.75 95.72 95.66 95.63 95.60 95.48 95.43 95.37 95.37 95.40 95.41
96.97 96.96 96.90 96.88 96.77 96.71 96.65 96.56 96.52 96.61 96.65 96.60 96.61 96.60 96.59 96.52 96.66 96.60 96.55 96.57 96.48 96.48 96.43 96.46 96.43 96.41 96.37 96.36 96.32 96.33 96.38 96.39 96.39 96.37 96.47 96.29 96.25 96.21 96.13 96.05 95.97 95.92 95.90 95.88 95.89 95.79 95.69 95.67 95.67 95.67 95.65 95.64
96.93 96.87 96.90 96.97 96.94 96.89 96.82 96.67 96.69 96.68 96.71 96.68 96.68 96.68 96.65 96.63 96.75 96.69 96.67 96.63 96.53 96.60 96.53 96.51 96.52 96.46 96.43 96.40 96.38 96.42 96.46 96.48 96.43 96.40 96.47 96.35 96.29 96.26 96.15 96.10 96.06 96.03 96.02 96.03 96.08 96.04 95.91 95.88 95.85 95.83 95.79 95.74
96.80 96.81 96.94 97.05 97.10 97.10 96.95 96.70 96.78 96.77 96.79 96.72 96.75 96.77 96.72 96.71 96.74 96.83 96.78 96.72 96.64 96.65 96.62 96.60 96.61 96.54 96.51 96.48 96.48 96.51 96.58 96.56 96.50 96.46 96.51 96.39 96.35 96.30 96.25 96.18 96.13 96.11 96.06 96.10 96.15 96.18 96.06 95.96 95.92 95.87 95.88 95.82
99.46 98.38 97.92 97.60 96.89 96.94 96.99 96.91 96.88 96.87 96.85 96.82 96.81 96.82 96.81 96.79 96.79 96.87 96.86 96.79 96.72 96.71 96.74 96.67 96.65 96.62 96.58 96.56 96.57 96.59 96.67 96.67 96.56 96.55 96.61 96.47 96.41 96.35 96.31 96.25 96.23 96.16 96.15 96.13 96.21 96.27 96.10 96.09 95.98 96.01 95.84 96.36
105.64 104.62 104.16 103.78 103.06 101.15 98.69 97.01 97.01 97.04 96.96 96.88 96.87 96.91 96.89 96.85 96.89 96.94 96.91 96.85 96.84 96.78 96.79 96.80 96.75 96.69 96.67 96.65 96.67 96.65 96.74 96.74 96.64 96.62 96.65 96.57 96.49 96.42 96.38 96.31 96.32 96.27 96.21 96.24 96.32 96.42 96.32 96.16 96.69 96.72 96.74 96.73
106.68 106.32 105.80 105.16 104.59 104.06 103.59 99.60 97.10 97.18 97.06 96.95 96.94 96.96 96.96 96.92 96.97 97.01 96.97 96.95 96.87 96.87 96.83 96.86 96.86 96.76 96.76 96.73 96.71 96.76 96.81 96.82 96.75 96.69 96.74 96.64 96.57 96.52 96.45 96.38 96.44 96.48 96.50 96.35 96.71 96.93 96.94 96.94 96.88 96.63 96.07 95.86
105.93 105.46 104.80 104.21 103.73 103.40 103.04 103.03 98.65 97.21 97.24 97.07 97.01 97.03 97.03 97.03 97.03 97.07 97.05 97.03 96.98 96.96 96.90 96.90 96.86 96.83 96.86 96.86 96.85 96.82 96.89 96.85 96.86 96.87 96.84 96.66 96.69 96.66 96.59 96.64 96.40 97.11 97.13 97.15 97.18 96.97 96.81 95.88 96.13 96.05 95.97 95.82
105.85 103.02 100.87 100.37 100.21 101.88 102.43 102.25 101.78 97.12 97.33 97.23 97.11 97.11 97.09 97.08 97.03 97.12 97.18 97.14 97.08 97.00 96.99 97.04 96.99 96.96 96.94 96.95 96.93 96.99 97.00 97.01 97.01 96.99 96.94 96.99 97.05 96.91 97.33 97.34 97.36 97.32 97.12 96.97 96.06 96.36 96.27 96.15 96.05 95.99 95.87 95.81
101.83 101.00 100.59 100.28 100.01 99.64 99.85 101.67 101.81 97.71 97.47 97.37 97.25 97.21 97.19 97.19 97.15 97.25 97.28 97.23 97.17 97.10 97.13 97.10 97.10 97.07 97.11 97.19 97.12 97.12 97.08 97.10 97.29 96.95 97.37 97.55 97.55 97.58 97.44 97.25 96.67 96.41 96.80 96.52 96.32 96.22 96.17 96.11 96.05 95.99 95.90 95.85
101.10 100.75 100.42 100.04 99.80 99.44 99.16 100.57 101.24 98.99 97.62 97.56 97.43 97.36 97.35 97.35 97.29 97.42 97.40 97.36 97.32 97.27 97.30 97.43 97.40 97.25 97.25 97.29 97.27 97.35 96.90 97.70 97.75 97.78 97.80 97.57 97.40 96.61 96.78 96.79 96.68 96.76 96.80 96.49 96.18 96.19 96.14 96.11 96.07 96.01 95.94 95.88
100.89 100.58 100.25 99.88 99.54 99.23 98.89 98.46 100.71 100.02 97.67 97.70 97.59 97.52 97.51 97.51 97.44 97.57 97.57 97.57 97.57 97.51 97.42 97.44 97.43 97.50 97.52 97.34 97.97 97.96 97.99 97.97 97.72 97.49 96.96 97.21 97.17 96.95 96.87 96.71 96.65 96.69 96.85 96.51 96.25 96.21 96.18 96.12 96.09 96.00 95.96 95.93
100.58 100.27 100.04 99.68 99.27 98.97 98.69 98.39 100.20 100.27 97.95 97.81 97.68 97.59 97.54 97.54 97.60 97.85 97.64 97.65 97.79 97.75 97.84 97.57 97.93 98.21 98.21 98.23 98.10 97.90 97.34 97.47 97.62 97.61 97.32 97.36 97.30 97.07 96.88 96.81 96.72 96.82 96.91 96.51 96.27 96.23 96.19 96.18 96.15 96.10 95.97 95.93
100.28 99.97 99.71 99.43 99.13 98.71 98.42 98.19 99.66 99.81 97.07 97.90 97.77 97.60 97.57 97.71 97.69 97.87 97.89 98.10 97.56 98.35 98.43 98.45 98.43 98.22 98.06 97.89 97.80 97.78 97.81 97.69 97.69 97.58 97.65 97.48 97.35 97.27 97.07 96.96 96.89 96.96 96.97 96.50 96.36 96.38 96.38 96.43 96.39 96.22 96.05 96.01
100.07 99.81 99.56 99.17 98.99 98.72 98.29 98.01 98.08 99.47 98.99 98.17 97.88 97.84 97.79 97.77 97.88 98.05 98.57 98.63 98.65 98.58 98.34 98.08 97.49 97.62 97.65 97.75 97.80 97.82 97.77 97.76 97.76 97.80 97.66 97.53 97.41 97.33 97.22 97.13 96.97 97.04 97.07 96.69 96.68 96.73 96.73 96.74 96.65 96.42 96.21 96.13
99.88 99.68 99.46 99.11 98.85 98.60 98.29 97.96 97.20 99.22 99.15 98.75 98.36 98.54 98.67 98.70 98.75 98.81 98.69 98.48 98.04 97.76 97.73 97.75 97.70 97.69 97.68 97.71 97.83 97.67 97.76 97.86 97.77 97.64 97.59 97.49 97.38 97.32 97.26 97.15 97.03 97.10 97.28 96.96 96.99 97.01 96.92 96.88 96.77 96.53 96.34 96.22
99.74 99.46 99.29 99.01 98.77 98.58 98.28 98.05 97.91 99.11 99.13 99.05 99.00 98.99 98.92 98.81 98.65 97.86 97.83 97.87 97.87 97.81 97.80 97.78 97.70 97.67 97.67 97.85 97.71 97.65 97.71 97.71 97.70 97.72 97.58 97.47 97.40 97.30 97.23 97.15 97.08 97.18 97.35 97.12 97.14 97.11 97.00 96.93 96.86 96.68 96.43 96.34
99.51 99.29 99.12 98.83 98.61 98.44 98.07 98.89 99.25 99.25 99.25 99.15 99.00 98.73 97.86 98.00 98.02 97.96 97.93 97.91 97.86 97.82 97.85 97.84 97.77 97.75 97.76 97.88 97.83 97.79 97.80 97.80 97.81 97.71 97.62 97.51 97.43 97.31 97.23 97.16 97.14 97.27 97.42 97.11 97.23 97.16 97.06 96.97 96.91 96.73 96.49 96.41
99.26 99.13 98.85 98.46 99.50 99.52 99.52 99.50 99.39 99.28 98.90 98.18 98.21 98.15 98.03 97.98 98.01 98.02 98.01 97.96 97.97 97.95 97.97 97.93 97.88 97.87 97.89 97.95 97.91 97.88 97.86 97.91 97.82 97.76 97.63 97.55 97.46 97.39 97.32 97.26 97.22 97.36 97.47 97.22 97.26 97.17 97.07 97.00 96.94 96.78 96.57 96.47
99.12 99.72 99.74 99.72 99.69 99.58 99.45 98.72 98.19 98.33 98.33 98.32 98.11 98.04 98.08 98.10 98.17 98.17 98.11 98.08 98.08 98.09 98.07 98.03 97.97 97.96 98.01 97.97 98.12 98.06 98.01 97.99 97.94 97.85 97.71 97.60 97.50 97.41 97.33 97.26 97.33 97.50 97.53 97.37 97.30 97.21 97.08 97.05 96.95 96.83 96.67 96.56
99.95 99.86 99.74 99.62 98.49 98.32 98.39 98.30 98.26 98.25 98.32 98.35 98.26 98.16 98.17 98.25 98.35 98.30 98.24 98.20 98.19 98.17 98.18 98.10 98.04 98.05 98.08 98.14 98.06 97.98 97.97 97.94 97.90 97.80 97.72 97.61 97.50 97.46 97.39 97.36 97.35 97.54 97.56 97.33 97.29 97.20 97.10 97.06 96.97 96.87 96.71 96.62
99.60 98.65 98.66 98.56 98.42 98.28 98.29 98.26 98.30 98.34 98.46 98.43 98.36 98.29 98.31 98.37 98.46 98.36 98.32 98.29 98.26 98.22 98.28 98.18 98.11 98.12 98.16 98.20 97.99 97.99 97.99 97.94 97.88 97.76 97.61 97.50 97.44 97.40 97.35 97.22 97.32 97.60 97.51 97.39 97.36 97.24 97.09 96.97 96.69 96.80 96.78 96.73
98.85 98.90 98.62 98.40 98.39 98.36 98.33 98.38 98.42 98.46 98.56 98.53 98.40 98.34 98.39 98.43 98.48 98.43 98.37 98.32 98.33 98.30 98.33 98.25 98.20 98.21 98.24 98.30 98.08 98.07 98.06 98.03 97.96 97.85 97.71 97.58 97.48 97.41 97.35 97.27 97.53 97.70 97.47 97.34 97.15 97.05 96.94 96.86 96.82 96.81 96.85 96.87
99.09 98.87 98.69 98.55 98.50 98.43 98.42 98.50 98.53 98.58 98.69 98.60 98.48 98.42 98.46 98.51 98.49 98.49 98.41 98.34 98.38 98.38 98.39 98.33 98.29 98.29 98.33 98.33 98.15 98.17 98.15 98.10 98.03 97.90 97.75 97.64 97.53 97.45 97.40 97.41 97.66 97.55 97.25 97.18 97.04 96.97 96.97 96.99 96.97 96.99 96.97 96.96
99.25 98.97 98.81 98.65 98.63 98.50 98.47 98.60 98.63 98.67 98.78 98.72 98.57 98.50 98.54 98.58 98.56 98.51 98.47 98.43 98.42 98.46 98.49 98.41 98.39 98.40 98.40 98.40 98.23 98.25 98.21 98.11 98.02 97.90 97.77 97.66 97.59 97.53 97.42 97.58 97.26 97.56 97.32 97.19 97.18 97.13 97.11 97.08 97.07 97.06 97.04 97.02
99.40 99.17 98.99 98.79 98.72 98.59 98.54 98.69 98.72 98.78 98.88 98.80 98.66 98.58 98.62 98.64 98.65 98.60 98.60 98.54 98.53 98.61 98.64 98.54 98.54 98.54 98.56 98.55 98.38 98.39 98.30 98.18 98.08 97.97 97.86 97.74 97.66 97.57 97.49 97.58 97.84 97.52 97.33 97.29 97.25 97.23 97.20 97.16 97.12 97.13 97.16 97.15
99.56 99.25 99.06 98.88 98.81 98.71 98.71 98.79 98.81 98.88 98.97 98.92 98.79 98.71 98.72 98.79 98.75 98.72 98.69 98.71 98.70 98.76 98.79 98.76 98.71 98.72 98.71 98.71 98.53 98.50 98.42 98.35 98.25 98.11 97.96 97.85 97.77 97.67 97.75 97.42 97.72 97.39 97.42 97.34 97.33 97.29 97.27 97.29 97.27 97.26 97.26 97.26
99.76 99.35 99.16 99.00 98.87 98.82 98.84 98.89 98.90 98.98 99.09 99.01 98.90 98.80 98.82 98.92 98.85 98.84 98.87 98.89 98.88 98.92 98.93 98.90 98.85 98.89 98.89 98.82 98.68 98.67 98.62 98.52 98.39 98.24 98.09 97.99 97.87 97.82 97.88 97.97 97.61 97.52 97.50 97.47 97.45 97.44 97.43 97.38 97.38 97.37 97.36 97.38
99.82 99.46 99.26 99.07 98.95 98.91 98.94 98.99 98.98 99.09 99.21 99.14 98.98 98.90 98.90 99.04 98.94 98.99 99.03 99.03 99.04 99.01 99.01 99.00 98.95 98.94 99.01 98.86 98.79 98.78 98.72 98.62 98.48 98.32 98.18 98.07 97.98 98.04 97.76 97.85 97.57 97.63 97.64 97.63 97.57 97.55 97.49 97.46 97.45 97.47 97.48 97.51
99.85 99.57 99.35 99.15 99.03 98.99 99.01 99.07 99.08 99.21 99.29 99.24 99.08 99.00 99.01 99.15 99.04 99.08 99.11 99.12 99.11 99.08 99.08 99.06 99.03 99.04 98.87 98.91 98.89 98.85 98.76 98.64 98.50 98.35 98.24 98.15 98.16 98.13 98.22 97.74 97.69 97.73 97.74 97.70 97.66 97.62 97.60 97.56 97.59 97.56 97.56 97.57
99.76 99.65 99.40 99.24 99.11 99.05 99.10 99.14 99.18 99.29 99.39 99.35 99.18 99.09 99.13 99.27 99.08 99.11 99.15 99.15 99.14 99.14 99.16 99.13 99.11 99.14 99.12 99.06 98.99 98.91 98.82 98.70 98.56 98.40 98.30 98.28 98.29 98.08 98.02 97.74 97.83 97.85 97.83 97.79 97.75 97.75 97.73 97.69 97.68 97.64 97.61 97.60
99.76 99.71 99.46 99.32 99.18 99.14 99.17 99.23 99.26 99.39 99.49 99.42 99.21 99.17 99.23 99.30 99.13 99.17 99.19 99.20 99.20 99.22 99.21 99.22 99.18 99.19 99.12 99.05 98.99 98.93 98.83 98.76 98.62 98.46 98.35 98.36 98.26 98.44 97.94 97.90 97.95 97.95 97.93 97.90 97.86 97.85 97.81 97.77 97.70 97.69 97.66 97.69
99.83 99.75 99.53 99.35 99.26 99.22 99.29 99.31 99.33 99.49 99.57 99.47 99.26 99.25 99.32 99.28 99.31 99.29 99.29 99.25 99.29 99.23 99.28 99.25 99.22 99.21 99.13 99.12 99.05 98.99 98.90 98.79 98.65 98.52 98.37 98.45 98.36 98.24 97.96 98.08 98.08 98.06 97.99 97.97 97.92 97.90 97.85 97.81 97.77 97.79 97.73 97.75
99.95 99.82 99.60 99.47 99.37 99.35 99.43 99.43 99.45 99.58 99.65 99.51 99.39 99.39 99.44 99.29 99.35 99.38 99.40 99.40 99.39 99.43 99.44 99.39 99.28 99.26 99.20 99.17 99.12 99.02 98.92 98.81 98.69 98.56 98.58 98.55 98.62 98.20 98.17 98.16 98.12 98.07 98.06 98.03 97.99 97.97 97.97 97.90 97.85 97.82 97.83 97.78
