ncols 52
nrows 52
xllcorner 440320
yllcorner 5717504
cellsize 10
NODATA_value -9999
84.65 84.60 84.79 84.65 84.88 84.95 84.94 85.10 85.19 85.28 85.46 85.43 85.51 85.63 85.68 85.90 85.98 86.09 86.26 86.49 86.67 86.82 86.92 87.02 87.15 87.35 87.59 87.84 88.12 88.28 88.40 88.46 88.59 88.64 88.62 88.68 88.72 88.85 88.79 88.79 88.84 88.88 88.89 88.93 88.95 88.97 89.03 89.09 89.12 89.12 89.15 89.19
84.59 84.61 84.71 84.81 84.94 84.96 85.03 85.21 85.31 85.37 85.52 85.57 85.66 85.80 85.96 85.96 86.32 86.38 86.49 86.71 86.95 87.08 87.17 87.32 87.47 87.63 87.88 88.07 88.31 88.50 88.61 88.66 88.74 88.78 88.78 88.79 88.89 88.94 89.00 88.98 89.00 89.06 89.07 89.11 89.16 89.18 89.21 89.23 89.25 89.26 89.26 89.27
84.62 84.79 84.84 84.93 85.04 85.14 85.25 85.32 85.54 85.67 85.74 85.82 85.87 86.03 86.13 86.32 86.37 86.66 86.79 86.98 87.18 87.35 87.46 87.58 87.75 87.90 88.10 88.26 88.43 88.65 88.75 88.81 88.86 88.92 88.93 88.94 89.02 89.11 89.17 89.12 89.17 89.22 89.24 89.25 89.28 89.29 89.36 89.38 89.38 89.38 89.36 89.35
84.73 84.92 84.97 85.15 85.22 85.31 85.46 85.56 85.75 85.93 86.01 86.10 86.16 86.30 86.42 86.61 86.68 86.91 87.10 87.25 87.41 87.55 87.65 87.78 87.91 88.15 88.26 88.43 88.54 88.72 88.87 88.92 88.97 89.05 89.12 89.14 89.20 89.22 89.31 89.38 89.24 89.26 89.29 89.33 89.37 89.38 89.40 89.47 89.57 89.58 89.59 89.54
84.86 85.03 85.21 85.31 85.49 85.53 85.69 85.78 85.97 86.17 86.30 86.38 86.51 86.61 86.67 86.86 87.04 87.09 87.32 87.42 87.61 87.69 87.83 87.95 88.03 88.23 88.41 88.55 88.69 88.82 88.94 89.04 89.10 89.17 89.23 89.29 89.36 89.36 89.41 89.49 89.52 89.41 89.54 89.57 89.51 89.53 89.55 89.52 89.53 89.55 89.60 89.62
85.09 85.22 85.38 85.60 85.75 85.78 85.90 86.08 86.23 86.46 86.60 86.73 86.72 86.86 86.94 87.10 87.24 87.41 87.28 87.62 87.72 87.87 87.92 88.07 88.20 88.32 88.52 88.64 88.81 88.95 89.05 89.14 89.20 89.31 89.40 89.44 89.48 89.51 89.51 89.56 89.55 89.73 89.55 89.54 89.57 89.60 89.65 89.68 89.69 89.71 89.72 89.71
85.32 85.47 85.64 85.82 85.96 86.11 86.14 86.31 86.51 86.68 86.74 86.92 87.02 87.07 87.17 87.25 87.41 87.50 87.65 87.69 87.89 88.00 88.08 88.18 88.30 88.43 88.61 88.79 88.89 89.03 89.16 89.24 89.31 89.41 89.49 89.61 89.64 89.63 89.63 89.64 89.67 89.68 89.64 89.66 89.68 89.70 89.73 89.79 89.82 89.83 89.84 89.85
85.49 85.71 85.82 86.00 86.19 86.31 86.44 86.51 86.68 86.88 86.97 87.09 87.16 87.27 87.35 87.46 87.58 87.71 87.81 87.85 88.03 88.11 88.22 88.26 88.40 88.55 88.71 88.88 89.03 89.12 89.27 89.36 89.43 89.51 89.58 89.61 89.70 89.88 89.86 89.90 89.88 89.99 89.99 89.79 89.82 89.85 89.87 89.90 89.93 89.95 89.98 89.99
85.68 85.92 86.00 86.13 86.33 86.53 86.63 86.76 86.86 87.07 87.14 87.25 87.34 87.44 87.47 87.65 87.75 87.83 87.96 88.08 88.09 88.28 88.32 88.42 88.50 88.68 88.82 88.96 89.08 89.22 89.32 89.45 89.51 89.57 89.71 89.81 89.79 89.97 89.96 89.96 89.97 89.97 89.96 90.04 89.96 89.95 90.00 90.04 90.06 90.10 90.11 90.13
85.91 86.02 86.24 86.33 86.49 86.65 86.86 87.00 87.02 87.22 87.32 87.42 87.53 87.61 87.73 87.74 87.92 88.00 88.08 88.21 88.36 88.24 88.50 88.55 88.64 88.74 88.91 89.04 89.15 89.31 89.38 89.53 89.67 89.84 89.82 89.97 90.01 89.98 90.05 90.03 89.99 90.04 90.05 90.07 90.08 90.10 90.11 90.16 90.18 90.25 90.25 90.27
86.15 86.27 86.34 86.49 86.65 86.85 87.02 87.17 87.28 87.34 87.47 87.56 87.68 87.76 87.90 87.98 88.07 88.16 88.21 88.32 88.39 88.53 88.53 88.74 88.79 88.83 88.96 89.14 89.30 89.46 89.65 89.82 89.83 89.95 89.93 89.98 90.06 90.15 90.10 90.13 90.14 90.15 90.17 90.18 90.28 90.16 90.24 90.30 90.31 90.33 90.38 90.37
86.29 86.40 86.58 86.61 86.81 86.98 87.15 87.33 87.42 87.57 87.66 87.72 87.85 87.90 88.06 88.12 88.21 88.32 88.36 88.43 88.52 88.63 88.67 88.88 88.92 89.02 89.15 89.39 89.53 89.48 89.71 89.76 89.87 89.97 90.04 90.07 90.13 90.22 90.23 90.27 90.25 90.27 90.27 90.29 90.32 90.38 90.37 90.41 90.42 90.45 90.47 90.48
86.37 86.61 86.73 86.78 86.95 87.09 87.23 87.41 87.59 87.67 87.84 87.88 88.01 88.07 88.20 88.26 88.35 88.38 88.47 88.54 88.58 88.73 88.86 88.93 89.16 89.26 89.45 89.29 89.58 89.67 89.71 89.81 89.95 90.04 90.12 90.14 90.22 90.32 90.36 90.36 90.33 90.38 90.41 90.38 90.41 90.41 90.53 90.50 90.52 90.56 90.58 90.59
86.40 86.61 86.89 86.95 87.01 87.22 87.38 87.53 87.68 87.87 87.99 88.02 88.14 88.26 88.34 88.39 88.50 88.55 88.56 88.68 88.68 88.82 89.01 89.19 89.16 89.33 89.45 89.54 89.62 89.77 89.78 89.93 90.04 90.15 90.21 90.27 90.32 90.39 90.46 90.48 90.49 90.46 90.50 90.51 90.52 90.49 90.53 90.56 90.61 90.66 90.66 90.67
86.47 86.71 86.90 87.09 87.20 87.30 87.49 87.67 87.82 87.97 88.09 88.18 88.26 88.35 88.48 88.53 88.58 88.71 88.72 88.76 88.83 89.04 89.22 89.14 89.40 89.42 89.50 89.60 89.74 89.82 89.94 90.04 90.15 90.28 90.36 90.40 90.45 90.49 90.54 90.56 90.59 90.57 90.55 90.62 90.60 90.65 90.64 90.75 90.71 90.76 90.77 90.78
86.43 86.75 86.98 87.25 87.29 87.41 87.54 87.75 87.89 88.06 88.22 88.30 88.44 88.49 88.59 88.69 88.73 88.84 88.86 88.90 89.05 89.13 89.25 89.39 89.44 89.56 89.61 89.72 89.83 89.95 90.02 90.17 90.30 90.36 90.42 90.54 90.57 90.58 90.62 90.65 90.69 90.68 90.67 90.71 90.72 90.76 90.75 90.79 90.92 90.87 90.86 90.85
86.53 86.83 87.04 87.24 87.46 87.56 87.70 87.86 88.02 88.10 88.27 88.50 88.56 88.65 88.71 88.86 88.85 88.98 89.02 89.15 89.10 89.37 89.44 89.41 89.54 89.72 89.79 89.89 89.98 90.08 90.15 90.24 90.40 90.48 90.51 90.60 90.67 90.68 90.69 90.71 90.75 90.77 90.80 90.81 90.86 90.85 90.86 90.90 90.92 90.98 90.96 90.94
86.66 86.85 87.10 87.32 87.46 87.73 87.81 87.89 88.12 88.26 88.41 88.55 88.68 88.85 88.83 88.97 89.08 89.24 89.22 89.19 89.38 89.48 89.51 89.58 89.71 89.81 89.92 89.89 90.12 90.20 90.31 90.38 90.50 90.58 90.67 90.70 90.75 90.80 90.81 90.83 90.83 90.90 90.94 90.95 90.97 91.02 90.99 91.01 91.00 91.11 90.97 91.02
86.72 86.92 87.06 87.37 87.58 87.76 87.94 88.05 88.16 88.32 88.48 88.69 88.81 88.90 89.06 89.17 89.19 89.22 89.36 89.46 89.44 89.56 89.66 89.77 89.84 89.94 90.05 90.19 90.29 90.34 90.42 90.53 90.60 90.69 90.77 90.81 90.87 90.87 90.89 90.93 90.96 91.01 91.05 91.04 91.09 91.09 91.13 91.08 91.10 91.11 91.16 91.08
86.73 87.01 87.15 87.38 87.64 87.82 88.08 88.17 88.27 88.44 88.57 88.73 88.84 89.06 89.22 89.30 89.20 89.45 89.49 89.54 89.59 89.72 89.82 89.91 90.00 90.06 90.17 90.30 90.43 90.49 90.52 90.65 90.69 90.74 90.85 90.88 90.96 90.97 91.00 91.05 91.05 91.10 91.12 91.17 91.14 91.13 91.14 91.15 91.17 91.15 91.14 91.23
86.82 87.01 87.25 87.43 87.67 87.82 88.01 88.28 88.38 88.44 88.63 88.82 88.97 89.25 89.27 89.34 89.51 89.52 89.57 89.67 89.76 89.86 89.96 90.04 90.14 90.22 90.30 90.39 90.53 90.58 90.67 90.72 90.82 90.87 90.89 90.97 91.04 91.08 91.09 91.13 91.16 91.15 91.15 91.21 91.25 91.24 91.18 91.21 91.22 91.21 91.17 91.15
86.85 87.06 87.24 87.51 87.65 87.86 88.07 88.22 88.51 88.60 88.71 88.96 89.12 89.11 89.43 89.57 89.58 89.62 89.69 89.82 89.90 90.00 90.10 90.18 90.28 90.36 90.40 90.48 90.58 90.75 90.81 90.85 90.89 90.97 90.99 91.09 91.12 91.18 91.21 91.21 91.27 91.23 91.25 91.26 91.29 91.31 91.27 91.26 91.28 91.25 91.24 91.18
87.02 87.07 87.24 87.51 87.71 87.79 88.06 88.29 88.57 88.81 88.88 89.02 89.06 89.39 89.52 89.57 89.64 89.74 89.87 89.95 90.04 90.12 90.21 90.30 90.40 90.46 90.53 90.58 90.68 90.79 90.93 91.01 91.03 91.06 91.11 91.12 91.22 91.30 91.29 91.30 91.35 91.35 91.34 91.32 91.35 91.38 91.36 91.37 91.35 91.35 91.33 91.19
86.93 87.19 87.38 87.54 87.83 87.95 88.06 88.33 88.61 88.82 88.85 89.04 89.26 89.39 89.52 89.65 89.77 89.90 89.97 90.04 90.15 90.26 90.33 90.40 90.49 90.53 90.63 90.71 90.77 90.89 91.04 91.14 91.18 91.15 91.21 91.25 91.26 91.38 91.43 91.42 91.42 91.48 91.44 91.41 91.42 91.45 91.46 91.44 91.41 91.40 91.33 91.21
87.19 87.31 87.49 87.69 87.92 88.00 88.24 88.50 88.61 88.69 88.99 89.14 89.29 89.45 89.60 89.74 89.89 90.00 90.08 90.15 90.24 90.37 90.43 90.50 90.60 90.68 90.74 90.83 90.89 91.03 91.10 91.21 91.12 91.26 91.29 91.37 91.37 91.44 91.50 91.52 91.51 91.53 91.54 91.53 91.50 91.50 91.52 91.51 91.48 91.37 91.32 91.40
87.31 86.67 87.65 87.74 87.96 88.20 88.46 88.53 88.66 88.91 89.04 89.17 89.33 89.49 89.64 89.80 89.93 90.10 90.19 90.27 90.34 90.44 90.52 90.60 90.69 90.79 90.85 90.93 91.04 91.08 91.22 91.28 91.38 91.37 91.38 91.42 91.50 91.50 91.60 91.62 91.60 91.63 91.63 91.62 91.58 91.57 91.53 91.51 91.50 91.40 91.43 91.65
87.17 87.58 87.58 87.88 88.10 88.24 88.35 88.58 88.76 88.90 89.07 89.28 89.43 89.58 89.70 89.83 90.02 90.16 90.31 90.38 90.42 90.50 90.60 90.70 90.81 90.89 90.97 91.06 91.15 91.20 91.28 91.37 91.44 91.54 91.56 91.54 91.59 91.64 91.67 91.69 91.68 91.71 91.68 91.71 91.66 91.65 91.58 91.54 91.51 91.49 91.25 91.55
87.09 87.46 87.85 87.84 88.16 88.24 88.47 88.47 88.64 88.87 89.13 89.36 89.56 89.68 89.79 89.94 90.11 90.26 90.36 90.44 90.54 90.55 90.67 90.81 90.92 91.01 91.07 91.16 91.24 91.32 91.41 91.48 91.55 91.65 91.72 91.73 91.69 91.76 91.81 91.78 91.79 91.74 91.74 91.73 91.74 91.69 91.61 91.44 91.52 91.60 91.79 91.53
87.14 87.35 87.75 88.12 88.19 88.38 88.46 88.52 88.72 88.90 89.15 89.38 89.60 89.78 89.93 90.03 90.16 90.32 90.43 90.53 90.59 90.67 90.76 90.87 91.02 91.12 91.21 91.31 91.40 91.46 91.56 91.63 91.71 91.74 91.83 91.71 91.83 91.85 91.92 91.88 91.86 91.81 91.82 91.81 91.81 91.85 91.68 91.61 91.70 91.92 91.35 91.53
87.33 87.45 87.72 88.12 88.14 88.41 88.44 88.60 88.81 88.96 89.14 89.38 89.62 89.85 89.97 90.10 90.21 90.35 90.51 90.59 90.70 90.80 90.90 90.99 91.12 91.25 91.34 91.46 91.57 91.64 91.69 91.80 91.86 91.90 91.91 92.00 91.99 91.98 91.96 91.99 91.89 91.89 91.88 91.85 91.85 91.82 91.75 91.72 91.50 91.84 91.46 91.58
87.40 87.53 87.68 87.93 88.45 88.42 88.53 88.66 88.85 89.03 89.24 89.50 89.71 89.87 90.05 90.15 90.29 90.42 90.55 90.67 90.80 90.92 91.04 91.15 91.26 91.40 91.53 91.62 91.67 91.76 91.82 91.91 91.97 91.98 91.98 92.03 92.06 92.06 92.03 92.07 91.97 91.92 91.93 91.93 91.93 91.82 91.82 91.82 92.11 91.56 91.59 91.55
87.41 87.56 87.72 87.90 88.24 88.72 88.69 88.80 88.98 89.17 89.42 89.66 89.84 89.96 90.10 90.23 90.39 90.53 90.65 90.76 90.92 91.02 91.15 91.27 91.36 91.50 91.64 91.72 91.76 91.83 91.91 91.97 92.04 92.05 92.07 92.07 92.10 92.10 92.16 92.13 92.09 91.98 91.97 92.00 91.88 91.92 91.91 92.20 91.24 91.62 91.60 91.68
87.44 87.63 87.80 87.99 88.23 88.56 88.68 89.00 89.13 89.37 89.60 89.82 89.97 90.08 90.18 90.32 90.46 90.64 90.75 90.86 90.99 91.11 91.24 91.36 91.47 91.58 91.67 91.79 91.83 91.91 91.97 92.01 92.09 92.12 92.13 92.14 92.15 92.22 92.14 92.15 92.15 92.08 92.04 91.99 91.97 92.03 92.18 91.98 91.73 91.68 91.64 91.78
87.55 87.76 87.92 88.04 88.26 88.80 89.13 89.02 89.34 89.53 89.76 89.95 90.10 90.20 90.30 90.40 90.56 90.70 90.83 90.93 91.08 91.20 91.31 91.42 91.53 91.63 91.74 91.82 91.93 91.98 92.04 92.10 92.18 92.20 92.21 92.20 92.22 92.20 92.28 92.25 92.20 92.18 92.11 92.04 92.07 91.84 92.47 91.81 91.80 91.66 91.71 91.74
87.64 87.84 87.90 88.08 88.54 88.78 89.07 89.46 89.52 89.68 89.90 90.06 90.22 90.32 90.43 90.55 90.68 90.81 90.90 91.05 91.18 91.30 91.43 91.51 91.61 91.72 91.79 91.88 91.98 92.06 92.11 92.18 92.25 92.26 92.29 92.28 92.26 92.32 92.32 92.34 92.29 92.25 92.14 92.07 92.15 92.65 91.94 91.83 91.78 91.72 91.79 91.75
87.72 87.78 88.22 88.51 88.64 88.74 88.96 89.43 89.73 89.89 90.03 90.19 90.28 90.42 90.54 90.68 90.79 90.93 91.05 91.18 91.31 91.39 91.52 91.63 91.67 91.79 91.89 91.95 92.04 92.13 92.17 92.23 92.29 92.35 92.34 92.32 92.33 92.35 92.34 92.35 92.23 92.37 92.16 92.27 92.67 91.86 91.93 91.87 91.79 91.83 91.83 91.81
87.69 88.22 88.37 88.49 88.60 88.72 88.91 89.31 89.78 89.58 90.22 90.26 90.40 90.53 90.64 90.79 90.90 91.05 91.16 91.30 91.43 91.53 91.63 91.72 91.78 91.88 91.97 92.03 92.12 92.17 92.24 92.26 92.31 92.38 92.39 92.36 92.36 92.37 92.43 92.39 92.46 92.35 92.40 92.57 92.27 92.06 92.04 91.90 91.91 91.88 91.88 91.90
88.06 88.13 88.32 88.47 88.62 88.76 89.08 89.40 89.85 90.26 90.25 90.42 90.49 90.61 90.75 90.88 91.02 91.18 91.29 91.44 91.55 91.65 91.76 91.85 91.92 91.96 92.05 92.11 92.18 92.24 92.29 92.36 92.39 92.42 92.46 92.45 92.45 92.44 92.41 92.39 92.44 92.40 92.50 92.68 92.17 92.10 91.99 92.03 91.99 91.93 91.94 91.92
88.14 88.20 88.36 88.55 88.75 88.99 89.25 89.60 89.91 90.31 90.54 90.54 90.62 90.70 90.84 90.98 91.14 91.29 91.43 91.56 91.65 91.77 91.86 91.95 92.04 92.08 92.14 92.20 92.28 92.31 92.35 92.42 92.46 92.47 92.46 92.51 92.49 92.46 92.43 92.49 92.43 92.23 92.74 92.31 92.22 92.06 92.09 92.09 92.04 92.01 92.02 91.99
88.18 88.39 88.51 88.74 88.94 89.20 89.56 89.97 90.20 90.25 90.58 90.71 90.79 90.83 90.97 91.08 91.26 91.41 91.57 91.66 91.79 91.88 91.97 92.05 92.12 92.19 92.24 92.26 92.35 92.41 92.42 92.43 92.52 92.52 92.54 92.56 92.54 92.46 92.50 92.49 92.38 92.79 92.38 92.33 92.23 92.16 92.18 92.14 92.14 92.11 92.06 92.03
88.38 88.56 88.69 88.86 89.11 89.47 89.85 90.03 90.30 90.31 90.55 90.86 90.42 91.06 91.09 91.23 91.40 91.54 91.66 91.79 91.88 91.97 92.08 92.15 92.21 92.27 92.33 92.36 92.39 92.46 92.49 92.50 92.54 92.58 92.56 92.52 92.57 92.61 92.57 92.71 92.81 92.46 92.45 92.34 92.28 92.32 92.26 92.23 92.21 92.17 92.12 92.08
88.49 88.69 88.92 89.11 89.40 89.74 90.03 90.22 90.34 90.54 90.53 90.98 91.19 91.21 91.32 91.39 91.56 91.66 91.77 91.90 91.99 92.08 92.19 92.25 92.31 92.37 92.41 92.43 92.47 92.52 92.54 92.55 92.56 92.61 92.64 92.57 92.71 92.67 92.89 92.76 92.53 92.51 92.46 92.45 92.43 92.41 92.37 92.32 92.28 92.24 92.18 92.10
88.64 88.82 89.09 89.33 89.71 89.98 90.12 90.28 90.41 90.57 90.65 90.90 91.05 91.46 91.55 91.57 91.66 91.76 91.91 92.01 92.11 92.18 92.27 92.36 92.41 92.43 92.49 92.53 92.56 92.56 92.60 92.59 92.61 92.67 92.64 92.68 92.72 92.87 92.81 92.58 92.52 92.49 92.55 92.57 92.52 92.51 92.46 92.43 92.33 92.29 92.22 92.10
88.78 89.06 89.30 89.57 89.94 90.21 90.28 90.44 90.43 90.50 90.82 90.99 91.05 91.38 91.53 91.78 91.78 91.90 92.03 92.12 92.20 92.29 92.39 92.44 92.49 92.52 92.53 92.56 92.61 92.61 92.65 92.66 92.66 92.73 92.68 92.78 92.58 92.98 92.68 92.61 92.57 92.58 92.67 92.68 92.65 92.61 92.55 92.47 92.38 92.29 92.22 92.12
89.00 89.27 89.53 89.76 90.10 90.28 90.42 90.44 90.53 90.78 90.96 90.97 91.18 91.35 91.80 91.93 92.01 92.01 92.13 92.23 92.29 92.35 92.46 92.52 92.56 92.59 92.60 92.62 92.67 92.69 92.68 92.73 92.73 92.73 92.83 92.82 93.18 92.79 92.71 92.68 92.68 92.72 92.78 92.78 92.76 92.68 92.62 92.50 92.41 92.29 92.22 92.18
89.20 89.49 89.74 90.08 90.22 90.37 90.41 90.54 90.68 90.77 90.92 91.09 91.31 91.43 91.68 92.14 92.15 92.20 92.22 92.33 92.40 92.46 92.53 92.61 92.62 92.67 92.68 92.67 92.72 92.75 92.77 92.76 92.78 92.84 92.84 93.28 92.92 92.87 92.72 92.80 92.83 92.83 92.84 92.88 92.84 92.75 92.65 92.54 92.40 92.32 92.24 92.25
89.47 89.75 90.04 90.26 90.29 90.32 90.52 90.69 90.72 90.86 91.01 91.14 91.33 91.60 91.72 92.06 92.34 92.37 92.38 92.44 92.49 92.56 92.61 92.65 92.70 92.73 92.74 92.76 92.78 92.80 92.84 92.84 92.84 92.92 93.01 92.85 92.94 92.90 92.84 92.91 92.95 92.94 92.93 92.93 92.90 92.78 92.65 92.54 92.38 92.35 92.31 92.32
89.68 89.91 90.16 90.24 90.33 90.49 90.59 90.68 90.82 90.96 91.11 91.28 91.43 91.63 91.81 92.00 92.33 92.23 92.52 92.51 92.57 92.66 92.69 92.72 92.76 92.80 92.82 92.84 92.83 92.85 92.89 92.90 92.97 92.98 93.37 93.03 92.92 92.89 92.99 93.01 93.06 93.06 93.01 92.99 92.93 92.79 92.65 92.53 92.45 92.42 92.40 92.39
89.88 90.10 90.10 90.30 90.47 90.51 90.63 90.77 90.93 91.07 91.26 91.42 91.56 91.71 92.00 92.14 92.34 92.62 92.37 92.63 92.61 92.68 92.78 92.77 92.81 92.88 92.89 92.92 92.91 92.92 92.93 93.06 93.04 93.43 93.36 93.02 92.92 93.04 93.03 93.06 93.10 93.10 93.05 92.98 92.92 92.79 92.65 92.57 92.52 92.47 92.48 92.44
89.92 90.03 90.28 90.42 90.45 90.58 90.71 90.90 91.05 91.24 91.40 91.53 91.68 91.88 92.04 92.21 92.38 92.56 92.89 92.74 92.74 92.75 92.80 92.85 92.89 92.92 92.95 92.98 93.02 93.00 92.97 93.12 93.14 93.46 93.26 93.12 92.99 93.02 93.03 93.06 93.08 93.13 93.03 92.95 92.83 92.73 92.67 92.57 92.57 92.53 92.54 92.56
89.96 90.19 90.23 90.37 90.50 90.67 90.85 91.03 91.21 91.37 91.51 91.65 91.83 91.99 92.10 92.23 92.44 92.60 92.76 92.95 92.88 92.86 92.87 92.91 92.95 92.97 93.01 93.04 93.08 93.07 93.10 93.17 93.59 93.51 93.23 93.10 93.04 93.01 93.03 92.98 93.04 93.06 92.97 92.84 92.75 92.71 92.68 92.64 92.62 92.60 92.57 92.58
90.17 90.15 90.29 90.41 90.61 90.79 91.00 91.17 91.34 91.47 91.63 91.81 91.94 92.06 92.19 92.33 92.48 92.62 92.76 92.90 92.64 93.01 92.96 92.97 93.04 93.06 93.07 93.14 93.16 93.15 93.28 93.43 93.56 93.42 93.26 93.16 93.10 93.05 92.99 92.95 92.94 92.94 92.88 92.83 92.74 92.72 92.71 92.68 92.64 92.66 92.64 92.64
