ncols 52
nrows 52
xllcorner 440320
yllcorner 5713408
cellsize 10
NODATA_value -9999
99.95 99.84 99.61 99.50 99.39 99.40 99.48 99.46 99.46 99.62 99.68 99.54 99.42 99.41 99.45 99.35 99.38 99.42 99.40 99.40 99.41 99.40 99.43 99.42 99.34 99.28 99.21 99.17 99.13 99.05 98.93 98.82 98.71 98.59 98.63 98.54 98.62 98.18 98.18 98.17 98.11 98.07 98.07 98.05 97.99 98.00 97.99 97.92 97.87 97.85 97.85 97.82
100.05 99.90 99.68 99.58 99.54 99.57 99.60 99.59 99.61 99.73 99.77 99.66 99.53 99.53 99.58 99.58 99.54 99.54 99.59 99.57 99.58 99.53 99.53 99.47 99.39 99.31 99.29 99.23 99.16 99.09 99.00 98.89 98.77 98.67 98.69 98.80 98.46 98.25 98.28 98.25 98.20 98.17 98.15 98.15 98.10 98.11 98.09 98.04 97.94 97.93 97.99 98.18
100.12 99.96 99.75 99.67 99.64 99.69 99.70 99.70 99.74 99.89 99.93 99.79 99.67 99.66 99.70 99.73 99.66 99.69 99.65 99.65 99.55 99.53 99.51 99.51 99.49 99.51 99.50 99.40 99.35 99.22 99.10 98.95 98.83 98.69 98.63 98.81 98.40 98.40 98.38 98.32 98.31 98.29 98.27 98.24 98.25 98.20 98.19 98.17 98.35 98.12 98.18 97.52
100.20 100.02 99.86 99.78 99.75 99.79 99.80 99.82 99.88 100.05 100.07 99.91 99.79 99.76 99.85 99.82 99.81 99.84 99.78 99.76 99.71 99.68 99.64 99.62 99.56 99.52 99.46 99.39 99.24 99.18 99.05 98.92 98.82 98.84 99.01 98.68 98.48 98.48 98.46 98.41 98.40 98.39 98.35 98.33 98.37 98.47 98.52 98.47 98.57 98.28 98.20 98.10
100.26 100.10 99.96 99.87 99.88 99.93 99.93 99.93 100.04 100.16 100.17 100.00 99.88 99.85 100.00 99.90 99.88 99.91 99.88 99.81 99.78 99.76 99.72 99.70 99.64 99.60 99.55 99.47 99.36 99.26 99.12 99.00 98.82 99.02 99.04 98.64 98.61 98.58 98.59 98.53 98.50 98.51 98.56 98.75 98.77 98.68 98.29 98.40 98.22 98.13 98.08 98.03
100.33 100.18 100.07 99.98 99.98 100.01 100.02 100.04 100.17 100.30 100.27 100.05 99.95 99.96 100.15 99.97 99.96 99.98 99.93 99.90 99.87 99.81 99.79 99.76 99.70 99.63 99.57 99.50 99.39 99.32 99.17 99.03 99.03 99.26 98.90 98.71 98.72 98.68 98.70 98.71 98.94 98.93 98.99 98.03 98.80 98.57 98.38 98.26 98.26 98.24 98.17 98.12
100.44 100.31 100.15 100.08 100.07 100.11 100.13 100.15 100.29 100.43 100.37 100.17 100.08 100.10 100.28 100.10 100.10 100.08 100.02 99.99 99.98 99.92 99.92 99.83 99.76 99.71 99.61 99.54 99.42 99.31 99.16 99.02 99.23 99.18 98.78 98.82 98.85 98.99 99.07 99.20 98.77 99.03 98.85 98.68 98.57 98.49 98.40 98.27 98.36 98.32 98.24 98.18
100.56 100.40 100.28 100.22 100.21 100.26 100.26 100.30 100.46 100.58 100.49 100.29 100.23 100.26 100.41 100.23 100.25 100.21 100.18 100.15 100.10 100.05 100.01 99.90 99.84 99.75 99.66 99.58 99.47 99.34 99.18 99.24 99.49 99.01 98.99 99.25 99.34 99.25 98.68 99.14 98.96 98.85 98.79 98.71 98.65 98.56 98.44 98.35 98.43 98.38 98.31 98.24
100.68 100.54 100.44 100.40 100.41 100.46 100.44 100.49 100.64 100.74 100.62 100.43 100.37 100.42 100.51 100.37 100.36 100.32 100.31 100.25 100.18 100.16 100.08 100.01 99.91 99.79 99.67 99.60 99.48 99.38 99.31 99.52 99.79 99.51 99.47 98.75 99.40 99.22 99.10 99.06 99.00 98.97 98.88 98.79 98.72 98.60 98.51 98.43 98.45 98.44 98.38 98.32
100.81 100.65 100.62 100.62 100.61 100.66 100.65 100.71 100.85 100.90 100.80 100.65 100.58 100.61 100.72 100.49 100.47 100.45 100.43 100.34 100.30 100.22 100.14 100.06 99.96 99.83 99.70 99.61 99.53 99.36 99.58 99.77 99.60 99.58 99.52 99.34 99.31 99.29 99.25 99.18 99.10 99.04 98.96 98.86 98.79 98.65 98.55 98.49 98.49 98.53 98.49 98.43
100.87 100.72 100.71 100.70 100.71 100.75 100.78 100.85 100.96 101.01 100.96 100.83 100.77 100.83 100.85 100.64 100.64 100.60 100.57 100.48 100.44 100.31 100.22 100.09 100.01 99.89 99.76 99.61 99.51 99.53 99.11 99.87 99.75 99.60 99.49 99.45 99.43 99.38 99.35 99.32 99.24 99.17 99.06 98.95 98.79 98.68 98.63 98.58 98.55 98.64 98.59 98.54
100.92 100.74 100.69 100.69 100.73 100.76 100.79 100.86 100.96 101.01 100.98 100.89 100.86 100.92 100.98 100.78 100.76 100.72 100.66 100.60 100.55 100.39 100.32 100.16 100.06 99.91 99.79 99.65 99.46 99.68 99.96 99.95 99.75 99.74 99.62 99.52 99.45 99.43 99.43 99.42 99.32 99.18 99.05 98.94 98.82 98.75 98.72 98.65 98.64 98.78 98.75 98.71
100.95 100.80 100.75 100.72 100.75 100.76 100.77 100.85 100.93 100.95 100.93 100.91 100.88 100.97 101.01 100.86 100.82 100.75 100.68 100.62 100.54 100.43 100.36 100.18 100.06 99.92 99.82 99.72 99.76 99.43 100.07 99.88 99.82 99.76 99.67 99.56 99.49 99.47 99.42 99.34 99.25 99.15 99.02 98.92 98.82 98.79 98.79 98.82 98.81 98.87 98.90 98.87
101.05 100.92 100.82 100.83 100.86 100.84 100.86 100.91 100.97 100.96 100.94 100.96 100.94 101.06 101.00 100.85 100.83 100.76 100.68 100.60 100.49 100.42 100.34 100.16 100.06 99.93 99.89 99.71 99.94 100.18 100.05 99.86 99.85 99.78 99.69 99.58 99.49 99.43 99.40 99.31 99.20 99.11 98.98 98.94 98.93 98.92 98.91 98.90 98.90 98.97 99.13 99.15
101.19 101.07 100.96 100.97 100.98 100.95 100.97 101.01 101.06 101.01 101.04 101.06 101.05 101.17 101.03 100.90 100.92 100.84 100.76 100.65 100.54 100.46 100.35 100.22 100.11 100.00 99.93 99.99 99.69 100.18 100.03 99.95 99.89 99.81 99.69 99.60 99.54 99.47 99.42 99.29 99.22 99.17 99.11 99.05 99.00 98.97 98.98 99.04 99.08 99.21 99.42 99.45
101.32 101.21 101.12 101.14 101.13 101.07 101.09 101.12 101.15 101.12 101.13 101.17 101.15 101.32 101.14 101.04 101.03 100.96 100.87 100.75 100.65 100.58 100.47 100.37 100.24 100.15 99.98 100.21 100.43 100.17 100.01 99.97 99.91 99.85 99.76 99.67 99.57 99.54 99.50 99.44 99.35 99.23 99.14 99.08 99.10 99.11 99.15 99.23 99.34 99.46 99.74 99.82
101.43 101.36 101.29 101.29 101.29 101.24 101.22 101.27 101.23 101.25 101.23 101.27 101.29 101.46 101.24 101.16 101.15 101.07 100.99 100.88 100.78 100.71 100.61 100.49 100.37 100.27 100.35 100.50 100.35 100.15 100.09 100.06 99.99 99.90 99.85 99.78 99.73 99.67 99.59 99.49 99.36 99.26 99.22 99.21 99.24 99.29 99.37 99.50 99.62 99.81 100.11 100.29
101.51 101.49 101.44 101.43 101.45 101.40 101.37 101.40 101.37 101.37 101.35 101.38 101.38 101.55 101.32 101.26 101.21 101.17 101.08 100.98 100.89 100.82 100.73 100.61 100.50 100.35 100.59 100.67 100.41 100.21 100.20 100.14 100.05 100.02 99.96 99.89 99.80 99.71 99.61 99.53 99.44 99.36 99.33 99.36 99.40 99.50 99.65 99.85 100.04 100.25 100.62 100.97
101.55 101.51 101.51 101.53 101.56 101.60 101.58 101.61 101.54 101.50 101.51 101.49 101.51 101.64 101.41 101.38 101.33 101.31 101.18 101.11 101.05 100.98 100.87 100.79 100.65 100.71 100.50 100.67 100.46 100.38 100.36 100.31 100.20 100.11 100.03 99.97 99.85 99.79 99.71 99.61 99.57 99.49 99.49 99.53 99.67 99.82 100.02 100.27 100.53 100.83 101.26 101.73
101.52 101.47 101.48 101.54 101.63 101.74 101.78 101.82 101.73 101.67 101.67 101.64 101.66 101.76 101.46 101.45 101.44 101.41 101.30 101.28 101.17 101.12 101.01 100.93 100.76 100.97 101.06 100.73 100.57 100.53 100.49 100.43 100.31 100.19 100.14 100.07 99.94 99.87 99.81 99.74 99.68 99.68 99.72 99.78 99.93 100.16 100.43 100.76 101.09 101.52 102.01 102.61
101.61 101.54 101.56 101.64 101.73 101.87 101.95 101.99 101.92 101.83 101.79 101.78 101.82 101.91 101.63 101.61 101.55 101.52 101.45 101.41 101.30 101.24 101.11 101.03 101.10 101.03 100.98 100.76 100.69 100.65 100.61 100.54 100.43 100.32 100.26 100.20 100.10 100.01 99.94 99.90 99.85 99.85 99.90 100.06 100.27 100.56 100.94 101.34 101.79 102.33 102.83 103.48
101.73 101.70 101.77 101.87 101.95 101.99 102.07 102.11 102.08 101.99 101.90 101.89 101.96 102.01 101.79 101.75 101.68 101.66 101.63 101.54 101.44 101.38 101.29 101.15 101.34 101.38 101.03 100.82 100.81 100.80 100.73 100.67 100.60 100.52 100.44 100.36 100.26 100.15 100.07 100.01 100.00 100.07 100.18 100.37 100.69 101.09 101.56 102.06 102.57 103.12 103.64 104.32
102.18 102.18 102.18 102.22 102.21 102.17 102.21 102.21 102.20 102.16 102.07 102.07 102.12 102.06 101.86 101.82 101.79 101.80 101.74 101.70 101.60 101.54 101.44 101.53 101.26 101.30 101.04 100.97 100.90 100.91 100.89 100.78 100.76 100.73 100.65 100.53 100.39 100.31 100.23 100.19 100.21 100.29 100.47 100.76 101.21 101.72 102.28 102.82 103.37 103.92 104.46 105.03
102.29 102.40 102.53 102.56 102.44 102.47 102.57 102.58 102.54 102.46 102.38 102.33 102.31 102.08 101.88 101.89 101.85 101.83 101.79 101.71 101.66 101.60 101.54 101.75 101.68 101.38 101.15 101.11 101.00 101.03 100.99 100.95 100.90 100.85 100.76 100.71 100.63 100.52 100.41 100.39 100.44 100.58 100.82 101.21 101.74 102.35 103.00 103.61 104.17 104.68 105.20 105.61
102.28 102.34 102.39 102.34 102.32 102.28 102.31 102.40 102.54 102.63 102.64 102.61 102.54 102.43 102.26 102.22 102.18 102.07 101.96 101.90 101.78 101.71 101.77 101.52 101.64 101.42 101.34 101.28 101.19 101.14 101.06 101.00 100.99 100.99 100.97 100.90 100.83 100.74 100.65 100.67 100.73 100.92 101.19 101.70 102.33 103.00 103.64 104.28 104.84 105.31 105.66 105.98
102.33 102.33 102.39 102.38 102.39 102.45 102.44 102.41 102.39 102.42 102.44 102.44 102.47 102.40 102.25 102.49 102.57 102.53 102.49 102.35 102.29 102.21 102.22 102.05 101.66 101.55 101.53 101.43 101.34 101.27 101.21 101.17 101.17 101.18 101.13 101.11 101.04 100.97 100.89 100.90 101.00 101.26 101.63 102.15 102.81 103.47 104.15 104.63 105.09 105.53 105.95 105.40
102.51 102.49 102.55 102.53 102.49 102.48 102.44 102.39 102.34 102.33 102.39 102.48 102.55 102.49 102.51 102.54 102.48 102.49 102.48 102.31 102.32 102.32 102.46 102.23 102.15 102.20 102.23 102.13 101.88 101.77 101.70 101.64 101.56 101.53 101.48 101.40 101.35 101.32 101.26 101.26 101.41 101.68 102.09 102.60 103.14 103.65 104.17 104.75 105.14 104.40 104.53 105.87
102.48 102.55 102.55 102.55 102.59 102.59 102.54 102.50 102.51 102.54 102.51 102.51 102.57 102.56 102.55 102.50 102.47 102.46 102.47 102.45 102.23 102.41 101.84 102.05 102.10 102.03 101.90 101.81 101.75 101.79 101.96 102.22 102.39 102.45 102.50 102.32 102.09 102.10 102.07 102.06 102.10 102.24 102.47 102.87 103.33 103.70 103.61 103.79 105.10 106.34 107.02 107.56
102.60 102.67 102.66 102.69 102.69 102.65 102.62 102.59 102.55 102.52 102.56 102.60 102.65 102.66 102.65 102.69 102.67 102.64 102.60 102.43 102.40 102.42 102.38 102.16 102.10 102.02 101.98 101.92 101.88 101.85 101.91 101.96 102.00 102.01 102.04 102.05 102.15 102.30 102.41 102.68 102.76 102.93 103.03 103.15 104.08 104.63 104.89 105.27 105.84 106.53 107.24 107.78
102.69 102.78 102.82 102.82 102.81 102.78 102.74 102.71 102.68 102.65 102.65 102.71 102.79 102.76 102.74 102.75 102.70 102.68 102.65 102.58 102.55 102.44 102.50 102.22 102.11 102.07 102.01 101.96 101.93 101.93 101.94 101.97 102.03 102.05 102.09 102.15 102.23 102.35 102.49 102.63 102.85 103.21 103.72 104.29 104.82 105.22 105.61 105.97 106.51 107.11 107.66 108.08
102.81 102.87 102.94 102.94 102.93 102.92 102.88 102.86 102.83 102.80 102.79 102.85 102.92 102.91 102.90 102.87 102.85 102.86 102.82 102.71 102.71 102.02 102.28 102.25 102.14 102.05 101.98 101.91 101.93 101.96 101.96 102.01 102.03 102.07 102.09 102.17 102.28 102.43 102.66 102.90 103.21 103.65 104.25 104.91 105.53 106.04 106.46 106.90 107.34 107.76 108.10 108.36
102.92 102.98 103.01 103.04 103.03 103.00 102.99 102.96 102.93 102.92 102.90 102.99 103.05 103.06 103.07 103.03 103.00 102.98 102.93 102.84 102.79 102.61 102.32 102.21 102.17 102.07 101.97 101.91 101.91 101.92 101.96 101.99 102.01 102.05 102.11 102.16 102.29 102.47 102.74 103.06 103.50 104.07 104.75 105.46 106.06 106.58 107.02 107.43 107.79 108.10 108.34 108.54
103.04 103.09 103.11 103.15 103.15 103.11 103.10 103.06 103.03 103.04 103.02 103.07 103.15 103.18 103.21 103.19 103.14 103.07 103.02 103.01 102.83 102.63 102.32 102.18 102.10 102.02 101.97 101.93 101.93 101.93 101.95 101.99 102.00 102.06 102.12 102.22 102.35 102.54 102.83 103.20 103.76 104.44 105.16 105.85 106.40 106.91 107.32 107.67 108.00 108.24 108.47 108.67
103.17 103.22 103.26 103.27 103.29 103.26 103.23 103.20 103.16 103.14 103.13 103.19 103.24 103.32 103.35 103.35 103.28 103.18 103.10 103.08 102.20 102.41 102.32 102.22 102.13 102.05 101.99 101.96 101.93 101.98 101.98 102.01 102.04 102.11 102.19 102.31 102.47 102.71 103.03 103.48 104.09 104.82 105.55 106.18 106.71 107.17 107.54 107.84 108.11 108.35 108.60 108.80
103.32 103.40 103.40 103.44 103.44 103.43 103.38 103.35 103.29 103.27 103.28 103.31 103.38 103.44 103.49 103.49 103.41 103.28 103.20 103.12 102.88 102.45 102.37 102.30 102.19 102.09 102.04 102.02 102.03 102.04 102.05 102.08 102.17 102.27 102.40 102.59 102.79 103.06 103.44 103.94 104.58 105.31 105.93 106.48 106.93 107.33 107.69 107.96 108.23 108.46 108.66 108.89
103.58 103.64 103.62 103.67 103.66 103.64 103.58 103.49 103.45 103.44 103.43 103.46 103.47 103.51 103.58 103.58 103.51 103.38 103.32 103.13 102.97 102.78 102.78 102.64 102.46 102.28 102.19 102.15 102.14 102.15 102.19 102.25 102.38 102.53 102.73 102.96 103.26 103.60 103.99 104.52 105.16 105.79 106.32 106.76 107.16 107.52 107.83 108.09 108.32 108.53 108.73 108.96
103.74 103.78 103.86 103.89 103.93 103.89 103.79 103.71 103.70 103.64 103.63 103.62 103.57 103.60 103.64 103.62 103.54 103.42 103.39 102.54 102.91 102.73 102.60 102.60 102.56 102.62 102.65 102.63 102.54 102.49 102.45 102.54 102.68 102.88 103.13 103.43 103.83 104.24 104.68 105.18 105.74 106.26 106.69 107.04 107.36 107.67 107.95 108.19 108.43 108.64 108.81 109.05
103.83 103.90 104.01 104.08 104.11 104.04 103.96 103.92 103.89 103.87 103.83 103.78 103.70 103.64 103.66 103.63 103.58 103.50 103.38 103.20 102.94 102.73 102.63 102.58 102.56 102.51 102.49 102.52 102.54 102.61 102.75 102.88 103.14 103.38 103.64 103.97 104.40 104.86 105.30 105.72 106.19 106.61 106.98 107.28 107.56 107.83 108.06 108.26 108.51 108.69 108.86 109.13
103.92 104.01 104.08 104.19 104.18 104.11 104.07 104.06 104.04 104.02 103.98 103.94 103.78 103.64 103.58 103.57 103.55 103.58 103.36 103.31 103.03 102.82 102.69 102.65 102.59 102.56 102.54 102.54 102.54 102.63 102.72 102.87 103.12 103.47 103.86 104.28 104.73 105.38 105.74 106.29 106.66 106.98 107.29 107.49 107.66 107.89 108.13 108.36 108.60 108.79 108.99 109.21
104.01 104.08 104.18 104.26 104.23 104.17 104.15 104.12 104.10 104.09 104.04 104.00 103.87 103.72 103.59 103.52 103.47 103.53 103.01 103.46 103.13 102.88 102.75 102.73 102.68 102.63 102.59 102.61 102.65 102.72 102.88 103.12 103.44 103.79 104.15 104.59 105.12 105.57 106.06 106.36 106.70 106.96 107.56 107.71 107.93 108.11 108.37 108.57 108.75 108.95 109.14 109.29
104.14 104.21 104.28 104.35 104.32 104.26 104.20 104.19 104.16 104.11 104.08 104.04 103.92 103.83 103.68 103.57 103.47 103.44 103.52 103.54 103.27 103.04 102.90 102.81 102.76 102.73 102.72 102.78 102.85 103.04 103.25 103.56 103.90 104.26 104.62 105.06 105.54 105.89 106.25 106.51 106.84 107.12 107.40 107.71 108.01 108.32 108.62 108.80 109.32 109.48 109.52 109.62
104.26 104.34 104.40 104.46 104.40 104.37 104.31 104.27 104.21 104.15 104.09 104.02 103.91 103.82 103.74 103.62 103.57 103.29 103.64 103.62 103.45 103.29 103.16 103.03 102.97 102.94 102.97 103.01 103.14 103.33 103.62 103.96 104.36 104.78 105.15 105.57 105.87 106.21 106.43 106.73 107.03 107.31 107.59 107.80 108.09 108.36 108.69 108.98 109.23 109.46 109.63 109.89
104.43 104.45 104.53 104.57 104.50 104.48 104.41 104.34 104.28 104.19 104.07 104.00 103.88 103.78 103.71 103.57 103.49 103.44 103.77 103.61 103.66 103.54 103.42 103.34 103.26 103.24 103.27 103.36 103.48 103.72 103.97 104.37 104.82 105.21 105.56 105.90 106.10 106.44 106.64 106.88 107.19 107.49 107.77 107.97 108.19 108.45 108.68 108.95 109.18 109.41 109.67 109.90
104.56 104.60 104.66 104.66 104.62 104.58 104.49 104.38 104.28 104.14 104.04 103.92 103.79 103.74 103.67 103.62 103.46 103.90 103.69 103.69 103.71 103.74 103.61 103.58 103.53 103.52 103.56 103.68 103.86 104.11 104.42 104.79 105.17 105.51 105.88 106.16 106.41 106.66 106.84 107.06 107.34 107.65 107.89 108.15 108.39 108.58 108.80 108.97 109.18 109.41 109.66 109.88
104.66 104.71 104.73 104.76 104.73 104.65 104.57 104.40 104.25 104.08 103.94 103.81 103.72 103.63 103.57 103.58 103.32 103.94 103.77 103.74 103.79 103.82 103.74 104.02 103.82 103.80 103.86 104.00 104.18 104.44 104.78 105.11 105.46 105.80 106.07 106.32 106.64 106.83 107.01 107.22 107.47 107.73 108.00 108.31 108.54 108.74 108.89 109.06 109.21 109.40 109.60 109.83
104.76 104.76 104.76 104.80 104.76 104.68 104.57 104.40 104.21 104.01 103.89 103.77 103.66 103.60 103.58 103.57 103.72 103.90 103.73 103.74 103.79 103.86 103.96 103.99 104.03 104.15 104.13 104.23 104.46 104.74 105.06 105.40 105.70 106.03 106.35 106.56 106.83 106.98 107.15 107.34 107.58 107.82 108.09 108.40 108.62 108.80 108.96 109.12 109.26 109.41 109.63 109.85
104.89 104.84 104.84 104.84 104.80 104.71 104.53 104.36 104.13 103.92 103.82 103.71 103.65 103.62 103.62 103.54 104.04 103.88 103.76 103.79 103.79 103.83 103.92 104.02 104.16 104.29 104.44 104.62 104.58 104.79 105.18 105.57 105.85 106.17 106.43 106.72 106.90 107.08 107.24 107.46 107.71 107.93 108.17 108.46 108.65 108.83 109.04 109.20 109.33 109.48 109.70 109.91
105.04 104.94 104.92 104.90 104.83 104.72 104.54 104.32 104.08 103.88 103.77 103.69 103.65 103.65 103.68 103.44 103.99 103.83 103.77 103.79 103.85 103.86 103.93 104.01 104.17 104.35 104.58 104.73 104.93 105.12 105.22 105.49 105.89 106.20 106.44 106.80 106.96 107.16 107.35 107.62 107.86 108.07 108.29 108.51 108.66 108.87 109.09 109.26 109.40 109.58 109.80 110.02
105.15 105.04 105.00 104.94 104.84 104.71 104.53 104.28 104.07 103.88 103.79 103.73 103.69 103.73 103.75 104.07 103.96 103.83 103.79 103.84 103.87 103.92 103.99 104.09 104.26 104.44 104.69 104.90 105.15 105.32 105.75 105.69 105.92 106.18 106.50 106.78 106.99 107.18 107.39 107.71 107.94 108.18 108.35 108.55 108.72 108.91 109.10 109.30 109.49 109.66 109.88 110.12
105.25 105.14 105.07 104.96 104.86 104.70 104.46 104.28 104.07 103.90 103.85 103.76 103.75 103.81 103.74 104.19 104.01 103.90 103.87 103.90 103.93 103.98 104.06 104.19 104.43 104.65 104.89 105.13 105.36 105.57 105.85 105.98 106.44 106.31 106.50 106.76 106.95 107.17 107.41 107.72 107.97 108.18 108.37 108.57 108.76 108.96 109.18 109.34 109.52 109.74 109.98 110.23
105.33 105.21 105.10 104.96 104.83 104.65 104.44 104.28 104.10 103.99 103.90 103.82 103.82 103.86 103.58 104.14 104.00 103.94 103.94 103.99 103.97 104.03 104.16 104.36 104.63 104.89 105.15 105.40 105.64 105.88 106.12 106.35 106.40 106.39 106.86 106.74 107.02 107.21 107.40 107.68 107.93 108.19 108.41 108.60 108.79 109.02 109.21 109.38 109.58 109.82 110.06 110.31
105.39 105.28 105.12 104.94 104.80 104.61 104.44 104.28 104.12 104.05 103.98 103.90 103.92 103.88 104.23 104.12 103.96 103.99 104.03 104.05 104.06 104.12 104.28 104.55 104.87 105.15 105.42 105.67 105.92 106.18 106.41 106.57 106.60 106.66 106.65 106.97 107.24 107.32 107.49 107.67 107.90 108.21 108.43 108.64 108.87 109.07 109.25 109.45 109.65 109.88 110.18 110.39
