ncols 52
nrows 52
xllcorner 440320
yllcorner 5716992
cellsize 10
NODATA_value -9999
90.19 90.17 90.29 90.43 90.63 90.83 91.03 91.20 91.35 91.50 91.67 91.83 91.96 92.09 92.22 92.35 92.47 92.65 92.75 92.90 92.97 93.03 92.96 92.97 93.04 93.07 93.09 93.15 93.18 93.18 93.30 93.55 93.41 93.39 93.26 93.16 93.10 93.07 92.97 92.94 92.93 92.92 92.85 92.81 92.74 92.71 92.73 92.69 92.67 92.65 92.67 92.65
90.11 90.21 90.38 90.54 90.75 90.95 91.14 91.32 91.50 91.68 91.82 91.93 92.08 92.19 92.29 92.42 92.51 92.65 92.75 92.87 93.04 92.71 93.12 93.05 93.12 93.14 93.15 93.22 93.27 93.35 93.36 93.78 93.54 93.33 93.24 93.23 93.17 93.09 92.98 92.91 92.79 92.82 92.82 92.83 92.76 92.75 92.75 92.75 92.70 92.71 92.72 92.72
90.15 90.33 90.49 90.68 90.86 91.06 91.23 91.46 91.63 91.80 91.91 92.05 92.18 92.30 92.40 92.51 92.59 92.65 92.81 92.85 93.01 93.28 93.17 93.21 93.18 93.21 93.24 93.28 93.38 93.46 93.59 93.60 93.40 93.33 93.26 93.21 93.17 93.12 93.03 92.93 92.84 92.76 92.82 92.86 92.82 92.78 92.78 92.81 92.80 92.75 92.78 92.82
90.21 90.42 90.62 90.80 90.98 91.16 91.40 91.60 91.75 91.90 92.03 92.14 92.27 92.39 92.51 92.59 92.64 92.69 92.76 92.86 92.97 93.15 93.42 93.30 93.29 93.27 93.29 93.33 93.49 93.49 93.90 93.57 93.37 93.32 93.28 93.23 93.18 93.12 93.06 92.96 92.90 92.77 92.82 92.89 92.92 92.88 92.87 92.90 92.89 92.87 92.86 92.87
90.33 90.52 90.72 90.90 91.10 91.32 91.52 91.68 91.85 92.00 92.12 92.24 92.36 92.48 92.55 92.62 92.69 92.76 92.82 92.88 92.96 93.16 93.39 93.21 93.40 93.35 93.32 93.42 93.51 93.93 93.75 93.41 93.25 93.29 93.31 93.21 93.16 93.12 93.07 93.04 93.00 92.92 92.86 92.94 93.04 92.98 92.94 92.97 92.98 92.98 92.96 92.95
90.46 90.65 90.83 91.06 91.26 91.43 91.61 91.79 91.94 92.08 92.20 92.33 92.43 92.52 92.58 92.64 92.74 92.78 92.82 92.87 93.09 93.19 93.31 93.53 93.28 93.39 93.33 93.45 93.47 93.94 93.57 93.37 93.22 93.26 93.28 93.24 93.17 93.15 93.12 93.10 93.09 93.06 92.94 93.02 93.10 93.12 93.06 93.04 93.06 93.06 93.02 93.00
90.62 90.81 91.02 91.21 91.39 91.57 91.73 91.87 92.01 92.14 92.28 92.38 92.46 92.54 92.62 92.70 92.76 92.82 92.88 93.01 93.13 93.22 93.23 93.35 93.68 93.38 93.42 93.42 93.93 93.67 93.46 93.29 93.25 93.24 93.27 93.28 93.20 93.17 93.15 93.12 93.13 93.15 93.12 93.07 93.14 93.22 93.17 93.10 93.14 93.13 93.13 93.13
90.77 90.96 91.15 91.32 91.51 91.68 91.83 91.97 92.11 92.21 92.30 92.40 92.48 92.58 92.65 92.72 92.78 92.87 93.02 93.12 93.14 93.12 93.18 93.28 93.37 93.66 93.46 93.33 93.88 93.52 93.40 93.33 93.30 93.26 93.26 93.29 93.26 93.18 93.17 93.17 93.18 93.22 93.22 93.12 93.18 93.22 93.26 93.24 93.18 93.23 93.25 93.22
90.98 91.13 91.28 91.44 91.61 91.77 91.93 92.07 92.17 92.24 92.32 92.40 92.51 92.59 92.66 92.75 92.88 93.02 93.11 93.11 93.12 93.12 93.19 93.26 93.58 93.67 93.76 93.85 93.67 93.36 93.31 93.35 93.33 93.30 93.30 93.30 93.32 93.25 93.23 93.22 93.23 93.27 93.28 93.26 93.22 93.27 93.36 93.35 93.29 93.31 93.35 93.35
91.11 91.25 91.39 91.54 91.70 91.86 92.01 92.11 92.21 92.28 92.38 92.46 92.54 92.61 92.71 92.86 93.00 93.06 93.04 93.04 93.09 93.22 93.30 93.27 93.42 93.58 93.68 93.88 93.55 93.35 93.29 93.33 93.34 93.34 93.33 93.34 93.37 93.32 93.25 93.23 93.30 93.30 93.34 93.35 93.28 93.32 93.40 93.45 93.38 93.38 93.42 93.43
91.25 91.42 91.54 91.66 91.81 91.92 92.04 92.15 92.22 92.32 92.39 92.48 92.56 92.67 92.81 92.93 92.97 92.96 93.01 93.07 93.19 93.64 93.46 93.22 93.47 93.46 93.08 93.78 93.60 93.28 93.29 93.33 93.36 93.35 93.32 93.35 93.34 93.35 93.32 93.32 93.36 93.35 93.38 93.40 93.43 93.38 93.45 93.52 93.53 93.44 93.44 93.61
91.33 91.52 91.65 91.78 91.86 91.95 92.05 92.16 92.26 92.35 92.43 92.53 92.65 92.77 92.87 92.88 92.88 92.93 93.07 93.15 93.56 93.55 93.60 93.36 93.48 93.38 93.76 93.58 93.26 93.32 93.33 93.32 93.35 93.34 93.33 93.34 93.34 93.38 93.38 93.35 93.39 93.42 93.41 93.47 93.51 93.45 93.49 93.54 93.57 93.59 93.73 93.86
91.41 91.57 91.71 91.83 91.91 91.96 92.07 92.16 92.26 92.36 92.49 92.63 92.72 92.76 92.78 92.81 92.88 93.05 93.50 93.46 93.46 93.48 93.47 93.41 93.34 93.38 93.69 93.18 93.67 93.37 93.29 93.28 93.31 93.32 93.35 93.32 93.35 93.40 93.39 93.39 93.41 93.47 93.48 93.53 93.56 93.59 93.53 93.60 93.73 93.86 94.02 93.98
91.43 91.57 91.75 91.85 91.93 92.00 92.08 92.17 92.26 92.40 92.56 92.63 92.65 92.67 92.72 92.83 92.96 93.35 93.36 93.36 93.40 93.40 93.28 93.40 93.27 93.31 93.30 93.05 93.37 93.08 93.33 93.26 93.25 93.29 93.29 93.34 93.34 93.36 93.44 93.47 93.45 93.51 93.54 93.56 93.57 93.61 93.68 93.71 93.88 94.13 93.31 93.99
91.46 91.60 91.72 91.83 91.94 92.03 92.10 92.21 92.34 92.45 92.51 92.53 92.57 92.62 92.76 92.96 93.24 93.24 93.27 93.29 93.31 93.35 93.24 93.29 93.24 93.49 93.13 92.99 93.17 93.60 93.31 93.25 93.22 93.24 93.29 93.35 93.35 93.35 93.43 93.52 93.53 93.54 93.61 93.68 93.66 93.74 93.77 93.93 94.20 94.13 94.09 94.03
91.42 91.54 91.66 91.80 91.93 92.04 92.16 92.26 92.32 92.36 92.38 92.45 92.54 92.68 93.30 93.10 93.16 93.18 93.18 93.19 93.22 93.17 93.24 93.19 93.21 93.44 92.93 92.93 93.03 93.27 93.34 93.26 93.15 93.19 93.27 93.32 93.38 93.40 93.42 93.51 93.60 93.60 93.68 93.75 93.71 93.89 94.12 93.98 94.07 94.10 94.12 94.15
91.28 91.45 91.60 91.75 91.91 92.08 92.21 92.25 92.23 92.25 92.35 92.48 92.60 92.85 93.22 93.08 93.07 93.10 93.09 93.13 93.10 93.11 93.19 93.10 93.00 93.15 92.78 92.92 92.95 93.05 93.39 93.23 93.18 93.18 93.24 93.31 93.39 93.43 93.48 93.54 93.64 93.68 93.74 93.83 94.02 94.18 93.73 94.11 94.13 94.18 94.27 94.28
91.22 91.41 91.60 91.74 91.89 92.04 92.17 92.18 92.15 92.22 92.40 92.63 92.62 92.71 93.16 93.20 92.99 93.10 93.13 92.99 93.01 93.06 93.21 93.01 92.83 92.79 92.76 92.87 92.88 92.92 93.06 93.40 93.18 93.13 93.21 93.29 93.38 93.49 93.55 93.60 93.67 93.83 93.89 94.10 94.24 94.12 94.19 94.17 94.24 94.34 94.36 94.38
91.21 91.39 91.56 91.71 91.82 91.95 92.04 92.11 92.14 92.25 92.45 92.49 92.61 92.70 92.84 92.94 92.99 92.99 93.00 93.01 93.02 93.04 93.17 92.91 93.04 92.65 92.72 92.78 92.78 92.82 92.93 93.35 93.04 93.18 93.22 93.32 93.40 93.51 93.62 93.69 93.86 93.98 94.19 93.78 94.09 94.19 94.24 94.33 94.38 94.45 94.45 94.44
91.21 91.37 91.55 91.67 91.77 91.85 91.94 92.06 92.15 92.43 92.45 92.49 92.58 92.64 92.84 92.93 92.93 92.94 92.96 92.99 93.01 93.05 93.01 92.82 92.85 92.49 92.67 92.73 92.71 92.79 92.90 93.03 93.43 93.22 93.21 93.29 93.41 93.49 93.66 93.82 94.06 94.26 93.84 94.10 94.16 94.27 94.46 94.52 94.54 94.54 94.53 94.56
91.21 91.32 91.48 91.63 91.75 91.85 91.99 92.14 92.21 92.27 92.37 92.48 92.56 92.64 92.69 92.83 92.85 92.88 92.92 92.96 92.97 92.98 92.90 92.29 92.39 92.46 92.62 92.70 92.71 92.79 92.85 92.96 93.27 92.90 93.24 93.28 93.39 93.60 93.76 94.03 94.07 94.04 94.09 94.15 94.26 94.42 94.58 94.62 94.61 94.62 94.65 94.68
91.15 91.27 91.42 91.61 91.77 91.88 91.94 92.04 92.19 92.27 92.35 92.44 92.51 92.63 92.67 92.88 92.76 92.88 92.98 93.04 92.84 92.79 92.87 92.75 92.45 92.41 92.63 92.68 92.67 92.74 92.81 92.93 93.16 93.53 93.27 93.30 93.44 93.71 94.03 93.32 93.90 94.00 94.05 94.18 94.29 94.50 94.63 94.67 94.71 94.73 94.78 94.83
91.12 91.25 91.42 91.64 91.78 91.79 91.76 91.81 92.11 92.25 92.33 92.39 92.55 92.56 92.58 92.57 92.66 92.72 92.78 92.89 92.75 92.81 92.59 92.62 92.25 92.42 92.61 92.62 92.61 92.70 92.78 92.86 93.03 93.33 93.33 93.37 93.61 93.86 93.57 93.72 93.82 93.89 94.02 94.13 94.32 94.50 94.65 94.75 94.78 94.84 94.92 94.99
91.13 91.28 91.45 91.70 91.65 91.64 91.66 91.73 91.90 92.11 92.26 92.31 92.38 92.44 92.65 92.57 92.51 92.46 92.40 92.77 92.81 92.77 91.89 92.10 92.27 92.46 92.52 92.54 92.59 92.71 92.72 92.82 92.93 93.16 93.59 93.61 93.46 93.34 93.45 93.57 93.70 93.82 94.00 94.18 94.36 94.56 94.71 94.83 94.90 94.98 95.08 95.14
91.16 91.23 91.40 91.47 91.49 91.56 91.60 91.71 91.80 92.07 92.11 92.17 92.32 92.40 92.60 92.59 92.48 92.47 92.48 92.69 92.76 92.66 92.39 92.31 92.25 92.40 92.48 92.51 92.60 92.66 92.75 92.83 92.99 93.29 93.21 93.60 93.26 93.36 93.43 93.58 93.74 93.97 94.12 94.29 94.49 94.63 94.79 94.90 94.99 95.07 95.17 95.25
91.09 91.24 91.30 91.26 91.39 91.53 91.58 91.65 91.75 92.30 92.11 92.10 92.27 92.36 92.56 92.63 92.59 92.53 92.54 92.59 92.79 92.44 92.35 92.20 92.22 92.42 92.41 92.50 92.60 92.69 92.80 92.99 93.22 93.17 92.64 93.54 93.49 93.46 93.57 93.68 93.90 94.08 94.28 94.43 94.56 94.71 94.87 95.01 95.09 95.18 95.25 95.35
90.99 91.07 91.11 91.19 91.32 91.47 91.54 91.60 91.65 91.71 92.13 92.21 92.22 92.31 92.40 92.52 92.59 92.50 92.41 92.50 92.51 92.37 92.15 92.18 92.26 92.31 92.40 92.55 92.65 92.80 93.06 92.50 92.95 92.60 93.08 93.44 92.95 93.43 93.71 93.82 94.01 94.19 94.36 94.53 94.66 94.82 94.96 95.10 95.19 95.25 95.35 95.45
90.91 90.99 91.12 91.22 91.29 91.41 91.50 91.56 91.59 91.64 92.03 92.10 92.11 92.17 92.26 92.38 92.56 92.43 92.32 92.39 92.42 91.44 91.92 92.07 92.22 92.32 92.49 92.57 92.77 92.97 92.74 91.96 92.22 93.20 93.37 93.61 93.68 93.45 93.93 94.00 94.10 94.25 94.43 94.62 94.79 94.93 95.04 95.18 95.28 95.34 95.42 95.54
90.87 90.98 91.06 91.14 91.20 91.32 91.46 91.54 91.60 91.74 91.78 91.89 91.94 91.98 92.04 92.14 92.17 92.35 92.32 92.14 92.27 91.99 92.16 92.07 92.21 92.41 92.56 92.80 92.12 92.61 92.37 92.49 93.11 93.26 93.39 93.52 93.73 94.01 93.94 94.11 94.27 94.34 94.51 94.72 94.90 95.05 95.12 95.26 95.37 95.43 95.49 95.60
90.85 90.94 91.02 91.09 91.18 91.29 91.41 91.47 91.53 91.65 91.67 91.81 91.84 91.90 91.89 92.06 92.17 92.27 92.21 92.00 92.16 92.01 92.11 92.10 92.24 92.50 92.82 92.06 92.18 91.84 92.95 92.98 93.06 93.23 93.39 93.57 93.71 93.96 94.22 94.19 94.39 94.44 94.60 94.78 94.98 95.10 95.23 95.34 95.46 95.51 95.58 95.66
90.81 90.90 91.03 91.09 91.17 91.24 91.32 91.42 91.49 91.47 91.54 91.66 91.76 91.80 91.99 92.06 92.12 92.20 92.12 91.99 91.75 91.96 92.10 92.15 92.45 92.57 92.20 91.48 92.42 92.87 92.85 92.94 93.06 93.25 93.41 93.62 93.80 93.99 94.21 94.35 94.36 94.66 94.74 94.84 95.01 95.18 95.31 95.43 95.53 95.62 95.66 95.72
90.78 90.89 90.96 91.04 91.10 91.18 91.25 91.34 91.35 91.38 91.48 91.56 91.68 91.79 92.08 92.10 92.16 92.22 92.22 91.97 91.71 91.86 92.25 92.41 91.64 92.06 91.96 92.63 92.75 92.74 92.83 92.98 93.12 93.32 93.49 93.64 93.85 94.06 94.26 94.46 94.00 94.54 94.96 94.96 95.10 95.24 95.37 95.51 95.63 95.67 95.72 95.73
90.77 90.82 90.90 90.98 91.06 91.16 91.21 91.24 91.30 91.34 91.35 91.47 91.55 91.69 92.04 92.18 92.22 92.19 92.18 92.18 91.84 91.74 91.78 91.67 91.55 91.53 92.54 92.63 92.67 92.75 92.91 93.05 93.20 93.40 93.56 93.72 93.87 94.14 94.31 94.53 94.77 94.64 94.89 95.15 95.17 95.31 95.44 95.57 95.67 95.73 95.71 95.77
90.70 90.76 90.84 90.93 91.01 91.10 91.13 91.18 91.27 91.28 91.37 91.42 91.57 92.01 92.31 92.19 92.15 92.13 92.13 92.11 90.92 91.71 91.71 91.08 91.26 92.51 92.54 92.57 92.69 92.83 92.99 93.14 93.28 93.43 93.61 93.79 93.96 94.15 94.39 94.56 94.80 95.06 95.04 95.12 95.29 95.33 95.46 95.60 95.68 95.74 95.75 95.79
90.62 90.75 90.83 90.89 90.97 91.03 91.09 91.16 91.24 91.29 91.37 91.39 91.91 92.29 92.25 92.11 92.06 92.01 91.69 91.95 91.19 91.62 91.00 91.07 92.29 92.44 92.51 92.64 92.76 92.93 93.07 93.22 93.36 93.51 93.67 93.86 94.06 94.24 94.41 94.69 94.83 95.03 95.39 95.16 95.43 95.44 95.47 95.58 95.70 95.78 95.79 95.82
90.60 90.69 90.77 90.84 90.92 90.98 91.04 91.11 91.18 91.24 91.35 91.34 91.68 92.25 92.24 92.12 91.96 91.60 91.69 91.40 91.43 91.35 91.12 92.07 92.26 92.40 92.52 92.68 92.85 93.00 93.15 93.30 93.43 93.58 93.75 93.94 94.13 94.32 94.49 94.68 94.90 95.05 95.24 95.21 95.29 95.59 95.53 95.62 95.69 95.81 95.82 95.92
90.53 90.63 90.71 90.80 90.85 90.93 90.99 91.10 91.15 91.20 91.29 91.28 91.43 91.94 92.29 92.07 91.84 91.78 91.48 91.32 90.92 91.35 91.71 92.05 92.25 92.38 92.57 92.74 92.91 93.07 93.22 93.36 93.53 93.69 93.85 94.01 94.21 94.41 94.57 94.72 94.85 95.07 95.28 95.43 95.21 95.43 95.61 95.68 95.75 95.82 95.94 96.09
90.46 90.54 90.62 90.69 90.79 90.88 90.96 91.02 91.07 91.15 91.19 91.23 91.37 91.65 91.88 91.84 91.67 90.81 91.33 91.03 91.19 91.44 91.80 92.10 92.29 92.47 92.62 92.79 92.95 93.09 93.29 93.45 93.61 93.76 93.94 94.11 94.30 94.48 94.66 94.78 94.91 95.13 95.32 95.49 95.68 95.46 95.59 95.74 95.78 95.88 96.01 96.25
90.36 90.46 90.54 90.64 90.68 90.79 90.89 90.92 90.99 91.08 91.09 91.12 91.13 91.43 91.58 91.46 90.77 91.28 91.07 91.15 91.31 91.62 91.94 92.19 92.38 92.54 92.68 92.82 92.99 93.16 93.35 93.54 93.70 93.88 94.05 94.23 94.38 94.53 94.71 94.86 95.03 95.20 95.42 95.53 95.67 95.77 95.65 95.77 95.88 95.96 95.99 96.29
90.30 90.39 90.48 90.55 90.64 90.72 90.77 90.82 90.90 90.96 90.92 90.91 91.01 91.18 91.09 91.15 90.98 91.02 91.16 91.32 91.56 91.81 92.10 92.30 92.46 92.61 92.73 92.89 93.04 93.21 93.40 93.60 93.79 93.99 94.14 94.31 94.46 94.60 94.77 94.96 95.17 95.30 95.45 95.51 95.52 95.65 95.85 95.72 95.86 95.98 96.19 96.03
90.20 90.28 90.38 90.46 90.55 90.64 90.71 90.72 90.72 90.73 90.75 90.81 90.93 90.30 91.05 90.50 90.94 91.11 91.34 91.57 91.77 91.97 92.21 92.40 92.57 92.68 92.81 92.97 93.13 93.28 93.47 93.68 93.88 94.07 94.21 94.38 94.53 94.68 94.88 95.08 95.30 95.36 95.33 95.36 95.41 95.54 95.67 95.66 95.64 95.99 96.00 95.93
90.14 90.22 90.26 90.32 90.43 90.46 90.52 90.54 90.55 90.58 90.58 90.57 90.79 90.82 90.66 90.82 91.02 91.32 91.57 91.77 91.92 92.08 92.26 92.44 92.64 92.78 92.92 93.07 93.22 93.40 93.58 93.76 93.93 94.13 94.31 94.45 94.66 94.82 95.00 95.16 95.21 95.20 95.22 95.27 95.35 95.46 95.58 95.67 95.20 95.51 95.85 95.82
89.97 90.06 90.07 90.09 90.16 90.17 90.20 90.18 90.32 90.45 90.08 90.60 90.05 90.47 90.67 90.90 91.20 91.51 91.72 91.88 92.01 92.17 92.35 92.51 92.71 92.92 93.04 93.17 93.35 93.51 93.67 93.82 94.00 94.18 94.35 94.59 94.83 94.96 95.06 95.08 95.05 95.10 95.16 95.21 95.25 95.35 95.44 95.54 95.62 95.21 95.44 95.46
89.74 89.71 89.70 89.72 89.72 89.74 89.75 89.90 89.77 90.18 90.11 90.22 90.38 90.54 90.77 91.12 91.40 91.64 91.85 91.96 92.08 92.26 92.41 92.60 92.76 92.97 93.17 93.30 93.44 93.59 93.75 93.91 94.07 94.28 94.49 94.71 94.92 94.89 94.94 94.93 94.97 95.03 95.08 95.13 95.20 95.25 95.39 95.37 95.47 95.75 94.90 95.50
89.51 89.29 89.26 89.27 89.29 89.36 89.55 89.57 89.83 89.63 90.04 90.27 90.44 90.68 90.98 91.27 91.51 91.74 91.89 92.03 92.16 92.34 92.51 92.66 92.87 93.05 93.26 93.43 93.55 93.69 93.84 93.99 94.18 94.38 94.54 94.72 94.79 94.74 94.79 94.86 94.90 94.94 94.99 95.04 95.09 95.15 95.18 95.23 95.27 95.32 95.37 94.69
87.86 89.15 89.01 88.96 89.03 89.10 89.39 88.71 89.46 89.83 90.15 90.43 90.72 90.97 91.19 91.41 91.61 91.78 91.95 92.08 92.22 92.40 92.57 92.75 92.93 93.11 93.32 93.52 93.68 93.78 93.92 94.11 94.28 94.43 94.50 94.68 94.71 94.60 94.68 94.80 94.82 94.88 94.92 94.95 94.98 95.03 95.07 95.07 95.15 95.16 95.12 94.46
88.51 87.71 88.92 88.74 88.92 89.01 89.15 89.29 89.51 89.99 90.44 90.70 90.93 91.16 91.31 91.51 91.71 91.90 92.06 92.18 92.27 92.46 92.65 92.83 93.00 93.17 93.37 93.57 93.74 93.90 94.06 94.23 94.35 94.38 94.44 94.53 94.62 94.58 94.60 94.66 94.75 94.76 94.81 94.86 94.88 94.90 94.92 94.95 94.94 94.95 94.99 95.04
88.40 88.40 88.51 88.67 88.71 88.94 89.26 89.48 89.83 90.29 90.60 90.86 91.11 91.29 91.45 91.61 91.82 92.04 92.18 92.28 92.42 92.56 92.72 92.89 93.08 93.24 93.42 93.60 93.83 94.00 94.18 94.26 94.34 94.38 94.37 94.43 94.43 94.53 94.53 94.57 94.63 94.63 94.70 94.75 94.76 94.74 94.78 94.78 94.81 94.85 94.82 94.86
88.12 88.44 88.23 88.51 88.74 89.43 89.65 89.88 90.18 90.49 90.70 90.93 91.22 91.38 91.58 91.69 91.89 92.11 92.25 92.36 92.53 92.69 92.81 93.00 93.15 93.32 93.50 93.67 93.88 94.08 94.21 94.31 94.36 94.28 94.26 94.31 94.35 94.39 94.44 94.46 94.50 94.57 94.57 94.61 94.61 94.61 94.61 94.61 94.77 94.69 94.61 94.68
88.07 87.81 88.46 88.65 89.50 89.89 90.04 90.17 90.35 90.62 90.82 91.02 91.21 91.44 91.62 91.77 91.95 92.13 92.27 92.42 92.61 92.78 92.92 93.06 93.23 93.46 93.61 93.79 93.98 94.14 94.20 94.18 94.22 94.18 94.15 94.19 94.25 94.25 94.32 94.33 94.37 94.44 94.47 94.43 94.42 94.44 94.46 94.49 94.50 94.44 94.54 94.54
88.03 88.14 88.11 88.52 89.56 89.99 90.21 90.36 90.52 90.74 90.90 91.06 91.26 91.47 91.68 91.84 91.98 92.14 92.31 92.46 92.68 92.86 93.00 93.14 93.33 93.54 93.76 93.90 94.00 94.04 94.05 94.01 94.04 94.06 94.04 94.04 94.10 94.12 94.13 94.22 94.21 94.26 94.37 94.26 94.27 94.39 94.32 94.29 94.32 94.35 94.33 94.43
87.82 88.07 88.36 88.86 89.78 90.09 90.34 90.54 90.68 90.82 90.98 91.14 91.31 91.50 91.72 91.90 92.07 92.18 92.33 92.52 92.72 92.90 93.08 93.23 93.42 93.67 93.87 93.93 93.90 93.91 93.90 93.92 93.89 93.92 93.94 93.93 93.97 94.01 93.99 94.03 94.07 94.07 94.13 94.08 94.24 94.26 94.26 94.32 94.26 94.21 94.25 94.21
