ncols 52
nrows 52
xllcorner 440320
yllcorner 5716480
cellsize 10
NODATA_value -9999
87.87 88.04 88.36 88.84 89.67 90.11 90.35 90.52 90.69 90.81 90.99 91.16 91.31 91.51 91.76 91.92 92.09 92.20 92.34 92.51 92.72 92.89 93.08 93.26 93.45 93.69 93.87 93.89 93.89 93.86 93.90 93.87 93.87 93.90 93.89 93.89 93.93 93.95 93.96 93.99 94.04 94.04 94.07 94.07 94.18 94.21 94.26 94.25 94.25 94.21 94.23 94.23
87.91 88.14 88.40 88.88 89.23 90.07 90.40 90.63 90.80 90.93 91.05 91.24 91.39 91.58 91.78 91.97 92.15 92.29 92.38 92.53 92.77 92.94 93.12 93.34 93.53 93.80 93.75 93.76 93.74 93.72 93.74 93.76 93.75 93.69 93.75 93.77 93.80 93.79 93.82 93.81 93.86 93.82 94.00 93.92 93.93 94.00 94.08 93.91 95.54 94.09 94.15 94.15
88.05 88.29 88.45 88.77 89.26 89.51 90.51 90.71 90.87 91.01 91.15 91.31 91.47 91.62 91.83 92.01 92.19 92.32 92.47 92.62 92.82 93.00 93.19 93.35 93.54 93.65 93.65 93.56 93.59 93.58 93.58 93.60 93.59 93.54 93.57 93.61 93.65 93.64 93.67 93.69 93.67 93.71 93.72 93.79 93.76 93.79 93.83 93.85 95.99 94.49 94.05 94.30
88.18 88.40 88.61 88.74 89.15 89.73 90.54 90.79 90.98 91.12 91.26 91.39 91.56 91.73 91.90 92.12 92.26 92.39 92.57 92.69 92.95 93.07 93.22 93.29 93.39 93.47 93.52 93.52 93.43 93.46 93.42 93.42 93.46 93.42 93.40 93.46 93.49 93.50 93.52 93.55 93.53 93.54 93.56 93.62 93.60 93.65 93.75 93.77 93.77 93.71 94.07 94.14
88.31 88.45 88.63 88.79 89.19 89.72 89.91 90.86 91.05 91.19 91.33 91.46 91.64 91.83 91.97 92.14 92.33 92.46 92.61 92.87 92.94 93.07 93.19 93.25 93.25 93.32 93.39 93.39 93.33 93.32 93.31 93.31 93.32 93.32 93.30 93.28 93.35 93.35 93.34 93.38 93.39 93.37 93.41 93.42 93.51 93.46 93.50 93.60 93.57 93.52 93.86 93.96
88.35 88.47 88.64 88.86 89.17 89.70 90.04 90.89 91.10 91.27 91.43 91.56 91.71 91.89 92.02 92.18 92.39 92.46 92.70 92.85 92.94 93.00 93.06 93.12 93.18 93.17 93.24 93.26 93.23 93.12 93.15 93.15 93.14 93.18 93.16 93.15 93.15 93.19 93.22 93.24 93.25 93.24 93.23 93.24 93.32 93.34 93.29 93.35 93.76 93.45 94.94 93.81
88.32 88.47 88.60 88.83 89.20 89.65 90.22 90.46 91.10 91.31 91.54 91.68 91.77 91.92 92.10 92.22 92.38 92.60 92.60 92.69 92.82 92.90 92.95 93.06 93.07 93.07 93.10 93.14 93.12 93.08 93.00 93.00 93.00 93.00 93.04 93.02 93.00 93.02 93.04 93.08 93.08 93.09 93.05 93.08 93.10 93.23 93.24 93.26 93.28 93.65 93.30 93.42
88.39 88.53 88.70 88.96 89.35 89.69 90.33 90.45 90.76 91.40 91.59 91.72 91.84 91.97 92.11 92.25 92.36 92.53 92.56 92.69 92.79 92.81 92.88 92.95 92.94 92.94 92.94 92.98 93.01 92.99 92.90 92.89 92.91 92.87 92.90 92.91 92.89 92.88 92.91 92.91 92.91 92.95 92.95 92.92 92.93 93.04 93.10 93.45 93.38 93.37 93.28 93.12
88.60 88.80 89.01 89.32 89.73 90.15 90.50 90.93 90.88 91.43 91.66 91.83 91.91 92.03 92.11 92.26 92.37 92.48 92.59 92.64 92.76 92.78 92.79 92.81 92.88 92.85 92.85 92.85 92.88 92.88 92.84 92.71 92.74 92.74 92.71 92.75 92.76 92.71 92.71 92.73 92.79 92.79 92.82 92.81 92.78 92.78 92.94 93.14 93.50 93.46 93.33 92.88
89.06 89.32 89.54 89.81 90.14 90.44 90.71 90.97 91.27 91.08 91.71 91.89 91.97 92.02 92.14 92.28 92.39 92.48 92.57 92.65 92.69 92.71 92.71 92.72 92.76 92.79 92.74 92.74 92.79 92.78 92.72 92.68 92.62 92.59 92.58 92.58 92.59 92.60 92.54 92.58 92.60 92.60 92.62 92.64 92.58 92.60 92.67 92.92 93.26 93.50 93.24 92.66
89.55 89.79 89.98 90.19 90.40 90.59 90.84 90.97 91.24 91.01 91.68 91.91 92.01 92.08 92.17 92.28 92.40 92.50 92.57 92.67 92.65 92.64 92.62 92.62 92.65 92.68 92.66 92.64 92.64 92.61 92.61 92.58 92.47 92.46 92.45 92.44 92.47 92.48 92.45 92.43 92.43 92.43 92.43 92.49 92.43 92.42 92.47 92.50 92.86 92.94 92.53 91.90
89.86 90.04 90.19 90.32 90.48 90.63 90.84 91.03 91.23 91.45 91.23 91.80 91.97 92.09 92.17 92.28 92.40 92.52 92.58 92.62 92.59 92.54 92.55 92.58 92.57 92.55 92.61 92.51 92.47 92.46 92.43 92.41 92.40 92.29 92.29 92.29 92.28 92.32 92.32 92.31 92.29 92.27 92.27 92.25 92.27 92.22 92.23 92.26 92.24 91.89 90.40 90.58
90.00 90.14 90.26 90.40 90.51 90.64 90.82 91.07 91.26 91.46 91.27 91.17 91.96 92.07 92.16 92.27 92.34 92.44 92.49 92.49 92.51 92.47 92.46 92.47 92.44 92.44 92.44 92.37 92.33 92.30 92.31 92.26 92.25 92.19 92.12 92.13 92.12 92.14 92.15 92.17 92.13 92.11 92.07 92.07 92.07 92.00 91.92 91.99 91.05 89.68 90.31 90.71
89.97 90.14 90.30 90.43 90.58 90.73 90.91 91.08 91.43 91.63 91.69 91.22 91.86 92.04 92.15 92.23 92.28 92.29 92.34 92.37 92.36 92.41 92.37 92.38 92.29 92.29 92.24 92.25 92.20 92.17 92.13 92.12 92.12 92.08 91.96 91.96 91.96 91.92 91.99 91.99 91.98 91.95 91.91 91.79 91.78 91.64 91.53 89.17 89.35 90.48 90.92 90.83
89.92 90.16 90.31 90.39 90.66 90.82 91.05 91.25 91.56 91.62 91.62 91.65 91.07 91.92 92.03 92.09 92.13 92.14 92.18 92.24 92.26 92.28 92.25 92.21 92.17 92.18 92.14 92.08 92.07 92.04 91.98 91.96 91.93 91.89 91.87 91.79 91.75 91.72 91.72 91.77 91.76 91.73 91.63 91.45 91.32 89.87 88.90 89.73 90.28 90.47 90.78 90.26
89.69 90.08 90.35 90.60 90.71 91.00 91.21 91.25 91.26 91.40 91.48 91.69 90.98 91.82 91.89 91.94 91.99 92.02 92.04 92.10 92.12 92.14 92.17 92.06 92.06 92.05 91.99 91.98 91.92 91.87 91.84 91.81 91.80 91.74 91.68 91.62 91.54 91.47 91.45 91.50 91.49 91.43 91.26 90.60 88.91 88.96 89.49 90.19 90.30 90.53 91.28 91.51
89.18 89.71 90.18 90.61 90.78 91.24 91.07 91.09 91.24 91.23 91.34 91.49 91.58 90.89 91.91 91.84 91.88 91.91 91.92 91.92 91.99 92.00 92.02 91.98 91.92 91.89 91.89 91.83 91.77 91.72 91.69 91.66 91.60 91.57 91.49 91.43 91.36 91.27 91.17 91.20 91.11 91.01 88.94 88.78 88.58 88.80 89.27 90.07 90.14 91.35 91.83 92.21
88.46 89.07 89.61 90.20 90.82 90.83 90.87 91.04 91.11 91.25 91.22 91.32 91.46 90.92 90.61 91.72 91.71 91.71 91.77 91.77 91.83 91.86 91.85 91.82 91.79 91.79 91.72 91.65 91.66 91.61 91.51 91.49 91.41 91.34 91.25 91.14 91.09 90.86 90.81 90.80 89.58 88.96 88.53 88.67 88.95 89.15 89.14 90.54 91.32 91.43 92.01 92.43
88.01 88.44 89.01 89.49 90.04 90.72 90.83 90.92 91.07 91.06 91.15 91.15 91.27 91.40 90.40 91.41 91.55 91.56 91.59 91.60 91.63 91.65 91.67 91.66 91.66 91.69 91.67 91.55 91.46 91.37 91.38 91.28 91.18 91.09 91.01 90.85 90.73 89.71 90.11 88.92 88.69 88.18 88.30 88.71 89.18 89.72 90.04 89.84 91.18 91.49 92.07 92.46
87.82 88.07 88.50 89.03 89.60 90.20 90.61 90.80 90.92 90.98 91.03 91.10 91.12 91.21 91.09 89.99 91.34 91.39 91.38 91.42 91.44 91.46 91.49 91.48 91.43 91.41 91.56 91.49 91.56 91.31 91.17 91.06 90.92 90.88 90.79 90.56 90.26 88.89 88.84 88.26 88.10 88.22 88.46 88.93 89.60 90.24 91.07 91.66 90.39 91.78 92.18 92.58
87.82 88.03 88.28 88.68 89.12 89.60 90.51 90.68 90.70 90.84 90.89 90.95 90.95 91.02 91.03 89.71 90.13 91.12 91.13 91.19 91.23 91.25 91.27 91.24 91.20 91.18 91.35 91.34 91.32 91.13 91.12 90.79 90.69 90.61 90.36 89.06 88.89 88.87 88.67 87.82 88.32 88.49 88.73 89.42 90.21 90.88 91.51 91.84 91.94 90.95 92.32 92.38
87.83 88.01 88.24 88.49 88.90 89.30 89.74 90.45 90.60 90.61 90.73 90.78 90.86 90.88 90.85 90.78 89.45 90.67 90.89 90.96 91.00 90.99 90.97 91.02 90.98 90.97 91.00 91.17 91.16 91.00 90.96 90.48 90.29 89.53 89.06 88.64 88.59 88.63 88.78 88.06 88.40 88.68 89.06 89.71 90.53 91.18 91.65 92.03 92.15 92.19 91.44 92.32
87.85 88.06 88.21 88.41 88.59 89.02 89.35 89.99 90.38 90.51 90.48 90.60 90.64 90.71 90.83 90.76 89.78 88.86 90.60 90.78 90.77 90.79 90.77 90.79 90.76 90.71 90.65 90.82 91.13 91.00 90.32 89.41 89.29 89.29 89.07 88.94 88.36 88.70 88.92 89.22 87.71 88.78 89.25 89.72 90.31 90.98 91.59 91.88 92.16 92.32 92.36 91.79
87.79 88.06 88.23 88.36 88.56 88.84 89.12 89.43 90.20 90.22 90.40 90.35 90.46 90.43 90.40 90.27 90.44 88.88 89.69 90.33 90.41 90.49 90.56 90.59 90.37 90.15 90.09 89.96 89.45 89.35 89.36 89.38 89.13 89.03 88.83 88.23 87.46 88.97 89.34 89.43 89.66 87.96 89.19 89.61 90.01 90.49 91.14 91.65 92.03 92.30 92.40 92.51
87.85 88.07 88.19 88.32 88.52 88.74 89.01 89.19 89.48 90.06 90.11 90.15 90.29 90.08 90.06 90.06 90.26 88.73 88.68 88.61 88.83 89.13 89.38 89.46 89.51 89.47 89.44 89.49 89.04 88.86 88.85 88.71 88.63 88.49 87.72 88.04 88.99 89.37 89.62 89.78 90.07 90.23 88.52 89.30 89.64 90.16 90.69 91.26 91.75 92.07 92.29 92.30
87.86 87.94 88.09 88.26 88.47 88.65 88.89 89.12 89.36 90.02 89.97 90.02 90.25 90.06 89.89 90.00 88.66 88.40 88.42 89.04 88.93 89.19 89.14 88.66 89.01 88.89 88.92 88.83 88.28 88.26 88.40 88.37 88.40 88.00 87.17 88.74 89.25 89.57 89.88 90.11 90.31 90.93 90.74 89.31 88.68 89.54 90.18 90.61 90.91 91.39 91.50 91.70
87.95 87.98 88.07 88.22 88.37 88.49 88.75 89.09 89.31 89.48 89.76 89.66 89.65 90.18 88.93 88.68 88.20 88.06 87.69 88.59 88.70 88.65 88.58 88.63 88.65 88.65 88.61 88.14 87.78 87.86 87.91 87.97 87.77 86.52 88.39 89.17 89.47 89.76 90.01 90.34 90.68 90.93 91.16 90.99 91.05 89.63 89.72 90.12 90.13 90.53 90.94 91.36
87.92 87.96 88.11 88.21 88.29 88.51 88.88 89.18 89.12 89.22 89.35 89.44 89.54 88.99 88.82 88.38 88.43 87.96 87.39 88.28 88.49 88.60 88.52 88.49 88.46 88.49 88.36 88.12 87.33 87.56 87.21 86.47 86.54 87.88 88.84 89.23 89.53 89.85 90.27 90.45 90.69 90.19 90.43 91.24 91.18 90.55 88.76 89.85 90.40 90.73 91.10 91.40
88.82 87.98 88.12 88.13 88.39 88.67 88.94 89.33 89.19 89.16 88.90 88.74 88.87 88.80 88.38 88.20 88.13 87.79 87.25 87.40 88.37 88.52 88.46 88.25 88.37 88.38 88.30 88.10 86.97 87.05 86.23 86.69 87.37 88.17 88.86 89.19 89.53 89.82 90.13 90.58 90.74 90.97 91.16 91.19 91.22 91.26 89.36 89.35 90.51 90.88 91.40 91.40
88.24 89.07 88.25 88.07 88.12 88.36 88.71 88.82 89.21 88.92 88.49 88.29 88.40 88.73 88.43 88.07 87.80 87.66 87.34 86.64 88.16 88.51 88.11 88.18 88.28 88.15 88.16 88.07 87.93 85.59 86.67 87.07 87.64 88.33 88.76 89.10 89.41 89.76 90.08 90.39 90.72 91.00 91.15 91.17 91.29 91.58 90.78 88.78 90.50 91.04 91.55 91.36
87.09 86.28 88.27 88.21 87.97 88.05 87.99 88.31 88.15 88.20 87.80 87.75 87.57 87.38 87.81 87.71 87.81 87.39 86.95 86.78 86.43 87.81 88.00 88.03 87.95 87.75 88.01 88.15 87.96 87.36 86.77 87.22 87.61 88.12 88.56 88.94 89.28 89.59 89.92 90.20 90.64 90.99 91.01 91.20 91.79 91.73 91.59 89.18 90.27 91.00 91.36 91.25
86.36 86.32 86.64 88.10 87.98 88.01 88.03 87.85 87.87 87.82 87.68 87.50 87.37 87.27 87.23 87.15 87.34 86.98 86.81 86.40 86.29 86.93 87.60 87.72 86.03 87.92 88.22 88.38 88.09 87.82 86.92 86.93 87.31 87.75 88.21 88.62 89.01 89.35 89.66 90.04 90.66 90.81 90.73 91.29 91.69 91.59 91.58 91.17 90.74 90.89 91.10 91.41
86.09 86.38 87.48 87.70 87.84 87.80 87.93 88.02 87.92 87.81 87.40 87.21 87.15 87.22 87.49 87.93 86.82 86.89 86.67 86.19 85.88 86.38 87.23 87.13 87.55 88.40 88.96 89.17 88.54 88.45 88.02 86.97 86.45 87.39 87.79 88.15 88.56 88.96 89.27 89.81 90.41 90.68 90.76 91.34 91.58 91.46 91.49 91.19 91.04 91.11 91.30 91.65
86.17 86.60 87.33 87.57 87.63 87.57 87.82 87.78 87.97 87.37 87.08 86.86 86.82 87.06 87.37 86.76 86.71 86.54 86.33 84.91 86.82 86.86 86.35 87.11 88.01 88.50 89.08 89.24 89.13 89.03 88.90 89.01 87.54 86.58 87.24 87.68 88.07 88.51 88.99 90.01 90.39 90.47 90.52 90.67 90.87 90.98 91.02 91.18 91.24 91.37 91.63 91.82
86.25 86.97 87.29 87.16 87.31 87.42 87.51 87.67 87.63 87.26 86.98 86.76 86.61 86.45 86.58 86.52 85.53 84.61 86.27 87.47 88.01 87.58 86.41 86.62 87.79 88.64 88.99 89.07 89.11 89.35 89.23 89.20 89.39 88.86 87.46 86.70 87.53 88.07 88.62 89.51 90.10 89.83 90.35 90.26 90.36 90.65 90.83 91.14 91.45 91.58 91.77 92.04
86.52 86.94 87.12 87.10 87.15 87.18 87.30 87.78 87.59 87.11 86.93 85.10 86.08 86.09 85.80 84.37 85.42 87.18 87.87 88.19 88.40 88.34 87.52 86.85 87.40 88.14 88.57 88.83 89.27 89.62 89.44 89.63 89.59 89.43 89.43 89.83 87.67 87.81 88.12 88.72 88.92 89.28 89.15 89.64 90.19 90.70 91.02 91.23 91.54 91.80 91.96 92.17
86.45 86.76 86.86 87.00 87.17 87.08 87.16 87.32 87.44 87.06 85.42 85.69 84.20 84.35 84.95 86.01 87.50 87.93 88.19 88.41 88.61 88.85 88.51 87.11 87.24 88.01 88.38 88.73 89.40 89.72 89.79 89.64 89.62 89.93 90.11 90.10 90.15 89.65 88.50 88.59 88.77 88.56 88.54 89.71 90.40 90.76 91.04 91.35 91.60 91.88 92.09 92.24
86.48 86.57 86.61 86.74 86.95 87.08 87.01 87.11 87.15 86.94 84.18 86.30 86.03 85.23 86.34 87.35 87.81 88.15 88.40 88.64 88.81 88.94 88.99 88.44 87.46 87.93 88.57 89.72 89.83 89.84 90.03 90.29 90.13 90.22 90.11 90.24 90.35 90.40 90.61 88.90 88.79 88.41 86.73 87.62 90.28 90.75 91.04 91.31 91.65 91.89 92.07 92.26
86.50 86.44 86.45 86.44 86.69 86.82 86.90 86.74 85.59 84.39 86.73 87.01 87.07 86.46 87.63 87.81 87.99 88.22 88.51 88.73 88.88 88.99 89.19 89.15 88.00 87.96 89.50 89.84 89.92 90.04 90.16 90.21 90.23 90.20 90.23 90.33 90.49 90.53 88.85 88.77 88.83 88.79 86.73 86.84 90.23 90.76 91.06 91.35 91.63 91.83 92.06 92.26
86.63 86.55 86.53 86.58 86.55 86.58 84.44 85.04 86.61 86.98 87.20 87.21 87.54 87.85 87.71 88.00 88.25 88.34 88.49 88.60 88.62 88.96 89.33 89.51 89.18 88.11 89.35 89.97 90.16 90.18 90.28 90.33 90.28 90.43 90.46 90.66 90.65 90.71 90.01 89.71 88.80 89.29 89.06 86.74 90.22 90.89 91.04 91.32 91.56 91.80 91.97 92.18
86.31 86.30 86.39 86.50 86.14 84.24 85.79 86.66 86.52 86.73 86.92 87.01 87.82 87.89 88.07 88.29 88.41 88.43 88.47 88.61 88.65 88.94 89.52 89.70 89.68 88.82 88.93 89.95 90.25 90.31 90.33 90.47 90.51 90.73 90.67 90.67 90.78 90.78 90.91 90.44 89.01 91.06 89.70 86.89 89.06 90.71 91.10 91.29 91.53 91.73 92.00 92.21
86.03 86.14 86.26 86.84 84.23 85.22 86.20 86.17 86.56 87.01 87.04 87.12 87.45 88.07 88.31 88.44 88.48 88.53 88.57 88.60 88.75 88.93 89.43 89.61 89.75 89.64 89.10 89.90 90.24 90.46 90.54 90.68 90.66 90.71 90.81 90.86 90.88 90.89 90.92 91.01 91.08 91.03 91.17 89.54 86.96 90.61 91.01 91.32 91.56 91.83 92.03 92.25
86.19 86.18 86.17 85.17 84.42 85.20 86.01 86.31 86.69 86.95 87.24 87.43 87.53 87.85 88.48 88.60 88.58 88.67 88.69 88.68 88.80 89.12 89.40 89.46 89.59 89.75 89.56 89.73 90.28 90.57 90.61 90.68 90.74 90.80 90.91 90.98 91.04 91.00 91.06 91.07 91.10 91.27 91.26 91.09 88.97 89.54 90.86 91.26 91.52 91.79 91.98 92.20
86.21 86.25 86.61 84.46 84.96 85.26 85.65 86.43 86.65 86.98 87.35 87.68 87.79 88.04 88.40 88.74 88.61 88.72 88.90 89.21 89.18 89.26 89.41 89.48 89.59 89.71 89.94 89.43 90.24 90.48 90.62 90.75 90.84 90.93 90.99 91.08 91.16 91.19 91.21 91.25 91.23 91.32 91.44 91.34 90.13 88.04 90.19 91.06 91.43 91.69 91.93 92.11
86.10 87.40 84.48 84.54 85.01 85.43 85.77 86.21 86.91 87.09 87.47 87.75 88.05 88.04 88.31 88.60 88.74 88.99 89.13 89.29 89.47 89.48 89.44 89.30 89.42 89.62 89.74 89.73 90.09 90.35 90.69 90.81 90.89 90.99 91.06 91.10 91.25 91.33 91.42 91.48 91.45 91.49 91.54 91.54 91.43 90.15 88.00 90.01 91.22 91.52 91.75 91.92
86.10 85.10 83.54 84.73 85.06 85.43 85.89 86.26 86.68 87.29 87.48 87.72 87.98 88.15 88.38 88.72 88.87 88.94 88.88 88.71 88.73 89.32 89.36 89.08 89.25 89.72 90.08 90.15 89.92 90.29 90.65 90.86 90.95 91.03 91.15 91.22 91.35 91.51 91.58 91.62 91.69 91.68 91.62 91.66 91.59 91.47 90.29 88.42 90.09 91.28 91.58 91.80
87.16 84.15 84.48 84.74 85.08 85.50 85.89 86.27 86.65 87.05 87.52 87.73 87.96 88.17 88.31 88.64 88.75 88.88 88.98 89.19 89.24 88.56 88.51 88.69 88.01 87.74 89.73 90.18 89.79 90.32 90.59 90.86 90.98 91.10 91.23 91.37 91.49 91.65 91.73 91.77 91.80 91.80 91.76 91.75 91.72 91.70 91.64 90.62 89.12 90.46 91.36 91.55
84.10 83.48 84.44 84.74 85.04 85.44 85.84 86.22 86.58 86.83 87.38 87.67 88.03 87.96 88.32 88.45 88.54 88.54 88.78 88.94 88.97 89.01 88.63 88.35 87.74 87.74 87.74 90.28 90.12 90.10 90.51 90.84 91.06 91.25 91.40 91.55 91.64 91.72 91.81 91.85 91.91 91.86 91.86 91.89 91.88 91.79 91.84 91.76 90.84 89.04 89.96 91.20
83.72 84.15 84.44 84.63 85.04 85.33 85.71 86.07 86.43 86.76 87.04 87.43 87.83 88.02 88.19 88.40 88.63 88.72 89.03 88.58 88.60 88.70 88.66 88.65 87.75 87.74 87.74 90.26 90.22 90.05 90.40 90.82 91.15 91.40 91.52 91.60 91.65 91.75 91.87 91.89 91.96 91.97 92.00 92.03 91.95 91.94 91.98 91.97 91.97 91.01 90.17 88.61
83.82 84.14 84.36 84.63 84.92 85.23 85.53 85.90 86.29 86.60 86.98 87.29 87.58 87.90 88.07 88.21 88.43 88.55 88.56 88.41 88.48 88.56 88.71 88.85 88.80 88.80 87.86 89.46 90.02 90.13 90.38 90.76 91.21 91.36 91.48 91.61 91.69 91.76 91.87 91.92 92.02 92.06 92.08 92.10 92.12 92.11 92.14 92.07 92.12 91.98 91.27 91.09
83.79 84.13 84.26 84.59 84.77 85.07 85.38 85.72 86.14 86.46 86.82 87.07 87.40 87.62 87.76 88.12 88.20 88.26 88.25 88.29 88.35 88.45 88.62 88.90 89.23 89.49 89.82 89.46 89.28 90.41 90.32 90.73 91.10 91.35 91.50 91.54 91.62 91.72 91.86 91.95 92.06 92.12 92.17 92.20 92.24 92.25 92.25 92.18 92.23 92.15 91.94 91.32
83.82 83.96 84.24 84.46 84.62 84.91 85.20 85.51 85.88 86.25 86.53 86.81 87.13 87.47 87.90 87.90 87.99 88.12 88.28 88.37 88.34 88.26 88.49 89.00 89.31 89.40 89.78 90.10 90.15 90.42 90.35 90.68 91.03 91.27 91.41 91.53 91.66 91.74 91.80 91.90 92.06 92.11 92.24 92.27 92.32 92.36 92.41 92.33 92.32 92.26 92.14 91.48
