ncols 52
nrows 52
xllcorner 440320
yllcorner 5715968
cellsize 10
NODATA_value -9999
83.80 83.97 84.25 84.44 84.61 84.85 85.15 85.46 85.85 86.19 86.51 86.78 87.06 87.30 87.82 87.90 87.96 88.08 88.27 88.39 88.35 88.29 88.48 88.94 89.31 89.33 89.77 90.07 90.28 90.42 90.28 90.67 90.98 91.24 91.40 91.50 91.68 91.75 91.79 91.89 92.07 92.17 92.25 92.22 92.32 92.38 92.39 92.37 92.34 92.28 92.18 91.60
83.75 83.98 84.13 84.35 84.48 84.69 84.99 85.23 85.56 85.91 86.26 86.54 86.85 87.11 87.34 87.70 87.78 87.95 88.24 88.30 88.30 88.33 88.50 88.74 88.93 89.79 89.97 90.08 90.40 90.22 90.43 90.53 90.90 91.15 91.36 91.51 91.65 91.74 91.78 91.90 92.04 92.18 92.30 92.34 92.39 92.44 92.49 92.46 92.38 92.31 92.18 91.98
83.69 83.89 84.04 84.18 84.34 84.55 84.79 85.06 85.35 85.65 85.93 86.31 86.60 86.81 87.04 87.29 87.42 87.73 87.89 88.10 88.42 88.18 88.47 88.85 89.36 89.77 89.93 90.11 90.07 90.57 90.38 90.35 90.82 91.13 91.38 91.51 91.63 91.75 91.79 91.92 92.08 92.29 92.49 92.33 92.42 92.50 92.49 92.47 92.54 92.37 92.22 91.94
83.65 83.78 83.94 84.03 84.18 84.39 84.61 84.91 85.14 85.42 85.74 86.04 86.28 86.57 86.73 86.95 87.30 87.39 87.68 88.11 88.21 88.16 88.64 89.03 89.33 89.77 89.85 89.68 89.99 90.20 89.45 90.64 90.72 91.18 91.28 91.43 91.60 91.75 91.81 91.95 92.16 92.55 92.44 92.51 92.42 92.42 92.51 92.53 92.38 92.35 92.32 91.82
83.62 83.74 83.82 83.94 84.03 84.28 84.47 84.75 84.96 85.30 85.60 85.76 85.98 86.22 86.47 86.74 86.95 87.21 87.42 87.59 87.77 89.07 89.68 88.98 89.30 89.44 89.18 90.01 90.13 90.08 90.37 89.52 90.38 90.99 91.29 91.47 91.65 91.85 91.91 91.85 92.18 92.34 92.32 92.55 92.33 92.49 92.39 92.38 92.34 92.36 92.38 91.90
83.56 83.68 83.75 83.82 83.97 84.14 84.38 84.61 84.89 85.15 85.37 85.54 85.72 85.95 86.24 86.55 86.75 86.99 87.20 87.33 87.78 89.56 89.08 89.08 88.89 88.74 89.74 89.77 90.11 90.02 90.09 90.61 90.32 90.28 91.41 91.55 91.80 91.72 91.85 91.96 91.99 92.04 91.94 92.37 92.26 92.29 92.30 92.30 92.33 92.34 92.41 91.90
83.56 83.61 83.72 83.83 83.87 83.99 84.24 84.47 84.72 84.93 85.16 85.35 85.57 85.74 85.98 86.26 86.55 86.75 86.93 87.15 87.42 87.88 87.94 88.50 88.26 89.20 89.83 89.63 89.86 90.08 90.16 90.15 90.59 90.43 91.03 91.55 91.47 91.83 91.94 91.88 91.76 91.81 92.03 92.10 92.10 92.15 92.18 92.23 92.28 92.34 92.46 92.01
83.54 83.61 83.71 83.81 83.85 83.93 84.11 84.30 84.52 84.75 85.02 85.22 85.35 85.49 85.74 85.99 86.30 86.63 86.82 87.02 87.29 87.72 88.01 88.02 88.25 89.21 89.42 89.54 89.72 90.46 90.25 90.18 90.32 90.38 90.31 91.20 91.64 91.62 91.59 91.58 91.65 91.73 91.88 91.93 91.98 92.04 92.11 92.17 92.23 92.32 92.50 92.40
83.52 83.61 83.68 83.75 83.79 83.91 84.00 84.19 84.43 84.61 84.84 85.03 85.21 85.33 85.62 85.90 86.18 86.46 86.75 87.10 87.22 87.53 87.81 87.89 87.97 89.75 89.86 89.53 89.47 90.28 90.30 90.32 90.23 90.39 89.68 90.13 91.26 91.42 91.45 91.51 91.61 91.68 91.76 91.79 91.89 91.96 92.04 92.10 92.20 92.27 92.51 93.67
83.57 83.63 83.72 83.72 83.77 83.86 83.93 84.10 84.33 84.51 84.67 84.83 85.01 85.24 85.51 85.75 86.02 86.41 86.68 87.06 87.26 87.54 87.69 87.84 87.87 87.93 90.50 90.71 89.63 90.21 90.24 90.12 90.17 91.15 90.71 90.48 91.29 91.39 91.39 91.44 91.49 91.54 91.58 91.73 91.78 91.88 91.98 92.08 92.17 92.37 92.49 95.07
83.62 83.58 83.65 83.72 83.74 83.81 83.93 84.01 84.23 84.37 84.54 84.71 84.90 85.14 85.37 85.58 85.88 86.10 86.48 86.93 87.30 87.50 87.72 87.91 88.24 88.43 88.03 90.25 90.01 90.10 89.85 89.87 91.15 92.75 90.66 90.74 90.66 91.22 91.21 91.28 91.33 91.43 91.52 91.61 91.71 91.79 91.92 92.01 92.18 92.46 92.45 93.01
83.65 83.59 83.57 83.67 83.78 83.82 83.95 84.03 84.15 84.24 84.41 84.61 84.83 85.06 85.26 85.47 85.72 85.93 86.28 86.65 87.12 87.47 87.93 88.04 88.15 88.21 88.11 88.07 90.20 90.04 89.65 89.80 92.37 92.64 92.90 90.77 90.86 90.62 91.16 91.15 91.28 91.35 91.45 91.52 91.62 91.75 91.85 92.00 92.13 92.54 92.21 92.86
83.66 83.60 83.56 83.59 83.74 83.83 83.92 84.03 84.15 84.25 84.38 84.56 84.73 84.96 85.15 85.38 85.65 85.84 86.07 86.37 86.79 87.23 87.66 87.93 88.10 88.10 88.07 88.06 89.02 92.07 91.61 89.76 91.26 92.54 92.80 92.58 90.86 90.63 90.49 91.15 91.19 91.28 91.36 91.46 91.57 91.73 91.87 92.03 92.17 92.33 92.69 92.79
83.68 83.66 83.58 83.55 83.65 83.80 83.91 84.01 84.12 84.26 84.40 84.51 84.67 84.84 85.06 85.24 85.48 85.71 85.92 86.17 86.49 86.93 87.40 87.81 87.99 87.99 87.98 88.12 88.41 90.20 90.51 91.57 89.95 90.43 92.72 92.21 90.62 90.72 90.73 91.11 91.18 91.23 91.30 91.39 91.57 91.68 91.87 91.95 92.24 92.10 92.69 92.82
83.77 83.76 83.65 83.57 83.64 83.78 83.90 83.99 84.10 84.22 84.36 84.49 84.61 84.75 84.94 85.13 85.37 85.58 85.80 86.03 86.30 86.67 87.15 87.60 87.86 87.93 87.93 87.64 88.82 88.97 89.18 89.20 92.26 90.10 91.39 90.23 90.29 90.55 90.86 90.82 91.25 91.20 91.31 91.40 91.56 91.70 91.79 91.88 91.97 92.27 92.65 92.81
83.88 83.86 83.73 83.61 83.64 83.76 83.88 83.96 84.04 84.16 84.30 84.37 84.52 84.68 84.86 85.04 85.21 85.46 85.61 85.92 86.22 86.46 86.98 87.47 87.94 88.14 87.66 88.49 88.70 88.87 88.93 89.10 89.42 90.62 89.85 90.04 90.29 90.47 90.71 90.92 90.82 91.31 91.34 91.43 91.50 91.64 91.67 91.81 91.82 92.64 92.68 92.69
83.28 83.92 83.78 83.63 83.66 83.75 83.87 83.93 84.06 84.15 84.21 84.35 84.43 84.61 84.81 84.91 85.10 85.35 85.62 85.82 86.08 86.35 86.75 87.26 87.72 88.05 88.13 88.39 88.56 88.75 88.90 89.08 89.28 89.54 89.70 89.96 90.25 90.41 90.63 90.84 90.90 91.14 91.45 91.43 91.49 91.57 91.46 91.58 92.24 92.46 92.62 92.63
83.91 83.99 83.77 83.67 83.69 83.75 83.81 83.93 84.03 84.12 84.19 84.31 84.43 84.54 84.68 84.84 85.03 85.27 85.51 85.78 85.98 86.24 86.56 87.04 87.44 87.95 88.27 88.25 88.46 88.63 88.73 88.99 89.17 89.42 89.60 89.84 90.15 90.35 90.59 90.72 90.96 91.01 91.53 91.36 91.33 91.26 91.38 91.51 92.39 92.47 92.67 92.71
83.85 82.85 83.81 83.69 83.70 83.75 83.80 83.87 84.02 84.08 84.14 84.23 84.36 84.52 84.61 84.77 85.03 85.22 85.38 85.63 85.80 86.12 86.36 86.73 87.10 87.57 88.06 88.09 88.27 88.45 88.66 88.86 89.04 89.29 89.57 89.74 90.04 90.30 90.52 90.72 90.90 91.12 91.07 91.68 91.44 91.32 91.24 91.51 92.25 92.46 92.55 92.72
83.86 83.86 83.93 83.82 83.74 83.74 83.76 83.85 83.97 84.04 84.08 84.10 84.24 84.44 84.60 84.76 84.94 85.09 85.25 85.45 85.67 85.93 86.13 86.46 86.90 87.24 87.65 88.11 88.21 88.34 88.57 88.82 88.96 89.12 89.39 89.68 89.96 90.29 90.49 90.68 90.83 91.09 91.16 91.25 91.40 91.30 91.04 92.06 91.48 91.88 91.68 92.65
83.86 83.85 83.17 83.96 83.87 83.78 83.71 83.83 83.90 83.98 84.03 84.07 84.21 84.41 84.59 84.69 84.85 84.97 85.16 85.37 85.53 85.76 85.99 86.24 86.60 87.00 87.34 87.75 88.17 88.17 88.54 88.50 88.74 89.12 89.32 89.60 89.97 90.21 90.43 90.62 90.82 91.00 91.21 91.08 91.50 90.82 91.78 92.30 92.28 92.41 92.03 92.03
83.78 83.82 83.90 83.40 83.95 83.82 83.69 83.73 83.87 83.93 83.97 84.08 84.23 84.36 84.54 84.62 84.74 84.89 85.03 85.18 85.38 85.62 85.83 86.07 86.40 86.74 87.17 87.49 87.86 88.16 87.81 88.66 88.77 88.95 89.23 89.58 89.88 90.15 90.38 90.58 90.78 90.95 91.11 91.31 90.85 90.54 91.99 92.19 92.31 92.40 92.55 92.67
83.77 83.85 83.91 84.13 84.10 83.90 83.77 83.74 83.85 83.93 83.96 84.00 84.18 84.35 84.48 84.63 84.68 84.80 84.92 85.10 85.26 85.47 85.69 85.97 86.28 86.58 86.91 87.24 87.55 87.91 88.16 88.32 88.56 88.75 89.11 89.44 89.74 90.07 90.31 90.52 90.71 90.84 90.88 91.13 90.21 90.67 91.96 92.16 92.22 92.34 92.49 92.68
83.80 83.81 83.90 83.96 83.11 84.02 83.94 83.81 83.89 83.92 83.98 84.01 84.12 84.29 84.45 84.56 84.60 84.76 84.92 85.04 85.21 85.36 85.60 85.89 86.12 86.39 86.60 86.95 87.39 87.75 87.92 88.00 88.30 88.65 88.99 89.32 89.67 89.99 90.23 90.42 90.53 90.69 90.78 90.98 89.78 91.69 91.90 92.01 92.14 92.29 92.43 92.60
83.83 83.81 83.86 83.93 83.99 83.98 84.04 83.93 83.90 83.93 83.94 84.00 84.18 84.30 84.40 84.52 84.60 84.76 84.89 85.03 85.20 85.36 85.56 85.82 86.01 86.26 86.44 86.75 87.10 87.43 87.61 87.88 88.19 88.54 88.84 89.21 89.51 89.82 90.13 90.24 90.40 90.56 90.68 90.87 89.55 91.55 91.76 91.88 92.04 92.18 92.34 92.49
83.85 83.84 83.88 83.92 83.99 84.17 84.15 84.08 84.03 83.96 83.93 84.03 84.17 84.29 84.37 84.51 84.63 84.76 84.90 85.03 85.21 85.37 85.55 85.76 85.96 86.16 86.35 86.54 86.79 87.17 87.47 87.73 88.06 88.42 88.72 89.10 89.38 89.70 89.88 90.10 90.28 90.43 90.55 89.94 89.05 91.41 91.64 91.75 91.92 92.04 92.21 92.37
83.85 83.87 83.88 83.88 83.98 84.08 83.18 84.13 84.10 84.01 83.98 84.06 84.21 84.33 84.43 84.54 84.63 84.77 84.94 85.10 85.22 85.38 85.53 85.71 85.86 86.06 86.22 86.47 86.73 87.02 87.32 87.62 87.94 88.25 88.59 88.90 89.20 89.49 89.75 89.94 90.19 90.25 90.40 88.93 90.53 91.29 91.45 91.61 91.79 91.90 92.03 92.20
83.86 83.90 83.89 83.92 83.99 84.04 84.18 84.20 84.18 84.08 84.03 84.07 84.23 84.31 84.43 84.57 84.67 84.81 84.99 85.11 85.29 85.40 85.50 85.65 85.80 85.95 86.19 86.44 86.69 86.94 87.26 87.54 87.81 88.12 88.41 88.72 89.07 89.35 89.62 89.82 89.97 90.08 90.22 88.72 90.85 91.19 91.31 91.45 91.61 91.73 91.84 91.96
83.86 83.88 83.90 83.95 83.98 84.07 84.11 83.51 84.28 84.17 84.10 84.12 84.24 84.32 84.45 84.60 84.74 84.87 85.01 85.16 85.26 85.41 85.51 85.63 85.77 85.96 86.18 86.42 86.66 86.89 87.15 87.42 87.69 87.96 88.26 88.59 88.92 89.24 89.50 89.67 89.82 89.87 89.78 88.41 90.77 90.98 91.15 91.28 91.43 91.52 91.64 91.74
83.90 83.91 83.93 83.96 83.97 84.10 84.16 84.33 83.18 84.19 84.18 84.19 84.23 84.29 84.47 84.63 84.78 84.91 85.10 85.19 85.29 85.40 85.46 85.66 85.82 86.00 86.22 86.42 86.62 86.84 87.07 87.33 87.60 87.85 88.13 88.49 88.82 89.12 89.35 89.53 89.57 89.67 88.16 89.06 90.64 90.80 90.92 91.06 91.16 91.25 91.36 91.45
83.97 83.96 83.93 83.97 84.02 84.11 84.24 84.53 84.29 83.70 84.26 84.28 84.26 84.27 84.40 84.61 84.80 84.97 85.07 85.15 85.25 85.37 85.55 85.68 85.85 86.02 86.19 86.37 86.56 86.77 86.94 87.18 87.47 87.74 88.06 88.39 88.68 88.96 89.18 89.34 89.33 89.47 88.06 90.16 90.43 90.55 90.64 90.76 90.84 90.93 91.03 91.11
84.00 84.00 83.99 84.02 84.10 84.21 84.39 84.61 84.75 84.58 84.48 84.33 84.39 84.33 84.36 84.60 84.82 84.98 85.06 85.15 85.24 85.41 85.60 85.72 85.85 85.98 86.15 86.31 86.47 86.65 86.88 87.10 87.40 87.65 87.94 88.25 88.59 88.81 88.98 89.14 89.21 89.21 87.79 89.94 90.15 90.21 90.28 90.38 90.46 90.57 90.65 90.77
84.07 84.08 84.04 84.07 84.17 84.31 84.46 83.33 84.62 84.56 84.53 84.57 84.50 84.39 84.39 84.56 84.77 84.91 85.07 85.21 85.33 85.46 85.59 85.72 85.85 85.98 86.09 86.24 86.39 86.59 86.80 87.04 87.30 87.57 87.87 88.15 88.40 88.68 88.82 88.84 88.92 87.34 87.39 89.55 89.65 89.77 89.86 89.95 90.02 90.14 90.25 90.33
84.16 84.15 84.10 84.15 84.24 84.38 84.55 83.26 84.83 84.53 84.40 84.43 84.46 84.55 84.51 84.54 84.68 84.88 85.12 85.25 85.34 85.48 85.57 85.71 85.81 85.94 86.04 86.20 86.34 86.55 86.76 86.99 87.21 87.48 87.72 88.00 88.23 88.41 88.55 88.48 88.63 87.37 88.86 89.12 89.19 89.29 89.41 89.50 89.58 89.68 89.82 89.88
84.24 84.21 84.18 84.19 84.29 84.46 84.62 83.21 84.75 84.47 84.44 84.53 84.57 84.51 84.61 84.58 84.68 84.83 85.11 85.28 85.38 85.46 85.57 85.70 85.81 85.91 86.01 86.19 86.35 86.51 86.71 86.91 87.16 87.39 87.63 87.84 88.01 88.12 88.20 88.17 88.34 87.23 88.41 88.58 88.69 88.82 88.94 89.02 89.10 89.22 89.34 89.46
84.33 84.30 84.26 84.22 84.32 84.54 84.68 84.49 84.69 84.45 84.52 84.54 84.57 84.70 84.64 84.60 84.69 84.82 85.01 85.20 85.33 85.48 85.54 85.65 85.74 85.88 86.03 86.15 86.31 86.47 86.68 86.87 87.08 87.29 87.47 87.62 87.74 87.72 87.80 87.88 87.01 87.00 87.88 88.13 88.22 88.42 88.50 88.61 88.69 88.82 88.90 89.00
84.39 84.38 84.33 84.26 84.35 84.59 84.74 84.54 84.51 84.51 84.51 84.56 84.63 84.67 84.79 84.78 84.40 84.82 84.98 85.16 85.33 85.47 85.55 85.64 85.75 85.86 86.02 86.15 86.30 86.46 86.61 86.81 86.99 87.10 87.32 87.41 87.40 87.37 87.46 86.70 86.99 87.13 87.56 87.72 87.92 88.04 88.15 88.28 88.40 88.47 88.60 88.68
84.37 84.41 84.41 84.34 84.39 84.56 84.46 84.64 84.54 84.53 84.53 84.58 84.62 84.75 84.75 84.87 84.89 84.46 84.93 85.13 85.31 85.46 85.54 85.65 85.76 85.85 86.01 86.13 86.29 86.42 86.53 86.72 86.83 86.97 87.02 87.12 87.08 86.69 86.12 86.79 86.45 87.25 87.18 87.46 87.74 87.89 87.91 88.11 87.79 86.91 87.24 88.29
84.34 84.43 84.49 84.40 84.42 84.55 83.48 84.51 84.63 84.55 84.56 84.56 84.66 84.85 84.81 84.85 84.93 85.00 84.68 85.12 85.27 85.47 85.53 85.61 85.73 85.88 86.01 86.14 86.23 86.33 86.41 86.60 86.65 86.75 86.75 86.85 86.13 86.56 86.65 87.24 87.42 87.50 87.76 88.01 88.23 88.43 88.59 88.72 88.78 88.95 88.90 88.87
84.42 84.47 84.50 84.50 84.47 84.59 84.30 84.77 84.60 84.54 84.63 84.60 84.65 84.69 84.82 84.92 84.97 84.98 85.05 85.03 85.34 85.40 85.57 85.62 85.71 85.85 85.97 86.08 86.19 86.27 86.29 86.38 86.40 86.51 86.29 86.52 86.68 86.71 87.42 87.54 87.54 87.61 87.90 88.21 88.43 88.55 88.70 88.82 88.93 89.06 89.13 89.18
84.51 84.48 84.49 84.48 84.59 84.79 84.77 84.78 84.67 84.67 84.62 84.58 84.55 84.70 84.79 84.93 85.01 85.06 85.06 85.07 85.32 85.51 85.57 85.68 85.71 85.85 85.96 86.02 86.11 86.17 86.24 86.22 86.26 86.14 86.52 86.60 86.78 86.58 87.58 87.65 87.78 87.98 88.33 88.62 88.87 89.02 89.20 89.29 89.32 89.32 89.32 89.21
84.53 84.49 84.45 84.54 84.64 84.86 84.88 84.76 84.73 84.75 84.74 84.75 84.68 84.65 84.65 84.87 85.05 85.11 85.18 85.17 85.09 85.33 85.55 85.69 85.81 85.88 85.96 85.98 86.05 86.03 86.05 85.44 86.68 86.73 86.76 86.76 86.85 87.63 87.82 87.94 88.10 88.40 88.75 89.05 89.28 89.47 89.63 89.68 89.72 89.75 89.75 89.71
84.52 84.49 84.50 84.57 84.68 84.40 84.89 84.76 84.77 84.87 84.85 84.84 84.78 84.80 84.78 84.79 84.84 85.14 85.23 85.28 85.21 85.24 85.50 85.43 85.82 85.96 85.92 85.93 85.96 85.94 86.55 86.73 86.88 87.11 87.24 87.20 87.63 87.86 88.03 88.22 88.42 88.75 89.14 89.45 89.69 89.87 90.06 90.15 90.19 90.19 90.15 90.11
84.51 84.50 84.51 84.62 84.71 83.59 84.93 84.79 84.85 84.89 84.95 84.92 84.89 84.90 84.86 84.92 84.94 85.02 85.10 85.35 85.37 85.28 85.35 85.60 85.15 85.90 86.00 85.95 85.37 86.52 86.59 86.71 86.99 87.21 87.42 87.11 88.00 88.14 88.38 88.55 88.79 89.16 89.54 89.83 90.09 90.27 90.43 90.56 90.64 90.65 90.65 90.61
84.56 84.51 84.51 84.64 84.77 84.69 85.01 84.89 84.93 84.96 84.97 84.96 84.98 84.95 84.99 85.00 85.02 85.11 85.21 85.27 85.33 85.56 85.40 85.57 85.65 85.13 85.79 86.21 86.64 86.68 86.77 86.83 87.11 87.29 87.25 87.57 88.19 88.49 88.57 88.81 89.12 89.54 89.90 90.23 90.48 90.69 90.86 91.00 91.06 91.10 91.10 91.09
84.58 84.55 84.51 84.69 84.88 85.16 85.08 85.01 85.02 85.05 85.02 85.06 85.03 85.05 85.05 85.05 85.13 85.17 85.27 85.37 85.46 85.52 85.51 85.57 85.59 85.70 86.02 86.39 86.54 86.68 86.90 87.13 87.23 87.40 87.24 88.19 87.76 88.68 88.88 89.00 89.40 89.83 90.25 90.57 90.85 91.08 91.28 91.42 91.50 91.57 91.59 91.56
84.63 84.57 84.55 84.70 83.63 85.22 85.05 85.01 85.10 85.11 85.15 85.13 85.12 85.13 85.12 85.15 85.19 85.26 85.35 85.40 85.55 85.62 85.74 85.75 85.79 86.00 86.31 86.63 86.67 86.80 86.93 87.06 87.26 87.21 88.24 88.42 88.45 88.26 89.10 89.32 89.54 90.06 90.54 90.89 91.21 91.46 91.65 91.84 91.97 92.04 92.07 92.06
84.66 84.61 84.60 84.71 84.18 85.22 85.07 85.10 85.13 85.15 85.21 85.18 85.20 85.19 85.21 85.23 85.26 85.35 85.41 85.53 85.60 85.71 85.91 86.03 86.14 86.21 86.29 86.48 87.65 86.93 87.03 87.16 87.29 87.15 88.33 88.52 88.66 88.87 88.87 89.57 89.95 90.38 90.73 91.10 91.43 91.76 92.03 92.22 92.38 92.45 92.53 92.53
84.64 84.65 84.70 84.75 84.84 85.15 85.08 85.18 85.21 85.22 85.21 85.25 85.26 85.26 85.31 85.31 85.35 85.40 85.48 85.59 85.69 85.85 85.95 86.18 86.30 86.38 86.49 86.70 86.94 87.14 87.29 87.25 87.28 88.32 88.49 88.63 88.87 89.08 89.58 89.91 89.93 90.69 91.11 91.41 91.71 92.02 92.31 92.55 92.73 92.86 92.95 92.93
84.89 85.27 84.82 85.01 84.79 85.15 85.08 85.18 85.25 85.31 85.27 85.28 85.28 85.33 85.36 85.38 85.43 85.50 85.55 85.65 85.79 85.94 86.08 86.24 86.31 86.45 86.60 86.83 87.13 87.25 87.19 87.42 87.45 88.51 88.64 88.82 89.12 89.48 89.77 90.24 90.56 90.40 90.53 91.73 92.04 92.24 92.56 92.83 93.06 93.21 93.31 93.39
84.90 84.93 85.21 85.59 85.35 85.32 85.19 85.20 85.29 85.32 85.37 85.37 85.35 85.35 85.41 85.46 85.51 85.57 85.64 85.76 85.90 86.06 86.19 86.29 86.35 86.48 86.65 86.81 86.99 87.20 87.39 87.53 88.48 88.60 88.79 89.10 89.38 89.76 90.16 90.50 90.83 91.27 91.58 91.17 92.24 92.58 92.75 93.08 93.32 93.50 93.67 93.79
84.83 84.88 84.90 84.32 85.14 85.68 85.60 85.51 85.39 85.35 85.43 85.43 85.46 85.43 85.46 85.49 85.58 85.68 85.75 85.88 86.03 86.20 86.27 86.37 86.44 86.54 86.73 86.92 87.11 87.39 87.56 88.34 88.59 88.71 89.01 89.35 89.72 90.09 90.50 90.87 91.26 91.54 91.91 92.11 91.52 92.74 92.97 93.24 93.58 93.78 93.96 94.11
