ncols 52
nrows 52
xllcorner 440320
yllcorner 5714432
cellsize 10
NODATA_value -9999
91.37 91.12 90.97 91.15 91.25 91.41 91.54 91.66 91.74 91.95 92.29 92.81 93.31 93.72 94.08 94.45 94.80 95.09 95.30 95.49 95.65 95.78 96.37 96.55 96.69 96.79 96.88 96.99 97.14 97.30 97.48 97.65 97.82 97.95 98.08 98.23 98.38 98.56 98.73 98.85 98.93 98.94 98.96 99.04 99.10 99.12 99.10 99.12 99.24 99.32 99.28 99.33
91.53 91.38 91.25 91.10 91.23 91.33 91.41 91.45 91.60 91.73 92.01 92.45 92.97 93.49 93.94 94.31 94.61 94.89 95.18 95.37 95.60 95.81 96.11 96.46 96.73 96.83 96.91 97.03 97.14 97.32 97.53 97.72 97.89 98.06 98.21 98.35 98.47 98.62 98.75 98.85 98.95 99.04 99.06 99.08 99.11 99.14 99.17 99.12 99.22 99.29 99.31 99.35
91.56 91.51 91.41 90.69 91.29 91.30 91.35 91.40 91.50 91.68 91.89 92.25 92.67 93.15 93.60 94.01 94.36 94.66 94.93 95.18 95.42 95.64 95.93 96.24 96.51 96.65 96.74 96.86 97.07 97.19 97.40 97.60 97.79 97.91 98.06 98.25 98.43 98.67 98.88 98.99 99.01 99.12 99.15 99.19 99.19 99.26 99.26 99.25 99.30 99.34 99.39 99.40
91.67 91.56 91.53 91.47 91.18 91.40 91.38 91.49 91.53 91.61 91.77 92.04 92.42 92.85 93.32 93.72 94.09 94.41 94.71 94.99 95.26 95.52 95.82 96.12 96.40 96.58 96.68 96.81 96.93 97.09 97.25 97.47 97.61 97.69 97.85 98.03 98.19 98.38 98.54 98.69 98.81 98.89 98.96 98.98 99.01 99.09 99.13 99.24 99.33 99.42 99.46 99.52
91.71 91.63 91.52 91.91 91.14 91.42 91.51 91.47 91.49 91.55 91.65 91.86 92.22 92.61 93.01 93.43 93.79 94.15 94.48 94.79 95.06 95.35 95.65 96.01 96.31 96.49 96.61 96.72 96.88 97.01 97.19 97.38 97.56 97.68 97.84 97.93 98.04 98.20 98.38 98.51 98.66 98.71 98.76 98.78 98.81 98.90 99.01 99.06 99.15 99.26 99.41 99.50
91.78 91.63 91.66 91.63 91.73 91.03 91.53 91.45 91.41 91.46 91.57 91.74 92.03 92.36 92.71 93.09 93.45 93.82 94.18 94.54 94.86 95.18 95.48 95.78 96.11 96.35 96.49 96.64 96.77 96.94 97.11 97.30 97.46 97.64 97.78 97.88 97.94 98.06 98.25 98.41 98.52 98.59 98.64 98.68 98.73 98.83 98.97 99.03 99.12 99.25 99.35 99.47
91.71 91.64 91.71 91.90 92.03 91.67 91.42 91.58 91.43 91.46 91.56 91.70 91.87 92.06 92.36 92.73 93.12 93.44 93.79 94.17 94.54 94.87 95.17 95.48 95.81 96.10 96.34 96.50 96.68 96.84 97.04 97.22 97.40 97.51 97.66 97.74 97.81 97.90 98.04 98.20 98.32 98.42 98.46 98.53 98.60 98.71 98.82 98.89 99.00 99.12 99.23 99.36
91.92 91.82 91.81 91.96 91.96 91.94 90.94 91.62 91.56 91.55 91.59 91.70 91.79 91.87 92.09 92.46 92.78 93.10 93.39 93.75 94.11 94.43 94.72 95.07 95.42 95.75 96.04 96.31 96.50 96.67 96.86 97.04 97.16 97.25 97.37 97.43 97.51 97.61 97.71 97.85 97.99 98.09 98.15 98.22 98.33 98.43 98.53 98.63 98.72 98.85 98.98 99.11
92.17 92.01 92.02 92.08 91.99 92.09 91.84 91.45 91.66 91.62 91.66 91.67 91.72 91.84 92.00 92.21 92.47 92.75 93.08 93.35 93.60 93.92 94.20 94.59 94.94 95.32 95.65 95.91 96.12 96.32 96.50 96.64 96.76 96.85 96.94 97.01 97.07 97.16 97.28 97.36 97.47 97.62 97.71 97.81 97.90 98.06 98.15 98.26 98.39 98.55 98.70 98.82
92.33 92.18 92.16 92.24 92.14 91.88 92.05 91.85 91.69 91.75 91.80 91.77 91.79 91.88 91.99 92.09 92.22 92.41 92.66 92.91 93.14 93.45 93.72 94.03 94.40 94.79 95.10 95.35 95.57 95.78 95.92 96.07 96.18 96.32 96.40 96.47 96.57 96.65 96.76 96.85 96.95 97.11 97.22 97.35 97.44 97.60 97.74 97.87 98.03 98.21 98.39 98.54
92.14 92.15 92.15 92.18 92.12 92.07 92.00 92.06 91.94 91.16 91.91 91.94 91.93 91.90 91.96 91.99 92.07 92.15 92.24 92.43 92.69 92.94 93.19 93.45 93.77 94.09 94.40 94.68 94.89 95.07 95.26 95.40 95.50 95.69 95.79 95.90 95.99 96.07 96.15 96.26 96.38 96.50 96.67 96.84 96.99 97.15 97.32 97.47 97.65 97.85 98.06 98.22
92.35 92.37 92.31 92.23 92.14 92.05 92.03 92.11 91.99 92.04 92.13 91.10 92.01 92.01 92.00 91.98 91.97 91.97 92.03 92.12 92.29 92.49 92.68 92.91 93.14 93.41 93.68 93.94 94.14 94.32 94.49 94.64 94.83 95.01 95.14 95.27 95.38 95.39 95.52 95.61 95.75 95.90 96.04 96.24 96.44 96.63 96.82 97.01 97.23 97.43 97.66 97.88
92.43 92.48 92.38 92.26 92.16 92.12 92.13 92.24 92.13 92.23 92.19 92.19 92.24 91.15 92.01 92.04 92.03 92.03 92.06 92.06 92.11 92.20 92.31 92.42 92.59 92.85 93.04 93.23 93.43 93.59 93.74 93.88 94.07 94.28 94.42 94.57 94.68 94.77 94.86 94.97 95.08 95.25 95.40 95.60 95.85 96.04 96.29 96.49 96.73 97.01 97.22 97.48
92.54 92.52 92.42 92.33 92.25 92.25 92.29 92.40 92.15 92.29 92.26 92.21 92.20 92.20 92.16 91.85 91.25 91.58 92.04 92.00 92.09 92.16 92.21 92.28 92.37 92.50 92.61 92.71 92.79 92.95 93.07 93.24 93.43 93.62 93.74 93.85 93.97 94.09 94.22 94.33 94.42 94.58 94.75 95.00 95.24 95.46 95.65 95.95 96.23 96.50 96.76 97.05
92.65 92.61 92.50 92.42 92.43 92.42 92.43 92.53 92.25 92.37 92.29 92.23 92.22 92.23 92.28 92.24 92.21 92.15 92.16 92.14 92.16 91.93 91.33 91.31 91.84 92.27 92.40 92.49 92.54 92.62 92.70 92.79 92.95 93.05 93.10 93.21 93.36 93.50 93.62 93.75 93.83 93.93 94.14 94.35 94.62 94.84 95.10 95.39 95.68 95.96 96.27 96.59
92.73 92.68 92.58 92.48 92.49 92.49 92.49 92.68 92.40 92.46 92.37 92.30 92.30 92.26 92.20 92.21 92.23 92.22 92.18 92.19 92.24 92.26 92.18 92.08 91.97 91.89 91.90 91.96 91.51 92.02 92.62 92.56 92.69 92.77 92.82 92.85 92.97 93.05 93.18 93.28 93.38 93.46 93.61 93.83 94.06 94.26 94.53 94.84 95.14 95.44 95.76 96.05
92.79 92.71 92.65 92.58 92.58 92.54 92.53 92.74 92.48 92.54 92.53 92.40 92.39 92.32 92.31 92.28 92.33 92.31 92.31 92.26 92.25 92.25 92.24 92.18 92.07 92.02 92.07 92.14 92.24 92.00 91.93 91.95 91.64 92.68 92.77 92.75 92.83 92.87 92.95 93.08 93.17 93.21 93.29 93.43 93.59 93.77 94.06 94.33 94.63 94.91 95.23 95.55
92.85 92.76 92.69 92.64 92.61 92.59 92.61 92.85 92.57 92.60 92.56 92.50 92.46 92.39 92.38 92.37 92.43 92.46 92.43 92.38 92.31 92.32 92.30 92.22 92.18 92.15 92.11 92.08 92.11 92.05 92.10 92.28 91.46 92.32 92.43 91.62 91.71 91.72 92.39 92.74 92.99 93.12 93.17 93.26 93.37 93.51 93.69 93.93 94.15 94.44 94.74 95.05
92.85 92.79 92.72 92.66 92.64 92.61 92.73 92.97 92.64 92.65 92.63 92.57 92.54 92.45 92.44 92.44 92.48 92.54 92.51 92.44 92.35 92.31 92.35 92.36 92.32 92.24 92.17 92.11 92.09 92.03 92.21 92.45 92.29 91.54 92.93 91.57 92.22 92.03 92.03 92.00 92.05 92.07 91.62 92.56 93.28 93.39 93.53 93.71 93.82 94.03 94.30 94.55
92.85 92.80 92.74 92.67 92.68 92.71 92.82 93.07 92.68 92.69 92.69 92.68 92.64 92.52 92.49 92.50 92.51 92.58 92.58 92.52 92.43 92.34 92.38 92.37 92.35 92.26 92.18 92.17 92.12 92.14 92.28 92.32 92.18 92.08 93.03 91.52 92.26 92.11 92.21 92.30 92.16 92.27 92.22 92.10 92.07 91.85 93.06 93.54 93.67 93.81 93.94 94.16
92.89 92.81 92.76 92.72 92.72 92.76 92.92 93.15 92.75 92.76 92.77 92.77 92.73 92.61 92.59 92.59 92.56 92.59 92.61 92.57 92.47 92.36 92.40 92.42 92.38 92.30 92.21 92.21 92.17 92.20 92.34 92.27 92.19 92.19 92.92 91.56 92.28 92.31 92.26 92.36 92.11 92.13 92.13 92.18 92.15 92.14 92.12 91.90 93.42 93.68 93.79 93.88
92.92 92.86 92.81 92.79 92.79 92.85 93.05 93.26 92.82 92.84 92.87 92.87 92.81 92.73 92.69 92.69 92.66 92.68 92.67 92.62 92.51 92.40 92.44 92.47 92.42 92.33 92.27 92.24 92.18 92.25 92.31 92.34 92.23 92.19 92.89 91.59 92.21 92.21 92.17 92.29 92.26 92.28 92.33 92.25 92.29 92.28 92.23 92.22 92.19 91.82 93.54 93.69
93.00 92.93 92.89 92.89 92.89 92.98 93.12 93.44 92.92 92.93 92.96 92.96 92.91 92.88 92.85 92.83 92.82 92.84 92.78 92.68 92.60 92.52 92.53 92.51 92.46 92.35 92.32 92.27 92.25 92.32 92.32 92.23 92.30 92.23 92.93 91.58 92.14 91.91 92.11 92.17 92.16 92.13 92.29 92.30 92.31 92.33 92.33 92.37 92.24 92.15 92.30 92.68
93.07 93.00 93.00 92.97 92.96 92.99 93.14 93.43 93.01 93.01 93.06 93.10 93.07 93.03 93.02 93.00 93.00 93.00 92.93 92.88 92.81 92.69 92.67 92.62 92.55 92.42 92.40 92.37 92.36 92.39 93.03 92.45 92.41 92.36 93.06 91.55 92.29 92.16 92.07 92.14 92.11 92.32 92.25 92.24 92.26 92.36 92.36 92.32 92.44 92.34 92.58 92.57
93.12 93.04 93.01 92.97 92.94 92.97 93.15 93.47 93.10 93.11 93.18 93.24 93.22 93.18 93.17 93.15 93.13 93.11 93.05 93.04 93.00 92.93 92.89 92.82 92.75 92.59 92.57 92.50 92.51 92.54 93.26 92.52 92.42 92.42 92.95 91.57 92.71 92.54 92.29 92.21 92.32 92.31 92.21 92.39 92.27 92.36 92.33 92.35 92.43 92.35 92.65 92.41
93.10 93.07 93.02 92.97 92.96 93.02 93.20 93.61 93.17 93.22 93.32 93.36 93.35 93.31 93.29 93.27 93.24 93.21 93.14 93.16 93.13 93.07 93.04 92.99 92.93 92.78 92.76 92.70 92.66 92.71 93.05 92.63 92.43 92.74 93.35 91.56 92.79 92.42 92.35 92.30 92.46 92.28 92.46 92.36 92.22 92.22 92.27 92.28 92.34 92.60 92.38 92.07
93.15 93.11 93.07 93.01 93.06 93.14 93.32 93.64 93.29 93.36 93.45 93.46 93.44 93.40 93.36 93.35 93.34 93.30 93.24 93.25 93.23 93.17 93.16 93.10 93.06 92.93 92.91 92.87 92.86 92.88 92.95 92.56 92.61 91.55 91.57 92.04 92.26 92.45 92.49 92.38 92.39 92.38 92.36 92.38 92.21 92.24 92.30 92.25 92.35 92.39 92.46 92.18
93.28 93.23 93.15 93.12 93.22 93.28 93.45 93.75 93.42 93.47 93.53 93.53 93.51 93.46 93.44 93.43 93.41 93.41 93.35 93.37 93.33 93.28 93.25 93.21 93.17 93.02 93.03 92.99 92.96 93.05 92.99 92.89 92.70 93.04 93.08 92.88 92.86 92.38 92.36 92.43 92.34 92.56 92.47 92.37 92.31 92.40 92.30 92.27 92.37 92.37 92.45 92.40
93.43 93.39 93.29 93.29 93.36 93.43 93.53 93.88 93.53 93.58 93.59 93.62 93.57 93.56 93.51 93.52 93.52 93.51 93.43 93.45 93.42 93.37 93.35 93.30 93.27 93.13 93.11 93.05 93.04 93.07 93.10 92.98 92.78 93.04 92.83 93.01 92.84 92.60 92.45 92.46 92.43 92.37 92.40 92.47 92.44 92.41 92.49 92.31 92.40 92.44 92.34 92.41
93.54 93.49 93.38 93.39 93.47 93.53 93.66 93.94 93.60 93.65 93.67 93.68 93.65 93.65 93.62 93.62 93.60 93.59 93.53 93.52 93.50 93.46 93.43 93.38 93.35 93.22 93.18 93.13 93.14 93.22 93.15 93.04 93.02 93.01 92.91 93.10 93.05 92.84 92.57 92.57 92.36 92.58 92.51 92.38 92.45 92.49 92.38 92.40 92.47 92.55 92.35 92.61
93.61 93.53 93.46 93.49 93.53 93.60 93.75 93.88 93.66 93.72 93.74 93.76 93.76 93.75 93.72 93.74 93.72 93.73 93.62 93.61 93.61 93.56 93.53 93.52 93.43 93.35 93.35 93.23 93.20 93.31 93.18 93.63 93.31 93.24 93.04 93.23 93.04 92.99 92.83 92.63 92.63 92.76 92.76 92.68 92.61 92.83 93.50 93.80 93.89 93.96 93.99 94.06
93.67 93.58 93.54 93.56 93.56 93.67 93.81 93.87 93.72 93.78 93.82 93.84 93.87 93.88 93.87 93.87 93.83 93.83 93.78 93.76 93.73 93.68 93.64 93.57 93.53 93.48 93.58 93.46 93.37 93.41 93.40 93.51 93.54 93.36 93.31 94.13 93.30 93.83 94.10 94.15 94.13 94.14 94.11 94.08 94.00 93.93 93.61 93.56 94.10 94.61 95.31 96.14
93.66 93.64 93.63 93.63 93.64 93.75 93.83 93.90 93.84 93.89 93.89 93.88 93.89 93.92 93.94 93.97 93.97 93.93 93.88 93.87 93.86 93.90 93.91 93.90 93.87 93.93 93.97 94.03 94.14 94.35 94.40 94.35 94.30 94.27 94.21 94.15 94.02 93.83 93.83 94.29 94.63 95.24 95.82 96.29 96.50 96.58 96.57 96.78 97.21 97.53 97.49 97.41
93.67 93.75 93.74 93.74 93.76 93.80 93.92 94.01 93.97 93.91 93.95 94.00 94.04 94.08 94.13 94.17 94.17 94.19 94.29 94.44 94.61 94.64 94.59 94.56 94.51 94.47 94.39 94.21 93.98 94.30 94.72 95.55 96.02 96.42 96.81 96.96 96.93 96.94 97.10 97.55 97.83 97.89 97.90 97.88 97.86 97.82 97.79 97.75 97.72 97.62 97.52 97.48
93.86 93.87 93.87 93.87 93.94 94.00 94.28 94.38 94.04 94.32 94.69 94.85 94.82 94.80 94.77 94.71 94.68 94.59 94.47 94.43 94.65 95.17 95.98 96.56 97.08 97.29 97.33 97.35 97.34 97.53 97.97 98.15 98.19 98.14 98.22 98.32 98.33 98.28 98.27 98.22 98.20 98.16 98.17 98.13 98.07 98.01 97.93 97.88 97.80 97.62 97.55 97.54
93.97 94.23 94.88 95.07 95.02 94.99 94.90 94.87 94.78 94.60 94.64 95.18 95.88 96.26 97.07 97.68 97.80 97.77 97.73 97.81 98.19 98.58 98.70 98.72 98.70 98.69 98.70 98.70 98.71 98.70 98.72 98.69 98.64 98.71 98.61 98.63 98.59 98.54 98.46 98.37 98.28 98.20 98.15 98.04 97.94 97.86 97.79 97.74 97.67 97.58 97.57 97.56
95.06 94.87 94.96 96.04 96.76 97.48 97.98 98.15 98.11 98.10 98.22 98.61 98.90 98.83 98.80 98.76 98.72 98.66 98.67 98.70 98.86 99.01 99.03 99.04 99.04 99.04 99.03 99.01 98.99 98.95 98.91 98.83 98.62 98.65 98.67 98.62 98.57 98.35 98.28 98.19 98.15 98.07 97.99 97.93 97.89 97.83 97.81 97.78 97.77 97.71 97.69 97.73
98.26 98.43 98.90 99.01 98.95 98.89 98.84 98.79 98.74 98.74 98.71 98.64 98.64 98.66 98.66 98.70 98.82 98.72 98.78 98.82 98.94 99.17 99.16 99.14 99.12 99.08 99.04 98.98 98.93 98.89 98.81 98.71 98.71 98.68 98.57 98.50 98.46 98.42 98.40 98.36 98.32 98.28 98.21 98.13 98.08 98.06 98.03 98.00 97.99 97.87 97.80 97.81
98.82 98.72 98.64 98.62 98.67 98.73 98.79 98.79 98.89 98.96 99.00 99.04 99.09 99.13 99.16 99.19 99.22 99.25 99.08 98.99 99.00 99.09 99.06 99.05 99.03 99.01 99.01 98.97 98.96 98.94 98.91 98.88 98.85 98.82 98.79 98.76 98.73 98.69 98.65 98.61 98.58 98.52 98.36 98.31 98.35 98.18 98.11 98.01 97.95 97.93 98.00 98.01
98.76 98.85 98.97 99.02 99.07 99.12 99.18 99.22 99.26 99.29 99.33 99.35 99.38 99.40 99.42 99.43 99.43 99.43 99.48 99.16 99.14 99.16 99.15 99.13 99.12 99.10 99.08 99.06 99.04 99.01 98.99 98.96 98.96 98.96 98.87 98.82 98.75 98.69 98.62 98.56 98.49 98.43 98.31 98.18 98.18 98.00 98.05 98.22 98.73 99.33 99.42 99.53
98.80 99.18 99.22 99.26 99.29 99.33 99.36 99.38 99.40 99.42 99.43 99.44 99.44 99.44 99.43 99.43 99.42 99.40 99.38 99.05 99.03 99.09 99.06 99.03 99.04 99.05 99.06 99.03 98.96 98.90 98.84 98.81 98.74 98.68 98.60 98.55 98.46 98.43 98.35 98.29 98.18 98.16 98.13 98.73 99.17 99.41 99.48 99.48 99.34 98.50 98.67 98.94
98.84 99.18 99.26 99.27 99.29 99.31 99.32 99.32 99.32 99.32 99.31 99.29 99.28 99.25 99.24 99.17 99.08 99.02 99.01 99.06 99.01 98.95 98.92 98.90 98.90 98.91 98.87 98.85 98.80 98.82 98.98 99.10 99.07 98.94 98.82 98.66 98.83 98.31 98.76 99.05 99.43 99.52 99.57 99.43 98.70 98.49 98.76 98.92 99.06 98.29 98.75 98.76
98.97 99.06 99.08 99.07 99.07 99.06 99.06 99.04 99.05 99.01 99.01 99.00 99.06 99.04 99.05 99.09 99.11 99.17 99.15 99.13 98.96 99.30 99.44 99.47 99.32 99.32 99.32 99.39 99.38 99.29 99.37 99.27 99.26 98.56 98.85 99.49 99.50 99.50 99.52 98.92 98.43 98.96 98.92 98.81 98.79 98.70 98.55 98.04 97.19 96.28 94.84 93.94
99.06 99.07 99.07 99.08 99.09 99.20 99.40 99.94 100.16 100.31 100.27 100.29 100.20 100.12 100.01 99.96 99.93 99.83 99.79 99.88 99.69 99.70 99.68 99.65 99.70 99.75 99.59 99.51 99.28 98.72 99.39 99.46 99.57 99.48 99.14 98.43 98.67 98.89 98.84 98.74 98.64 98.45 97.88 96.54 95.54 94.59 93.40 93.17 93.80 93.76 93.69 93.67
99.78 99.98 100.41 100.51 100.47 100.51 100.36 100.34 100.39 100.36 100.29 100.20 100.14 100.11 100.10 100.12 100.01 100.20 99.96 100.07 99.91 99.80 99.92 99.65 98.84 99.20 99.46 99.57 99.52 99.33 98.71 98.57 98.80 98.93 98.71 98.63 98.05 97.06 96.02 94.94 94.03 93.33 93.83 94.10 94.07 94.07 94.07 94.04 93.92 93.86 93.90 93.65
100.49 100.46 100.57 100.57 100.51 100.42 100.34 100.37 100.40 100.27 100.33 100.29 100.15 100.40 100.08 100.05 100.07 100.07 99.93 98.94 99.02 99.51 99.61 99.61 99.50 98.81 98.48 98.82 98.78 98.85 98.35 97.31 96.38 95.31 94.39 93.52 93.90 94.16 94.24 94.23 94.29 94.25 94.26 94.16 94.14 94.14 94.10 93.94 94.02 93.91 93.87 93.73
100.51 100.58 100.56 100.44 100.46 100.52 100.63 100.42 100.71 100.33 100.27 100.30 100.26 100.37 99.35 98.85 99.53 99.52 99.63 99.56 99.08 98.59 98.78 98.89 98.58 98.18 97.05 96.21 95.48 94.05 93.79 94.07 94.02 94.12 94.22 94.19 94.15 94.25 94.24 94.29 94.38 94.40 94.32 94.32 94.36 94.28 94.22 94.09 94.05 94.03 93.97 93.85
100.54 100.45 100.50 100.50 100.50 100.50 100.34 100.23 100.36 99.64 98.73 99.40 99.52 99.67 99.57 99.24 98.61 98.69 98.73 98.47 97.82 96.57 95.46 94.75 94.13 94.54 94.41 94.34 94.26 94.18 94.10 94.08 94.17 94.29 94.34 94.25 94.26 94.41 94.42 94.43 94.46 94.47 94.48 94.53 94.48 94.40 94.20 94.17 94.14 94.11 94.06 93.93
100.55 100.64 100.54 100.58 99.94 98.85 99.24 99.57 99.63 99.56 99.50 98.77 98.40 98.73 98.22 97.21 96.34 95.32 94.26 94.72 94.65 94.56 94.58 94.60 94.50 94.43 94.37 94.39 94.33 94.33 94.24 94.14 94.32 94.33 94.46 94.33 94.39 94.53 94.54 94.54 94.53 94.55 94.56 94.61 94.54 94.47 94.29 94.22 94.15 94.16 94.06 94.07
99.07 99.07 99.58 99.61 99.60 99.60 98.98 98.59 98.66 97.82 96.92 95.72 94.65 94.74 94.92 94.89 94.94 94.91 94.88 94.69 94.55 94.60 94.65 94.67 94.62 94.61 94.54 94.49 94.48 94.35 94.33 94.26 94.37 94.55 94.51 94.53 94.46 94.60 94.62 94.59 94.58 94.64 94.62 94.67 94.54 94.47 94.34 94.22 94.14 94.20 94.09 94.02
99.72 99.24 98.82 98.58 98.65 97.88 96.46 95.03 95.21 95.08 94.99 94.90 94.92 94.89 94.93 94.96 95.02 94.84 94.90 94.71 94.63 94.71 94.78 94.76 94.73 94.69 94.65 94.56 94.57 94.44 94.36 94.40 94.50 94.60 94.64 94.59 94.53 94.65 94.69 94.65 94.69 94.73 94.80 94.76 94.67 94.54 94.42 94.35 94.29 94.19 94.26 94.14
96.23 95.81 95.70 95.50 95.04 95.17 95.18 95.29 95.27 95.18 95.11 95.01 94.92 94.94 94.96 94.93 94.93 94.79 94.82 94.69 94.69 94.81 94.88 94.85 94.83 94.74 94.68 94.60 94.61 94.51 94.42 94.43 94.61 94.68 94.65 94.72 94.60 94.74 94.75 94.72 94.74 94.85 94.81 94.79 94.76 94.60 94.49 94.38 94.38 94.41 94.26 94.26
