ncols 52
nrows 52
xllcorner 440832
yllcorner 5714944
cellsize 10
NODATA_value -9999
101.28 101.30 101.35 101.40 101.37 101.30 101.18 101.10 101.04 101.01 100.95 100.92 100.81 100.76 100.72 100.64 100.66 100.74 100.82 100.94 100.96 100.95 100.90 100.88 100.79 100.75 100.68 100.68 100.60 100.51 100.47 100.35 100.32 100.22 100.07 99.99 99.87 99.81 99.74 99.71 99.69 99.75 99.71 99.69 99.75 99.68 99.57 99.50 99.44 99.41 99.36 99.39
101.33 101.32 101.36 101.41 101.39 101.29 101.19 101.10 101.01 100.99 100.93 100.93 100.82 100.72 100.72 100.66 100.64 100.68 100.71 100.79 100.82 100.78 100.70 100.66 100.58 100.47 100.46 100.38 100.35 100.30 100.22 100.13 100.06 99.95 99.90 99.88 99.88 99.87 99.87 99.83 99.93 100.00 100.03 100.04 100.06 100.04 99.94 99.88 99.87 99.78 99.73 99.75
101.39 101.38 101.40 101.41 101.38 101.26 101.20 101.07 101.00 100.96 100.89 100.92 100.85 100.79 100.73 100.67 100.61 100.62 100.63 100.66 100.64 100.61 100.51 100.46 100.40 100.31 100.22 100.18 100.15 100.11 100.07 99.97 99.93 99.92 99.92 99.97 100.06 100.08 100.10 100.10 100.15 100.30 100.34 100.35 100.40 100.41 100.33 100.27 100.26 100.18 100.12 100.15
101.42 101.42 101.40 101.38 101.39 101.28 101.18 101.07 101.00 100.96 100.93 100.92 100.93 100.80 100.76 100.68 100.64 100.60 100.59 100.58 100.55 100.53 100.45 100.37 100.29 100.23 100.16 100.13 100.15 100.15 100.10 100.07 100.06 100.08 100.11 100.16 100.32 100.34 100.36 100.33 100.37 100.53 100.60 100.66 100.69 100.74 100.67 100.63 100.61 100.57 100.53 100.55
101.48 101.47 101.44 101.42 101.43 101.31 101.18 101.12 101.03 100.99 100.95 100.96 100.99 100.88 100.84 100.80 100.73 100.67 100.61 100.56 100.57 100.53 100.43 100.42 100.35 100.31 100.29 100.26 100.32 100.28 100.27 100.27 100.31 100.31 100.34 100.42 100.53 100.58 100.62 100.60 100.62 100.76 100.84 100.89 100.95 101.05 100.99 100.95 100.94 100.95 100.88 100.89
101.54 101.51 101.46 101.42 101.41 101.31 101.19 101.10 101.08 101.04 101.03 101.06 101.10 101.00 100.93 100.93 100.85 100.77 100.71 100.62 100.65 100.62 100.54 100.50 100.46 100.43 100.42 100.45 100.43 100.46 100.45 100.50 100.49 100.57 100.60 100.66 100.74 100.79 100.82 100.83 100.83 100.93 101.06 101.12 101.20 101.30 101.32 101.22 101.21 101.25 101.22 101.19
101.57 101.57 101.51 101.45 101.42 101.36 101.25 101.21 101.18 101.13 101.11 101.14 101.19 101.12 101.05 101.02 100.97 100.89 100.84 100.74 100.76 100.67 100.66 100.60 100.57 100.56 100.58 100.58 100.60 100.62 100.67 100.67 100.71 100.73 100.80 100.86 100.91 100.98 101.05 101.07 101.06 101.09 101.24 101.29 101.41 101.53 101.52 101.44 101.45 101.48 101.50 101.47
101.62 101.59 101.54 101.48 101.43 101.38 101.30 101.26 101.24 101.19 101.21 101.23 101.26 101.26 101.12 101.11 101.07 101.01 100.93 100.87 100.86 100.79 100.79 100.74 100.69 100.68 100.70 100.71 100.71 100.77 100.79 100.82 100.86 100.92 101.00 101.04 101.12 101.20 101.24 101.25 101.27 101.31 101.41 101.45 101.56 101.68 101.71 101.67 101.67 101.70 101.72 101.72
101.64 101.60 101.58 101.50 101.48 101.45 101.37 101.31 101.33 101.28 101.28 101.29 101.29 101.32 101.23 101.16 101.18 101.11 101.04 100.97 100.93 100.88 100.85 100.81 100.79 100.78 100.82 100.85 100.88 100.90 100.95 100.99 101.03 101.11 101.16 101.19 101.22 101.33 101.36 101.43 101.50 101.50 101.60 101.64 101.70 101.81 101.93 101.85 101.81 101.87 101.87 101.95
101.67 101.68 101.61 101.58 101.54 101.53 101.43 101.34 101.34 101.37 101.33 101.31 101.31 101.33 101.27 101.21 101.22 101.21 101.15 101.09 101.02 100.96 100.91 100.91 100.87 100.85 100.83 100.86 100.92 101.02 101.08 101.10 101.15 101.20 101.31 101.36 101.40 101.44 101.48 101.60 101.72 101.74 101.79 101.86 101.89 101.98 102.09 102.10 102.09 102.16 102.20 102.25
101.70 101.72 101.68 101.64 101.61 101.63 101.53 101.46 101.44 101.45 101.40 101.39 101.34 101.31 101.28 101.24 101.28 101.30 101.18 101.08 101.06 101.08 101.10 101.08 101.06 101.05 101.07 101.09 101.15 101.19 101.27 101.32 101.38 101.43 101.50 101.57 101.64 101.61 101.64 101.75 101.96 102.03 102.08 102.12 102.13 102.21 102.28 102.28 102.32 102.32 102.35 102.36
101.82 101.79 101.77 101.73 101.74 101.74 101.58 101.48 101.39 101.37 101.21 101.17 101.31 101.00 101.07 101.07 101.11 101.20 101.29 101.29 101.36 101.33 101.36 101.40 101.43 101.45 101.47 101.54 101.59 101.60 101.64 101.68 101.76 101.85 101.88 101.94 101.97 101.99 101.99 102.04 102.11 102.15 102.26 102.18 102.20 102.25 102.34 102.39 102.45 102.56 102.62 102.72
102.12 102.14 102.15 102.10 102.02 101.82 101.56 101.42 101.33 101.49 101.21 101.22 101.23 101.24 101.26 101.20 101.20 101.15 101.10 101.12 101.14 101.22 101.13 100.70 100.98 101.04 101.08 101.11 101.21 101.28 101.35 101.42 101.50 101.60 101.70 101.78 101.85 101.88 101.89 101.96 102.03 102.10 102.20 102.29 102.33 102.39 102.44 102.52 102.56 102.62 102.66 102.73
101.53 101.54 101.50 101.46 101.43 101.42 101.34 101.28 101.22 101.14 101.09 101.13 101.06 101.06 101.08 101.03 100.99 100.93 100.95 100.98 100.98 100.98 101.09 100.96 101.05 101.04 100.99 101.08 101.16 101.25 101.33 101.39 101.48 101.55 101.65 101.76 101.80 101.84 101.91 101.99 102.05 102.11 102.21 102.29 102.39 102.46 102.51 102.55 102.63 102.69 102.73 102.78
101.32 101.32 101.30 101.27 101.29 101.29 101.22 101.14 101.15 101.10 101.07 101.06 101.02 100.97 100.98 101.00 100.94 100.91 100.90 100.87 100.90 100.91 100.97 100.94 100.96 100.94 101.02 101.10 101.17 101.28 101.35 101.39 101.50 101.60 101.69 101.82 101.88 101.90 101.98 102.05 102.17 102.21 102.32 102.41 102.48 102.55 102.60 102.62 102.70 102.78 102.81 102.87
101.14 101.15 101.15 101.20 101.23 101.26 101.18 101.08 101.06 101.02 101.00 100.97 100.93 100.91 100.88 100.90 100.90 100.87 100.85 100.86 100.88 100.89 100.90 100.92 100.97 100.91 100.96 100.98 101.12 101.22 101.32 101.40 101.50 101.62 101.71 101.86 101.97 102.01 102.07 102.15 102.25 102.33 102.43 102.56 102.60 102.65 102.71 102.74 102.83 102.91 102.93 103.00
101.03 101.03 101.06 101.11 101.12 101.19 101.15 101.06 101.01 100.97 100.96 100.90 100.87 100.85 100.82 100.84 100.87 100.82 100.80 100.85 100.84 100.88 100.87 100.89 100.93 100.93 100.94 101.02 101.12 101.23 101.34 101.46 101.57 101.71 101.81 101.97 102.10 102.15 102.23 102.31 102.41 102.50 102.57 102.67 102.74 102.79 102.80 102.85 102.93 103.00 103.06 103.13
100.94 100.93 100.97 101.04 101.06 101.11 101.09 101.04 100.96 100.92 100.89 100.83 100.81 100.77 100.75 100.77 100.82 100.80 100.77 100.80 100.83 100.84 100.85 100.86 100.91 100.91 100.95 101.07 101.20 101.30 101.43 101.56 101.68 101.81 101.93 102.07 102.21 102.29 102.34 102.42 102.51 102.57 102.63 102.72 102.82 102.88 102.90 102.94 102.99 103.09 103.17 103.24
100.84 100.85 100.88 100.92 100.94 100.99 100.99 100.94 100.91 100.86 100.83 100.78 100.74 100.74 100.70 100.73 100.75 100.74 100.74 100.75 100.79 100.81 100.84 100.84 100.89 100.93 101.03 101.14 101.30 101.42 101.52 101.64 101.78 101.88 102.01 102.13 102.26 102.32 102.37 102.44 102.49 102.58 102.58 102.71 102.83 102.93 102.97 103.00 103.07 103.18 103.26 103.34
100.72 100.72 100.73 100.80 100.84 100.86 100.91 100.86 100.83 100.81 100.79 100.72 100.70 100.68 100.66 100.68 100.70 100.72 100.71 100.73 100.76 100.78 100.80 100.79 100.86 100.96 101.10 101.21 101.35 101.45 101.54 101.67 101.78 101.89 102.00 102.12 102.24 102.29 102.32 102.41 102.49 102.56 102.60 102.69 102.82 102.96 103.05 103.10 103.15 103.28 103.36 103.43
100.59 100.62 100.62 100.66 100.71 100.75 100.82 100.80 100.76 100.73 100.71 100.68 100.65 100.62 100.63 100.62 100.65 100.68 100.68 100.68 100.73 100.74 100.76 100.76 100.75 100.99 101.10 101.20 101.33 101.44 101.53 101.65 101.75 101.85 101.98 102.08 102.17 102.25 102.29 102.39 102.45 102.56 102.60 102.68 102.77 102.94 103.10 103.17 103.26 103.39 103.48 103.60
100.47 100.53 100.53 100.55 100.60 100.65 100.70 100.72 100.69 100.65 100.64 100.62 100.58 100.57 100.58 100.57 100.60 100.63 100.64 100.64 100.68 100.68 100.72 100.70 100.61 100.95 101.07 101.20 101.31 101.41 101.52 101.62 101.71 101.82 101.93 102.04 102.13 102.21 102.27 102.34 102.41 102.52 102.58 102.66 102.78 102.94 103.10 103.23 103.32 103.49 103.61 103.75
100.40 100.41 100.46 100.45 100.50 100.54 100.61 100.65 100.61 100.60 100.59 100.58 100.54 100.53 100.52 100.52 100.54 100.56 100.58 100.57 100.60 100.62 100.62 100.60 100.58 100.90 101.04 101.18 101.28 101.41 101.49 101.59 101.69 101.78 101.88 101.98 102.08 102.16 102.21 102.27 102.38 102.49 102.57 102.67 102.78 102.93 103.10 103.23 103.36 103.54 103.68 103.82
100.31 100.32 100.35 100.36 100.39 100.48 100.53 100.57 100.57 100.49 100.52 100.52 100.51 100.48 100.44 100.47 100.46 100.49 100.51 100.51 100.53 100.58 100.60 100.57 100.54 100.84 100.97 101.14 101.24 101.37 101.46 101.53 101.64 101.74 101.81 101.90 102.04 102.12 102.16 102.25 102.38 102.50 102.60 102.71 102.82 102.96 103.12 103.26 103.40 103.58 103.72 103.85
100.21 100.22 100.24 100.26 100.30 100.38 100.42 100.50 100.49 100.45 100.46 100.44 100.46 100.40 100.38 100.37 100.37 100.42 100.44 100.48 100.51 100.60 100.62 100.64 100.55 100.81 100.90 101.07 101.21 101.32 101.40 101.50 101.60 101.67 101.77 101.88 101.99 102.08 102.13 102.24 102.38 102.50 102.63 102.74 102.86 103.02 103.17 103.31 103.46 103.63 103.76 103.90
100.09 100.12 100.14 100.17 100.26 100.29 100.31 100.39 100.41 100.38 100.38 100.38 100.39 100.37 100.35 100.32 100.31 100.35 100.45 100.46 100.49 100.63 100.68 100.69 100.58 100.68 100.87 101.02 101.15 101.29 101.36 101.45 101.55 101.61 101.72 101.82 101.95 102.04 102.12 102.22 102.36 102.50 102.65 102.79 102.90 103.06 103.22 103.37 103.54 103.69 103.85 103.98
100.03 100.07 100.11 100.13 100.22 100.23 100.26 100.28 100.37 100.34 100.31 100.35 100.34 100.36 100.34 100.35 100.34 100.35 100.41 100.48 100.53 100.61 100.68 100.71 100.64 100.42 100.87 101.01 101.12 101.24 101.32 101.42 101.51 101.58 101.67 101.77 101.89 101.99 102.08 102.20 102.35 102.50 102.66 102.80 102.94 103.10 103.29 103.44 103.60 103.77 103.93 104.08
100.01 100.04 100.11 100.16 100.21 100.20 100.21 100.22 100.32 100.30 100.31 100.32 100.32 100.32 100.32 100.31 100.32 100.33 100.39 100.47 100.52 100.62 100.68 100.67 100.62 100.24 100.90 100.99 101.08 101.22 101.27 101.37 101.49 101.52 101.61 101.73 101.86 101.97 102.07 102.18 102.36 102.51 102.68 102.83 102.97 103.14 103.33 103.50 103.66 103.85 104.01 104.16
99.93 100.01 100.05 100.09 100.11 100.13 100.12 100.15 100.20 100.23 100.26 100.26 100.26 100.26 100.28 100.24 100.29 100.30 100.36 100.46 100.50 100.58 100.68 100.69 100.64 100.59 100.92 100.96 101.04 101.17 101.26 101.35 101.43 101.50 101.61 101.71 101.85 101.96 102.06 102.21 102.36 102.53 102.70 102.85 103.00 103.17 103.39 103.57 103.75 103.93 104.11 104.26
99.81 99.89 99.94 99.96 99.98 100.00 100.02 100.06 100.10 100.18 100.16 100.17 100.19 100.22 100.23 100.23 100.27 100.30 100.36 100.43 100.49 100.58 100.68 100.71 100.66 100.54 100.84 100.90 101.02 101.13 101.24 101.33 101.40 101.50 101.60 101.71 101.82 101.94 102.06 102.21 102.36 102.51 102.70 102.87 103.02 103.22 103.41 103.60 103.78 103.99 104.18 104.35
99.70 99.83 99.92 99.91 99.92 99.90 99.96 100.03 100.06 100.16 100.12 100.14 100.17 100.18 100.19 100.20 100.24 100.31 100.36 100.40 100.47 100.54 100.64 100.70 100.65 100.58 100.78 100.85 100.98 101.11 101.23 101.30 101.39 101.47 101.56 101.67 101.78 101.93 102.06 102.19 102.33 102.51 102.71 102.88 103.04 103.24 103.45 103.62 103.83 104.07 104.28 104.46
99.65 99.77 99.85 99.85 99.85 99.86 99.90 99.97 100.03 100.10 100.11 100.13 100.12 100.12 100.13 100.18 100.20 100.27 100.32 100.39 100.43 100.49 100.60 100.68 100.67 100.57 100.73 100.80 100.93 101.07 101.16 101.24 101.32 101.41 101.50 101.61 101.75 101.90 102.01 102.15 102.32 102.53 102.71 102.92 103.07 103.27 103.53 103.68 103.94 104.20 104.42 104.60
99.58 99.70 99.77 99.80 99.84 99.83 99.83 99.90 99.97 100.01 100.07 100.08 100.10 100.04 100.06 100.10 100.13 100.18 100.27 100.35 100.38 100.44 100.52 100.62 100.62 100.53 100.65 100.75 100.86 100.98 101.06 101.15 101.27 101.37 101.45 101.61 101.76 101.90 102.03 102.18 102.34 102.53 102.71 103.02 103.19 103.40 103.64 103.81 104.03 104.26 104.48 104.67
99.51 99.58 99.69 99.74 99.74 99.76 99.78 99.82 99.90 99.95 100.02 100.02 99.99 99.96 99.97 100.01 100.04 100.07 100.20 100.27 100.31 100.34 100.41 100.50 100.52 100.48 100.42 100.70 100.79 100.91 101.01 101.10 101.22 101.40 101.53 101.60 101.82 101.92 102.09 102.26 102.39 102.59 102.79 103.05 103.25 103.46 103.72 103.95 104.18 104.38 104.61 104.83
99.39 99.49 99.60 99.64 99.65 99.70 99.69 99.74 99.82 99.86 99.93 99.93 99.90 99.84 99.82 99.85 99.89 99.91 100.01 100.11 100.17 100.17 100.25 100.33 100.41 100.43 100.35 100.68 100.77 100.89 100.99 101.07 101.21 101.42 101.52 101.65 101.82 101.98 102.13 102.32 102.53 102.70 102.94 103.19 103.46 103.64 103.83 103.96 104.11 104.60 104.82 104.98
99.23 99.35 99.46 99.55 99.55 99.52 99.55 99.61 99.70 99.71 99.78 99.77 99.75 99.68 99.65 99.68 99.71 99.75 99.83 100.02 100.07 100.08 100.14 100.21 100.38 100.40 100.36 100.71 100.86 100.88 100.99 101.12 101.29 101.48 101.64 101.78 101.97 102.18 102.34 102.46 102.60 102.62 103.36 103.35 103.53 103.72 103.88 104.06 104.26 104.46 104.67 104.86
99.05 99.12 99.25 99.37 99.34 99.37 99.40 99.38 99.50 99.57 99.62 99.59 99.54 99.51 99.51 99.54 99.61 99.67 99.74 99.97 100.06 100.11 100.18 100.26 100.36 100.25 100.15 100.78 100.93 101.11 101.29 101.45 101.49 101.50 101.52 102.00 102.12 102.21 102.36 102.51 102.63 102.85 103.12 103.26 103.42 103.60 103.79 104.01 104.21 104.43 104.67 104.88
98.92 98.92 99.02 99.18 99.22 99.25 99.31 99.28 99.38 99.43 99.50 99.46 99.46 99.49 99.53 99.57 99.64 99.73 99.78 99.89 99.95 99.85 100.43 100.61 100.74 100.87 100.79 100.92 100.90 101.26 101.26 101.31 101.38 101.49 101.61 101.76 101.93 102.06 102.23 102.40 102.60 102.86 103.07 103.19 103.36 103.57 103.77 104.00 104.18 104.40 104.61 104.84
98.69 98.78 98.82 98.82 98.75 98.67 98.89 98.45 98.58 99.01 98.93 99.11 99.30 99.43 99.59 99.78 99.90 100.05 100.22 100.29 100.36 100.43 100.52 100.60 100.68 100.75 100.83 100.97 101.00 101.20 101.22 101.24 101.31 101.46 101.64 101.84 102.02 102.15 102.27 102.42 102.63 102.87 103.07 103.25 103.40 103.59 103.76 103.97 104.19 104.40 104.63 104.83
98.08 98.18 98.39 98.59 98.74 98.85 98.98 99.04 99.06 99.15 99.40 99.47 99.49 99.58 99.72 99.87 99.99 100.10 100.23 100.32 100.38 100.44 100.49 100.56 100.63 100.68 100.74 100.91 101.02 101.27 101.29 101.27 101.39 101.50 101.71 101.89 102.04 102.19 102.33 102.49 102.68 102.90 103.14 103.36 103.43 103.65 103.85 104.03 104.21 104.43 104.66 104.88
98.44 98.53 98.68 98.78 98.92 99.02 99.14 99.20 99.24 99.25 99.38 99.47 99.53 99.65 99.75 99.84 99.97 100.13 100.24 100.29 100.29 100.42 100.59 100.65 100.70 100.72 100.84 100.92 101.06 101.23 101.29 101.34 101.46 101.56 101.74 101.93 102.10 102.22 102.38 102.57 102.78 103.00 103.22 103.39 103.51 103.69 103.87 104.05 104.26 104.46 104.68 104.88
98.64 98.77 98.87 99.00 99.09 99.20 99.24 99.34 99.42 99.46 99.55 99.51 99.67 99.74 99.87 99.96 100.07 100.19 100.29 100.30 100.39 100.50 100.60 100.66 100.71 100.81 100.89 100.96 101.15 101.29 101.35 101.46 101.57 101.67 101.83 102.03 102.21 102.36 102.49 102.64 102.84 103.06 103.30 103.44 103.60 103.76 103.93 104.07 104.26 104.48 104.68 104.90
98.91 98.99 99.11 99.21 99.27 99.34 99.41 99.44 99.56 99.70 99.66 99.67 99.74 99.85 99.97 100.05 100.15 100.26 100.34 100.39 100.49 100.60 100.68 100.76 100.79 100.88 100.96 101.05 101.22 101.36 101.44 101.56 101.69 101.81 101.95 102.15 102.29 102.43 102.58 102.72 102.89 103.12 103.32 103.49 103.61 103.79 103.95 104.13 104.31 104.54 104.77 104.98
99.06 99.13 99.23 99.31 99.40 99.46 99.54 99.59 99.74 99.94 99.77 99.81 99.88 99.97 100.07 100.15 100.24 100.36 100.43 100.47 100.56 100.67 100.75 100.84 100.87 100.95 101.04 101.15 101.30 101.46 101.58 101.65 101.82 101.89 102.09 102.20 102.35 102.50 102.62 102.78 102.97 103.16 103.40 103.56 103.67 103.83 104.04 104.20 104.40 104.57 104.80 105.02
99.15 99.22 99.31 99.38 99.42 99.50 99.54 99.64 99.78 99.96 99.86 99.89 99.99 100.07 100.15 100.22 100.32 100.44 100.50 100.53 100.63 100.74 100.81 100.92 100.96 101.03 101.18 101.28 101.43 101.58 101.69 101.77 101.94 102.04 102.17 102.32 102.46 102.57 102.68 102.80 102.99 103.19 103.44 103.62 103.72 103.85 104.03 104.26 104.44 104.67 104.89 105.11
99.23 99.28 99.35 99.39 99.48 99.54 99.57 99.65 99.80 99.97 99.91 99.98 100.06 100.15 100.23 100.29 100.40 100.51 100.58 100.62 100.71 100.81 100.92 101.02 101.10 101.18 101.34 101.46 101.59 101.72 101.82 101.82 102.03 102.15 102.26 102.38 102.50 102.63 102.72 102.86 103.04 103.26 103.52 103.69 103.80 103.96 104.14 104.33 104.52 104.73 104.96 105.17
99.31 99.34 99.40 99.46 99.50 99.57 99.60 99.73 99.84 100.00 99.93 99.98 100.13 100.22 100.29 100.36 100.48 100.59 100.65 100.70 100.79 100.92 101.02 101.16 101.25 101.36 101.49 101.61 101.73 101.85 101.97 102.02 102.13 102.26 102.40 102.54 102.71 102.76 102.88 103.02 103.17 103.33 103.57 103.74 103.89 104.06 104.23 104.47 104.67 104.87 105.07 105.29
99.32 99.32 99.41 99.47 99.56 99.60 99.68 99.81 99.89 100.00 99.96 100.05 100.17 100.29 100.34 100.42 100.54 100.65 100.75 100.81 100.91 101.03 101.15 101.30 101.41 101.49 101.60 101.71 101.80 101.98 102.10 102.13 102.28 102.39 102.49 102.62 102.76 102.88 103.02 103.18 103.35 103.50 103.66 103.84 103.98 104.19 104.41 104.56 104.74 104.94 105.12 105.29
99.32 99.36 99.42 99.48 99.55 99.63 99.66 99.76 100.04 100.01 100.01 100.08 100.21 100.32 100.40 100.48 100.61 100.75 100.86 100.94 101.07 101.18 101.28 101.40 101.49 101.54 101.67 101.75 101.85 102.03 102.12 102.15 102.32 102.43 102.56 102.65 102.82 102.97 103.20 103.35 103.48 103.60 103.82 103.99 104.12 104.27 104.45 104.63 104.81 104.97 105.17 105.35
99.32 99.37 99.43 99.47 99.58 99.63 99.68 99.83 100.14 100.02 100.06 100.12 100.25 100.36 100.47 100.56 100.71 100.86 100.99 101.08 101.21 101.30 101.35 101.46 101.52 101.57 101.68 101.78 101.92 102.09 102.19 102.19 102.37 102.47 102.61 102.78 102.91 103.09 103.31 103.51 103.62 103.75 103.92 104.05 104.16 104.31 104.49 104.66 104.81 105.00 105.18 105.36
99.35 99.40 99.48 99.52 99.60 99.68 99.71 99.85 100.10 100.01 100.10 100.16 100.30 100.42 100.55 100.67 100.80 100.94 101.10 101.18 101.27 101.35 101.39 101.49 101.55 101.61 101.70 101.84 101.99 102.18 102.29 102.28 102.43 102.57 102.71 102.85 103.00 103.18 103.35 103.57 103.67 103.81 103.96 104.10 104.21 104.36 104.53 104.69 104.86 105.03 105.22 105.40
99.32 99.43 99.46 99.54 99.60 99.67 99.73 99.89 100.07 100.02 100.07 100.21 100.35 100.51 100.65 100.77 100.89 100.98 101.10 101.18 101.29 101.35 101.39 101.49 101.58 101.63 101.75 101.88 102.03 102.21 102.32 102.34 102.50 102.60 102.76 102.88 103.05 103.23 103.46 103.60 103.71 103.83 104.04 104.21 104.29 104.40 104.59 104.77 104.94 105.13 105.33 105.48
