ncols 52
nrows 52
xllcorner 440832
yllcorner 5715968
cellsize 10
NODATA_value -9999
91.32 91.15 92.71 92.72 92.70 92.62 93.13 92.76 92.74 92.85 92.90 93.04 93.24 93.33 93.35 93.40 93.48 93.51 93.44 93.51 93.70 93.90 94.06 94.22 94.41 94.51 94.74 94.85 94.98 95.01 95.16 95.29 95.36 95.57 95.71 95.81 96.01 96.09 96.31 96.69 96.62 96.64 96.71 96.75 96.86 96.92 97.02 97.07 97.06 97.01 97.08 97.11
91.62 93.05 92.76 92.71 92.71 92.66 94.16 92.90 92.92 92.98 93.10 93.24 93.38 93.49 93.54 93.59 93.68 93.71 93.59 93.65 93.85 93.99 94.16 94.38 94.44 94.58 94.78 94.90 95.03 95.07 95.22 95.35 95.49 95.65 95.76 95.91 96.07 96.18 96.44 96.47 96.64 96.75 96.78 96.88 96.94 96.97 97.02 97.08 97.12 97.08 97.07 97.21
91.60 92.82 92.76 92.75 92.74 92.78 94.12 93.00 93.05 93.12 93.24 93.35 93.50 93.61 93.70 93.77 93.85 93.87 93.75 93.79 93.93 94.10 94.29 94.41 94.47 94.64 94.82 94.94 95.08 95.15 95.29 95.44 95.57 95.71 95.84 95.97 96.04 96.26 96.36 96.61 96.51 96.89 96.86 96.97 97.03 97.08 97.12 97.19 97.26 97.35 97.42 97.41
91.76 92.60 92.76 92.77 92.78 92.81 93.33 93.10 93.15 93.24 93.36 93.46 93.62 93.71 93.78 93.89 93.95 93.90 93.87 93.87 94.07 94.20 94.38 94.47 94.55 94.71 94.89 95.02 95.08 95.20 95.35 95.47 95.61 95.76 95.88 96.06 96.18 96.30 96.47 96.64 96.77 96.89 96.53 96.27 96.58 96.94 97.30 97.93 97.90 97.80 97.44 97.89
91.75 92.57 92.74 92.77 92.81 92.81 93.11 93.16 93.24 93.33 93.43 93.56 93.70 93.79 93.86 94.01 94.14 94.00 93.92 93.99 94.16 94.30 94.47 94.53 94.59 94.81 94.96 95.08 95.13 95.27 95.39 95.49 95.64 95.76 95.90 96.11 96.21 96.33 96.48 96.58 96.82 96.93 97.05 97.07 97.05 97.12 98.26 99.25 99.51 98.26 97.90 97.89
92.07 92.74 92.74 92.79 92.81 92.78 93.14 93.25 93.31 93.42 93.49 93.66 93.79 93.85 93.93 94.03 94.15 94.06 94.02 94.10 94.21 94.39 94.52 94.58 94.67 94.87 95.03 95.13 95.18 95.33 95.46 95.54 95.69 95.82 95.94 96.15 96.25 96.36 96.50 96.63 96.74 96.92 96.98 97.35 97.35 97.20 98.38 99.71 99.74 98.05 98.21 98.09
93.23 92.75 92.73 92.76 92.80 94.40 93.23 93.32 93.40 93.49 93.57 93.76 93.83 93.90 94.00 94.10 94.21 94.11 94.12 94.21 94.28 94.42 94.57 94.63 94.72 94.94 95.04 95.20 95.26 95.38 95.50 95.58 95.76 95.88 96.01 96.15 96.27 96.39 96.53 96.65 96.75 96.83 96.89 96.96 97.37 97.28 98.68 99.81 99.93 97.90 98.01 98.39
92.52 92.69 92.74 92.79 92.82 94.32 93.32 93.42 93.47 93.60 93.67 93.78 93.90 93.97 94.07 94.20 94.24 94.15 94.21 94.28 94.36 94.51 94.63 94.68 94.79 94.96 95.08 95.21 95.32 95.42 95.54 95.66 95.76 95.89 96.05 96.19 96.27 96.42 96.55 96.66 96.80 96.87 97.02 97.22 97.17 97.33 99.26 99.99 100.15 98.05 98.03 98.37
93.40 92.69 92.73 92.75 92.82 94.04 93.52 93.53 93.57 93.77 93.67 93.76 94.00 94.03 94.17 94.27 94.29 94.26 94.31 94.39 94.48 94.59 94.68 94.72 94.88 95.00 95.13 95.28 95.39 95.48 95.58 95.69 95.82 95.93 96.10 96.20 96.34 96.47 96.57 96.67 96.85 96.92 97.01 97.25 97.36 97.33 99.09 100.24 100.02 97.81 98.21 98.42
94.62 94.28 94.10 93.20 93.00 93.68 93.65 93.71 93.75 93.82 93.91 94.01 94.10 94.16 94.26 94.35 94.35 94.39 94.41 94.51 94.59 94.69 94.73 94.79 94.96 95.05 95.20 95.34 95.50 95.58 95.69 95.82 95.92 96.04 96.17 96.29 96.41 96.49 96.61 96.74 96.79 96.92 96.99 97.08 97.36 97.47 97.50 100.18 100.15 97.79 98.53 98.65
93.07 93.25 93.40 94.80 93.51 93.65 93.71 93.79 93.90 93.99 94.07 94.17 94.24 94.29 94.40 94.51 94.45 94.45 94.51 94.57 94.67 94.77 94.82 94.86 95.01 95.11 95.21 95.32 95.50 95.67 95.75 95.90 96.01 96.12 96.27 96.39 96.51 96.62 96.72 96.79 96.88 96.94 97.06 97.17 97.23 97.29 97.52 98.62 100.26 98.21 98.47 98.83
92.90 92.97 93.05 93.32 93.60 93.59 93.71 93.82 93.98 94.08 94.19 94.31 94.36 94.50 94.54 94.59 94.53 94.53 94.59 94.63 94.69 94.81 94.85 94.88 95.07 95.15 95.26 95.35 95.53 95.71 95.80 95.94 96.04 96.17 96.33 96.46 96.60 96.68 96.81 96.90 96.96 97.01 97.09 97.20 97.27 97.32 97.24 97.37 99.31 99.83 98.65 99.11
92.80 92.95 93.02 93.14 93.43 93.53 93.62 93.78 93.93 94.06 94.22 94.32 94.36 94.52 94.63 94.67 94.62 94.64 94.67 94.71 94.78 94.86 94.86 94.92 95.09 95.21 95.34 95.42 95.62 95.77 95.90 96.02 96.12 96.25 96.40 96.55 96.67 96.79 96.88 96.99 97.03 97.11 97.15 97.21 97.26 97.39 97.49 97.63 97.57 100.20 99.20 99.20
92.92 93.05 93.10 93.21 93.37 93.49 93.60 93.74 93.90 94.03 94.18 94.29 94.36 94.53 94.67 94.75 94.74 94.74 94.74 94.79 94.83 94.91 94.92 95.00 95.15 95.28 95.40 95.49 95.69 95.88 95.97 96.09 96.16 96.29 96.45 96.55 96.69 96.83 96.95 97.03 97.12 97.19 97.24 97.25 97.29 97.42 97.51 97.68 97.78 97.94 100.46 99.16
92.82 93.17 93.28 93.18 93.38 93.50 93.61 93.76 93.88 94.03 94.17 94.27 94.41 94.59 94.67 94.82 94.85 94.85 94.89 94.90 94.94 94.97 94.98 95.12 95.25 95.38 95.50 95.61 95.79 95.96 96.06 96.15 96.22 96.37 96.48 96.65 96.77 96.89 97.06 97.12 97.23 97.30 97.34 97.35 97.43 97.44 97.54 97.63 97.77 97.88 98.77 100.70
92.65 92.70 92.99 93.33 93.40 93.51 93.63 93.75 93.87 94.06 94.21 94.29 94.42 94.60 94.79 94.83 94.93 95.00 95.03 95.07 95.11 95.11 95.10 95.22 95.35 95.44 95.57 95.71 95.90 96.04 96.17 96.27 96.33 96.46 96.59 96.71 96.84 96.99 97.11 97.25 97.34 97.41 97.43 97.46 97.56 97.58 97.62 97.76 97.75 97.80 97.97 99.75
92.62 92.77 92.89 93.39 93.38 93.51 93.60 93.74 93.88 94.03 94.20 94.32 94.45 94.64 94.87 94.87 94.96 95.05 95.12 95.18 95.27 95.28 95.27 95.39 95.48 95.56 95.63 95.79 95.97 96.11 96.25 96.34 96.39 96.54 96.64 96.76 96.90 97.03 97.16 97.28 97.39 97.48 97.50 97.56 97.62 97.69 97.78 97.83 97.94 97.91 97.85 97.86
92.75 92.68 93.06 93.27 93.35 93.48 93.58 93.73 93.85 94.00 94.17 94.29 94.44 94.62 94.78 94.84 94.91 95.03 95.08 95.21 95.31 95.37 95.43 95.55 95.68 95.72 95.76 95.90 96.03 96.16 96.30 96.39 96.44 96.56 96.68 96.81 96.97 97.07 97.24 97.35 97.44 97.52 97.57 97.65 97.70 97.76 97.84 97.90 98.02 98.10 98.14 98.19
92.72 92.81 92.97 93.18 93.30 93.39 93.52 93.68 93.82 93.95 94.12 94.23 94.40 94.58 94.69 94.74 94.89 94.99 95.08 95.19 95.33 95.39 95.50 95.63 95.76 95.87 95.93 96.00 96.09 96.20 96.34 96.40 96.51 96.60 96.74 96.84 96.97 97.10 97.26 97.40 97.52 97.57 97.61 97.69 97.78 97.83 97.93 98.00 98.02 98.17 98.23 98.36
92.71 92.79 93.95 93.15 93.23 93.30 93.47 93.65 93.76 93.88 94.01 94.12 94.34 94.50 94.60 94.64 94.79 94.93 95.03 95.17 95.32 95.39 95.53 95.64 95.75 95.88 95.93 96.01 96.12 96.25 96.38 96.44 96.53 96.64 96.71 96.88 97.01 97.15 97.25 97.43 97.54 97.63 97.65 97.73 97.82 97.87 97.98 98.05 98.13 98.18 98.29 98.35
92.11 92.25 92.88 93.04 93.23 93.31 93.38 93.53 93.69 93.80 93.90 93.98 94.23 94.30 94.45 94.54 94.71 94.83 94.97 95.15 95.24 95.34 95.52 95.64 95.76 95.87 95.95 96.04 96.17 96.26 96.38 96.43 96.55 96.65 96.72 96.87 97.01 97.15 97.28 97.42 97.58 97.65 97.69 97.79 97.86 97.93 98.06 98.12 98.18 98.26 98.32 98.38
92.69 92.79 92.24 92.59 92.81 92.62 93.41 93.51 93.64 93.69 93.77 93.90 94.10 94.25 94.31 94.40 94.57 94.73 94.88 95.06 95.17 95.29 95.50 95.59 95.71 95.84 95.96 96.10 96.16 96.28 96.34 96.40 96.50 96.61 96.71 96.86 96.99 97.14 97.25 97.38 97.59 97.68 97.72 97.83 97.92 97.99 98.08 98.18 98.25 98.33 98.39 98.44
92.69 92.83 93.03 93.15 93.09 93.14 92.60 93.06 93.25 93.26 93.56 93.96 93.99 94.11 94.29 94.39 94.51 94.62 94.81 94.93 95.10 95.24 95.45 95.54 95.66 95.79 95.93 96.07 96.18 96.29 96.36 96.40 96.54 96.65 96.72 96.85 96.97 97.12 97.25 97.42 97.58 97.70 97.76 97.85 97.92 98.01 98.12 98.19 98.25 98.35 98.43 98.51
92.62 92.76 92.93 93.08 93.17 93.22 93.37 93.49 93.56 93.67 93.09 93.51 93.73 93.88 93.79 94.25 94.37 94.56 94.76 94.94 95.11 95.20 95.35 95.45 95.54 95.71 95.86 96.04 96.17 96.32 96.38 96.51 96.58 96.69 96.81 96.93 97.04 97.18 97.28 97.43 97.60 97.70 97.80 97.88 97.93 98.03 98.10 98.19 98.29 98.37 98.48 98.57
92.53 92.67 92.84 92.99 93.07 93.17 93.26 93.44 93.58 93.68 93.78 93.93 94.05 94.05 94.11 93.64 94.29 94.43 94.33 94.69 94.92 95.13 95.26 95.39 95.52 95.63 95.79 96.01 96.17 96.34 96.44 96.60 96.70 96.82 96.91 96.99 97.16 97.21 97.37 97.53 97.69 97.76 97.87 97.91 97.96 98.07 98.16 98.21 98.31 98.42 98.49 98.62
92.40 92.56 92.71 92.85 92.97 93.09 93.22 93.36 93.48 93.57 93.75 93.90 94.05 94.13 94.23 94.44 94.62 94.77 94.92 94.41 94.67 95.00 95.12 94.91 95.31 95.48 95.67 95.93 96.15 96.33 96.53 96.64 96.80 96.93 97.08 97.16 97.30 97.34 97.48 97.62 97.75 97.86 98.01 98.01 98.11 98.17 98.22 98.27 98.41 98.47 98.56 98.70
92.22 92.37 92.52 92.68 92.81 92.96 93.12 93.27 93.39 93.52 93.67 93.82 93.97 94.09 94.25 94.42 94.64 94.83 94.94 95.11 95.28 95.36 95.43 95.57 95.51 95.08 95.35 95.94 96.17 96.36 96.52 96.65 96.64 96.65 96.91 97.21 97.33 97.46 97.61 97.79 97.90 98.00 98.06 98.11 98.17 98.31 98.32 98.42 98.49 98.59 98.74 98.80
91.99 92.14 92.30 92.45 92.60 92.77 93.00 93.15 93.29 93.43 93.57 93.75 93.90 94.06 94.18 94.35 94.53 94.72 94.90 95.12 95.30 95.43 95.53 95.68 95.83 95.98 96.07 96.15 96.25 96.38 96.51 96.64 96.73 96.98 97.05 97.15 97.35 97.46 97.67 97.85 98.00 98.07 98.14 98.00 98.10 98.32 98.40 98.44 98.58 98.72 98.85 99.03
91.77 91.86 92.01 92.18 92.34 92.57 92.81 92.98 93.14 93.29 93.46 93.64 93.78 93.94 94.07 94.25 94.41 94.61 94.85 95.04 95.22 95.38 95.53 95.70 95.86 96.00 96.09 96.18 96.31 96.45 96.55 96.68 96.84 96.74 96.97 97.13 97.21 97.36 97.60 97.68 97.80 97.93 98.14 98.20 98.35 98.34 98.38 98.51 98.81 99.00 99.15 99.29
91.46 91.53 91.70 91.85 92.07 92.33 92.53 92.76 92.91 93.14 93.28 93.43 93.64 93.78 93.92 94.08 94.24 94.42 94.69 94.90 95.08 95.26 95.41 95.61 95.81 95.97 96.09 96.23 96.32 96.45 96.54 96.71 96.80 96.86 96.92 97.10 97.31 97.37 97.48 97.62 97.70 97.81 97.97 98.08 98.11 98.28 98.40 98.60 98.78 98.96 99.03 99.22
91.13 91.22 91.33 91.53 91.74 92.01 92.26 92.46 92.67 92.85 93.05 93.22 93.40 93.55 93.72 93.86 94.02 94.21 94.45 94.68 94.88 95.04 95.26 95.45 95.67 95.87 96.06 96.20 96.34 96.46 96.57 96.77 96.82 97.01 97.08 97.20 97.36 97.42 97.61 97.79 97.81 97.93 98.01 98.14 98.23 98.42 98.54 98.66 98.74 98.85 98.99 98.97
90.80 90.86 90.99 91.16 91.40 91.66 91.92 92.13 92.33 92.54 92.72 92.92 93.10 93.29 93.44 93.58 93.75 93.93 94.17 94.41 94.65 94.87 95.09 95.30 95.54 95.76 95.98 96.15 96.29 96.43 96.58 96.77 96.77 97.06 97.19 97.30 97.40 97.47 97.66 97.77 97.81 97.93 98.04 98.18 98.38 98.41 98.54 98.74 98.75 98.82 98.94 98.92
90.36 90.48 90.61 90.79 91.03 91.28 91.52 91.74 91.95 92.14 92.35 92.55 92.75 92.94 93.07 93.25 93.42 93.63 93.90 94.15 94.43 94.64 94.89 95.11 95.39 95.62 95.85 96.02 96.20 96.36 96.54 96.68 96.80 96.94 97.13 97.33 97.26 97.41 97.59 97.75 97.78 97.89 98.01 98.15 98.26 98.41 98.49 98.63 98.71 98.79 98.94 98.87
89.88 90.02 90.21 90.39 90.63 90.87 91.11 91.32 91.51 91.74 91.94 92.14 92.35 92.54 92.70 92.88 93.07 93.32 93.57 93.85 94.15 94.39 94.65 94.91 95.15 95.40 95.65 95.87 96.07 96.25 96.42 96.56 96.75 96.81 97.03 97.18 97.17 97.33 97.50 97.60 97.68 97.78 97.95 98.06 98.16 98.35 98.38 98.58 98.63 98.75 98.80 98.78
89.46 89.55 89.75 89.94 90.18 90.41 90.65 90.85 91.08 91.27 91.50 91.74 91.93 92.12 92.31 92.50 92.71 92.97 93.24 93.55 93.84 94.09 94.38 94.64 94.87 95.15 95.43 95.66 95.89 96.07 96.25 96.32 96.59 96.66 96.84 96.95 97.00 97.17 97.28 97.39 97.51 97.58 97.75 97.91 98.08 98.23 98.30 98.40 98.52 98.74 98.68 98.61
89.03 89.10 89.30 89.47 89.71 89.93 90.13 90.33 90.55 90.77 91.01 91.26 91.47 91.69 91.90 92.11 92.34 92.60 92.92 93.23 93.53 93.80 94.08 94.34 94.59 94.89 95.16 95.42 95.64 95.84 96.01 96.07 96.36 96.49 96.63 96.72 96.79 96.90 97.06 97.18 97.29 97.39 97.52 97.72 97.87 98.06 98.14 98.30 98.41 98.43 98.56 98.40
88.68 88.76 88.92 89.07 89.26 89.47 89.67 89.85 90.07 90.29 90.49 90.75 91.00 91.19 91.47 91.69 91.96 92.25 92.57 92.90 93.18 93.44 93.73 94.01 94.29 94.58 94.85 95.10 95.35 95.60 95.72 95.86 96.04 96.24 96.36 96.41 96.54 96.62 96.82 96.90 97.00 97.13 97.31 97.43 97.67 97.78 97.92 98.00 98.17 98.23 98.19 98.35
88.34 88.52 88.65 88.78 88.92 89.09 89.25 89.44 89.63 89.82 90.03 90.25 90.51 90.75 90.99 91.26 91.54 91.86 92.20 92.52 92.81 93.08 93.38 93.66 93.94 94.22 94.49 94.74 95.01 95.27 95.42 95.65 95.74 95.92 96.09 96.15 96.23 96.38 96.49 96.57 96.69 96.83 96.95 97.11 97.37 97.50 97.63 97.72 98.00 97.96 97.93 97.71
88.81 87.82 87.21 88.39 88.64 88.78 88.95 89.08 89.23 89.40 89.61 89.82 90.06 90.28 90.53 90.82 91.09 91.43 91.79 92.13 92.38 92.69 92.96 93.27 93.55 93.83 94.12 94.38 94.64 94.90 95.02 95.29 95.51 95.61 95.72 95.80 95.93 96.06 96.11 96.22 96.31 96.44 96.62 96.85 97.07 97.24 97.36 97.43 97.71 97.69 97.74 97.89
89.18 89.16 89.12 89.01 88.58 87.39 88.59 88.77 88.91 89.06 89.24 89.46 89.66 89.88 90.10 90.37 90.66 90.99 91.38 91.68 91.97 92.27 92.57 92.85 93.17 93.42 93.71 94.00 94.25 94.47 94.62 94.97 95.12 95.29 95.38 95.48 95.56 95.61 95.72 95.85 95.91 96.07 96.27 96.51 96.70 96.90 97.02 97.15 97.43 97.32 97.42 97.60
89.25 89.26 89.28 89.25 89.24 89.22 89.06 88.56 88.34 88.78 88.97 89.12 89.29 89.54 89.73 89.99 90.23 90.56 90.92 91.23 91.50 91.83 92.13 92.42 92.71 93.00 93.27 93.56 93.84 94.06 94.28 94.51 94.74 94.92 94.97 95.04 95.16 95.29 95.34 95.46 95.54 95.70 95.89 96.14 96.38 96.48 96.58 96.85 97.01 96.94 96.98 97.15
89.69 89.57 89.43 89.31 89.31 89.38 89.42 89.41 89.26 89.02 88.88 88.82 89.00 89.19 89.40 89.60 89.82 90.12 90.48 90.76 91.06 91.39 91.68 91.96 92.27 92.58 92.83 93.13 93.41 93.63 93.91 94.04 94.30 94.48 94.55 94.61 94.72 94.81 94.92 95.04 95.15 95.28 95.47 95.75 95.98 96.07 96.22 96.47 96.75 96.86 97.00 97.00
90.11 90.01 89.88 89.79 89.68 89.58 89.48 89.46 89.44 89.42 89.33 89.16 88.97 88.13 89.07 89.29 89.48 89.79 90.06 90.32 90.63 90.94 91.21 91.51 91.79 92.10 92.38 92.69 92.93 93.11 93.49 93.64 93.84 93.97 94.05 94.15 94.25 94.33 94.47 94.54 94.67 94.86 95.10 95.36 95.55 95.68 95.82 96.15 96.56 97.10 97.09 97.01
90.58 90.46 90.33 90.21 90.10 89.99 89.90 89.81 89.62 89.48 89.43 89.41 89.40 89.44 89.27 88.59 89.24 89.49 89.71 89.96 90.23 90.53 90.76 91.03 91.31 91.61 91.86 92.24 92.47 92.60 92.99 93.21 93.38 93.39 93.60 93.71 93.70 93.90 94.00 94.04 94.20 94.39 94.67 94.94 95.11 95.26 95.42 95.75 96.14 96.83 96.93 96.98
91.08 90.95 90.81 90.72 90.57 90.43 90.35 90.26 90.08 89.88 89.69 89.51 89.45 89.51 89.49 89.50 88.97 89.23 89.45 89.63 89.86 90.12 90.35 90.58 90.86 91.13 91.49 91.80 91.98 92.26 92.39 92.65 92.87 92.90 93.07 93.17 93.29 93.43 93.52 93.59 93.74 93.96 94.22 94.50 94.65 94.76 95.03 95.41 95.42 95.81 96.03 96.50
91.54 91.43 91.33 91.21 91.05 90.96 90.87 90.69 90.54 90.33 90.07 89.91 89.81 89.63 89.51 89.46 89.50 89.27 89.32 89.47 89.57 89.73 89.93 90.18 90.40 90.66 90.97 91.33 91.52 91.79 91.86 92.13 92.32 92.39 92.55 92.65 92.72 92.90 93.05 93.14 93.25 93.50 93.86 94.07 94.23 94.38 94.68 94.93 94.94 95.14 95.56 96.06
92.04 91.94 91.82 91.69 91.57 91.51 91.40 91.24 91.06 90.78 90.54 90.33 90.19 90.06 89.87 89.64 89.62 89.64 88.89 89.36 89.47 89.56 89.69 89.83 89.98 90.23 90.49 90.75 90.99 91.33 91.50 91.68 91.78 91.88 92.09 92.16 92.26 92.47 92.54 92.67 92.89 93.16 93.44 93.67 93.81 93.94 94.33 94.46 94.51 94.78 95.26 96.06
92.51 92.42 92.35 92.23 92.10 92.04 91.96 91.81 91.58 91.32 91.04 90.81 90.62 90.44 90.25 90.02 89.84 89.86 89.82 89.06 89.32 89.46 89.55 89.69 89.77 89.90 90.14 90.38 90.54 90.93 91.02 91.18 91.30 91.47 91.63 91.72 91.90 92.05 92.20 92.30 92.48 92.72 93.03 93.27 93.36 93.56 94.01 93.95 94.23 94.60 95.03 96.26
92.94 92.90 92.86 92.75 92.68 92.64 92.52 92.37 92.14 91.85 91.54 91.27 91.07 90.90 90.63 90.43 90.26 90.11 90.04 89.91 89.74 89.66 88.83 89.48 89.67 89.78 89.88 90.09 90.34 90.67 90.81 90.97 91.04 91.16 91.31 91.43 91.57 91.69 91.79 92.00 92.14 92.35 92.62 92.85 92.93 93.22 93.55 93.57 93.87 94.31 94.71 96.06
93.40 93.38 93.33 93.26 93.19 93.18 93.09 92.92 92.71 92.37 92.06 91.83 91.58 91.34 91.10 90.86 90.65 90.52 90.36 90.08 89.89 89.83 89.82 89.79 89.53 89.28 89.72 89.99 90.23 90.25 90.31 90.49 90.45 90.18 90.32 90.89 91.07 91.40 91.51 91.67 91.86 91.98 92.20 92.52 92.61 92.86 92.97 93.21 93.49 93.93 94.40 94.37
93.80 93.80 93.78 93.73 93.72 93.71 93.64 93.46 93.20 92.92 92.63 92.40 92.12 91.89 91.62 91.34 91.12 90.97 90.77 90.49 90.23 90.03 89.93 89.93 89.95 90.00 89.89 89.19 89.23 89.44 90.10 90.76 91.03 91.18 91.37 91.47 90.53 89.84 91.15 91.32 91.59 91.76 91.99 92.15 92.29 92.54 92.56 92.80 93.10 93.31 93.42 93.47
94.13 94.20 94.19 94.18 94.22 94.22 94.16 93.98 93.73 93.45 93.19 92.94 92.73 92.46 92.15 91.90 91.67 91.48 91.22 90.88 90.61 90.41 90.28 90.12 90.03 90.07 90.13 90.28 90.40 90.57 90.78 90.94 91.17 91.31 91.40 91.55 91.62 91.74 91.80 90.94 90.10 90.89 91.62 91.97 92.03 92.33 92.29 92.39 92.49 92.64 92.85 92.99
