ncols 52
nrows 52
xllcorner 440832
yllcorner 5717504
cellsize 10
NODATA_value -9999
89.20 89.24 89.29 89.30 89.36 89.40 89.40 89.41 89.44 89.48 89.52 89.57 89.61 89.60 89.46 89.21 89.01 88.85 89.57 89.12 89.47 89.56 89.58 89.55 89.58 89.59 89.59 89.66 89.72 89.72 89.72 89.66 89.57 89.49 89.46 89.49 89.44 89.29 89.45 89.10 89.10 89.00 89.01 89.04 89.15 89.23 89.31 89.32 89.28 89.23 89.19 89.16
89.30 89.36 89.40 89.42 89.50 89.56 89.58 89.56 89.57 89.61 89.66 89.66 89.66 89.58 89.35 89.07 88.99 89.47 89.57 89.55 89.43 89.61 89.81 89.61 89.64 89.65 89.65 89.67 89.72 89.76 89.75 89.70 89.61 89.53 89.48 89.46 89.59 89.57 89.21 89.22 89.12 89.05 89.03 89.04 89.10 89.20 89.30 89.30 89.28 89.26 89.22 89.24
89.35 89.33 89.46 89.64 89.49 89.58 89.65 89.65 89.60 89.62 89.66 89.69 89.69 89.58 89.36 89.21 88.65 89.83 89.69 89.54 89.47 89.61 89.54 89.72 89.66 89.67 89.68 89.70 89.76 89.79 89.75 89.72 89.67 89.56 89.46 89.42 89.75 89.47 89.34 89.24 89.15 89.12 89.11 89.15 89.13 89.19 89.23 89.27 89.31 89.29 89.27 89.29
89.54 89.49 89.50 89.57 89.63 89.68 89.73 89.71 89.69 89.71 89.74 89.75 89.74 89.64 89.51 89.29 89.95 89.39 89.62 89.57 89.54 89.57 89.73 89.88 89.71 89.75 89.76 89.73 89.74 89.77 89.80 89.76 89.70 89.60 89.53 89.54 89.50 89.37 89.32 89.28 89.26 89.26 89.24 89.25 89.21 89.20 89.21 89.24 89.29 89.35 89.32 89.32
89.60 89.63 89.63 89.63 89.67 89.75 89.67 89.80 89.79 89.79 89.81 89.82 89.78 89.68 89.64 89.37 89.92 89.73 89.63 89.61 89.62 89.62 89.68 89.30 89.81 89.76 89.78 89.78 89.77 89.80 89.80 89.76 89.68 89.62 89.67 89.67 89.38 89.40 89.36 89.38 89.39 89.40 89.37 89.35 89.27 89.21 89.20 89.24 89.34 89.39 89.36 89.38
89.68 89.71 89.74 89.77 89.78 89.81 89.83 89.78 89.85 89.85 89.86 89.84 89.78 89.83 89.62 90.14 89.81 89.68 89.67 89.67 89.65 89.68 89.73 89.88 89.90 89.81 89.85 89.85 89.81 89.79 89.79 89.76 89.65 89.58 89.74 89.42 89.48 89.46 89.46 89.47 89.48 89.48 89.44 89.44 89.35 89.25 89.25 89.32 89.43 89.47 89.46 89.46
89.85 89.84 89.89 89.90 89.95 89.95 89.97 89.93 89.83 89.93 89.91 89.88 89.86 89.87 90.17 89.67 89.74 89.70 89.71 89.72 89.74 89.75 89.75 89.86 89.51 89.92 89.91 89.91 89.87 89.79 89.79 89.71 89.62 89.68 89.56 89.60 89.54 89.52 89.53 89.54 89.56 89.53 89.51 89.47 89.43 89.36 89.38 89.44 89.52 89.58 89.58 89.53
89.98 90.02 90.02 90.04 90.07 90.07 90.08 90.07 89.96 89.94 89.95 89.91 90.01 89.67 90.14 89.85 89.75 89.77 89.76 89.77 89.81 89.83 89.83 89.90 90.02 90.04 89.95 89.96 89.92 89.87 89.78 89.69 89.72 89.55 89.58 89.62 89.60 89.60 89.59 89.56 89.59 89.61 89.57 89.50 89.48 89.46 89.50 89.54 89.58 89.65 89.68 89.62
90.12 90.15 90.18 90.19 90.18 90.19 90.17 90.14 90.07 89.91 89.95 90.08 89.84 90.34 89.92 89.82 89.83 89.81 89.81 89.82 89.85 89.86 89.90 89.90 90.05 89.85 90.08 90.03 89.99 89.89 89.77 89.71 89.74 89.48 89.63 89.64 89.67 89.63 89.65 89.61 89.63 89.63 89.58 89.55 89.52 89.53 89.57 89.61 89.68 89.74 89.75 89.75
90.27 90.26 90.30 90.30 90.32 90.30 90.28 90.21 90.15 90.13 90.02 90.04 90.42 90.01 89.91 89.86 89.92 89.89 89.87 89.88 89.87 89.92 89.94 90.01 90.08 90.19 90.18 90.07 90.02 89.96 89.84 89.89 89.46 89.56 89.64 89.70 89.72 89.68 89.67 89.67 89.68 89.65 89.60 89.57 89.57 89.60 89.64 89.68 89.75 89.79 89.85 89.89
90.39 90.40 90.40 90.42 90.43 90.40 90.35 90.29 90.26 90.19 90.00 90.35 90.41 90.01 89.92 89.96 89.97 89.99 89.95 89.93 89.91 89.93 90.03 90.05 90.08 90.16 90.34 90.12 90.01 89.99 90.10 89.69 89.57 89.56 89.66 89.76 89.75 89.75 89.71 89.72 89.69 89.67 89.64 89.65 89.64 89.66 89.70 89.75 89.78 89.83 89.96 89.92
90.51 90.49 90.50 90.51 90.51 90.48 90.45 90.39 90.32 90.31 89.99 90.67 90.16 90.04 90.04 90.04 90.06 90.06 90.03 89.99 89.98 90.00 90.05 90.13 90.15 90.15 90.22 90.16 89.98 89.98 90.04 89.58 89.59 89.60 89.68 89.77 89.80 89.79 89.79 89.79 89.73 89.69 89.71 89.72 89.70 89.70 89.77 89.83 89.86 89.93 90.01 89.90
90.61 90.58 90.61 90.62 90.62 90.57 90.53 90.46 90.42 90.49 90.66 90.36 90.20 90.24 90.19 90.14 90.11 90.11 90.07 90.05 90.06 90.07 90.11 90.15 90.17 90.13 90.21 90.31 89.96 90.00 89.69 89.68 89.61 89.62 89.71 89.83 89.82 89.83 89.80 89.82 89.80 89.76 89.75 89.77 89.79 89.80 89.85 89.89 89.94 90.07 90.07 89.95
90.68 90.69 90.71 90.70 90.70 90.65 90.57 90.52 90.57 90.69 90.15 90.37 90.30 90.35 90.29 90.19 90.15 90.13 90.14 90.10 90.11 90.15 90.14 90.17 90.21 90.17 90.23 90.24 90.08 89.82 89.85 89.67 89.65 89.70 89.79 89.88 89.88 89.88 89.86 89.83 89.84 89.85 89.83 89.85 89.87 89.91 89.93 89.99 90.08 90.07 89.96 89.97
90.78 90.76 90.78 90.79 90.77 90.69 90.59 90.65 90.76 90.10 90.41 90.37 90.40 90.40 90.40 90.28 90.17 90.18 90.19 90.19 90.18 90.18 90.18 90.19 90.21 90.22 90.20 90.22 90.46 90.08 89.87 89.81 89.79 89.86 89.89 89.93 89.93 89.92 89.90 89.86 89.90 89.89 89.90 89.92 89.95 89.98 90.01 90.11 90.12 89.37 89.89 90.14
90.88 90.85 90.84 90.86 90.85 90.72 90.69 90.87 90.15 90.43 90.38 90.43 90.47 90.46 90.43 90.34 90.21 90.20 90.28 90.29 90.27 90.21 90.20 90.21 90.26 90.28 90.23 90.22 90.08 90.21 90.09 89.93 89.93 89.95 89.99 90.01 89.98 89.96 89.92 89.95 89.93 89.96 89.97 89.99 90.05 90.06 90.10 90.22 90.11 90.07 89.97 90.33
90.95 90.92 90.89 90.88 90.79 90.82 91.00 90.22 90.55 90.47 90.53 90.51 90.52 90.50 90.47 90.38 90.25 90.27 90.30 90.38 90.35 90.32 90.28 90.29 90.30 90.30 90.30 90.22 90.29 90.28 90.21 90.07 90.07 90.01 90.01 90.02 90.03 90.00 89.99 89.98 89.99 90.01 90.07 90.10 90.10 90.17 90.26 90.21 90.19 90.07 90.31 90.51
91.01 90.97 90.94 90.86 90.85 90.97 90.44 90.68 90.59 90.61 90.61 90.58 90.58 90.57 90.48 90.45 90.33 90.31 90.41 90.45 90.46 90.40 90.40 90.40 90.35 90.32 90.33 90.24 90.21 90.03 90.29 90.25 90.13 90.06 90.07 90.06 90.03 90.03 90.07 90.04 90.06 90.06 90.16 90.18 90.22 90.29 90.26 90.12 90.25 90.28 90.48 90.54
91.07 91.00 90.92 90.89 90.38 90.95 90.74 90.65 90.68 90.72 90.68 90.65 90.64 90.62 90.56 90.49 90.47 90.43 90.47 90.52 90.55 90.54 90.51 90.49 90.42 90.38 90.35 90.31 90.33 90.29 90.23 90.32 90.13 90.15 90.10 90.08 90.06 90.11 90.12 90.13 90.12 90.14 90.22 90.26 90.36 90.36 90.19 90.16 90.38 90.48 90.62 90.65
91.17 91.05 90.93 90.93 91.11 90.93 90.75 90.73 90.81 90.82 90.77 90.74 90.70 90.67 90.64 90.59 90.57 90.56 90.53 90.58 90.64 90.65 90.63 90.58 90.51 90.43 90.41 90.39 90.31 90.29 89.76 90.32 90.28 90.19 90.12 90.10 90.12 90.15 90.18 90.17 90.18 90.23 90.30 90.36 90.47 90.50 90.35 90.46 90.51 90.62 90.72 90.79
91.21 91.12 91.02 91.14 90.31 90.88 90.80 90.88 90.91 90.90 90.86 90.82 90.78 90.75 90.73 90.69 90.69 90.67 90.65 90.71 90.71 90.73 90.68 90.67 90.58 90.50 90.45 90.41 90.38 90.32 90.35 90.26 90.39 90.20 90.16 90.14 90.17 90.20 90.24 90.25 90.29 90.32 90.40 90.51 90.42 90.39 90.46 90.52 90.65 90.79 90.83 90.87
91.22 91.32 90.46 91.21 90.94 90.86 90.93 90.99 90.99 90.99 90.97 90.90 90.87 90.85 90.82 90.84 90.79 90.81 90.77 90.77 90.80 90.76 90.75 90.72 90.65 90.56 90.48 90.43 90.39 90.31 90.32 90.03 90.38 90.29 90.25 90.23 90.20 90.24 90.29 90.36 90.38 90.45 90.53 90.50 90.18 90.50 90.56 90.66 90.81 90.92 90.96 91.00
91.11 91.00 91.41 91.15 90.95 90.98 91.05 91.07 91.07 91.06 91.03 91.00 90.96 90.94 90.93 90.92 90.87 90.87 90.87 90.83 90.82 90.79 90.79 90.76 90.73 90.65 90.52 90.46 90.44 90.40 90.33 90.33 90.29 90.45 90.30 90.31 90.26 90.28 90.36 90.44 90.50 90.54 90.53 90.08 90.36 90.66 90.67 90.82 90.96 91.04 91.08 91.12
91.21 91.47 90.41 91.08 91.03 91.12 91.10 91.15 91.14 91.12 91.07 91.07 91.01 91.00 90.98 90.97 90.93 90.90 90.90 90.88 90.81 90.79 90.80 90.77 90.76 90.71 90.58 90.51 90.49 90.42 90.44 90.35 90.32 90.53 90.45 90.37 90.31 90.37 90.46 90.54 90.59 90.64 90.62 90.48 90.68 90.71 90.86 90.99 91.06 91.16 91.22 91.24
91.04 91.51 91.23 91.09 91.15 91.18 91.17 91.19 91.18 91.17 91.12 91.11 91.07 91.03 91.00 91.00 91.00 90.96 90.97 90.92 90.81 90.75 90.78 90.84 90.77 90.73 90.63 90.55 90.49 90.47 90.50 90.44 90.24 90.51 90.50 90.42 90.45 90.46 90.53 90.64 90.71 90.52 90.56 90.73 90.82 90.90 91.03 91.13 91.20 91.26 91.33 91.37
91.66 91.39 91.21 91.19 91.26 91.28 91.25 91.24 91.23 91.21 91.17 91.10 91.10 91.04 91.04 91.04 91.03 91.04 91.00 91.00 90.87 90.82 90.84 90.86 90.83 90.75 90.68 90.57 90.51 90.51 90.54 89.66 90.44 90.59 90.56 90.50 90.54 90.53 90.62 90.72 90.68 90.21 90.71 90.81 90.93 91.05 91.11 91.21 91.29 91.35 91.43 91.56
90.72 91.33 91.26 91.32 91.33 91.35 91.32 91.29 91.28 91.26 91.20 91.15 91.14 91.10 91.06 91.07 91.10 91.08 91.04 91.06 91.01 90.91 90.91 90.92 90.87 90.81 90.73 90.61 90.60 90.58 90.41 90.59 90.58 90.49 90.81 90.73 90.56 90.72 90.74 90.76 90.71 90.71 90.76 90.85 91.02 91.19 91.33 91.36 91.40 91.44 91.54 91.64
91.46 91.39 91.43 91.44 91.42 91.40 91.40 91.37 91.31 91.29 91.27 91.21 91.15 91.10 91.09 91.08 91.12 91.12 91.12 91.10 91.07 91.01 90.97 90.94 90.92 90.86 90.72 90.69 90.71 90.52 90.79 90.62 90.52 90.64 90.73 91.19 91.10 90.79 90.82 90.79 90.72 90.84 90.89 91.04 91.14 91.31 91.42 91.48 91.57 91.64 91.67 91.74
91.52 91.50 91.54 91.53 91.49 91.46 91.45 91.38 91.35 91.33 91.30 91.23 91.16 91.13 91.12 91.15 91.16 91.17 91.15 91.10 91.12 91.07 91.00 90.93 90.93 90.89 90.81 90.82 90.74 90.81 90.75 90.69 90.63 90.68 90.64 91.19 91.10 90.88 90.74 90.83 90.85 90.90 90.96 91.19 91.31 91.44 91.53 91.63 91.71 91.77 91.83 91.89
91.60 91.61 91.64 91.59 91.53 91.49 91.48 91.44 91.37 91.38 91.32 91.26 91.23 91.17 91.20 91.20 91.20 91.20 91.18 91.16 91.14 91.11 90.97 90.95 90.93 90.91 90.89 90.86 89.94 90.84 90.84 90.78 90.69 90.71 90.79 90.84 91.28 90.84 90.37 91.03 90.96 90.97 91.02 91.24 91.46 91.58 91.68 91.76 91.84 91.90 91.93 91.96
91.60 91.65 91.69 91.69 91.60 91.54 91.50 91.48 91.47 91.42 91.37 91.31 91.28 91.23 91.24 91.25 91.26 91.24 91.24 91.21 91.16 91.15 91.05 90.94 90.96 90.98 90.88 90.75 90.97 90.93 90.91 90.83 90.80 90.76 90.84 90.78 90.83 90.82 91.03 91.09 91.04 91.12 91.21 91.31 91.56 91.70 91.79 91.85 91.92 91.98 91.99 92.04
91.63 91.74 91.76 91.70 91.66 91.57 91.52 91.56 91.51 91.47 91.39 91.36 91.32 91.28 91.31 91.32 91.32 91.27 91.28 91.25 91.22 91.18 91.13 91.00 91.04 91.06 91.05 91.07 91.00 91.01 90.96 90.93 90.90 90.88 90.93 90.91 90.97 91.10 91.21 91.09 91.13 91.23 91.35 91.42 91.58 91.77 91.86 91.96 92.02 92.06 92.08 92.15
91.79 91.75 91.81 91.74 91.69 91.63 91.61 91.58 91.60 91.51 91.46 91.39 91.37 91.37 91.37 91.40 91.36 91.33 91.31 91.31 91.28 91.23 91.15 91.11 91.15 91.07 91.16 91.08 91.07 91.06 91.01 90.96 91.00 90.96 90.93 90.97 91.05 91.24 91.19 91.18 91.25 91.39 91.46 91.56 91.65 91.80 91.93 92.01 92.08 92.14 92.16 92.20
91.77 91.72 91.81 91.80 91.78 91.72 91.67 91.65 91.63 91.59 91.49 91.47 91.43 91.43 91.42 91.45 91.44 91.42 91.38 91.35 91.32 91.26 91.20 91.19 91.17 90.90 91.11 91.15 91.15 91.13 91.08 91.10 91.09 91.06 91.11 90.62 91.31 91.21 91.23 91.35 91.38 91.53 91.58 91.64 91.73 91.87 92.01 92.07 92.13 92.18 92.19 92.26
91.74 91.85 91.81 91.85 91.79 91.78 91.74 91.67 91.67 91.65 91.57 91.50 91.47 91.46 91.49 91.49 91.52 91.48 91.45 91.43 91.39 91.31 91.26 91.22 90.49 91.17 91.21 91.21 91.20 91.19 91.20 91.18 91.17 91.21 91.29 91.39 91.32 91.35 91.40 91.46 91.50 91.64 91.72 91.67 91.84 91.91 92.07 92.13 92.18 92.24 92.25 92.29
91.82 91.88 91.77 91.87 91.87 91.84 91.82 91.75 91.70 91.71 91.65 91.58 91.55 91.56 91.57 91.58 91.60 91.57 91.53 91.46 91.40 91.34 91.29 90.46 91.26 91.26 91.29 91.25 91.25 91.24 91.26 91.28 91.27 91.41 91.41 91.38 91.34 91.38 91.53 91.58 91.64 91.72 91.79 91.68 91.90 91.99 92.07 92.15 92.21 92.25 92.25 92.28
91.90 91.84 91.86 91.79 91.82 91.92 91.86 91.81 91.79 91.76 91.74 91.69 91.65 91.64 91.64 91.64 91.67 91.66 91.60 91.48 91.49 91.44 90.95 91.34 91.32 91.37 91.33 91.33 91.29 91.32 91.35 91.32 91.43 90.88 91.46 91.41 91.40 91.52 91.61 91.69 91.76 91.83 91.84 91.74 91.85 91.99 92.07 92.13 92.21 92.24 92.22 92.24
91.94 91.89 91.89 91.74 91.83 91.93 91.97 91.91 91.86 91.83 91.85 91.79 91.75 91.72 91.71 91.72 91.71 91.71 91.62 91.58 91.53 91.25 91.46 91.36 91.38 91.42 91.40 91.37 91.41 91.40 91.40 91.50 91.37 91.60 91.49 91.46 91.59 91.63 91.71 91.82 91.86 91.90 91.92 91.81 91.82 91.94 92.01 92.08 92.11 92.10 92.15 92.15
91.97 91.93 91.87 91.83 91.82 91.96 92.01 91.98 91.91 91.90 91.91 91.89 91.85 91.83 91.82 91.79 91.79 91.75 91.68 91.62 91.50 91.50 91.41 91.43 91.47 91.51 91.48 91.47 91.48 91.48 91.52 91.64 91.65 91.54 91.57 91.61 91.72 91.75 91.82 91.91 91.95 91.96 91.95 91.87 91.82 91.78 91.89 91.93 92.00 92.06 92.13 92.22
92.01 91.99 91.90 91.88 91.83 92.07 92.04 92.03 91.98 91.94 91.94 91.95 91.92 91.90 91.85 91.85 91.80 91.76 91.71 91.65 91.58 91.50 91.51 91.56 91.54 91.58 91.59 91.58 91.56 91.53 91.68 91.67 91.65 91.59 91.60 91.76 91.79 91.87 91.92 91.99 92.03 92.04 92.04 91.90 91.86 91.82 91.86 91.98 92.10 92.19 92.29 92.40
92.06 91.98 91.96 91.87 91.93 92.05 92.02 92.06 92.03 91.99 91.97 91.97 91.98 91.93 91.92 91.88 91.86 91.78 91.73 91.69 91.58 91.55 91.59 91.59 91.62 91.69 91.71 91.68 91.59 91.66 91.04 91.82 91.77 91.67 91.73 91.85 91.94 91.97 92.00 92.08 92.12 92.11 92.08 92.01 91.99 91.97 92.04 92.17 92.25 92.36 92.49 92.59
92.05 92.00 91.94 91.87 91.94 92.02 92.08 92.09 92.06 92.03 92.01 92.01 92.04 91.98 91.93 91.91 91.86 91.78 91.75 91.69 91.60 91.60 91.62 91.69 91.77 91.82 91.85 91.76 91.72 91.80 91.89 91.90 91.80 91.82 91.88 91.93 92.04 92.07 92.09 92.18 92.22 92.18 92.20 92.13 92.10 92.19 92.23 92.32 92.39 92.51 92.62 92.74
92.09 92.02 91.98 91.92 91.92 92.04 92.11 92.09 92.08 92.06 92.04 92.05 92.06 92.05 91.96 91.89 91.83 91.73 91.68 91.66 91.60 91.59 91.67 91.78 91.90 91.92 91.93 91.93 91.97 92.01 91.85 91.86 91.86 91.94 91.96 92.04 92.13 92.15 92.19 92.28 92.28 92.29 92.33 92.32 92.21 92.35 92.35 92.46 92.56 92.70 92.85 93.02
92.14 92.04 92.01 91.97 91.95 92.07 92.08 92.12 92.05 92.06 92.06 92.02 92.06 92.03 91.90 91.86 91.72 91.68 91.67 91.65 91.58 91.56 91.67 91.88 91.99 92.09 92.08 92.00 91.63 91.96 91.91 91.93 92.00 92.03 92.07 92.13 92.23 92.23 92.28 92.36 92.39 92.39 92.43 92.42 92.38 92.61 92.66 92.77 93.07 93.12 93.17 93.24
92.15 92.10 92.09 92.08 92.01 92.05 92.05 92.07 92.01 92.01 92.00 91.99 91.93 91.88 91.88 91.71 91.66 91.64 91.65 91.65 91.60 91.55 91.68 91.91 92.10 92.21 92.07 91.93 92.09 92.08 92.00 92.06 92.14 92.17 92.20 92.24 92.31 92.35 92.38 92.44 92.48 92.50 92.55 92.54 92.55 92.78 92.77 92.79 92.82 92.92 93.08 93.22
92.21 92.21 92.20 92.16 92.13 92.10 92.13 92.06 91.99 91.98 91.98 91.94 91.91 91.90 91.79 91.72 91.68 91.66 91.71 91.68 91.69 91.70 91.81 92.03 92.32 91.47 92.11 92.20 92.20 92.12 92.11 92.14 92.22 92.27 92.30 92.38 92.41 92.44 92.46 92.54 92.57 92.60 92.64 92.69 92.68 92.79 92.76 92.83 92.93 93.07 93.24 93.37
92.32 92.33 92.29 92.26 92.23 92.23 92.24 92.16 92.17 92.05 92.07 92.08 92.06 92.01 91.98 91.91 91.87 91.88 91.92 91.94 91.90 91.99 92.04 92.29 91.97 92.19 92.24 92.30 92.24 92.23 92.24 92.29 92.35 92.40 92.44 92.47 92.55 92.58 92.59 92.64 92.68 92.71 92.74 92.80 92.87 92.93 92.88 92.96 93.11 93.24 93.39 93.54
92.41 92.41 92.40 92.36 92.33 92.34 92.30 92.32 92.19 92.22 92.28 92.26 92.23 92.17 92.15 92.12 92.11 92.09 92.09 92.12 92.16 92.17 92.28 92.14 92.27 92.34 92.35 92.32 92.34 92.36 92.41 92.41 92.47 92.55 92.54 92.57 92.65 92.71 92.77 92.81 92.83 92.84 92.89 92.93 93.03 93.15 93.01 93.12 93.25 93.37 93.54 93.68
92.48 92.49 92.49 92.46 92.41 92.41 92.39 92.43 92.33 92.46 92.41 92.37 92.29 92.28 92.28 92.28 92.27 92.23 92.26 92.34 92.49 91.68 92.29 92.35 92.36 92.39 92.43 92.42 92.49 92.50 92.57 92.52 92.66 92.71 92.71 92.76 92.80 92.89 92.93 92.98 93.01 93.03 93.04 93.07 93.18 93.35 93.21 93.34 93.49 93.62 93.69 93.81
92.54 92.52 92.56 92.54 92.51 92.51 92.52 92.47 92.49 92.51 92.54 92.39 92.37 92.37 92.38 92.38 92.36 92.45 92.48 92.69 92.40 92.50 92.44 92.47 92.47 92.54 92.55 92.58 92.62 92.70 92.74 92.68 92.86 92.87 92.92 92.92 93.03 93.10 93.17 93.20 93.27 93.24 93.24 93.28 93.42 93.58 93.43 93.49 93.60 93.71 93.81 93.91
92.58 92.57 92.61 92.65 92.62 92.59 92.56 92.53 92.55 92.51 92.62 92.52 92.45 92.51 92.50 92.54 92.61 92.70 92.45 92.61 92.71 92.66 92.63 92.66 92.66 92.74 92.74 92.73 92.80 92.89 92.95 92.90 93.02 93.09 93.13 93.19 93.26 93.35 93.38 93.43 93.46 93.51 93.56 93.52 93.71 93.82 93.62 93.63 93.75 93.84 93.94 94.07
92.68 92.67 92.67 92.71 92.69 92.65 92.62 92.63 92.57 92.61 92.69 92.60 92.57 92.61 92.71 92.79 92.92 92.23 92.71 92.79 92.84 92.79 92.81 92.84 92.88 92.91 92.96 92.97 93.00 93.13 93.17 93.13 93.18 93.29 93.44 93.49 93.52 93.61 93.66 93.69 93.77 93.79 93.82 93.80 93.80 93.81 93.82 93.87 93.92 94.04 94.10 94.15
