ncols 52
nrows 52
xllcorner 440832
yllcorner 5716992
cellsize 10
NODATA_value -9999
92.67 92.68 92.69 92.72 92.73 92.66 92.63 92.63 92.59 92.65 92.72 92.64 92.59 92.65 92.76 92.78 92.91 92.61 92.75 92.82 92.87 92.83 92.85 92.90 92.94 92.96 93.00 93.01 93.04 93.18 93.23 93.17 93.24 93.31 93.48 93.52 93.60 93.65 93.70 93.75 93.85 93.83 93.81 93.76 93.81 93.84 93.85 93.84 93.96 94.05 94.10 94.19
92.75 92.74 92.73 92.75 92.75 92.73 92.71 92.69 92.65 92.70 92.66 92.82 92.72 92.88 92.94 92.67 92.83 92.94 92.94 92.96 92.98 93.03 93.09 93.17 93.16 93.22 93.26 93.28 93.30 93.35 93.46 93.40 93.40 93.58 93.71 93.68 93.71 93.81 93.90 93.97 94.13 94.21 94.26 94.17 94.13 94.01 94.05 94.07 94.11 94.15 94.21 94.31
92.80 92.82 92.79 92.83 92.82 92.82 92.76 92.72 92.74 92.68 92.68 92.92 92.90 93.15 92.44 92.96 93.07 93.04 93.09 93.09 93.18 93.25 93.32 93.39 93.38 93.42 93.50 93.51 93.49 93.55 93.62 93.67 93.69 93.85 93.96 94.09 94.21 94.08 94.06 94.22 94.23 94.19 94.23 94.17 94.21 94.19 94.24 94.23 94.26 94.29 94.34 94.41
92.90 92.89 92.89 92.87 92.88 92.87 92.82 92.80 92.79 92.78 92.85 93.10 93.08 93.04 93.06 93.07 93.11 93.17 93.25 93.28 93.38 93.48 93.51 93.58 93.58 93.60 93.67 93.72 93.68 93.70 93.78 93.90 93.93 93.89 94.08 94.23 94.28 94.20 94.17 94.27 94.28 94.31 94.36 94.42 94.34 94.42 94.43 94.33 94.35 94.40 94.43 94.46
92.94 92.96 92.93 92.92 92.93 92.93 92.92 92.89 93.00 93.06 93.29 92.52 93.09 93.09 93.15 93.20 93.24 93.34 93.41 93.49 93.52 93.64 93.68 93.74 93.75 93.76 93.84 93.89 93.85 93.85 93.90 94.03 94.18 94.10 94.20 94.23 94.24 94.30 94.35 94.35 94.45 94.43 94.55 94.59 94.46 94.64 94.49 94.42 94.45 94.50 94.52 94.58
93.02 93.03 93.02 93.02 93.00 92.96 93.00 93.08 93.20 93.34 93.09 93.19 93.14 93.14 93.24 93.36 93.39 93.49 93.54 93.64 93.72 93.78 93.85 93.88 93.91 93.94 93.99 94.08 94.05 94.06 94.07 94.23 94.33 94.24 94.36 94.39 94.38 94.48 94.54 94.58 94.61 94.58 94.66 94.76 94.68 94.73 94.67 94.50 94.56 94.56 94.62 94.69
93.13 93.14 93.14 93.07 93.04 93.05 93.17 93.31 93.29 93.32 93.30 93.25 93.26 93.26 93.39 93.53 93.57 93.64 93.69 93.81 93.87 93.93 93.99 94.07 94.09 94.11 94.18 94.22 94.29 94.25 94.28 94.39 94.46 94.58 94.53 94.55 94.54 94.73 94.68 94.71 94.79 94.79 94.90 94.92 94.74 94.82 94.81 94.63 94.61 94.65 94.66 94.69
93.22 93.19 93.20 93.17 93.16 93.26 93.55 92.69 93.41 93.41 93.37 93.44 93.44 93.49 93.56 93.71 93.71 93.82 93.85 93.99 94.04 94.09 94.16 94.20 94.29 94.28 94.34 94.42 94.47 94.47 94.49 94.57 94.60 94.87 94.74 94.74 94.76 94.90 94.86 94.83 94.97 95.00 95.01 95.06 95.03 94.93 94.87 94.74 94.69 94.76 94.78 94.80
93.35 93.31 93.34 93.36 93.47 93.68 93.41 93.45 93.48 93.48 93.55 93.57 93.60 93.64 93.70 93.89 93.83 93.93 93.99 94.11 94.16 94.25 94.31 94.40 94.47 94.54 94.55 94.62 94.67 94.67 94.70 94.74 94.76 94.96 94.90 95.01 95.00 95.02 95.02 95.00 95.06 95.14 95.18 95.16 95.09 95.01 94.81 94.83 94.76 94.72 94.76 94.73
93.43 93.47 93.61 93.69 93.42 93.40 93.44 93.45 93.57 93.64 93.68 93.68 93.73 93.78 93.81 94.02 93.97 94.07 94.13 94.25 94.32 94.41 94.48 94.56 94.64 94.73 94.77 94.81 94.84 94.90 94.88 94.93 94.95 95.21 95.17 95.21 95.21 95.18 95.26 95.16 95.26 95.26 95.29 95.33 95.19 95.06 94.87 94.71 94.75 94.75 94.76 94.80
93.65 93.80 93.93 93.13 93.51 93.45 93.46 93.58 93.67 93.77 93.81 93.82 93.86 93.93 93.96 94.12 94.10 94.19 94.27 94.38 94.49 94.56 94.67 94.73 94.82 94.91 94.97 95.03 95.07 95.08 95.12 95.13 95.18 95.34 95.36 95.49 95.40 95.43 95.54 95.40 95.42 95.39 95.36 95.39 95.29 95.14 95.11 94.89 94.94 94.91 94.86 94.94
93.89 94.01 93.72 93.63 93.53 93.53 93.56 93.65 93.79 93.85 93.93 93.96 94.01 94.06 94.14 94.27 94.29 94.34 94.44 94.53 94.61 94.74 94.84 94.91 94.99 95.11 95.19 95.23 95.30 95.33 95.35 95.36 95.42 95.53 95.51 95.69 95.63 95.67 95.77 95.60 95.61 95.51 95.48 95.49 95.41 95.24 95.16 94.94 94.87 94.88 94.88 94.93
93.58 93.83 93.75 93.62 93.61 93.62 93.67 93.78 93.90 94.00 94.06 94.11 94.18 94.24 94.32 94.42 94.44 94.50 94.60 94.67 94.78 94.89 95.01 95.07 95.20 95.30 95.38 95.47 95.53 95.57 95.60 95.59 95.64 95.68 95.74 95.84 95.81 95.81 95.91 95.76 95.69 95.65 95.59 95.55 95.51 95.30 95.24 95.08 94.99 94.95 94.93 94.92
94.01 93.88 93.78 93.77 93.78 93.82 93.85 93.91 94.02 94.13 94.20 94.27 94.33 94.40 94.47 94.57 94.64 94.66 94.75 94.84 94.94 95.09 95.18 95.29 95.39 95.52 95.61 95.69 95.76 95.79 95.81 95.78 95.85 95.87 95.91 95.99 96.06 95.83 95.93 95.80 95.76 95.71 95.69 95.57 95.46 95.38 95.34 95.17 95.08 95.06 94.99 95.00
94.01 93.99 93.91 93.91 93.96 93.97 94.01 94.06 94.14 94.25 94.35 94.43 94.50 94.57 94.60 94.74 94.82 94.85 94.96 95.05 95.17 95.28 95.40 95.49 95.62 95.72 95.78 95.86 95.91 95.95 95.94 95.94 95.97 95.97 96.06 96.00 95.94 95.96 95.96 95.85 95.87 95.85 95.77 95.69 95.59 95.50 95.42 95.18 95.12 95.07 95.04 95.01
94.15 94.10 94.05 94.08 94.14 94.18 94.21 94.22 94.31 94.41 94.52 94.60 94.65 94.73 94.79 94.94 95.08 95.08 95.20 95.28 95.39 95.48 95.57 95.69 95.80 95.88 95.92 95.99 96.02 96.03 96.04 96.07 96.12 96.05 96.20 96.18 96.18 96.12 96.18 96.09 95.98 95.94 95.84 95.73 95.69 95.57 95.43 95.18 95.15 95.11 95.05 95.03
94.27 94.24 94.18 94.22 94.31 94.34 94.37 94.42 94.49 94.57 94.68 94.74 94.84 94.96 95.04 95.18 95.36 95.30 95.38 95.48 95.60 95.62 95.71 95.82 95.92 96.00 96.06 96.08 96.14 96.16 96.17 96.15 96.19 96.18 96.32 96.27 96.28 96.29 96.24 96.14 96.00 96.00 95.86 95.79 95.69 95.61 95.47 95.32 95.21 95.11 95.11 95.04
94.38 94.34 94.35 94.39 94.46 94.53 94.57 94.61 94.67 94.76 94.82 94.94 95.06 95.18 95.27 95.32 95.54 95.50 95.60 95.63 95.73 95.74 95.82 95.93 96.00 96.12 96.18 96.21 96.23 96.24 96.23 96.27 96.35 96.35 96.43 96.44 96.37 96.36 96.28 96.33 96.03 96.02 95.96 95.83 95.75 95.60 95.47 95.37 95.24 95.15 95.10 95.07
94.44 94.49 94.52 94.58 94.65 94.71 94.75 94.81 94.88 94.93 95.03 95.12 95.24 95.35 95.46 95.51 95.67 95.66 95.73 95.78 95.83 95.88 95.93 96.04 96.14 96.22 96.32 96.35 96.38 96.43 96.42 96.47 96.47 96.60 96.51 96.54 96.54 96.44 96.39 96.33 96.13 96.03 95.95 95.78 95.71 95.57 95.51 95.44 95.32 95.20 95.12 95.07
94.57 94.60 94.66 94.73 94.82 94.90 94.94 94.99 95.08 95.15 95.22 95.28 95.37 95.50 95.57 95.66 95.80 95.83 95.87 95.92 95.99 96.04 96.10 96.15 96.27 96.35 96.50 96.55 96.58 96.58 96.72 96.62 96.67 96.79 96.57 96.49 96.56 96.40 96.46 96.26 96.15 96.06 95.99 95.76 95.75 95.61 95.53 95.44 95.35 95.21 95.13 95.08
94.67 94.74 94.82 94.91 95.00 95.07 95.10 95.18 95.27 95.33 95.37 95.44 95.51 95.64 95.76 95.81 95.94 95.96 96.00 96.05 96.11 96.20 96.18 96.28 96.48 96.54 96.60 96.71 96.69 96.71 96.58 96.54 96.56 96.65 96.60 96.49 96.55 96.46 96.49 96.35 96.17 96.09 95.96 95.86 95.75 95.65 95.51 95.47 95.38 95.27 95.16 95.13
94.84 94.89 94.99 95.06 95.16 95.24 95.28 95.34 95.43 95.50 95.56 95.59 95.66 95.74 95.88 95.93 96.02 96.09 96.12 96.19 96.28 96.39 96.40 96.47 96.56 96.74 96.79 96.78 96.68 96.62 96.64 96.57 96.58 96.67 96.71 96.56 96.62 96.53 96.35 96.32 96.21 96.02 95.95 95.88 95.72 95.64 95.51 95.43 95.39 95.27 95.22 95.14
95.02 95.06 95.14 95.20 95.31 95.39 95.44 95.47 95.56 95.68 95.74 95.76 95.78 95.89 96.00 96.08 96.21 96.28 96.28 96.33 96.50 96.53 96.60 96.67 96.74 96.75 96.75 96.73 96.68 96.66 96.65 96.64 96.65 96.71 96.82 96.65 96.54 96.50 96.31 96.32 96.14 96.02 95.91 95.76 95.73 95.68 95.51 95.47 95.34 95.35 95.26 95.19
95.15 95.20 95.26 95.35 95.45 95.53 95.60 95.63 95.70 95.81 95.90 95.90 95.94 96.01 96.10 96.21 96.36 96.44 96.48 96.54 96.60 96.69 96.63 96.57 96.69 96.78 96.81 96.80 96.77 96.70 96.73 96.67 96.68 96.77 96.84 96.75 96.52 96.41 96.35 96.32 96.11 95.94 95.89 95.72 95.67 95.67 95.55 95.46 95.35 95.40 95.35 95.29
95.24 95.32 95.40 95.49 95.59 95.68 95.75 95.76 95.83 95.93 96.01 96.06 96.08 96.14 96.21 96.35 96.59 96.77 96.66 96.65 96.62 96.62 96.64 96.54 96.68 96.80 96.90 96.87 96.83 96.79 96.75 96.73 96.71 96.77 96.73 96.63 96.47 96.45 96.29 96.27 96.11 95.86 95.81 95.76 95.71 95.69 95.50 95.44 95.46 95.42 95.42 95.41
95.36 95.43 95.51 95.60 95.70 95.80 95.85 95.90 95.91 96.03 96.13 96.18 96.23 96.25 96.36 96.53 96.67 96.72 96.64 96.59 96.60 96.65 96.72 96.70 96.71 96.85 96.96 96.94 96.85 96.84 96.79 96.76 96.66 96.74 96.72 96.58 96.51 96.34 96.30 96.10 95.99 95.83 95.75 95.71 95.68 95.65 95.50 95.40 95.48 95.49 95.49 95.50
95.46 95.53 95.60 95.71 95.82 95.90 95.97 95.99 96.05 96.12 96.19 96.26 96.36 96.43 96.58 96.71 96.68 96.71 96.61 96.65 96.67 96.69 96.76 96.74 96.79 96.87 96.96 96.93 96.90 96.85 96.80 96.77 96.70 96.68 96.67 96.50 96.55 96.39 96.15 96.06 95.96 95.79 95.77 95.70 95.56 95.57 95.46 95.41 95.46 95.54 95.54 95.57
95.54 95.62 95.70 95.78 95.90 96.00 96.07 96.10 96.15 96.20 96.27 96.41 96.56 96.71 96.76 96.67 96.68 96.70 96.76 96.72 96.76 96.75 96.81 96.82 96.79 96.82 96.90 96.92 96.88 96.81 96.72 96.73 96.67 96.64 96.63 96.52 96.29 96.17 96.08 96.08 95.92 95.81 95.74 95.64 95.56 95.56 95.47 95.41 95.47 95.55 95.54 95.60
95.61 95.69 95.77 95.85 95.95 96.08 96.16 96.18 96.22 96.28 96.43 96.59 96.71 96.74 96.73 96.73 96.71 96.75 96.80 96.81 96.78 96.79 96.79 96.82 96.78 96.81 96.85 96.85 96.82 96.77 96.68 96.67 96.63 96.57 96.58 96.44 96.21 96.25 96.17 95.97 95.96 95.82 95.61 95.53 95.57 95.55 95.49 95.43 95.48 95.60 95.61 95.71
95.68 95.74 95.82 95.88 96.01 96.12 96.21 96.25 96.31 96.45 96.65 96.73 96.73 96.71 96.79 96.83 96.75 96.77 96.82 96.83 96.81 96.77 96.77 96.81 96.79 96.72 96.77 96.80 96.74 96.70 96.63 96.61 96.54 96.48 96.49 96.36 96.14 96.18 96.10 95.82 95.76 95.65 95.61 95.51 95.54 95.50 95.51 95.42 95.48 95.63 95.68 95.74
95.72 95.78 95.88 95.94 96.04 96.15 96.26 96.37 96.50 96.67 96.72 96.71 96.70 96.74 96.79 96.82 96.81 96.75 96.80 96.81 96.76 96.72 96.70 96.79 96.71 96.66 96.69 96.72 96.67 96.64 96.57 96.55 96.48 96.41 96.39 96.27 96.11 95.96 95.91 95.72 95.69 95.55 95.45 95.43 95.36 95.42 95.52 95.43 95.53 95.54 95.72 95.79
95.75 95.83 95.92 95.99 96.07 96.19 96.36 96.57 96.79 96.70 96.69 96.75 96.77 96.74 96.75 96.75 96.76 96.75 96.75 96.77 96.70 96.69 96.65 96.68 96.69 96.63 96.60 96.63 96.62 96.55 96.51 96.40 96.33 96.23 96.21 96.10 96.05 95.81 95.76 95.62 95.61 95.44 95.37 95.37 95.28 95.36 95.49 95.49 95.51 95.59 95.71 95.79
95.77 95.89 95.97 96.04 96.16 96.36 96.62 96.57 96.61 96.61 96.65 96.69 96.73 96.71 96.70 96.69 96.71 96.69 96.69 96.69 96.64 96.62 96.60 96.59 96.61 96.53 96.52 96.54 96.51 96.44 96.35 96.23 96.14 96.05 96.04 95.90 95.82 95.69 95.70 95.55 95.49 95.38 95.25 95.32 95.37 95.33 95.48 95.49 95.49 95.60 95.70 95.76
95.82 95.92 96.01 96.18 96.35 96.60 96.53 97.04 96.46 96.51 96.56 96.62 96.67 96.69 96.64 96.62 96.65 96.60 96.59 96.60 96.60 96.57 96.53 96.50 96.52 96.43 96.35 96.38 96.32 96.25 96.15 96.07 95.96 95.85 95.86 95.81 95.67 95.59 95.54 95.49 95.38 95.29 95.19 95.28 95.32 95.34 95.40 95.44 95.45 95.57 95.66 95.77
95.83 95.97 96.15 96.34 96.50 96.44 96.38 96.36 96.40 96.44 96.49 96.53 96.60 96.58 96.54 96.50 96.49 96.47 96.45 96.49 96.47 96.48 96.45 96.37 96.34 96.26 96.15 96.10 96.09 96.02 95.98 95.87 95.79 95.68 95.67 95.71 95.53 95.49 95.40 95.36 95.30 95.28 95.16 95.22 95.25 95.24 95.35 95.44 95.42 95.53 95.66 95.76
95.94 96.14 96.31 96.25 96.33 96.33 96.30 96.34 96.33 96.37 96.36 96.43 96.45 96.49 96.43 96.39 96.33 96.32 96.32 96.30 96.32 96.27 96.27 96.20 96.14 96.05 95.99 95.89 95.90 95.83 95.76 95.71 95.60 95.55 95.56 95.58 95.47 95.34 95.32 95.33 95.29 95.17 95.10 95.15 95.19 95.21 95.44 95.43 95.42 95.53 95.63 95.71
96.11 96.40 96.42 96.26 96.29 96.17 96.19 96.22 96.22 96.21 96.24 96.27 96.30 96.32 96.29 96.24 96.18 96.14 96.13 96.10 96.05 96.01 96.03 95.99 95.91 95.86 95.80 95.75 95.72 95.66 95.61 95.53 95.49 95.41 95.40 95.46 95.42 95.26 95.24 95.29 95.21 95.16 95.14 95.12 95.18 95.24 95.36 95.41 95.40 95.51 95.60 95.66
96.24 96.24 96.24 96.24 96.30 96.42 96.12 96.15 96.22 96.03 96.13 96.11 96.12 96.14 96.10 96.07 96.01 95.98 95.93 95.86 95.82 95.79 95.80 95.75 95.72 95.69 95.66 95.57 95.59 95.51 95.46 95.39 95.35 95.30 95.27 95.35 95.28 95.18 95.29 95.19 95.12 95.16 95.14 95.10 95.13 95.18 95.31 95.33 95.39 95.52 95.57 95.63
96.33 96.22 96.14 96.41 96.09 96.12 95.97 95.96 96.01 95.96 96.03 95.96 95.91 95.93 95.90 95.88 95.83 95.77 95.73 95.65 95.64 95.56 95.57 95.58 95.56 95.55 95.47 95.44 95.39 95.37 95.29 95.26 95.24 95.15 95.17 95.26 95.28 95.14 95.21 95.12 95.13 95.11 95.07 95.06 95.14 95.16 95.23 95.33 95.33 95.48 95.44 95.60
95.99 96.01 95.98 95.99 96.16 95.82 95.91 95.77 95.83 95.84 95.82 95.78 95.75 95.71 95.73 95.67 95.65 95.61 95.56 95.47 95.46 95.42 95.40 95.41 95.41 95.38 95.32 95.32 95.26 95.21 95.15 95.13 95.10 95.04 95.05 95.14 95.16 95.14 95.14 95.08 95.04 95.11 95.06 94.99 95.10 95.12 95.18 95.23 95.38 95.40 95.44 95.56
95.93 95.85 95.87 95.79 95.91 95.82 95.76 95.67 95.65 95.68 95.58 95.59 95.51 95.53 95.53 95.51 95.48 95.44 95.42 95.35 95.31 95.25 95.23 95.26 95.27 95.24 95.18 95.19 95.14 95.12 95.07 95.02 95.00 94.96 94.94 95.10 95.08 95.10 95.08 95.05 95.01 95.06 95.00 94.99 95.10 95.10 95.14 95.22 95.33 95.31 95.42 95.50
95.82 95.93 95.73 95.76 95.73 95.87 95.69 95.55 95.41 95.42 95.29 95.37 95.35 95.30 95.33 95.33 95.34 95.29 95.27 95.21 95.16 95.12 95.10 95.10 95.12 95.10 95.05 95.06 95.02 95.02 94.96 94.92 94.90 94.90 94.86 94.99 95.07 95.04 95.00 94.94 94.98 94.98 94.99 94.96 95.06 95.06 95.12 95.17 95.27 95.26 95.34 95.46
95.51 95.74 95.60 95.56 95.57 95.80 95.53 95.43 95.18 95.18 95.18 95.22 95.21 95.14 95.21 95.17 95.15 95.15 95.11 95.10 95.02 95.00 94.99 94.96 94.99 94.99 94.97 94.91 94.90 94.91 94.85 94.79 94.79 94.78 94.76 94.84 95.03 94.97 94.98 94.85 94.91 94.92 94.96 94.93 94.98 95.04 95.02 95.09 95.16 95.18 95.29 95.38
95.61 95.66 95.56 95.71 95.62 95.36 95.29 95.26 94.98 94.96 95.10 95.05 95.03 95.02 95.02 95.06 95.01 95.00 94.98 94.93 94.89 94.88 94.85 94.81 94.88 94.86 94.87 94.78 94.81 94.78 94.74 94.66 94.63 94.66 94.65 94.77 94.95 94.91 94.83 94.79 94.86 94.91 94.90 94.92 94.99 95.03 95.03 95.10 95.04 95.04 95.14 95.28
95.24 95.79 95.59 95.29 95.16 95.08 95.08 95.06 94.88 94.76 94.86 94.84 94.86 94.87 94.86 94.89 94.90 94.89 94.86 94.82 94.78 94.75 94.72 94.68 94.71 94.73 94.71 94.66 94.65 94.66 94.62 94.52 94.47 94.46 94.53 94.65 94.76 94.86 94.76 94.74 94.76 94.84 94.88 94.93 94.85 94.89 94.88 94.92 94.95 95.11 95.21 95.14
94.36 95.17 95.13 95.08 94.94 94.91 94.91 94.88 94.78 94.61 94.65 94.63 94.70 94.74 94.72 94.73 94.75 94.75 94.69 94.73 94.65 94.64 94.58 94.57 94.53 94.57 94.57 94.51 94.49 94.46 94.44 94.39 94.31 94.32 94.36 94.46 94.60 94.67 94.63 94.65 94.65 94.67 94.71 94.83 94.79 94.94 94.79 94.76 94.69 94.80 94.90 94.97
94.99 94.29 94.95 94.87 94.86 94.76 94.73 94.68 94.64 94.50 94.46 94.50 94.59 94.59 94.59 94.60 94.63 94.58 94.56 94.57 94.52 94.49 94.45 94.43 94.40 94.40 94.40 94.36 94.31 94.27 94.23 94.09 94.03 94.08 94.17 94.21 94.40 94.44 94.41 94.46 94.51 94.68 94.64 94.51 94.27 93.96 94.20 94.21 93.87 93.29 93.13 93.33
94.85 94.55 94.12 94.79 94.70 94.64 94.56 94.58 94.59 94.45 94.33 94.40 94.46 94.45 94.47 94.46 94.52 94.46 94.41 94.40 94.36 94.32 94.28 94.26 94.25 94.22 94.24 94.23 94.14 94.01 93.88 93.73 93.66 93.74 93.89 94.01 94.12 94.23 94.18 94.17 94.02 93.43 93.74 93.68 92.72 94.05 94.35 94.36 94.40 94.55 94.69 94.74
94.72 94.75 94.12 93.79 94.60 94.52 94.46 94.48 94.44 94.40 94.25 94.18 94.28 94.32 94.29 94.31 94.35 94.35 94.28 94.29 94.19 94.17 94.10 94.04 94.00 93.99 93.99 93.97 93.88 93.68 93.49 93.32 92.76 92.82 92.93 93.10 93.42 93.55 93.53 93.53 93.09 92.32 93.19 94.38 94.41 94.46 94.49 94.54 94.65 94.78 94.84 94.92
94.54 94.60 94.42 93.71 94.33 94.41 94.42 94.36 94.38 94.28 94.16 94.06 94.07 94.19 94.14 94.07 94.10 94.22 94.15 94.04 94.06 93.93 93.89 93.82 93.74 93.75 93.70 93.61 92.68 93.00 92.73 92.18 92.50 92.91 92.29 92.02 92.28 93.41 92.57 92.71 94.49 94.57 94.57 94.54 94.48 94.53 94.60 94.78 94.87 94.99 95.06 95.11
94.40 94.40 94.38 93.99 93.70 94.24 94.31 94.22 94.25 94.21 94.10 93.97 93.90 94.06 94.01 93.88 93.89 94.03 93.98 93.87 93.79 93.77 93.67 93.60 93.44 92.69 92.96 92.99 92.90 92.91 93.49 93.78 94.02 94.14 94.16 94.23 94.25 94.30 94.45 94.50 94.60 94.56 94.60 94.61 94.67 94.69 94.77 94.87 94.97 95.14 95.21 95.25
94.21 94.34 94.35 94.36 94.14 93.44 94.14 94.16 94.07 94.09 94.01 93.87 93.80 93.87 93.83 93.77 93.75 93.82 93.70 93.61 93.54 93.47 93.35 92.21 92.74 92.08 91.25 93.06 93.54 93.59 93.74 93.96 94.15 94.29 94.32 94.33 94.42 94.47 94.53 94.57 94.65 94.67 94.66 94.72 94.78 94.80 94.90 94.99 95.07 95.22 95.31 95.36
