ncols 52
nrows 52
xllcorner 440832
yllcorner 5714432
cellsize 10
NODATA_value -9999
99.33 99.40 99.49 99.54 99.60 99.67 99.72 99.90 100.05 100.02 100.09 100.22 100.38 100.53 100.66 100.79 100.88 100.97 101.11 101.18 101.29 101.35 101.39 101.50 101.58 101.62 101.78 101.90 102.05 102.24 102.33 102.38 102.49 102.61 102.75 102.88 103.04 103.24 103.46 103.62 103.71 103.85 104.06 104.21 104.30 104.42 104.60 104.78 104.97 105.15 105.33 105.51
99.35 99.43 99.48 99.54 99.59 99.71 99.76 99.94 100.09 100.03 100.23 100.29 100.48 100.60 100.72 100.81 100.88 100.93 101.07 101.16 101.25 101.34 101.40 101.51 101.59 101.65 101.79 101.92 102.07 102.25 102.33 102.37 102.56 102.68 102.81 102.94 103.11 103.28 103.51 103.61 103.72 103.86 104.05 104.21 104.32 104.50 104.68 104.84 105.06 105.22 105.39 105.54
99.41 99.49 99.55 99.62 99.68 99.78 99.91 100.00 100.18 100.15 100.25 100.38 100.56 100.65 100.71 100.77 100.80 100.88 101.02 101.11 101.19 101.28 101.37 101.49 101.57 101.65 101.78 101.92 102.06 102.25 102.34 102.40 102.56 102.69 102.82 102.96 103.12 103.31 103.51 103.62 103.71 103.88 104.07 104.27 104.39 104.54 104.72 104.90 105.08 105.23 105.42 105.56
99.53 99.59 99.69 99.79 99.82 99.91 99.95 100.36 100.26 100.38 100.42 100.48 100.57 100.63 100.68 100.74 100.81 100.88 101.01 101.08 101.17 101.26 101.33 101.43 101.52 101.60 101.72 101.85 102.02 102.21 102.31 102.37 102.53 102.66 102.79 102.93 103.12 103.32 103.48 103.63 103.75 103.93 104.10 104.27 104.42 104.57 104.70 104.91 105.09 105.25 105.38 105.51
99.49 99.64 99.76 99.88 99.98 100.03 100.17 100.27 100.33 100.45 100.52 100.54 100.61 100.66 100.71 100.74 100.79 100.86 100.96 101.05 101.11 101.24 101.32 101.39 101.47 101.57 101.66 101.80 101.93 102.15 102.28 102.32 102.48 102.62 102.75 102.88 103.08 103.32 103.51 103.61 103.73 103.88 104.09 104.25 104.35 104.51 104.70 104.88 105.04 105.22 105.38 105.51
99.50 99.56 99.71 99.78 99.84 99.92 100.05 100.13 100.18 100.28 100.35 100.40 100.47 100.61 100.71 100.79 100.85 100.92 100.97 101.06 101.11 101.19 101.27 101.34 101.43 101.50 101.65 101.83 101.81 102.08 102.24 102.32 102.44 102.55 102.70 102.86 103.07 103.26 103.43 103.55 103.68 103.85 104.01 104.21 104.32 104.45 104.63 104.84 105.03 105.21 105.36 105.50
99.37 99.44 99.55 99.63 99.72 99.78 99.91 100.06 100.12 100.17 100.27 100.34 100.41 100.50 100.58 100.65 100.72 100.85 100.94 101.01 101.09 101.13 101.21 101.33 101.45 101.56 101.64 101.76 102.01 102.03 102.21 102.32 102.41 102.54 102.66 102.78 103.04 103.28 103.40 103.50 103.59 103.79 103.97 104.13 104.29 104.42 104.63 104.81 104.99 105.16 105.31 105.48
99.13 99.24 99.37 99.44 99.56 99.66 99.79 99.93 100.02 100.13 100.24 100.31 100.41 100.50 100.56 100.58 100.63 100.68 100.74 100.81 100.92 101.04 100.90 101.00 101.27 101.49 101.68 101.80 101.86 101.96 102.19 102.38 102.42 102.57 102.66 102.79 103.03 103.24 103.35 103.43 103.54 103.70 103.87 104.07 104.24 104.41 104.60 104.78 104.94 105.13 105.29 105.44
98.88 98.96 99.11 99.26 99.39 99.52 99.66 99.83 99.92 100.05 100.17 100.27 100.39 100.49 100.50 100.51 100.59 100.64 100.69 100.72 100.77 100.91 100.96 101.06 101.18 101.31 101.46 101.64 101.82 101.90 102.18 102.37 102.45 102.57 102.68 102.83 103.05 103.26 103.35 103.39 103.52 103.71 103.92 104.08 104.21 104.36 104.55 104.72 104.91 105.09 105.25 105.44
98.58 98.73 98.90 99.03 99.21 99.35 99.53 99.68 99.79 99.96 100.07 100.21 100.32 100.39 100.43 100.46 100.50 100.56 100.60 100.66 100.73 100.89 100.96 101.04 101.09 101.21 101.33 101.43 101.62 101.77 102.00 102.14 102.32 102.47 102.65 102.85 103.03 103.16 103.25 103.31 103.44 103.63 103.83 103.99 104.12 104.29 104.46 104.62 104.80 104.93 105.15 105.36
98.25 98.45 98.63 98.79 98.97 99.16 99.35 99.51 99.63 99.79 99.97 100.12 100.22 100.31 100.33 100.41 100.47 100.50 100.56 100.62 100.71 100.90 100.95 100.98 101.09 101.18 101.32 101.43 101.61 101.71 101.82 101.96 102.11 102.26 102.45 102.68 102.90 103.03 103.10 103.21 103.33 103.52 103.72 103.89 104.09 104.27 104.44 104.56 104.73 104.96 105.32 105.58
97.91 98.13 98.32 98.54 98.75 98.94 99.14 99.29 99.45 99.62 99.80 99.96 100.12 100.20 100.23 100.26 100.35 100.43 100.52 100.64 100.71 100.94 100.97 101.00 101.09 101.26 101.32 101.44 101.58 101.68 101.76 101.86 101.99 102.15 102.36 102.57 102.82 102.96 103.02 103.14 103.28 103.48 103.66 103.84 104.06 104.23 104.41 104.53 104.83 105.18 105.76 106.09
97.53 97.75 98.00 98.26 98.49 98.70 98.93 99.07 99.24 99.44 99.58 99.77 99.95 100.08 100.11 100.17 100.25 100.35 100.47 100.61 100.72 100.93 100.94 101.02 101.08 101.24 101.35 101.47 101.57 101.69 101.78 101.90 101.97 102.13 102.35 102.58 102.79 102.90 102.99 103.08 103.23 103.41 103.63 103.87 104.00 104.15 104.39 104.71 104.86 105.67 105.72 105.57
97.08 97.35 97.64 97.92 98.17 98.45 98.68 98.85 99.05 99.26 99.44 99.64 99.79 99.89 99.97 100.07 100.18 100.26 100.39 100.54 100.74 100.91 100.93 101.09 101.12 101.22 101.33 101.46 101.56 101.64 101.77 101.85 101.98 102.13 102.35 102.60 102.77 102.86 102.91 103.08 103.25 103.45 103.60 103.83 104.03 104.34 104.60 105.22 105.43 105.27 105.34 105.49
96.64 96.91 97.21 97.52 97.81 98.15 98.42 98.58 98.81 99.00 99.26 99.45 99.59 99.72 99.82 99.97 100.07 100.16 100.32 100.47 100.68 100.86 100.92 101.05 101.12 101.24 101.31 101.45 101.54 101.61 101.67 101.80 101.96 102.11 102.32 102.55 102.76 102.84 102.92 103.08 103.27 103.43 103.59 103.94 104.28 104.74 105.06 104.99 105.07 105.15 105.43 105.75
96.14 96.44 96.76 97.10 97.42 97.79 98.07 98.32 98.51 98.75 98.98 99.21 99.39 99.50 99.65 99.78 99.92 100.07 100.23 100.41 100.63 100.80 100.89 101.02 101.09 101.20 101.27 101.36 101.49 101.57 101.65 101.76 101.90 102.11 102.34 102.57 102.71 102.82 102.92 103.04 103.16 103.45 103.78 104.10 104.60 104.61 104.65 104.80 105.06 103.11 101.07 99.97
95.62 95.92 96.28 96.61 96.96 97.37 97.67 97.93 98.20 98.44 98.69 98.91 99.11 99.29 99.46 99.63 99.77 99.93 100.11 100.31 100.60 100.70 100.83 100.93 101.06 101.15 101.26 101.34 101.40 101.51 101.61 101.74 101.88 102.08 102.33 102.57 102.68 102.71 102.87 103.06 103.35 103.46 104.16 104.34 104.33 104.40 104.65 101.11 100.04 99.68 99.53 99.59
95.10 95.42 95.77 96.12 96.47 96.82 97.18 97.49 97.78 98.09 98.35 98.64 98.82 99.03 99.26 99.46 99.58 99.75 99.95 100.22 100.50 100.61 100.76 100.82 101.01 101.08 101.15 101.29 101.36 101.42 101.50 101.66 101.85 102.03 102.29 102.51 102.62 102.68 102.93 103.23 103.75 104.02 103.93 104.10 104.13 101.10 99.71 99.53 99.58 99.71 99.61 99.59
94.60 94.90 95.23 95.57 95.88 96.27 96.63 97.00 97.33 97.65 97.97 98.28 98.54 98.78 99.03 99.24 99.40 99.60 99.84 100.07 100.36 100.48 100.60 100.72 100.88 100.99 101.09 101.19 101.30 101.39 101.48 101.60 101.82 102.00 102.24 102.42 102.62 102.83 103.24 103.59 103.58 103.68 103.67 100.82 99.71 99.42 99.48 99.57 99.53 99.57 99.54 99.63
94.19 94.40 94.70 95.02 95.42 95.81 96.12 96.48 96.82 97.16 97.51 97.89 98.21 98.51 98.78 99.00 99.18 99.40 99.69 99.97 100.23 100.32 100.48 100.61 100.75 100.89 101.02 101.09 101.19 101.29 101.42 101.54 101.73 101.92 102.29 102.62 102.55 103.17 103.22 103.33 103.42 101.46 99.80 99.24 99.52 99.48 99.58 99.53 99.64 99.63 100.01 99.18
93.90 94.02 94.24 94.54 94.93 95.28 95.59 95.90 96.26 96.68 97.09 97.50 97.85 98.22 98.51 98.71 98.90 99.14 99.51 99.82 100.06 100.12 100.27 100.48 100.61 100.71 100.88 101.00 101.10 101.20 101.32 101.47 101.75 102.12 102.19 102.74 102.90 102.82 102.96 102.05 99.39 99.37 99.46 99.50 99.57 99.53 99.51 99.58 99.80 98.79 100.04 100.91
93.70 93.80 93.92 94.13 94.48 94.80 95.07 95.35 95.74 96.19 96.66 97.11 97.49 97.88 98.21 98.46 98.65 98.95 99.25 99.64 99.81 99.91 99.97 100.22 100.41 100.59 100.71 100.83 100.97 101.10 101.32 101.66 101.81 102.26 102.54 102.45 102.52 102.35 99.95 99.51 98.32 98.98 99.48 99.42 99.58 99.50 99.67 99.00 99.71 100.74 100.90 100.15
93.31 93.65 93.77 93.92 94.14 94.38 94.58 94.87 95.25 95.73 96.28 96.75 97.14 97.51 97.88 98.20 98.44 98.74 99.00 99.39 99.55 99.69 99.81 100.04 100.22 100.38 100.52 100.70 100.94 101.28 101.60 101.78 102.06 102.03 102.32 102.36 100.39 99.52 99.35 99.36 99.38 99.38 99.50 99.53 99.76 99.33 99.50 100.67 100.78 99.82 102.82 105.96
92.43 92.12 93.77 93.89 94.09 94.23 94.39 94.60 94.91 95.38 95.92 96.38 96.81 97.18 97.59 97.92 98.20 98.47 98.75 99.12 99.26 99.44 99.56 99.78 99.98 100.24 100.48 100.82 100.68 101.30 101.53 101.52 101.71 101.93 100.55 99.54 99.42 99.43 99.42 99.46 99.40 99.44 99.79 99.34 99.82 100.62 100.68 100.03 102.17 105.42 105.57 105.73
92.06 92.35 92.17 93.62 93.86 94.09 94.31 94.52 94.77 95.19 95.72 96.20 96.60 96.99 97.42 97.76 98.05 98.29 98.56 98.97 99.08 99.20 99.44 99.65 100.02 100.29 100.46 100.81 100.94 101.01 101.11 101.33 101.57 99.93 99.59 99.40 99.48 99.40 99.52 99.51 99.65 99.31 99.53 100.54 100.72 100.15 101.53 104.91 105.21 105.34 105.48 105.62
92.33 92.42 92.56 92.58 93.31 93.61 93.74 94.18 94.72 95.12 95.64 96.10 96.53 96.98 97.32 97.65 97.97 98.25 98.45 98.72 98.96 99.22 99.55 99.44 100.00 100.28 100.30 100.51 100.61 100.73 101.00 100.20 99.53 99.34 99.32 99.17 99.37 99.00 99.89 99.47 99.35 100.49 100.75 100.24 101.33 104.33 104.77 104.96 105.11 105.25 105.39 105.51
92.36 92.35 92.45 92.56 92.62 92.51 93.81 94.31 94.63 94.95 95.32 95.65 95.92 96.36 96.76 97.18 97.65 98.04 98.41 98.81 98.60 99.18 99.50 99.62 99.74 99.85 99.98 100.19 100.35 100.58 99.31 99.22 99.28 99.36 99.26 99.36 99.86 99.56 99.39 100.56 100.68 100.17 101.32 104.11 104.35 104.51 104.67 104.86 105.04 105.16 105.33 105.48
92.38 92.62 92.54 92.56 92.44 92.58 92.16 94.27 94.69 94.89 95.20 95.48 95.73 96.04 96.43 96.90 97.23 97.97 98.32 98.65 98.77 99.00 99.31 99.43 99.71 99.64 99.77 100.06 100.15 99.23 99.32 99.29 99.28 99.41 99.71 99.34 99.70 100.56 100.61 99.99 101.98 103.42 103.54 103.87 104.19 104.46 104.60 104.82 105.00 105.14 105.34 105.46
92.38 92.46 92.60 92.40 92.64 92.74 92.65 92.70 92.45 93.03 94.78 95.42 96.45 96.87 97.19 97.53 97.74 97.80 98.17 98.35 98.61 98.81 98.93 99.04 99.26 99.41 99.76 99.55 99.35 99.25 99.20 99.41 99.83 98.55 99.76 100.57 100.60 99.82 102.26 102.99 103.11 103.35 103.61 103.88 104.21 104.44 104.60 104.79 104.99 105.16 105.31 105.40
92.67 92.69 93.12 93.32 93.96 94.61 94.96 95.22 95.52 95.83 96.11 96.36 96.48 96.72 96.93 96.08 94.79 94.44 96.16 97.85 98.57 98.82 98.90 99.05 99.16 99.25 99.29 99.48 99.38 99.69 99.56 98.79 100.03 100.62 100.66 100.40 102.61 102.61 102.80 103.00 103.23 103.45 103.60 103.84 104.21 104.47 104.53 104.79 104.99 105.12 105.26 105.35
94.07 94.13 94.25 94.33 94.53 95.31 95.97 96.00 96.40 96.42 96.43 96.50 96.71 96.81 94.45 94.44 94.42 94.41 95.59 97.81 98.66 98.93 99.11 99.21 99.36 99.28 99.14 99.14 98.60 99.46 100.22 100.32 100.17 101.61 102.12 102.32 102.64 102.83 102.90 103.11 103.47 103.55 103.66 103.92 104.31 104.50 104.58 104.78 104.96 105.12 105.24 105.35
96.21 96.29 96.56 97.03 96.94 96.92 97.02 97.07 97.01 96.93 96.92 96.84 96.90 97.12 97.34 97.43 96.11 96.25 97.21 98.42 99.03 99.22 99.11 99.00 98.86 98.69 98.87 99.77 100.32 100.32 100.18 100.59 100.94 101.43 101.79 102.29 102.52 102.76 103.00 103.26 103.44 103.68 103.89 104.10 104.35 104.53 104.66 104.90 105.09 105.18 105.29 105.41
97.38 97.46 97.28 97.19 97.24 97.25 97.18 97.07 97.09 97.10 97.10 97.12 97.14 97.27 97.43 97.49 97.50 97.97 98.64 99.05 99.22 98.93 98.57 98.60 99.36 100.00 99.99 99.60 99.73 100.15 100.38 100.80 101.15 101.46 101.91 101.93 102.34 102.61 102.88 103.01 103.20 103.43 103.68 103.91 104.12 104.32 104.56 104.81 104.98 105.16 105.36 105.51
97.49 97.51 97.30 97.29 97.29 97.25 97.26 97.25 97.29 97.29 97.34 97.41 97.42 97.43 97.47 97.61 97.97 98.58 98.60 98.36 98.28 99.09 99.79 99.79 99.74 98.42 98.60 98.96 99.49 100.12 100.40 100.72 100.96 101.10 101.30 101.71 102.21 102.48 102.73 102.90 103.10 103.39 103.61 103.84 104.03 104.27 104.56 104.80 105.00 105.23 105.36 105.52
97.53 97.59 97.39 97.40 97.38 97.36 97.36 97.31 97.32 97.33 97.34 97.43 97.41 97.44 97.58 97.56 97.78 98.07 99.10 99.64 99.62 99.56 98.09 96.66 97.16 97.70 98.25 98.64 99.24 99.84 100.19 100.54 100.77 100.96 101.08 101.60 101.99 102.36 102.60 102.83 103.07 103.33 103.60 103.83 104.06 104.32 104.63 104.89 105.12 105.24 105.38 105.57
97.55 97.61 97.58 97.64 97.58 97.51 97.50 97.47 97.39 97.39 97.43 97.40 97.35 97.65 98.44 99.36 99.68 99.55 99.12 97.40 95.68 95.44 95.88 96.29 96.78 97.28 97.88 98.42 99.01 99.64 99.98 100.48 100.69 100.94 100.93 101.54 101.84 102.24 102.49 102.72 102.97 103.24 103.54 103.79 104.03 104.38 104.71 105.00 105.15 105.27 105.43 105.64
97.71 97.83 98.24 99.45 97.78 98.43 97.56 97.48 97.41 97.72 98.38 99.15 99.49 99.50 99.61 98.77 95.71 95.32 93.72 94.21 94.66 95.04 95.53 95.92 96.43 97.01 97.58 98.17 98.68 99.25 99.67 100.09 100.36 100.67 101.04 101.48 101.71 101.98 102.24 102.53 102.82 103.12 103.41 103.69 104.01 104.36 104.74 105.00 105.17 105.30 105.50 105.70
97.79 97.89 97.64 97.54 97.92 97.87 98.62 99.23 99.47 99.49 99.60 98.79 98.31 97.97 97.58 94.55 93.34 93.25 93.58 93.88 94.33 94.69 95.10 95.57 96.11 96.68 97.27 97.81 98.32 98.78 99.21 99.32 99.61 99.95 100.97 101.30 101.37 101.67 101.97 102.31 102.64 102.94 103.22 103.51 103.88 104.26 104.69 104.96 105.15 105.32 105.51 105.70
98.07 98.42 98.91 99.43 99.53 99.40 99.45 98.79 98.22 98.82 98.77 98.37 97.20 95.50 94.15 93.84 93.54 92.38 93.38 93.54 93.89 94.38 94.84 95.28 95.77 96.29 96.84 97.39 97.89 98.36 98.99 99.16 99.39 99.66 100.77 100.78 101.01 101.29 101.66 102.01 102.39 102.69 102.97 103.27 103.63 104.13 104.54 104.83 105.10 105.28 105.47 105.65
99.46 99.43 98.99 98.46 98.62 98.75 98.71 98.68 98.49 97.51 97.27 96.51 94.58 93.93 93.51 92.61 92.85 93.18 93.21 93.39 93.62 94.15 94.61 94.98 95.43 95.89 96.40 96.90 97.40 97.84 98.25 98.91 99.04 99.42 99.89 100.17 100.58 100.96 101.31 101.74 102.12 102.44 102.67 102.96 103.37 103.91 104.36 104.67 104.93 105.14 105.39 105.61
98.96 98.79 98.76 98.53 98.63 98.32 97.56 96.94 95.92 94.63 93.66 92.54 92.98 93.11 93.03 93.01 93.01 93.24 92.68 93.26 93.49 93.92 94.37 94.73 95.07 95.52 95.96 96.38 96.83 97.29 97.70 97.95 98.39 98.83 99.34 99.66 100.08 100.45 100.90 101.35 101.75 102.05 102.26 102.54 103.09 103.65 104.11 104.49 104.77 105.02 105.34 105.64
98.72 98.17 96.80 94.77 93.86 93.96 93.06 92.55 92.99 93.00 93.00 92.78 92.96 92.96 92.99 93.04 93.10 93.17 93.33 92.73 93.36 93.79 94.13 94.43 94.73 95.09 95.52 95.90 96.30 96.68 97.06 97.43 97.67 98.18 98.64 99.16 99.54 99.95 100.45 100.95 101.33 101.59 101.77 102.20 102.83 103.46 103.92 104.30 104.62 104.97 105.31 105.61
93.83 93.19 92.80 93.13 93.04 92.76 92.89 92.97 93.05 92.91 92.96 92.93 93.01 93.02 93.04 93.13 93.25 93.25 93.40 94.07 92.67 93.71 94.02 94.16 94.43 94.70 95.09 95.49 95.81 96.15 96.42 96.75 97.19 97.57 98.05 98.45 98.94 99.43 99.95 100.44 100.84 101.04 101.38 101.96 102.62 103.21 103.65 104.08 104.52 104.91 105.24 105.57
93.68 93.58 93.43 93.36 92.60 92.94 93.01 93.06 93.00 93.01 93.04 93.03 93.04 93.25 93.16 93.18 93.17 93.27 93.55 93.44 93.30 93.08 93.88 94.04 94.18 94.42 94.69 95.02 95.37 95.67 95.95 96.25 96.57 97.08 97.46 97.90 98.32 98.90 99.41 99.93 100.29 100.51 101.04 101.71 102.35 102.89 103.40 103.89 104.33 104.76 105.15 105.49
93.65 93.57 93.47 93.36 93.31 92.95 93.01 93.02 92.99 93.06 92.99 93.04 93.18 93.14 93.41 93.60 93.79 93.81 93.85 93.54 93.43 93.43 93.07 93.90 94.08 94.19 94.43 94.65 94.93 95.21 95.49 95.87 96.16 96.59 96.95 97.34 97.82 98.38 98.94 99.38 99.74 100.16 100.82 101.45 102.02 102.59 103.12 103.66 104.18 104.68 105.07 105.41
93.68 93.63 93.54 93.45 93.46 93.42 93.08 93.01 93.01 93.28 93.00 92.99 93.25 93.58 93.68 93.69 93.72 93.74 93.75 93.68 93.31 93.42 93.43 93.02 93.96 94.06 94.20 94.46 94.68 94.89 95.14 95.49 95.83 96.12 96.51 96.89 97.31 97.84 98.35 98.86 99.33 99.86 100.48 101.07 101.66 102.25 102.85 103.41 103.99 104.49 104.93 105.47
93.80 93.70 93.62 93.54 93.49 92.62 92.79 93.14 93.26 93.28 93.29 93.25 93.24 94.00 93.74 93.82 93.68 93.63 93.72 93.71 93.51 93.27 93.52 93.50 93.02 94.01 94.17 94.30 94.48 94.68 94.92 95.18 95.47 95.72 96.07 96.47 96.86 97.36 97.92 98.53 99.05 99.57 100.04 100.65 101.26 101.95 102.54 103.23 103.94 104.43 104.87 105.21
93.91 93.76 93.68 93.60 93.47 93.56 93.30 92.99 93.00 93.29 93.29 93.26 93.29 93.40 93.71 93.78 93.70 93.72 93.95 93.81 93.62 93.37 93.40 93.53 93.54 92.99 94.04 94.28 94.36 94.54 94.77 95.01 95.24 95.50 95.81 96.15 96.55 97.04 97.64 98.21 98.71 99.19 99.78 100.30 101.13 101.85 102.43 103.02 103.61 104.16 104.64 105.04
94.00 93.78 93.75 93.66 93.58 93.54 93.12 93.26 93.27 93.37 93.29 93.29 93.28 93.25 93.76 93.78 93.68 93.91 93.95 93.90 93.72 93.53 93.47 93.48 93.61 93.65 93.07 94.15 94.35 94.47 94.66 94.90 95.10 95.32 95.62 95.93 96.28 96.73 97.25 97.78 98.21 99.00 99.48 100.10 100.81 101.47 102.08 102.64 103.29 103.92 104.47 104.87
94.00 93.87 93.81 93.75 93.65 93.56 93.51 93.28 93.42 93.37 93.38 93.37 93.35 93.33 93.85 93.77 93.85 93.73 93.68 93.40 93.48 93.73 93.58 93.51 93.54 93.71 93.80 93.08 94.23 94.43 94.57 94.81 94.99 95.18 95.44 95.75 96.05 96.44 96.89 97.26 97.78 98.26 98.99 99.69 100.37 101.06 101.68 102.33 103.06 103.78 104.32 104.70
94.10 94.06 93.95 93.85 93.76 93.64 93.62 93.43 93.37 93.46 93.47 93.72 93.59 93.69 93.77 93.69 93.24 93.57 93.50 93.49 93.56 93.68 93.55 93.53 93.48 93.60 93.77 93.81 93.16 94.34 94.50 94.67 94.88 95.07 95.28 95.51 95.79 96.16 96.64 96.89 97.54 97.88 98.56 99.28 99.96 100.68 101.37 102.10 102.79 103.54 104.14 104.62
94.27 94.12 94.03 93.99 93.92 93.78 93.67 92.89 93.53 93.70 93.79 93.84 93.57 93.54 93.57 93.59 93.55 93.46 93.44 93.38 93.46 93.56 93.79 93.54 93.57 93.57 93.71 93.88 93.97 93.28 94.40 94.58 94.74 94.92 95.12 95.32 95.58 96.00 96.45 96.85 97.19 97.57 98.22 98.93 99.65 100.39 101.15 101.86 102.60 103.34 104.07 104.66
