ncols 52
nrows 52
xllcorner 440832
yllcorner 5713920
cellsize 10
NODATA_value -9999
94.25 94.21 94.08 94.01 93.96 93.80 93.68 93.08 93.73 93.81 93.84 93.72 93.39 93.63 93.55 93.57 93.49 93.46 93.44 93.42 93.49 93.59 93.83 93.56 93.52 93.58 93.68 93.80 93.98 93.57 94.38 94.53 94.72 94.91 95.10 95.29 95.54 95.98 96.40 96.83 97.12 97.52 98.15 98.86 99.57 100.36 101.09 101.84 102.56 103.35 104.08 104.61
94.40 94.32 94.21 94.15 94.21 94.20 94.23 94.13 93.21 93.71 93.72 93.60 93.51 93.39 93.46 93.50 93.47 93.50 93.51 93.56 93.57 93.61 93.84 93.62 93.60 93.61 93.68 93.76 93.90 94.01 93.66 94.40 94.60 94.77 94.96 95.18 95.41 95.88 96.22 96.71 96.84 97.25 97.91 98.60 99.38 100.14 100.90 101.57 102.14 103.21 103.91 104.60
94.60 94.72 94.70 94.68 94.43 93.79 94.10 93.87 93.73 93.75 93.63 93.58 93.49 93.49 93.49 93.53 93.57 93.60 93.60 93.62 93.65 93.67 93.74 93.83 93.69 93.68 93.65 93.76 93.84 94.04 94.23 93.71 94.47 94.68 94.82 95.02 95.35 95.79 96.24 96.44 96.68 97.12 97.74 98.38 99.04 100.01 100.70 101.32 102.01 102.79 103.55 104.49
94.95 94.14 94.61 94.50 94.44 94.32 94.22 94.08 93.89 93.83 93.75 93.67 93.60 93.56 93.57 93.60 93.67 93.71 93.70 93.70 93.73 93.72 93.77 93.98 93.79 93.81 93.81 93.87 93.94 94.04 94.16 94.39 93.79 94.59 94.78 94.88 95.36 95.70 96.20 96.25 96.54 96.88 97.54 98.12 98.94 99.76 100.39 100.99 101.82 102.71 103.55 104.25
94.79 94.94 94.72 94.70 94.62 94.60 94.39 94.20 94.04 93.92 93.78 93.74 93.66 93.63 93.65 93.69 93.74 93.78 93.78 93.78 93.81 93.81 93.83 93.95 93.98 93.92 93.93 93.97 94.07 94.07 94.15 94.33 94.47 93.75 94.72 94.99 95.33 95.75 95.90 96.09 96.36 96.76 97.35 97.92 98.66 99.42 100.11 100.82 101.76 102.54 103.36 104.17
94.75 94.90 94.77 94.85 94.76 94.64 94.49 94.27 94.01 93.92 93.77 93.72 93.74 93.69 93.72 93.77 93.82 93.87 93.90 93.87 93.91 93.88 93.91 93.97 94.17 94.03 93.96 94.01 94.08 94.15 94.26 94.36 94.49 94.65 93.83 95.00 95.30 95.53 95.65 95.93 96.16 96.56 97.18 97.72 98.38 99.18 99.88 100.74 101.47 102.29 103.13 103.82
94.79 94.81 94.92 94.89 94.76 94.72 94.52 94.27 94.13 93.96 93.75 93.76 93.74 93.78 93.81 93.88 93.92 93.98 94.00 93.99 93.96 93.96 93.98 94.01 94.18 94.19 94.10 94.07 94.15 94.25 94.43 94.45 94.41 94.54 94.76 93.84 95.07 95.21 95.48 95.72 95.97 96.40 96.95 97.58 98.19 98.93 99.69 100.49 101.36 102.16 103.42 103.05
94.83 94.79 94.96 94.90 94.87 94.79 94.61 94.44 94.18 93.97 93.87 93.80 93.89 93.90 93.91 93.97 94.01 94.06 94.07 94.08 94.03 94.04 94.04 94.09 94.11 94.38 94.22 94.21 94.29 94.36 94.39 94.47 94.49 94.60 94.76 94.71 94.18 95.13 95.40 95.61 95.93 96.30 96.79 97.42 98.06 98.85 99.74 101.22 101.24 101.18 102.20 102.63
94.90 94.85 94.91 94.99 94.90 94.79 94.70 94.51 94.23 94.14 93.97 93.89 93.98 94.03 94.04 94.04 94.10 94.15 94.17 94.15 94.10 94.09 94.11 94.15 94.20 94.49 94.35 94.34 94.28 94.40 94.50 94.62 94.61 94.67 94.63 94.75 94.80 94.96 95.21 95.49 95.85 96.18 96.76 98.10 98.34 98.61 100.34 101.08 101.49 101.93 102.29 102.47
94.99 94.90 94.88 95.09 94.90 94.88 94.75 94.54 94.38 94.23 94.15 94.12 94.02 94.02 94.15 94.16 94.15 94.21 94.22 94.21 94.17 94.15 94.17 94.23 94.26 94.34 94.51 94.39 94.38 94.44 94.61 94.68 94.60 94.68 94.78 94.88 94.94 94.86 95.21 95.56 95.90 96.24 97.61 99.26 99.88 100.32 100.77 101.01 101.28 100.93 102.06 103.25
94.97 94.98 94.90 95.02 95.06 94.94 94.73 94.69 94.50 94.38 94.35 94.17 94.14 94.30 94.29 94.26 94.23 94.27 94.30 94.26 94.23 94.21 94.22 94.24 94.28 94.33 94.68 94.70 94.78 94.78 94.82 94.76 94.72 94.80 94.86 94.90 94.92 94.02 95.45 97.38 98.45 98.82 99.22 99.61 99.76 99.96 99.18 100.35 101.27 102.02 102.61 103.33
95.08 95.03 94.98 95.01 95.17 94.95 94.85 94.73 94.67 94.68 94.65 94.35 94.39 94.46 94.46 94.38 94.34 94.32 94.29 94.26 94.24 94.20 94.26 94.24 94.25 94.32 94.58 94.85 94.86 94.98 94.93 94.77 94.85 94.87 94.89 95.19 96.93 97.60 97.92 98.25 98.53 98.67 98.57 97.33 97.80 98.54 99.30 100.23 101.47 102.24 102.70 103.04
95.21 95.09 95.07 95.01 95.11 95.17 95.04 94.81 95.01 94.61 94.71 94.37 94.38 94.55 94.59 94.44 94.38 94.33 94.28 94.27 94.24 94.26 94.32 94.33 94.28 94.29 94.45 95.03 95.00 95.27 95.11 94.86 95.25 96.54 96.93 97.21 97.46 97.60 97.72 97.43 96.09 96.50 96.54 97.19 97.69 98.32 99.13 100.11 101.08 102.19 102.71 103.15
95.29 95.21 95.14 95.06 95.03 95.20 94.99 94.77 94.72 94.75 94.62 94.54 94.37 94.60 94.72 94.41 94.34 94.31 94.29 94.35 94.36 94.38 94.46 94.44 94.50 94.44 94.58 95.25 95.35 95.57 96.04 96.38 96.62 96.86 96.83 96.86 95.68 94.47 94.26 96.29 96.21 96.36 96.82 97.40 97.69 98.39 99.19 100.05 100.86 102.15 102.70 103.19
95.32 95.21 95.12 95.02 94.91 95.08 94.92 94.77 94.73 94.67 94.64 94.55 94.59 94.64 94.70 94.61 94.42 94.43 94.43 94.47 94.45 94.54 94.68 94.71 94.74 94.36 95.25 95.75 95.93 96.13 96.27 96.25 95.93 94.42 95.05 95.18 95.13 95.21 94.92 96.23 96.09 96.35 96.76 97.38 97.68 98.38 99.19 100.03 100.94 102.26 102.65 103.29
95.20 95.10 95.00 94.94 94.80 95.00 94.96 94.77 94.72 94.69 94.69 94.54 94.93 94.89 94.90 94.86 94.61 94.57 94.63 94.72 94.78 94.99 95.14 95.39 95.53 95.67 95.82 95.80 95.76 94.90 94.83 94.96 94.86 94.88 94.95 94.97 94.95 95.39 95.39 95.98 96.15 96.46 96.88 97.41 97.82 98.41 99.27 100.25 101.04 102.17 103.08 103.60
95.06 95.01 94.92 94.90 94.88 94.99 95.24 94.94 94.90 94.90 94.89 94.83 94.93 95.06 95.08 95.11 94.90 94.93 95.15 95.22 95.32 95.40 95.51 95.62 95.47 95.40 94.44 95.12 94.98 94.88 94.76 94.77 94.84 94.97 94.94 95.05 94.77 95.75 95.87 95.95 96.21 96.54 96.93 97.52 98.04 98.65 99.38 100.22 101.07 102.01 103.04 103.39
95.08 95.04 95.07 95.06 95.08 95.06 95.20 95.13 95.06 95.09 95.12 95.18 95.15 95.15 95.31 95.31 95.31 95.44 95.47 95.53 95.56 95.56 95.44 94.76 95.11 94.99 94.89 94.82 94.78 94.75 94.78 94.90 94.94 95.04 95.30 95.26 95.66 95.93 95.78 96.06 96.38 96.69 97.07 97.63 98.37 98.80 99.51 100.41 101.35 102.08 103.04 103.45
95.41 95.41 95.37 95.32 95.24 95.17 95.22 95.30 95.15 95.30 95.36 95.41 95.47 95.47 95.65 95.65 95.68 95.47 95.50 95.41 95.26 95.07 94.97 94.89 94.84 94.81 94.82 94.77 94.77 94.78 94.86 94.96 95.13 94.54 95.55 95.61 95.80 95.92 95.92 96.17 96.53 96.90 97.27 97.74 98.47 98.96 99.71 100.52 101.51 102.12 103.07 103.53
95.60 95.60 95.49 95.40 95.37 95.31 95.24 95.60 95.52 95.54 95.71 95.84 95.85 95.88 95.68 95.44 95.25 95.29 95.35 94.95 94.86 94.83 94.83 94.84 94.84 94.85 94.84 94.81 94.79 94.80 94.91 95.29 95.68 95.65 95.72 95.74 95.95 96.00 96.04 96.38 96.69 97.07 97.47 97.85 98.63 99.35 99.97 100.76 101.60 102.14 103.13 103.57
95.73 95.68 95.59 95.50 95.37 95.45 95.62 96.04 96.05 96.05 96.03 95.78 95.60 95.48 95.60 95.71 95.36 95.38 94.80 95.00 94.86 94.84 94.85 94.86 94.89 94.91 94.92 94.85 94.78 94.93 94.57 95.60 95.75 95.73 95.79 95.86 95.93 96.10 96.26 96.55 96.90 97.25 97.64 98.07 98.82 99.60 100.27 101.02 101.76 102.39 103.09 103.56
95.79 95.82 95.71 96.13 96.29 96.29 96.31 96.13 95.96 95.21 95.22 95.54 95.60 95.62 95.64 95.68 95.46 95.37 94.87 95.01 94.96 94.86 94.89 94.92 94.96 94.95 94.86 94.80 95.00 95.32 95.50 95.67 95.80 95.89 95.95 95.99 96.04 96.26 96.49 96.79 97.11 97.49 97.87 98.35 99.03 100.03 100.52 101.24 102.02 102.73 103.26 103.68
96.41 96.48 96.50 96.52 96.26 96.06 95.08 95.38 95.28 95.22 95.33 95.44 95.68 95.59 95.48 95.49 95.49 95.49 95.23 95.17 95.08 94.96 94.92 94.95 94.94 94.89 94.88 94.76 95.21 95.39 95.56 95.76 95.95 96.08 96.19 96.18 96.36 96.44 96.75 97.06 97.38 97.77 98.22 98.83 99.42 100.37 101.07 101.68 102.24 102.74 103.23 103.63
96.67 96.41 95.98 95.54 95.58 95.46 95.38 95.27 95.22 95.18 95.26 95.39 95.76 95.52 95.40 95.38 95.48 95.48 95.30 95.18 94.99 94.97 94.96 94.99 94.96 94.87 94.84 95.22 95.32 95.47 95.68 95.93 96.10 96.30 96.41 96.40 96.50 96.72 97.03 97.44 97.87 98.22 98.56 99.05 99.73 100.60 101.13 101.73 102.22 102.79 103.23 103.61
95.87 95.73 95.66 95.56 95.47 95.42 95.38 95.33 95.29 95.30 95.45 95.65 95.83 95.65 95.47 95.44 95.43 95.51 95.36 95.14 95.01 95.00 95.00 95.00 94.91 95.10 95.20 95.26 95.38 95.63 95.85 96.08 96.29 96.49 96.62 96.64 96.65 97.08 97.43 97.78 98.18 98.53 98.93 99.37 99.94 100.75 101.30 101.89 102.31 102.83 103.26 103.62
95.79 95.69 95.59 95.54 95.51 95.48 95.47 95.44 95.40 95.36 95.42 95.68 95.82 95.79 95.59 95.50 95.46 95.49 95.48 95.24 95.07 95.07 95.03 94.96 95.08 95.12 95.33 95.39 95.60 95.81 96.04 96.25 96.49 96.70 96.85 96.92 96.87 97.24 97.69 98.10 98.52 98.86 99.28 99.71 100.29 100.91 101.53 101.96 102.49 102.93 103.34 103.68
95.80 95.73 95.66 95.60 95.61 95.60 95.57 95.53 95.49 95.47 95.50 95.69 95.79 95.79 95.80 96.10 95.90 95.57 95.40 95.27 95.11 95.13 95.08 95.03 94.93 95.38 95.33 95.59 95.77 96.00 96.26 96.52 96.73 96.95 97.12 97.22 97.18 97.47 97.93 98.39 98.81 99.31 99.65 100.14 100.70 101.27 101.92 102.28 102.71 103.10 103.43 103.76
95.83 95.78 95.74 95.69 95.67 95.67 95.64 95.58 95.59 95.56 95.51 95.67 95.90 95.86 96.13 96.71 96.23 95.61 95.45 95.35 95.17 95.16 95.02 95.18 95.36 95.45 95.59 95.81 96.01 96.28 96.52 96.75 96.96 97.17 97.40 97.53 97.37 97.80 98.18 98.66 99.12 99.64 100.11 100.56 101.11 101.67 102.31 102.60 102.90 103.25 103.56 103.82
95.87 95.83 95.81 95.76 95.74 95.74 95.71 95.68 95.65 95.61 95.51 95.59 95.88 95.98 95.83 96.96 96.47 95.59 95.50 95.47 95.31 95.11 95.13 94.97 95.44 95.54 95.79 96.01 96.27 96.51 96.75 96.99 97.24 97.47 97.68 97.79 97.55 98.03 98.41 98.93 99.42 99.96 100.47 100.92 101.46 101.98 102.54 102.84 103.09 103.36 103.63 103.89
95.90 95.91 95.88 95.84 95.81 95.80 95.75 95.71 95.68 95.61 95.56 95.69 95.83 95.85 95.84 95.79 95.73 95.64 95.57 95.51 95.31 95.13 95.26 95.42 95.47 95.72 95.96 96.19 96.43 96.71 97.01 97.29 97.54 97.77 97.92 98.10 98.05 98.37 98.63 99.15 99.72 100.26 100.85 101.27 101.73 102.15 102.63 103.02 103.20 103.42 103.69 103.93
95.93 95.96 95.94 95.92 95.87 95.85 95.81 95.75 95.67 95.67 95.67 95.77 95.80 95.83 95.65 95.76 95.72 95.61 95.50 95.42 95.29 95.37 95.31 95.48 95.60 95.84 96.09 96.36 96.67 96.99 97.34 97.68 97.92 98.10 98.20 98.38 98.57 98.66 98.88 99.43 100.01 100.54 101.08 101.51 101.93 102.29 102.74 103.13 103.29 103.50 103.72 103.96
96.01 96.05 96.05 95.97 95.95 95.89 95.88 95.82 95.77 95.74 95.75 95.79 95.88 95.90 95.93 95.89 95.73 95.63 95.54 95.43 95.35 94.75 95.41 95.48 95.72 95.97 96.27 96.57 97.00 97.40 97.78 98.14 98.36 98.46 98.54 98.71 98.93 98.96 99.10 99.56 100.10 100.64 101.20 101.65 102.06 102.41 102.76 103.15 103.38 103.56 103.78 104.00
96.13 96.13 96.13 96.08 96.04 95.99 95.96 95.90 95.90 95.85 95.83 95.82 95.86 95.88 95.99 95.99 95.81 95.67 95.57 95.47 95.67 95.43 95.46 95.63 95.90 96.15 96.53 96.93 97.40 97.86 98.31 98.66 98.90 99.01 99.06 99.15 99.26 99.06 99.42 99.89 100.35 100.86 101.36 101.82 102.19 102.54 102.90 103.18 103.50 103.57 103.80 104.05
96.24 96.24 96.24 96.19 96.12 96.10 96.02 96.02 95.99 95.94 95.94 95.91 95.91 95.96 96.09 96.11 95.82 95.65 95.51 95.69 95.48 95.56 95.64 95.88 96.15 96.44 96.87 97.33 97.85 98.39 98.91 99.35 99.59 99.69 99.69 99.66 99.66 98.99 99.49 99.91 100.38 100.82 101.27 101.72 102.09 102.47 102.87 103.16 103.44 103.64 103.87 104.13
96.34 96.34 96.29 96.30 96.24 96.16 96.14 96.11 96.05 96.08 96.08 96.02 95.96 95.94 96.16 95.71 96.00 95.97 95.87 95.05 95.63 95.65 95.85 96.04 96.33 96.73 97.24 97.74 98.37 99.06 99.63 100.05 100.29 100.35 100.23 100.07 100.07 99.54 99.57 99.95 100.46 100.94 101.38 101.76 102.14 102.48 102.83 103.19 103.50 103.71 103.92 104.17
96.40 96.38 96.39 96.38 96.33 96.28 96.26 96.24 96.19 96.18 96.12 95.87 96.24 96.11 95.96 95.98 96.22 96.13 95.83 95.68 95.68 95.85 96.04 96.26 96.58 97.06 97.64 98.30 98.99 99.71 100.31 100.72 100.92 100.91 100.73 100.52 100.46 100.10 99.85 100.15 100.60 101.05 101.43 101.83 102.17 102.47 102.82 103.24 103.57 103.78 104.01 104.25
96.47 96.43 96.46 96.50 96.50 96.43 96.38 96.33 96.28 96.39 96.32 96.24 96.18 96.10 95.96 95.97 96.11 96.00 95.56 95.83 95.83 96.07 96.27 96.59 97.00 97.51 98.17 98.87 99.62 100.31 100.91 101.31 101.47 101.38 101.17 100.91 100.79 100.63 100.07 100.43 100.81 101.17 101.51 101.85 102.19 102.51 102.85 103.24 103.63 103.87 104.05 104.26
96.54 96.55 96.54 96.57 96.43 96.57 96.49 96.41 96.40 96.37 96.35 96.30 96.24 96.14 96.03 96.00 96.12 95.54 95.92 95.92 96.04 96.25 96.58 96.95 97.40 97.98 98.68 99.45 100.18 100.87 101.47 101.82 101.94 101.85 101.62 101.39 101.26 101.11 100.47 100.67 101.00 101.34 101.62 101.89 102.20 102.53 102.90 103.28 103.66 103.94 104.10 104.33
96.58 96.77 96.71 96.66 96.60 96.56 96.58 96.56 96.49 96.41 96.36 96.35 96.27 96.18 96.11 96.14 96.26 95.96 96.04 96.08 96.29 96.54 96.89 97.31 97.83 98.51 99.27 100.04 100.69 101.37 101.97 102.33 102.39 102.32 102.12 101.92 101.74 101.63 100.39 100.90 101.19 101.46 101.74 101.95 102.22 102.56 102.94 103.30 103.68 104.01 104.18 104.39
96.72 96.70 96.71 96.69 96.65 96.61 96.66 96.65 96.56 96.50 96.43 96.41 96.33 96.26 96.20 96.26 95.58 96.08 96.09 96.32 96.58 96.88 97.26 97.77 98.39 99.12 99.88 100.65 101.40 102.05 102.56 102.83 102.85 102.94 102.56 102.14 101.94 101.80 100.78 101.06 101.29 101.59 101.81 102.02 102.24 102.59 102.93 103.31 103.69 104.01 104.26 104.42
96.87 96.83 96.75 96.71 96.67 96.67 96.73 96.75 96.67 96.59 96.51 96.46 96.41 96.37 96.29 96.31 96.24 96.19 96.37 96.63 96.92 97.29 97.76 98.31 98.96 99.74 100.59 101.40 102.21 102.81 103.10 103.52 103.45 103.01 102.79 102.56 102.28 102.09 101.74 101.24 101.42 101.68 101.89 102.08 102.31 102.61 102.94 103.31 103.76 104.08 104.26 104.44
96.96 96.90 96.81 96.72 96.75 96.76 96.81 96.82 96.77 96.69 96.63 96.54 96.51 96.45 96.40 96.33 96.39 96.43 96.66 96.96 97.32 97.73 98.20 98.81 99.58 100.43 101.38 102.14 102.92 103.71 103.78 103.65 103.51 103.29 103.08 102.81 102.58 102.39 102.11 101.39 101.54 101.79 101.99 102.18 102.43 102.71 102.96 103.36 103.70 103.96 104.10 103.87
97.00 96.95 96.91 96.88 96.88 96.85 96.91 96.95 96.91 96.78 96.71 96.62 96.58 96.49 96.51 95.74 96.55 96.68 96.97 97.27 97.66 98.14 98.72 99.46 100.32 101.07 102.22 103.22 103.64 103.82 103.91 103.89 103.72 103.55 103.40 103.18 102.96 102.70 102.46 101.57 101.71 101.90 102.13 102.32 102.55 102.88 103.19 103.46 103.71 103.86 103.67 104.20
97.13 97.12 97.06 97.03 97.04 97.02 97.04 97.08 97.02 96.88 96.77 96.70 96.64 96.56 96.60 96.59 96.83 96.88 97.20 97.62 98.08 98.68 99.33 99.90 101.12 102.06 102.64 103.25 103.77 103.98 104.08 104.11 104.01 103.89 103.76 103.51 103.27 103.03 102.92 101.81 101.89 102.11 102.26 102.46 102.79 103.03 103.30 103.54 103.60 103.83 104.33 104.68
97.25 97.25 97.24 97.19 97.15 97.14 97.08 97.09 97.07 96.97 96.84 96.74 96.69 96.60 96.65 96.87 96.95 97.15 97.58 98.10 98.60 99.16 100.19 100.96 101.54 102.18 102.86 103.48 103.97 104.31 104.40 104.43 104.32 104.16 103.97 103.76 103.54 103.32 103.17 102.52 102.14 102.28 102.56 102.69 103.00 103.23 103.40 103.48 103.64 104.28 104.52 104.84
97.38 97.41 97.38 97.31 97.24 97.20 97.16 97.15 97.14 97.02 96.88 96.76 96.69 96.67 96.74 97.09 97.21 97.60 97.99 98.50 99.40 100.01 100.52 101.10 101.82 102.47 103.11 103.78 104.32 104.66 104.75 104.74 104.60 104.44 104.28 104.06 103.84 103.58 103.36 103.06 102.34 102.52 102.71 102.90 103.18 103.42 103.29 103.60 103.95 104.27 104.67 105.00
97.51 97.50 97.50 97.42 97.33 97.30 97.27 97.25 97.23 97.04 96.90 96.82 96.79 96.86 96.85 97.32 97.53 98.11 98.82 99.22 99.63 100.18 100.75 101.40 102.15 102.90 103.58 104.19 104.64 104.97 105.05 104.99 104.87 104.69 104.54 104.33 104.07 103.84 103.60 103.29 102.56 102.85 103.06 103.25 103.40 103.10 103.47 103.64 103.94 104.37 104.77 105.11
97.56 97.57 97.59 97.55 97.46 97.41 97.32 97.24 97.19 97.08 96.89 96.90 97.01 97.30 96.86 97.82 98.40 98.58 99.00 99.40 99.86 100.36 101.15 101.93 102.66 103.41 104.02 104.56 104.99 105.26 105.33 105.24 105.11 104.95 104.79 104.57 104.31 104.07 103.89 103.75 102.28 103.15 103.40 103.32 103.27 103.36 103.44 103.68 104.01 104.40 104.81 105.15
97.61 97.66 97.68 97.68 97.56 97.42 97.31 97.22 97.20 97.15 97.12 97.29 97.58 97.51 97.94 98.28 98.51 98.79 99.06 99.56 100.12 100.81 101.65 102.47 103.19 103.91 104.44 104.91 105.29 105.54 105.61 105.53 105.39 105.21 105.00 104.79 104.53 104.32 104.24 104.03 103.67 103.58 103.10 103.35 103.34 103.38 103.53 103.76 104.03 104.41 104.81 105.16
97.68 97.72 97.73 97.72 97.57 97.40 97.30 97.30 97.60 97.66 97.73 96.83 97.91 98.07 98.18 98.29 98.55 98.85 99.28 99.85 100.55 101.28 102.13 103.00 103.72 104.37 104.88 105.28 105.61 105.82 105.84 105.75 105.62 105.42 105.18 104.99 104.72 104.55 104.45 104.29 103.74 103.21 103.38 103.33 103.44 103.52 103.64 103.82 104.04 104.39 104.77 105.19
97.74 97.75 97.77 97.71 97.66 97.70 97.54 97.72 97.26 97.65 97.71 97.83 98.04 98.10 98.17 98.34 98.70 99.15 99.63 100.24 101.02 101.82 102.64 103.48 104.23 104.81 105.26 105.60 105.89 106.02 106.07 105.94 105.79 105.56 105.35 105.17 104.98 104.81 104.67 103.84 103.88 103.81 103.42 103.46 103.60 103.64 103.70 103.86 104.05 104.33 104.74 105.15
97.79 97.79 97.87 98.06 97.86 97.74 97.38 97.53 97.71 97.75 97.81 97.96 98.07 98.21 98.35 98.60 98.98 99.50 100.06 100.73 101.57 102.39 103.18 104.00 104.71 105.20 105.58 105.87 106.07 106.20 106.19 106.04 105.85 105.65 105.47 105.36 105.22 104.80 103.90 103.88 104.04 104.14 103.75 103.68 103.71 103.77 103.79 103.90 104.07 104.31 104.66 105.04
