ncols 52
nrows 52
xllcorner 440832
yllcorner 5715456
cellsize 10
NODATA_value -9999
94.19 94.27 94.28 94.26 94.31 94.33 94.25 94.10 93.83 93.56 93.29 93.06 92.83 92.57 92.28 91.99 91.78 91.58 91.32 90.99 90.73 90.51 90.32 90.18 90.07 90.10 90.16 90.31 90.43 90.57 90.81 90.99 91.20 91.35 91.40 91.56 91.67 91.78 91.87 91.81 90.77 90.11 91.43 91.77 92.00 92.30 92.24 92.31 92.40 92.58 92.76 92.93
94.54 94.59 94.65 94.66 94.75 94.78 94.69 94.54 94.33 94.07 93.85 93.68 93.42 93.17 92.87 92.60 92.39 92.14 91.80 91.48 91.22 90.93 90.71 90.51 90.34 90.29 90.29 90.34 90.52 90.76 91.04 91.29 91.54 91.72 91.81 91.90 91.90 91.92 91.99 92.06 92.11 92.15 91.48 90.60 90.57 91.83 91.97 92.17 92.28 92.49 92.38 92.46
94.69 94.82 94.92 95.07 95.13 95.14 95.07 94.94 94.78 94.57 94.42 94.25 94.02 93.79 93.52 93.26 93.03 92.76 92.35 92.04 91.71 91.39 91.15 90.87 90.65 90.53 90.50 90.66 90.86 91.16 91.50 91.78 92.01 92.21 92.33 92.43 92.46 92.46 92.42 92.27 92.22 92.35 92.22 91.76 91.84 91.89 91.02 90.50 91.28 91.60 91.12 92.30
94.86 95.01 95.13 95.27 95.41 95.47 95.46 95.33 95.17 95.04 94.93 94.82 94.64 94.41 94.18 93.93 93.72 93.40 93.01 92.67 92.31 91.93 91.60 91.25 90.99 90.81 90.79 90.90 91.22 91.58 91.98 92.34 92.60 92.81 92.93 93.01 93.05 93.06 92.97 92.81 92.66 92.63 92.57 92.32 92.24 92.22 92.07 91.91 91.82 90.69 92.36 92.48
94.98 95.17 95.32 95.50 95.65 95.75 95.71 95.69 95.58 95.57 95.45 95.35 95.22 95.05 94.85 94.66 94.43 94.10 93.68 93.32 92.93 92.52 92.08 91.67 91.30 91.11 91.08 91.27 91.62 92.09 92.54 92.95 93.24 93.42 93.58 93.67 93.75 93.77 93.65 93.40 93.24 93.12 93.11 92.96 92.88 92.71 92.64 92.40 92.14 91.98 91.17 92.54
95.03 95.25 95.51 95.71 95.89 95.94 95.97 95.98 95.98 95.96 95.93 95.88 95.85 95.69 95.50 95.33 95.11 94.75 94.39 93.99 93.57 93.07 92.58 92.05 91.66 91.43 91.40 91.65 92.06 92.56 93.10 93.56 93.89 94.11 94.29 94.39 94.48 94.50 94.36 94.13 93.95 93.81 93.78 93.62 93.53 93.39 93.15 92.93 92.61 92.22 92.01 92.11
95.11 95.35 95.57 95.81 96.00 96.10 96.15 96.22 96.26 96.32 96.33 96.34 96.31 96.25 96.11 96.01 95.79 95.42 95.08 94.71 94.23 93.67 93.05 92.47 92.00 91.76 91.76 92.04 92.53 93.08 93.63 94.18 94.54 94.81 95.01 95.13 95.25 95.28 95.14 94.92 94.71 94.60 94.51 94.47 94.18 94.01 93.69 93.34 92.97 92.50 92.12 91.15
95.11 95.36 95.64 95.89 96.04 96.15 96.23 96.32 96.44 96.54 96.64 96.65 96.68 96.69 96.65 96.50 96.31 96.03 95.76 95.35 94.81 94.22 93.54 92.90 92.40 92.15 92.18 92.44 92.94 93.54 94.21 94.75 95.18 95.44 95.70 95.85 96.02 96.03 95.90 95.70 95.49 95.32 95.31 95.29 94.90 94.62 94.22 93.67 93.25 92.74 92.20 91.21
95.30 95.50 95.69 95.97 96.14 96.25 96.32 96.43 96.54 96.69 96.76 96.83 96.92 96.98 97.01 96.94 96.77 96.56 96.29 95.88 95.33 94.74 94.12 93.36 92.85 92.55 92.63 92.90 93.29 94.01 94.70 95.29 95.72 96.10 96.37 96.57 96.71 96.74 96.63 96.48 96.27 96.11 96.01 95.92 95.57 95.17 94.65 93.97 93.43 92.88 92.33 91.51
95.34 95.61 95.86 96.07 96.26 96.38 96.48 96.56 96.69 96.83 96.92 97.00 97.11 97.21 97.33 97.31 97.17 97.00 96.76 96.35 95.85 95.24 94.55 93.86 93.36 93.11 93.11 93.40 93.86 94.51 95.22 95.80 96.28 96.68 96.99 97.24 97.39 97.38 97.29 97.18 97.00 96.81 96.66 96.60 96.13 95.68 95.03 94.24 93.60 93.01 92.45 91.93
95.46 95.59 95.83 96.11 96.31 96.51 96.64 96.75 96.87 96.94 97.09 97.18 97.31 97.45 97.60 97.60 97.49 97.37 97.14 96.79 96.35 95.79 95.12 94.49 93.96 93.66 93.71 94.04 94.56 95.10 95.74 96.30 96.80 97.23 97.54 97.81 97.94 97.98 97.91 97.82 97.65 97.44 97.26 97.17 96.62 96.12 95.35 94.44 93.74 93.08 92.54 91.68
95.62 95.72 95.94 96.13 96.35 96.56 96.75 96.89 97.03 97.20 97.30 97.42 97.54 97.72 97.85 97.87 97.80 97.66 97.51 97.23 96.81 96.28 95.71 95.15 94.63 94.34 94.40 94.69 95.13 95.66 96.25 96.86 97.28 97.73 98.01 98.28 98.39 98.44 98.41 98.34 98.21 98.04 97.77 97.66 96.98 96.38 95.54 94.57 93.83 93.19 92.66 91.28
95.69 95.83 96.02 96.24 96.40 96.63 96.83 97.00 97.10 97.29 97.47 97.62 97.77 97.93 98.08 98.14 98.10 98.01 97.83 97.66 97.27 96.83 96.32 95.82 95.33 95.10 95.18 95.38 95.80 96.26 96.80 97.26 97.74 98.18 98.49 98.67 98.77 98.82 98.82 98.79 98.67 98.48 98.24 98.04 97.26 96.56 95.62 94.63 93.88 93.23 92.74 91.21
95.78 96.01 96.11 96.32 96.49 96.71 96.90 97.07 97.22 97.34 97.49 97.69 97.89 98.08 98.27 98.35 98.40 98.39 98.28 98.04 97.76 97.36 96.99 96.54 96.06 95.89 95.94 96.15 96.47 96.90 97.38 97.76 98.18 98.53 98.82 99.00 99.12 99.15 99.12 99.07 98.97 98.76 98.51 98.23 97.43 96.57 95.61 94.58 93.88 93.22 92.83 91.31
95.78 96.10 96.23 96.43 96.60 96.77 96.97 97.13 97.27 97.45 97.61 97.78 97.96 98.14 98.32 98.52 98.62 98.67 98.63 98.50 98.28 97.99 97.59 97.20 96.83 96.71 96.75 96.89 97.18 97.50 97.86 98.21 98.53 98.85 99.09 99.26 99.29 99.32 99.30 99.30 99.24 98.99 98.68 98.37 97.46 96.47 95.48 94.54 93.77 93.16 92.83 91.88
96.40 96.11 96.36 96.54 96.72 96.90 97.06 97.17 97.31 97.52 97.72 97.92 98.07 98.24 98.39 98.53 98.72 98.81 98.87 98.88 98.77 98.53 98.26 97.89 97.57 97.47 97.54 97.60 97.83 98.08 98.35 98.56 98.85 99.11 99.29 99.41 99.45 99.47 99.44 99.35 99.26 99.06 98.72 98.34 97.53 96.38 95.34 94.32 93.69 93.07 92.82 92.60
96.62 96.47 96.44 96.57 96.82 97.01 97.17 97.29 97.43 97.59 97.77 97.97 98.11 98.28 98.46 98.64 98.76 98.85 98.90 98.95 98.98 98.94 98.79 98.54 98.33 98.21 98.20 98.25 98.39 98.60 98.78 98.95 99.11 99.30 99.43 99.51 99.55 99.57 99.52 99.42 99.29 99.08 98.68 98.29 97.32 96.24 95.24 94.32 93.65 93.06 92.78 93.03
96.76 96.63 96.45 96.75 96.88 97.12 97.28 97.38 97.55 97.71 97.90 98.04 98.20 98.37 98.57 98.70 98.82 98.90 99.01 99.07 99.13 99.10 99.04 98.98 98.98 98.96 98.91 98.90 98.97 99.11 99.23 99.31 99.39 99.52 99.63 99.65 99.65 99.64 99.60 99.47 99.30 99.02 98.57 98.18 97.00 96.10 95.12 94.21 93.63 93.05 92.27 93.29
96.90 96.81 96.66 96.81 96.93 97.15 97.34 97.51 97.67 97.82 97.98 98.15 98.32 98.50 98.61 98.76 98.89 98.94 99.03 99.22 99.34 99.39 99.35 99.32 99.31 99.26 99.31 99.37 99.46 99.59 99.63 99.68 99.72 99.79 99.79 99.76 99.75 99.72 99.64 99.45 99.20 98.91 98.50 98.13 96.88 95.96 95.02 94.17 93.60 93.05 92.01 93.37
97.04 96.96 96.94 96.76 96.99 97.20 97.40 97.60 97.79 97.96 98.12 98.26 98.43 98.58 98.75 98.85 98.96 99.00 99.17 99.31 99.49 99.54 99.60 99.63 99.63 99.56 99.52 99.53 99.64 99.74 99.90 99.96 100.03 100.02 99.99 99.92 99.82 99.73 99.62 99.39 99.12 98.71 98.32 97.97 96.77 95.89 94.90 94.17 93.53 93.18 92.43 93.49
97.21 97.15 97.14 97.06 97.06 97.24 97.47 97.68 97.87 98.04 98.23 98.39 98.56 98.69 98.87 98.99 99.05 99.14 99.25 99.40 99.47 99.61 99.72 99.82 99.82 99.81 99.78 99.82 99.83 99.86 99.90 99.99 100.06 100.14 100.16 100.10 99.96 99.80 99.60 99.31 98.96 98.54 98.17 97.76 96.57 95.69 94.74 94.07 93.47 93.02 93.29 93.38
97.42 97.35 97.35 97.32 97.15 97.45 97.57 97.80 98.00 98.18 98.36 98.51 98.67 98.83 98.99 99.17 99.21 99.29 99.37 99.42 99.54 99.65 99.88 99.95 99.97 99.93 99.93 99.94 100.00 100.00 100.04 100.06 100.06 100.04 100.04 100.00 99.93 99.88 99.70 99.35 98.91 98.41 98.06 97.60 96.29 95.45 94.58 93.96 93.45 92.30 93.39 93.65
97.65 97.56 97.54 97.46 97.41 97.54 97.72 97.92 98.16 98.35 98.51 98.67 98.81 98.96 99.13 99.26 99.38 99.43 99.48 99.53 99.61 99.76 99.94 100.08 100.08 100.08 100.06 100.08 100.06 100.10 100.07 100.12 100.07 100.06 99.96 99.83 99.77 99.76 99.47 98.86 98.81 98.37 97.98 96.83 95.99 95.14 94.49 93.90 93.56 92.14 93.46 93.97
97.86 97.82 97.74 97.69 97.50 97.71 97.86 98.08 98.26 98.46 98.69 98.83 98.97 99.11 99.26 99.39 99.51 99.57 99.60 99.65 99.78 99.94 100.08 100.14 100.15 100.13 100.13 100.14 100.14 100.13 100.13 100.10 100.09 100.03 100.00 99.87 99.83 99.68 98.89 98.29 97.68 97.22 97.01 96.25 95.68 94.96 94.51 92.89 93.24 93.12 93.56 94.10
98.10 98.06 97.97 97.88 97.67 97.92 98.07 98.22 98.45 98.62 98.81 98.97 99.08 99.28 99.44 99.59 99.68 99.75 99.80 99.85 99.94 100.07 100.17 100.19 100.20 100.18 100.17 100.17 100.15 100.15 100.18 100.16 100.10 100.02 99.92 99.92 99.76 99.12 98.63 97.92 97.32 96.66 96.22 95.96 95.65 94.60 93.81 93.59 93.31 93.54 93.76 94.26
98.29 98.28 98.20 98.11 97.80 98.10 98.23 98.43 98.61 98.80 98.96 99.08 99.25 99.38 99.59 99.72 99.85 99.96 99.99 100.08 100.12 100.19 100.23 100.24 100.22 100.23 100.25 100.24 100.19 100.20 100.19 100.17 100.13 100.12 100.01 99.81 99.16 98.74 98.20 97.68 96.99 96.33 95.84 95.45 95.32 95.01 94.14 93.65 93.53 93.77 94.19 94.64
98.49 98.48 98.43 98.32 97.96 98.26 98.32 98.57 98.74 98.91 99.09 99.26 99.41 99.61 99.72 99.88 99.96 100.04 100.12 100.19 100.29 100.29 100.29 100.28 100.25 100.25 100.26 100.27 100.24 100.24 100.19 100.15 100.09 100.07 99.96 99.27 98.85 98.30 97.85 97.40 96.75 96.18 95.74 95.43 95.19 95.34 94.29 93.67 93.57 93.43 94.34 94.94
98.72 98.71 98.64 98.51 98.27 98.42 98.51 98.68 98.84 99.01 99.20 99.35 99.54 99.73 99.94 100.03 100.11 100.14 100.22 100.28 100.33 100.36 100.36 100.35 100.35 100.32 100.34 100.33 100.31 100.25 100.22 100.16 100.08 99.99 99.43 98.99 98.47 97.97 97.57 97.16 96.60 96.14 95.78 95.62 95.35 95.21 95.00 93.74 93.55 93.31 93.26 94.49
98.90 98.91 98.85 98.69 98.44 98.62 98.66 98.81 98.96 99.07 99.28 99.44 99.61 99.84 100.01 100.16 100.21 100.27 100.29 100.36 100.36 100.40 100.43 100.43 100.40 100.40 100.35 100.37 100.34 100.27 100.28 100.20 100.10 99.59 99.21 98.69 98.24 97.76 97.36 97.05 96.64 96.30 96.02 95.87 95.67 95.40 95.50 94.01 93.71 93.49 93.42 93.39
99.08 99.10 99.04 98.90 98.54 98.72 98.81 98.96 99.10 99.23 99.34 99.49 99.67 99.87 100.06 100.19 100.26 100.30 100.34 100.37 100.38 100.43 100.47 100.49 100.44 100.43 100.40 100.39 100.42 100.42 100.31 100.16 99.86 99.52 99.01 98.58 98.12 97.71 97.35 97.12 96.85 96.61 96.43 96.27 96.11 95.85 95.95 94.72 93.76 93.67 93.62 93.75
99.30 99.27 99.27 99.08 98.77 98.89 98.95 99.12 99.21 99.31 99.42 99.54 99.71 99.88 100.03 100.17 100.26 100.32 100.35 100.38 100.41 100.45 100.50 100.53 100.49 100.48 100.52 100.54 100.54 100.42 100.35 100.11 99.81 99.47 99.05 98.58 98.15 97.79 97.46 97.32 97.20 97.03 96.94 96.84 96.64 96.31 96.10 95.75 94.04 93.85 93.72 93.89
99.58 99.57 99.60 99.40 99.11 99.08 99.10 99.20 99.31 99.39 99.45 99.62 99.78 99.91 100.06 100.16 100.25 100.35 100.41 100.44 100.45 100.52 100.57 100.58 100.63 100.62 100.64 100.57 100.54 100.44 100.32 100.11 99.87 99.57 99.17 98.68 98.31 98.00 97.76 97.65 97.66 97.52 97.51 97.42 97.22 96.83 96.39 96.02 94.35 94.09 93.93 93.97
99.73 99.74 99.76 99.55 99.25 99.20 99.22 99.21 99.26 99.36 99.49 99.64 99.79 99.96 100.11 100.22 100.33 100.43 100.50 100.54 100.58 100.65 100.71 100.75 100.68 100.85 100.68 100.57 100.45 100.41 100.30 100.19 100.00 99.74 99.38 98.97 98.60 98.35 98.14 98.06 98.18 98.10 98.10 97.93 97.68 97.28 96.85 96.76 95.51 94.32 94.10 94.10
99.99 99.90 99.79 99.77 99.75 99.75 99.74 99.70 99.67 99.65 99.61 99.68 99.85 100.00 100.11 100.26 100.32 100.41 100.53 100.62 100.68 100.76 100.75 100.73 100.65 100.62 100.60 100.50 100.48 100.45 100.37 100.30 100.13 99.98 99.68 99.29 98.97 98.77 98.60 98.55 98.65 98.64 98.57 98.46 98.17 97.75 97.29 96.97 96.50 94.68 94.39 94.18
99.97 99.93 99.91 99.92 99.90 99.85 99.81 99.82 99.76 99.66 99.65 99.58 99.68 99.90 100.11 100.26 100.32 100.37 100.49 100.54 100.60 100.63 100.66 100.61 100.60 100.56 100.58 100.58 100.56 100.52 100.46 100.37 100.27 100.13 99.93 99.68 99.36 99.17 99.02 98.98 99.12 99.14 99.05 98.93 98.65 98.25 97.76 97.28 96.74 94.90 94.51 94.42
100.07 100.08 100.06 100.10 100.10 100.04 100.02 99.99 99.96 99.84 99.79 99.73 99.78 99.94 100.18 100.32 100.41 100.47 100.56 100.60 100.61 100.65 100.72 100.68 100.62 100.64 100.63 100.65 100.61 100.57 100.52 100.49 100.40 100.27 100.15 99.99 99.71 99.53 99.44 99.42 99.52 99.60 99.44 99.29 99.01 98.65 98.15 97.69 97.79 96.36 94.90 94.64
100.14 100.17 100.16 100.21 100.26 100.26 100.20 100.18 100.13 100.04 99.94 99.85 99.84 99.94 100.17 100.36 100.46 100.55 100.62 100.65 100.68 100.69 100.75 100.74 100.71 100.66 100.69 100.71 100.69 100.65 100.62 100.57 100.52 100.42 100.36 100.22 100.01 99.85 99.79 99.79 99.87 99.97 99.76 99.61 99.37 99.03 98.58 98.14 97.94 97.41 95.07 94.98
100.26 100.29 100.32 100.35 100.41 100.41 100.37 100.34 100.34 100.21 100.08 100.01 99.90 100.01 100.21 100.43 100.47 100.64 100.69 100.75 100.76 100.77 100.79 100.80 100.77 100.75 100.74 100.77 100.74 100.69 100.66 100.65 100.62 100.49 100.46 100.38 100.30 100.17 100.09 100.09 100.12 100.21 100.07 99.90 99.69 99.36 99.03 98.57 98.20 97.98 95.89 95.21
100.38 100.40 100.42 100.46 100.52 100.54 100.53 100.46 100.48 100.36 100.25 100.16 100.07 100.10 100.29 100.48 100.60 100.69 100.79 100.82 100.85 100.82 100.88 100.87 100.84 100.79 100.77 100.80 100.81 100.76 100.72 100.70 100.70 100.63 100.56 100.54 100.48 100.41 100.33 100.31 100.29 100.41 100.34 100.14 99.93 99.65 99.40 99.03 98.60 98.75 97.61 95.45
100.43 100.49 100.55 100.58 100.62 100.66 100.66 100.62 100.62 100.54 100.40 100.32 100.21 100.19 100.29 100.51 100.66 100.77 100.84 100.89 100.92 100.91 100.94 100.96 100.94 100.87 100.85 100.89 100.86 100.83 100.81 100.77 100.76 100.72 100.65 100.63 100.62 100.52 100.50 100.43 100.45 100.52 100.50 100.31 100.14 99.93 99.66 99.32 99.00 98.98 98.46 95.81
100.54 100.59 100.63 100.67 100.71 100.75 100.76 100.75 100.74 100.67 100.53 100.47 100.36 100.29 100.36 100.58 100.75 100.84 100.92 100.98 101.01 101.01 101.01 101.04 101.00 100.97 100.93 100.89 100.93 100.90 100.84 100.85 100.82 100.81 100.72 100.72 100.72 100.67 100.65 100.54 100.54 100.60 100.63 100.42 100.28 100.10 99.89 99.65 99.30 98.97 99.14 97.13
100.64 100.69 100.75 100.78 100.80 100.83 100.84 100.85 100.85 100.78 100.68 100.57 100.49 100.40 100.43 100.65 100.84 100.93 101.01 101.08 101.11 101.11 101.10 101.12 101.08 101.06 101.02 100.97 100.96 100.97 100.93 100.87 100.88 100.87 100.80 100.79 100.74 100.76 100.76 100.66 100.64 100.65 100.73 100.58 100.38 100.21 100.02 99.85 99.53 99.10 99.38 98.69
100.73 100.81 100.82 100.87 100.86 100.89 100.92 100.93 100.90 100.89 100.74 100.65 100.56 100.52 100.49 100.69 100.90 101.04 101.11 101.16 101.20 101.22 101.18 101.17 101.15 101.15 101.04 101.01 101.01 100.99 100.96 100.93 100.89 100.94 100.89 100.86 100.84 100.84 100.82 100.77 100.73 100.68 100.73 100.61 100.44 100.28 100.07 99.92 99.60 99.24 99.21 98.82
100.81 100.87 100.90 100.95 100.96 100.96 100.99 100.99 100.98 100.96 100.86 100.74 100.69 100.61 100.61 100.70 100.92 101.08 101.18 101.24 101.27 101.27 101.26 101.22 101.23 101.19 101.14 101.06 101.04 101.03 101.00 100.93 100.93 100.99 100.98 100.90 100.88 100.90 100.89 100.83 100.71 100.69 100.73 100.60 100.43 100.24 100.02 99.80 99.54 99.22 98.78 98.93
100.90 100.97 101.00 101.02 101.04 101.04 101.06 101.07 101.05 101.04 100.95 100.81 100.81 100.73 100.67 100.75 100.94 101.15 101.24 101.32 101.34 101.35 101.32 101.32 101.30 101.20 101.17 101.08 101.04 101.04 101.05 101.02 100.99 101.02 101.02 100.96 100.96 100.92 100.92 100.89 100.74 100.66 100.61 100.57 100.32 100.15 99.90 99.64 99.37 99.07 98.64 98.69
101.02 101.03 101.05 101.07 101.07 101.09 101.10 101.15 101.12 101.11 101.04 100.95 100.86 100.81 100.76 100.80 100.95 101.16 101.28 101.34 101.37 101.41 101.37 101.32 101.30 101.27 101.18 101.17 101.07 101.06 101.09 101.07 101.03 101.04 101.05 100.94 100.94 100.93 100.89 100.89 100.75 100.61 100.50 100.40 100.17 99.96 99.68 99.38 99.10 98.78 98.55 98.26
101.09 101.11 101.17 101.17 101.17 101.16 101.18 101.19 101.18 101.11 101.10 100.96 100.89 100.81 100.74 100.75 100.92 101.13 101.29 101.34 101.40 101.43 101.40 101.35 101.30 101.26 101.22 101.15 101.11 101.07 101.06 101.08 101.06 101.05 101.06 101.00 100.91 100.79 100.80 100.81 100.67 100.49 100.32 100.21 99.95 99.68 99.40 99.08 98.80 98.58 98.40 98.11
101.15 101.19 101.23 101.23 101.24 101.19 101.18 101.18 101.16 101.11 101.06 100.92 100.85 100.81 100.73 100.78 100.90 101.09 101.26 101.37 101.40 101.40 101.38 101.36 101.29 101.26 101.19 101.17 101.12 101.08 101.08 101.13 101.04 100.99 101.03 100.92 100.84 100.71 100.69 100.63 100.55 100.33 100.11 99.96 99.68 99.39 99.11 98.83 98.65 98.44 98.31 98.18
101.18 101.21 101.27 101.29 101.29 101.24 101.19 101.14 101.13 101.07 101.03 100.93 100.82 100.78 100.74 100.73 100.83 101.00 101.22 101.32 101.36 101.35 101.34 101.32 101.26 101.25 101.17 101.14 101.06 101.05 101.01 101.04 101.00 100.94 100.91 100.82 100.68 100.54 100.44 100.32 100.27 100.10 99.85 99.67 99.45 99.16 98.95 98.80 98.63 98.48 98.40 98.38
101.18 101.24 101.31 101.32 101.29 101.26 101.16 101.11 101.09 101.01 101.00 100.90 100.82 100.77 100.74 100.71 100.79 100.93 101.11 101.22 101.25 101.26 101.24 101.19 101.17 101.17 101.13 101.03 101.01 100.94 100.91 100.86 100.86 100.76 100.69 100.61 100.43 100.30 100.15 99.99 99.96 99.83 99.63 99.47 99.36 99.10 98.97 98.89 98.76 98.72 98.69 98.70
101.20 101.25 101.30 101.38 101.33 101.28 101.18 101.11 101.08 101.02 100.97 100.94 100.82 100.75 100.71 100.68 100.70 100.85 101.00 101.10 101.15 101.14 101.12 101.10 101.02 101.01 100.91 100.88 100.85 100.81 100.73 100.70 100.64 100.54 100.42 100.33 100.15 100.04 99.86 99.72 99.68 99.63 99.53 99.43 99.47 99.33 99.18 99.12 99.06 99.01 98.96 98.96
101.27 101.30 101.33 101.40 101.37 101.29 101.19 101.09 101.06 101.01 100.94 100.91 100.82 100.75 100.73 100.64 100.67 100.76 100.85 100.97 101.00 100.96 100.94 100.91 100.85 100.79 100.74 100.71 100.64 100.57 100.51 100.42 100.38 100.26 100.12 100.03 99.89 99.83 99.74 99.68 99.66 99.69 99.67 99.64 99.68 99.61 99.47 99.42 99.36 99.33 99.29 99.32
