ncols 52
nrows 52
xllcorner 440832
yllcorner 5713408
cellsize 10
NODATA_value -9999
97.82 97.84 98.05 97.89 97.87 97.29 97.46 97.58 97.71 97.78 97.83 98.00 98.10 98.24 98.39 98.62 99.04 99.57 100.15 100.84 101.71 102.51 103.27 104.07 104.77 105.27 105.64 105.93 106.16 106.25 106.21 106.06 105.86 105.66 105.51 105.38 105.18 104.46 103.92 103.91 104.08 104.18 103.85 103.71 103.75 103.77 103.82 103.88 104.07 104.31 104.64 105.03
98.12 98.05 98.01 97.85 97.76 97.63 97.61 97.69 97.82 97.89 98.07 98.17 98.29 98.42 98.62 98.92 99.40 100.00 100.64 101.40 102.26 103.09 103.83 104.53 105.18 105.62 105.94 106.15 106.30 106.37 106.26 106.07 105.96 105.86 105.72 105.22 104.26 104.15 104.21 104.31 104.35 104.45 104.42 103.99 103.85 103.88 103.90 103.92 104.02 104.25 104.56 104.93
97.65 98.03 97.87 97.69 97.59 97.51 97.66 97.78 97.95 98.16 98.28 98.29 98.44 98.61 98.90 99.26 99.81 100.44 101.15 101.99 102.81 103.68 104.38 104.99 105.54 105.93 106.16 106.31 106.40 106.46 106.34 106.24 106.12 105.81 105.03 104.45 104.44 104.62 104.75 104.83 104.84 104.78 104.77 104.37 104.11 104.00 103.96 104.00 104.03 104.21 104.52 104.87
98.06 97.92 97.74 97.72 97.63 97.66 97.79 97.95 98.17 98.36 98.46 98.48 98.62 98.85 99.18 99.61 100.23 100.93 101.71 102.59 103.42 104.21 104.87 105.39 105.85 106.17 106.32 106.41 106.49 106.60 106.56 106.42 105.52 104.92 104.77 104.90 105.08 105.21 105.31 105.33 105.24 105.08 105.05 104.79 104.33 104.14 104.07 104.05 104.09 104.23 104.51 104.90
98.03 97.92 97.84 97.78 97.78 97.81 97.93 98.06 98.30 98.51 98.59 98.66 98.84 99.09 99.50 100.02 100.70 101.46 102.26 103.16 103.95 104.71 105.29 105.75 106.07 106.36 106.48 106.54 106.68 106.71 106.51 105.46 105.17 105.17 105.41 105.61 105.77 105.83 105.81 105.70 105.58 105.42 105.28 105.22 104.69 104.38 104.22 104.15 104.19 104.29 104.55 104.93
98.09 98.00 97.94 97.90 97.90 97.93 97.99 98.15 98.38 98.65 98.78 98.87 99.07 99.39 99.82 100.43 101.14 101.96 102.78 103.68 104.46 105.10 105.66 106.06 106.31 106.53 106.68 106.79 106.77 105.76 105.58 105.44 105.60 105.87 106.11 106.29 106.35 106.30 106.17 106.04 105.90 105.71 105.50 105.45 105.23 104.58 104.40 104.28 104.26 104.38 104.63 104.96
98.17 98.07 98.03 97.99 98.01 98.02 98.09 98.24 98.43 98.75 98.93 99.12 99.36 99.72 100.22 100.87 101.59 102.48 103.30 104.18 104.90 105.49 106.00 106.34 106.53 106.77 106.90 106.83 105.78 105.78 105.80 106.02 106.28 106.50 106.67 106.74 106.71 106.63 106.50 106.32 106.15 105.96 105.77 105.57 105.56 105.05 104.59 104.43 104.36 104.49 104.72 105.06
98.22 98.14 98.11 98.11 98.14 98.15 98.18 98.33 98.58 98.88 99.11 99.34 99.65 100.10 100.68 101.40 102.19 103.10 103.90 104.66 105.32 105.87 106.29 106.57 106.81 106.91 106.07 105.96 106.05 106.22 106.48 106.67 106.85 106.96 107.02 107.03 106.99 106.89 106.75 106.57 106.40 106.18 105.96 105.75 105.68 105.57 104.80 104.64 104.53 104.64 104.86 105.16
98.30 98.24 98.22 98.23 98.23 98.28 98.34 98.46 98.71 99.04 99.25 99.60 100.01 100.54 101.17 101.95 102.79 103.65 104.47 105.15 105.69 106.21 106.60 106.80 106.93 105.97 106.28 106.36 106.60 106.84 107.02 107.15 107.24 107.25 107.27 107.25 107.17 107.07 106.93 106.79 106.59 106.37 106.17 105.96 105.80 105.76 105.33 104.93 104.79 104.80 105.00 105.21
98.43 98.34 98.34 98.37 98.39 98.47 98.54 98.70 98.90 99.21 99.53 99.90 100.41 101.04 101.71 102.52 103.37 104.23 105.01 105.60 106.02 106.44 106.69 106.43 106.21 106.59 106.69 106.93 107.11 107.28 107.37 107.43 107.46 107.46 107.43 107.38 107.29 107.23 107.13 106.99 106.81 106.60 106.37 106.13 105.93 105.86 105.82 105.19 105.03 105.01 105.12 105.28
98.53 98.50 98.51 98.56 98.60 98.64 98.76 98.91 99.15 99.45 99.83 100.27 100.86 101.56 102.31 103.08 103.96 104.79 105.47 106.02 106.38 106.51 106.47 106.97 106.92 107.05 107.18 107.32 107.46 107.53 107.58 107.62 107.61 107.58 107.51 107.49 107.44 107.38 107.29 107.18 107.01 106.80 106.56 106.35 106.17 106.06 106.07 105.73 105.25 105.17 105.25 105.38
98.70 98.68 98.70 98.77 98.84 98.93 99.06 99.25 99.51 99.79 100.24 100.69 101.34 102.14 102.94 103.68 104.51 105.27 105.99 106.46 106.70 106.63 107.34 107.30 107.37 107.41 107.50 107.59 107.63 107.68 107.72 107.73 107.70 107.68 107.65 107.62 107.59 107.52 107.46 107.33 107.18 107.04 106.85 106.66 106.47 106.32 106.20 106.13 105.47 105.37 105.34 105.43
98.87 98.90 98.93 99.05 99.13 99.23 99.39 99.60 99.86 100.23 100.68 101.12 101.79 102.71 103.57 104.25 105.06 105.83 106.34 106.86 107.56 107.49 107.56 107.60 107.62 107.67 107.71 107.75 107.79 107.81 107.82 107.81 107.79 107.78 107.76 107.74 107.71 107.64 107.55 107.45 107.37 107.27 107.13 106.99 106.81 106.51 106.24 106.16 105.92 105.52 105.54 105.71
99.15 99.18 99.25 99.35 99.49 99.60 99.81 100.06 100.39 100.77 101.26 101.65 102.33 103.24 104.11 104.88 105.52 106.63 106.93 107.52 107.56 107.66 107.69 107.78 107.84 107.86 107.87 107.88 107.90 107.91 107.93 107.93 107.93 107.90 107.90 107.86 107.80 107.75 107.70 107.65 107.59 107.52 107.42 107.18 106.89 106.57 106.30 106.20 106.16 105.74 105.56 105.58
99.44 99.50 99.59 99.77 99.94 100.07 100.30 100.65 101.05 101.49 101.99 102.31 102.93 103.81 104.64 105.21 106.43 107.09 107.41 107.57 107.68 107.76 107.85 107.94 108.01 108.02 108.02 107.99 107.97 107.99 108.01 108.05 108.05 108.05 108.01 107.96 107.91 107.92 107.89 107.89 107.85 107.74 107.54 107.22 106.91 106.66 106.45 106.23 106.21 106.10 105.70 105.79
99.83 99.96 100.07 100.24 100.51 100.72 100.99 101.36 101.80 102.33 102.74 103.15 103.74 104.37 105.64 106.23 106.76 107.20 107.45 107.65 107.79 107.90 107.99 108.07 108.11 108.13 108.13 108.12 108.08 108.11 108.14 108.17 108.17 108.14 108.12 108.09 108.09 108.10 108.14 108.12 108.00 107.79 107.51 107.24 107.02 106.80 106.57 106.32 106.18 106.14 105.80 105.89
100.32 100.50 100.68 100.91 101.25 101.48 101.82 102.22 102.70 103.21 103.64 104.06 104.33 105.95 106.28 106.69 107.00 107.26 107.52 107.72 107.96 108.08 108.11 108.19 108.24 108.26 108.24 108.24 108.23 108.21 108.23 108.24 108.25 108.24 108.28 108.30 108.33 108.37 108.37 108.24 108.03 107.77 107.55 107.33 107.12 106.88 106.65 106.40 106.18 106.13 106.08 105.89
101.00 101.21 101.45 101.74 102.14 102.46 102.79 103.21 103.65 104.15 104.29 105.50 105.89 106.40 106.76 107.01 107.24 107.49 107.69 107.87 108.05 108.22 108.32 108.35 108.38 108.36 108.38 108.38 108.37 108.35 108.33 108.32 108.35 108.40 108.46 108.55 108.58 108.56 108.43 108.24 108.03 107.85 107.65 107.41 107.16 106.92 106.68 106.46 106.20 106.15 106.20 105.98
101.78 102.06 102.37 102.72 103.10 103.44 103.78 104.16 104.65 104.91 106.00 106.09 106.64 106.91 107.13 107.34 107.52 107.72 107.90 108.04 108.17 108.30 108.43 108.51 108.50 108.50 108.51 108.52 108.51 108.47 108.45 108.48 108.54 108.64 108.79 108.84 108.76 108.61 108.44 108.29 108.12 107.94 107.71 107.47 107.24 107.00 106.75 106.50 106.27 106.17 106.21 106.08
102.69 103.02 103.38 103.70 104.02 104.43 104.74 105.12 105.53 106.16 106.58 106.93 107.16 107.31 107.50 107.67 107.81 107.95 108.08 108.21 108.36 108.46 108.53 108.61 108.69 108.71 108.69 108.65 108.63 108.62 108.66 108.70 108.80 108.96 109.01 108.94 108.77 108.64 108.51 108.38 108.19 107.99 107.77 107.54 107.29 107.04 106.80 106.63 106.40 106.30 106.26 106.05
103.59 103.96 104.31 104.64 104.97 105.29 105.51 106.26 106.23 106.82 107.20 107.43 107.61 107.76 107.85 107.91 108.04 108.15 108.28 108.41 108.50 108.60 108.68 108.72 108.79 108.82 108.92 108.83 108.82 108.82 108.87 108.98 109.11 109.13 109.06 108.94 108.83 108.74 108.61 108.46 108.27 108.07 107.86 107.59 107.32 107.13 106.93 106.73 106.49 106.33 106.40 106.22
104.43 104.85 105.21 105.53 105.82 105.87 106.26 106.46 106.96 107.38 107.65 107.89 108.00 108.10 108.14 108.19 108.26 108.35 108.45 108.53 108.63 108.72 108.79 108.85 109.01 109.09 109.09 109.06 109.04 109.04 109.13 109.21 109.21 109.16 109.07 109.01 108.91 108.82 108.69 108.51 108.35 108.15 107.88 107.66 107.46 107.23 107.01 106.78 106.53 106.43 106.44 106.29
105.14 105.63 105.93 106.23 106.28 106.12 106.53 106.95 107.40 107.79 108.10 108.26 108.32 108.36 108.40 108.43 108.47 108.50 108.56 108.66 108.78 108.84 108.90 109.04 109.24 109.24 109.16 109.24 109.33 109.38 109.38 109.31 109.24 109.19 109.15 109.08 109.02 108.92 108.76 108.62 108.42 108.18 107.96 107.78 107.57 107.30 107.07 106.84 106.61 106.58 106.40 106.37
105.69 106.07 106.17 105.68 106.00 106.52 106.94 107.34 107.80 108.17 108.39 108.51 108.58 108.65 108.66 108.66 108.64 108.67 108.73 108.81 108.87 108.97 109.12 109.30 109.37 109.27 109.29 109.39 109.57 109.69 109.62 109.47 109.36 109.28 109.22 109.18 109.11 109.01 108.85 108.67 108.47 108.29 108.08 107.87 107.62 107.37 107.11 106.87 106.74 106.71 106.47 106.45
106.08 106.21 105.18 104.99 106.47 107.14 107.34 107.84 108.15 108.44 108.60 108.71 108.79 108.84 108.88 108.85 108.86 108.88 108.90 108.96 109.03 109.17 109.34 109.47 109.44 109.39 109.44 109.52 109.70 109.79 109.77 109.71 109.59 109.47 109.39 109.31 109.22 109.08 108.92 108.78 108.61 108.43 108.20 107.95 107.70 107.42 107.15 106.93 106.85 106.85 106.55 106.55
105.00 104.73 106.57 107.21 107.49 107.53 107.72 107.93 108.47 108.62 108.73 108.83 108.87 108.94 109.00 109.06 109.04 109.04 109.08 109.12 109.24 109.39 109.59 109.57 109.55 109.55 109.57 109.67 109.78 109.82 109.82 109.81 109.76 109.71 109.60 109.46 109.31 109.18 109.05 108.90 108.75 108.53 108.29 108.04 107.75 107.47 107.22 106.99 106.97 106.86 106.59 106.70
106.44 107.36 107.64 107.92 107.88 107.96 107.99 108.07 108.36 108.52 108.98 109.00 108.99 109.05 109.13 109.18 109.21 109.23 109.25 109.30 109.47 109.64 109.68 109.62 109.64 109.66 109.67 109.74 109.83 109.85 109.84 109.85 109.87 109.89 109.82 109.68 109.50 109.31 109.18 109.05 108.86 108.64 108.39 108.12 107.85 107.56 107.30 107.08 107.04 106.69 106.73 106.91
107.63 107.79 107.96 108.17 108.33 108.34 108.26 108.34 108.53 108.67 108.92 109.08 109.26 109.24 109.25 109.30 109.30 109.34 109.36 109.50 109.71 109.82 109.74 109.74 109.78 109.75 109.76 109.85 109.89 109.86 109.86 109.87 109.92 109.95 109.98 109.90 109.71 109.56 109.38 109.18 108.97 108.73 108.49 108.24 107.94 107.62 107.34 107.16 107.10 106.88 106.96 107.21
107.86 108.12 108.34 108.51 108.60 108.61 108.58 108.65 108.83 108.97 109.16 109.29 109.47 109.40 109.48 109.45 109.40 109.47 109.53 109.72 109.85 109.79 109.82 109.85 109.83 109.82 109.88 109.96 109.94 109.92 109.89 109.90 109.92 109.95 109.98 109.93 109.88 109.76 109.56 109.32 109.07 108.85 108.58 108.30 108.01 107.71 107.42 107.29 107.07 107.00 107.17 107.43
108.15 108.39 108.56 108.69 108.78 108.81 108.88 108.96 109.06 109.15 109.33 109.41 109.38 109.54 109.82 109.46 109.64 109.68 109.74 109.85 109.86 109.87 109.91 109.93 109.93 109.96 110.01 110.04 109.99 109.97 109.96 109.96 109.96 109.95 109.93 109.89 109.85 109.80 109.68 109.47 109.21 108.95 108.66 108.38 108.10 107.82 107.58 107.37 107.02 107.14 107.38 107.70
108.41 108.63 108.74 108.86 108.93 108.97 109.04 109.15 109.21 109.32 109.45 109.54 109.57 109.63 109.70 109.65 110.06 109.75 109.95 109.96 109.92 109.90 109.98 110.03 110.05 110.11 110.15 110.11 110.06 110.05 110.03 110.01 110.01 110.00 109.93 109.85 109.77 109.70 109.64 109.49 109.27 109.00 108.73 108.44 108.19 107.91 107.60 107.45 107.26 107.38 107.69 107.98
108.57 108.77 108.92 109.01 109.07 109.11 109.23 109.29 109.34 109.50 109.57 109.62 109.61 109.62 109.76 109.91 109.93 110.03 110.00 110.03 110.05 110.06 110.11 110.14 110.18 110.23 110.24 110.23 110.20 110.16 110.10 110.07 110.09 110.07 109.99 109.88 109.76 109.65 109.54 109.42 109.27 109.04 108.79 108.54 108.26 107.93 107.67 107.43 107.55 107.70 107.98 108.20
108.72 108.90 109.06 109.15 109.19 109.27 109.35 109.43 109.53 109.72 109.74 109.76 109.76 109.75 109.82 109.90 110.05 110.10 110.13 110.23 110.16 110.19 110.26 110.29 110.29 110.32 110.33 110.32 110.29 110.24 110.18 110.18 110.17 110.13 110.04 109.92 109.77 109.65 109.51 109.39 109.25 109.07 108.89 108.66 108.31 107.93 107.73 107.61 107.72 107.90 108.14 108.36
108.83 109.04 109.17 109.26 109.33 109.42 109.51 109.61 109.72 109.81 109.86 109.89 109.93 109.91 109.98 110.05 110.07 110.06 110.17 110.22 110.28 110.38 110.44 110.46 110.43 110.43 110.43 110.37 110.35 110.31 110.29 110.29 110.24 110.18 110.09 109.95 109.81 109.68 109.54 109.39 109.25 109.09 108.93 108.72 108.33 107.96 107.71 107.77 107.96 108.11 108.33 108.55
108.94 109.13 109.29 109.38 109.46 109.57 109.68 109.72 109.90 109.94 110.00 110.04 110.06 110.05 110.12 110.20 110.19 110.18 110.19 110.28 110.42 110.44 110.48 110.58 110.65 110.61 110.54 110.45 110.42 110.40 110.36 110.33 110.30 110.24 110.13 109.99 109.85 109.69 109.54 109.43 109.24 109.09 108.93 108.73 108.34 108.02 107.98 108.07 108.20 108.36 108.48 108.68
109.00 109.21 109.38 109.48 109.59 109.68 109.80 109.90 110.02 110.08 110.14 110.15 110.17 110.22 110.27 110.33 110.33 110.33 110.38 110.50 110.57 110.61 110.72 110.75 110.82 110.79 110.74 110.58 110.49 110.44 110.40 110.38 110.33 110.26 110.15 110.04 109.88 109.72 109.58 109.42 109.24 109.08 108.92 108.67 108.34 108.19 108.29 108.30 108.39 108.44 108.56 108.74
109.10 109.30 109.45 109.58 109.70 109.85 109.93 110.09 110.14 110.20 110.26 110.29 110.31 110.35 110.42 110.48 110.49 110.53 110.58 110.66 110.68 110.73 110.83 110.90 110.99 111.03 111.09 110.90 110.76 110.61 110.52 110.47 110.40 110.25 110.13 110.04 109.92 109.74 109.56 109.40 109.23 109.04 108.90 108.66 108.43 108.34 108.29 108.46 108.50 108.51 108.64 108.83
109.16 109.34 109.51 109.71 109.82 109.96 110.09 110.29 110.31 110.35 110.40 110.40 110.42 110.52 110.58 110.63 110.64 110.69 110.77 110.85 110.84 110.87 110.93 111.00 111.08 111.13 111.13 111.17 111.09 110.91 110.75 110.63 110.48 110.29 110.15 110.01 109.84 109.71 109.55 109.40 109.24 109.06 108.90 108.72 108.54 108.60 108.52 108.54 108.57 108.57 108.72 108.94
109.24 109.41 109.58 109.77 109.96 110.09 110.25 110.37 110.44 110.47 110.51 110.51 110.56 110.67 110.73 110.75 110.80 110.86 110.93 110.99 110.98 111.02 111.05 111.09 111.11 111.14 111.15 111.16 111.22 111.18 111.01 110.83 110.75 110.50 110.22 110.07 109.85 109.68 109.54 109.36 109.22 109.07 108.89 108.72 108.71 108.73 108.63 108.60 108.62 108.67 108.82 109.06
109.32 109.49 109.68 109.85 110.03 110.15 110.40 110.47 110.53 110.59 110.60 110.62 110.74 110.82 110.84 110.89 110.94 111.04 111.11 111.13 111.11 111.13 111.16 111.18 111.19 111.18 111.13 111.11 111.08 111.03 111.01 110.96 110.81 110.58 110.39 110.22 109.97 109.71 109.55 109.35 109.18 109.02 108.86 108.79 108.79 108.76 108.68 108.65 108.68 108.75 108.87 109.14
109.64 109.76 109.93 110.06 110.15 110.32 110.43 110.53 110.62 110.71 110.70 110.78 110.93 110.99 110.98 111.01 111.08 111.22 111.25 111.26 111.25 111.26 111.26 111.28 111.26 111.22 111.18 111.13 111.07 111.02 111.01 110.89 110.69 110.50 110.40 110.26 110.06 109.90 109.69 109.44 109.22 109.09 108.93 108.88 108.84 108.75 108.70 108.64 108.72 108.83 108.92 109.18
109.90 110.06 110.25 110.48 110.38 110.52 110.52 110.62 110.68 110.75 110.79 110.91 111.07 111.17 111.13 111.14 111.26 111.36 111.38 111.38 111.38 111.37 111.38 111.37 111.33 111.26 111.21 111.14 111.06 111.05 111.02 110.91 110.71 110.49 110.31 110.15 110.00 109.86 109.74 109.53 109.38 109.24 109.12 109.01 109.06 108.84 108.81 108.90 108.97 109.07 109.19 109.36
109.95 110.14 110.25 110.44 110.72 110.96 110.84 110.85 110.83 110.82 110.88 111.03 111.22 111.38 111.34 111.35 111.39 111.50 111.49 111.50 111.50 111.52 111.49 111.48 111.42 111.35 111.28 111.19 111.10 111.10 111.03 110.90 110.71 110.52 110.34 110.17 110.01 109.85 109.68 109.51 109.40 109.33 109.21 109.22 109.10 109.15 109.33 109.25 109.37 109.39 109.47 109.59
109.93 110.11 110.29 110.49 110.75 110.96 111.21 111.38 111.21 111.12 111.08 111.15 111.35 111.57 111.63 111.60 111.57 111.60 111.61 111.65 111.63 111.62 111.61 111.57 111.49 111.43 111.34 111.26 111.18 111.15 111.06 110.91 110.71 110.54 110.34 110.14 109.99 109.83 109.70 109.57 109.44 109.34 109.33 109.23 109.19 109.26 109.29 109.26 109.26 109.33 109.50 109.59
109.87 110.14 110.38 110.58 110.78 110.98 111.20 111.38 111.56 111.74 111.48 111.43 111.55 111.74 111.80 111.82 111.74 111.72 111.72 111.75 111.76 111.76 111.72 111.68 111.60 111.52 111.42 111.34 111.27 111.24 111.10 110.93 110.75 110.56 110.34 110.13 109.97 109.85 109.69 109.54 109.45 109.41 109.38 109.43 109.30 109.34 109.29 109.35 109.49 109.56 109.60 109.69
109.91 110.15 110.37 110.58 110.79 110.98 111.17 111.32 111.51 111.68 111.99 112.08 111.88 111.99 111.99 111.95 111.87 111.83 111.85 111.90 111.88 111.89 111.85 111.79 111.71 111.61 111.50 111.44 111.39 111.30 111.16 110.97 110.79 110.57 110.35 110.11 109.96 109.85 109.69 109.57 109.51 109.51 109.48 109.41 109.47 109.52 109.45 109.55 109.59 109.72 109.74 109.88
109.96 110.21 110.44 110.62 110.79 110.95 111.17 111.32 111.44 111.61 111.79 111.96 112.24 112.43 112.21 112.05 112.01 111.97 112.00 112.01 111.99 111.99 111.95 111.88 111.79 111.71 111.59 111.56 111.47 111.37 111.20 111.01 110.82 110.61 110.37 110.15 109.99 109.88 109.73 109.62 109.59 109.58 109.51 109.59 109.60 109.59 109.61 109.75 109.79 109.86 109.80 110.00
110.07 110.31 110.50 110.68 110.86 111.03 111.18 111.29 111.48 111.66 111.81 111.90 112.08 112.20 112.57 112.52 112.25 112.22 112.14 112.16 112.13 112.09 112.06 111.98 111.89 111.78 111.71 111.65 111.56 111.41 111.24 111.05 110.87 110.66 110.42 110.22 110.07 109.94 109.78 109.68 109.68 109.65 109.61 109.63 109.63 109.68 109.72 109.82 109.86 109.93 109.97 110.11
110.17 110.39 110.58 110.77 110.96 111.12 111.25 111.40 111.57 111.71 111.85 111.92 111.98 112.15 112.30 112.39 112.58 112.56 112.46 112.38 112.28 112.21 112.16 112.07 111.96 111.86 111.82 111.75 111.64 111.48 111.30 111.11 110.92 110.69 110.47 110.27 110.12 109.98 109.83 109.75 109.71 109.67 109.68 109.71 109.75 109.77 109.86 109.90 109.99 109.96 110.11 110.22
110.28 110.48 110.68 110.85 111.06 111.24 111.37 111.51 111.68 111.82 111.92 111.93 112.03 112.18 112.27 112.40 112.48 112.51 112.64 112.63 112.49 112.38 112.22 112.12 112.03 111.96 111.93 111.85 111.71 111.53 111.35 111.18 110.98 110.75 110.51 110.34 110.19 110.04 109.90 109.87 109.81 109.79 109.75 109.78 109.80 109.85 109.96 110.10 110.09 110.08 110.24 110.24
110.36 110.56 110.78 110.97 111.15 111.32 111.50 111.66 111.79 111.93 112.01 112.07 112.14 112.23 112.32 112.44 112.51 112.54 112.59 112.62 112.73 112.62 112.49 112.30 112.14 112.07 112.02 111.93 111.79 111.60 111.41 111.22 111.01 110.79 110.57 110.40 110.25 110.10 109.98 109.95 109.90 109.75 109.80 109.87 109.87 109.96 110.03 110.23 110.24 110.32 110.36 110.50
110.44 110.62 110.83 111.05 111.26 111.42 111.59 111.76 111.92 112.06 112.12 112.20 112.29 112.38 112.46 112.56 112.62 112.65 112.63 112.69 112.69 112.68 112.69 112.54 112.41 112.25 112.06 111.98 111.84 111.65 111.49 111.28 111.07 110.85 110.62 110.47 110.31 110.18 110.08 110.05 110.01 109.88 109.91 109.91 109.97 110.07 110.16 110.28 110.22 110.43 110.43 110.66
