ncols 52
nrows 52
xllcorner 440832
yllcorner 5716480
cellsize 10
NODATA_value -9999
94.25 94.33 94.31 94.35 94.23 93.41 94.05 94.15 94.05 94.05 93.95 93.84 93.77 93.80 93.79 93.74 93.71 93.77 93.66 93.54 93.45 93.38 93.15 92.54 92.61 91.46 91.62 93.58 93.56 93.69 93.78 93.99 94.16 94.31 94.32 94.39 94.45 94.49 94.57 94.58 94.66 94.72 94.68 94.72 94.81 94.84 94.89 95.00 95.10 95.24 95.35 95.39
94.20 94.28 94.47 94.49 94.39 93.96 93.01 94.02 93.95 93.88 93.78 93.68 93.57 93.55 93.60 93.52 93.49 93.44 93.32 93.17 92.77 92.38 92.24 90.65 92.49 93.14 93.61 93.74 93.84 93.94 93.96 94.18 94.37 94.47 94.50 94.55 94.61 94.67 94.67 94.70 94.74 94.78 94.78 94.83 94.89 94.96 94.99 95.08 95.16 95.29 95.44 95.47
94.28 94.35 94.42 94.52 94.44 93.71 93.30 92.51 93.86 93.65 93.54 93.42 93.32 93.22 93.32 93.28 93.22 93.03 92.64 92.15 92.18 90.60 92.56 93.22 93.51 93.73 93.86 94.11 94.11 94.12 94.18 94.33 94.46 94.55 94.57 94.63 94.71 94.75 94.73 94.78 94.81 94.86 94.89 94.92 94.97 95.01 95.10 95.12 95.22 95.37 95.47 95.56
94.18 94.22 94.29 94.38 93.98 93.39 93.15 92.73 92.32 93.53 93.24 93.17 93.07 92.97 92.86 92.85 91.71 92.14 91.57 91.98 91.15 92.78 93.19 93.67 94.05 94.15 94.05 94.09 94.21 94.29 94.37 94.46 94.56 94.63 94.66 94.70 94.79 94.82 94.82 94.84 94.88 94.96 94.98 94.95 95.01 95.09 95.16 95.19 95.27 95.40 95.55 95.62
94.02 94.09 93.98 94.16 93.54 93.51 93.10 92.58 92.26 92.03 92.68 92.05 91.97 91.72 91.97 91.99 90.53 91.16 91.53 91.85 92.32 93.28 93.53 93.95 94.17 94.33 94.24 94.31 94.32 94.42 94.49 94.57 94.63 94.72 94.71 94.74 94.82 94.86 94.86 94.88 94.88 94.97 94.99 94.98 95.08 95.12 95.22 95.24 95.31 95.43 95.59 95.66
93.85 94.01 93.87 93.74 93.28 93.50 93.25 92.91 92.07 91.79 91.72 91.69 91.52 91.33 90.99 90.90 91.24 91.41 91.57 91.99 92.68 93.38 93.60 94.00 94.29 94.43 94.49 94.41 94.48 94.54 94.56 94.62 94.68 94.76 94.74 94.75 94.84 94.89 94.89 94.87 94.88 94.95 95.00 95.01 95.10 95.15 95.25 95.27 95.34 95.46 95.60 95.69
93.62 93.88 93.94 94.17 93.24 93.30 93.22 92.19 92.18 91.94 91.72 91.28 91.70 91.80 89.45 89.93 91.10 91.49 91.75 92.15 92.79 93.46 93.77 93.91 94.29 94.43 94.52 94.57 94.55 94.64 94.65 94.65 94.72 94.74 94.76 94.80 94.85 94.93 94.91 94.89 94.83 94.88 94.96 94.99 95.09 95.19 95.26 95.35 95.38 95.46 95.60 95.72
93.26 93.92 94.08 94.23 93.46 92.50 92.07 92.11 92.12 91.95 91.82 91.50 90.58 89.25 89.89 89.92 91.07 91.64 92.07 92.28 93.09 93.61 93.72 93.85 94.16 94.35 94.54 94.64 94.58 94.73 94.72 94.67 94.76 94.77 94.80 94.81 94.86 94.93 94.95 94.93 94.80 94.87 94.97 95.02 95.10 95.18 95.28 95.35 95.39 95.46 95.61 95.75
92.75 92.82 93.91 93.82 92.24 91.75 92.23 92.07 91.95 90.59 90.29 91.73 89.68 91.59 92.19 92.00 91.41 92.25 92.45 92.45 93.29 93.68 93.84 93.90 94.17 94.28 94.39 94.37 94.50 94.73 94.69 94.71 94.73 94.78 94.82 94.82 94.88 94.93 94.96 94.92 94.81 94.86 94.99 95.05 95.14 95.19 95.31 95.35 95.42 95.46 95.62 95.75
92.46 91.63 92.52 91.04 91.25 91.28 90.92 90.22 89.51 90.93 90.82 91.81 91.94 91.98 92.39 92.46 92.32 92.62 92.67 92.67 93.42 93.76 93.87 93.82 94.00 94.24 94.27 94.35 94.42 94.80 94.69 94.67 94.69 94.79 94.80 94.84 94.87 94.95 94.98 94.97 94.82 94.85 95.01 95.10 95.17 95.23 95.32 95.37 95.42 95.51 95.62 95.81
91.79 90.96 90.90 90.67 90.53 89.17 89.38 91.00 91.68 91.94 92.15 92.12 92.11 92.19 92.38 92.42 92.51 92.59 92.54 92.63 93.29 93.28 93.26 93.46 94.05 94.19 94.17 94.25 94.45 94.59 94.65 94.60 94.63 94.73 94.77 94.83 94.85 94.94 94.96 94.97 94.83 94.82 95.02 95.12 95.16 95.24 95.35 95.45 95.44 95.52 95.64 95.79
90.67 90.81 90.82 89.22 89.56 90.99 91.43 92.18 92.69 92.64 92.51 92.39 92.25 92.53 92.40 92.38 92.49 92.56 92.57 92.97 93.00 92.73 93.02 93.26 94.53 94.40 94.42 94.31 94.34 94.47 94.60 94.62 94.55 94.67 94.76 94.80 94.86 94.89 94.92 94.95 94.82 94.81 94.99 95.16 95.22 95.32 95.43 95.51 95.57 95.57 95.67 95.79
90.61 90.69 90.89 91.15 91.69 91.99 92.39 92.90 92.96 92.90 92.80 92.80 92.31 92.53 92.48 92.40 92.50 92.64 93.23 93.19 92.95 91.93 91.66 91.78 94.40 94.36 94.22 94.32 94.48 94.68 94.63 94.61 94.60 94.66 94.69 94.75 94.84 94.94 94.86 94.94 94.87 94.85 95.03 95.17 95.26 95.34 95.42 95.49 95.56 95.62 95.71 95.81
90.78 90.80 91.05 91.29 91.66 92.04 92.30 92.28 92.82 93.02 92.97 93.08 93.05 92.43 92.53 92.54 92.67 92.92 93.18 93.38 93.18 93.20 93.50 93.57 93.86 94.30 94.23 94.32 94.57 94.47 94.58 93.54 93.90 94.31 94.43 94.51 94.64 94.76 94.88 95.00 94.88 94.92 95.03 95.15 95.22 95.26 95.33 95.45 95.54 95.66 95.74 95.82
90.31 91.18 91.27 91.44 91.77 92.06 92.24 92.40 94.49 93.16 93.24 93.18 92.96 92.43 92.59 92.75 92.85 92.99 93.27 93.53 93.62 93.49 93.60 93.64 93.96 94.24 94.16 94.35 94.71 94.71 94.70 94.56 94.58 94.61 94.72 94.84 94.88 95.07 95.64 94.89 94.93 94.97 95.01 95.12 95.19 95.26 95.31 95.42 95.53 95.65 95.74 95.84
91.59 91.86 91.61 91.61 91.83 92.03 92.14 92.63 93.17 93.32 93.32 93.33 93.15 92.68 92.91 92.80 92.83 92.94 93.09 93.56 93.74 93.71 93.70 93.96 94.21 94.32 94.44 94.55 95.11 94.85 94.83 94.66 94.59 94.64 94.75 94.85 95.03 95.18 95.20 94.98 95.02 95.07 95.10 95.18 95.22 95.26 95.35 95.41 95.53 95.69 95.72 95.85
92.26 92.37 91.92 91.85 91.90 92.02 92.09 92.33 93.21 93.40 93.32 93.37 93.33 93.12 92.57 92.87 92.93 93.04 93.24 93.82 93.83 93.80 93.76 93.94 94.07 94.31 94.86 95.18 94.86 94.90 94.87 94.81 94.79 94.81 94.83 94.87 94.92 94.98 95.06 95.07 95.13 95.15 95.17 95.21 95.28 95.29 95.39 95.45 95.56 95.71 95.77 95.86
92.45 92.05 92.03 92.04 91.90 92.07 92.03 92.62 93.19 93.38 93.43 93.47 93.51 93.36 92.61 92.85 93.20 93.38 93.68 93.72 93.69 93.63 93.96 94.06 94.35 94.86 95.96 94.85 94.19 94.89 94.95 94.99 94.88 94.87 94.87 94.88 94.91 94.94 94.96 95.22 95.20 95.19 95.26 95.24 95.29 95.31 95.44 95.54 95.61 95.78 95.79 95.87
92.53 92.49 92.54 92.28 92.21 92.06 92.06 93.10 93.29 93.48 93.57 93.57 93.63 93.52 93.25 93.00 93.51 93.74 93.88 93.84 93.85 93.78 94.03 94.15 94.42 94.79 95.43 94.93 94.92 94.90 95.00 95.03 94.93 94.92 94.97 95.04 95.05 95.01 95.04 95.24 95.25 95.30 95.29 95.33 95.39 95.40 95.49 95.56 95.63 95.79 95.84 95.91
92.61 92.47 92.57 92.67 92.94 92.89 92.16 93.19 93.33 93.47 93.61 93.71 93.67 93.72 93.69 92.79 94.02 94.20 94.22 94.15 94.11 93.91 94.06 94.20 94.45 94.80 96.36 94.85 94.93 94.90 95.00 95.05 94.93 94.92 94.92 94.94 94.97 95.02 95.08 95.14 95.31 95.36 95.38 95.42 95.46 95.50 95.61 95.67 95.74 95.78 95.85 95.87
92.37 92.37 92.53 92.75 92.96 93.49 93.20 93.21 93.17 93.51 93.57 93.78 93.96 94.08 93.91 92.90 94.08 94.34 94.29 94.30 94.28 94.21 94.22 94.16 94.56 94.86 97.29 94.89 94.94 94.92 94.97 95.12 94.96 94.96 94.98 95.01 95.06 95.12 95.19 95.40 95.42 95.44 95.44 95.46 95.55 95.59 95.57 95.64 95.71 95.86 96.00 96.19
92.40 92.18 92.44 92.57 92.68 93.08 93.28 93.35 93.48 93.69 93.77 93.84 94.00 94.12 94.18 93.25 94.17 94.39 94.33 94.57 94.46 94.43 94.47 94.61 94.80 94.96 96.70 94.98 94.96 94.99 95.08 95.13 95.07 95.26 95.16 95.35 95.83 96.07 96.46 95.87 95.49 95.38 95.51 95.58 95.65 95.70 95.85 95.94 96.08 96.08 96.03 95.97
91.88 92.18 92.33 92.50 92.57 92.82 93.39 93.53 93.48 93.71 93.79 93.96 94.05 94.25 94.15 93.84 93.72 94.52 94.71 94.66 94.65 94.71 94.77 94.82 94.92 95.01 95.35 95.04 95.00 95.01 95.16 95.30 95.25 97.03 96.89 96.55 95.72 96.90 97.01 95.78 95.43 95.64 95.71 95.89 95.93 95.84 95.62 96.06 96.11 96.21 96.17 96.18
92.58 92.01 92.25 92.50 92.94 93.21 93.38 93.53 93.52 93.70 93.93 94.05 94.10 94.28 94.30 93.99 93.60 94.57 94.67 94.67 94.73 94.79 94.83 94.92 95.11 95.10 95.26 95.88 95.26 95.44 97.25 95.41 95.40 95.34 95.43 95.53 95.50 95.56 95.72 95.74 95.66 95.21 95.84 95.87 95.99 96.04 95.94 95.93 95.99 95.99 95.99 96.16
92.37 91.85 92.12 92.70 93.06 93.35 93.44 93.52 93.65 93.76 93.95 94.08 94.12 94.32 94.35 94.14 93.78 94.65 94.71 94.77 94.79 94.97 94.97 94.98 95.08 95.24 95.24 96.43 96.04 95.46 95.28 95.59 95.65 95.63 95.60 95.51 95.07 95.66 95.68 95.79 95.80 95.76 95.79 95.84 95.81 95.75 95.78 95.79 95.86 95.96 96.05 96.18
91.74 92.00 91.95 92.66 93.04 93.34 93.46 93.54 93.74 93.75 94.05 94.08 94.26 94.45 94.42 94.34 94.11 94.65 94.78 94.92 94.93 95.05 95.08 95.07 95.07 95.26 95.19 95.42 95.62 95.65 95.55 95.21 95.61 95.55 95.60 95.69 95.68 95.66 95.62 95.60 95.68 95.66 95.66 95.66 95.71 95.75 95.77 95.87 95.93 96.00 96.08 96.24
91.39 91.50 91.91 92.36 92.73 93.20 93.47 93.56 93.69 93.77 93.88 94.13 94.48 94.50 94.72 94.75 94.56 94.28 94.88 94.96 94.95 94.96 95.04 95.19 95.36 95.36 95.11 95.56 95.51 95.56 95.70 95.61 95.60 95.56 95.45 95.49 95.51 95.50 95.56 95.57 95.67 95.69 95.71 95.73 95.76 95.80 95.85 95.94 95.99 96.11 96.18 96.29
91.45 91.38 91.91 92.16 92.68 93.13 93.42 93.56 93.67 93.81 93.85 94.13 94.46 94.56 94.42 95.00 94.81 94.37 94.91 94.81 94.85 95.20 95.19 95.25 95.38 95.46 95.43 95.45 95.41 95.41 95.50 95.51 95.44 95.47 95.43 95.49 95.52 95.56 95.58 95.62 95.71 95.74 95.77 95.79 95.90 95.88 95.92 95.99 96.06 96.15 96.24 96.32
91.36 91.30 91.50 91.74 92.47 92.99 93.39 93.56 93.67 93.77 93.86 94.21 94.45 94.62 94.49 94.90 94.93 94.66 94.90 94.95 95.31 95.35 95.36 95.43 95.38 95.40 95.44 95.48 95.52 95.51 95.51 95.52 95.53 95.50 95.50 95.55 95.63 95.64 95.69 95.69 95.79 95.80 95.83 95.86 95.91 95.97 95.95 96.05 96.09 96.17 96.28 96.35
91.33 91.26 91.39 92.02 92.34 92.89 93.36 93.60 93.68 93.74 93.85 94.00 94.46 94.46 94.48 94.36 94.46 94.75 95.04 95.63 96.00 95.58 95.40 95.45 95.40 95.49 95.56 95.56 95.57 95.54 95.60 95.63 95.59 95.58 95.58 95.61 95.68 95.69 95.71 95.75 95.85 95.85 95.88 95.93 96.00 95.99 96.03 96.08 96.15 96.23 96.38 96.38
91.25 91.35 91.67 91.90 92.12 92.71 93.19 93.50 93.64 93.71 93.94 94.00 94.30 93.95 94.09 94.38 94.59 94.88 95.05 95.79 96.33 96.02 95.36 95.53 95.61 95.53 95.55 95.63 95.63 95.58 95.67 95.66 95.63 95.61 95.60 95.62 95.71 95.72 95.77 95.84 95.90 95.90 95.92 96.01 96.01 96.04 96.11 96.16 96.18 96.27 96.40 96.43
91.46 91.65 91.93 92.12 92.40 92.49 93.16 93.53 93.60 93.68 93.67 93.78 93.77 94.13 94.33 94.49 94.68 94.92 94.80 95.00 94.63 95.51 95.43 95.54 95.64 95.51 95.61 95.65 95.65 95.58 95.69 95.66 95.63 95.63 95.61 95.68 95.75 95.75 95.84 95.87 95.93 95.93 95.95 96.02 96.07 96.06 96.14 96.18 96.25 96.26 96.46 96.46
91.71 91.95 92.17 92.41 92.63 92.76 92.81 93.14 93.29 93.43 93.71 93.95 94.12 94.24 94.37 94.44 94.63 94.83 95.04 95.18 95.19 95.43 95.43 95.48 95.77 95.61 95.60 95.65 95.69 95.56 95.71 95.69 95.67 95.66 95.65 95.69 95.77 95.79 95.88 95.92 95.97 95.97 95.97 96.08 96.08 96.10 96.16 96.25 96.30 96.34 96.49 96.48
91.88 92.08 92.62 93.85 92.94 92.90 93.03 93.25 93.46 93.70 93.90 94.02 94.13 94.26 94.37 94.45 94.58 94.72 94.96 95.07 95.23 95.33 95.45 95.56 95.60 95.80 95.52 95.67 95.66 95.59 95.65 95.66 95.66 95.65 95.65 95.70 95.81 95.82 95.90 95.94 95.99 96.01 96.03 96.10 96.15 96.13 96.21 96.23 96.29 96.37 96.49 96.54
92.12 92.33 92.47 92.77 93.10 93.22 93.26 93.52 93.58 93.76 93.89 94.02 94.14 94.25 94.38 94.47 94.54 94.69 94.92 95.12 95.35 95.23 95.44 95.60 95.97 95.75 95.49 95.58 95.60 95.54 95.62 95.62 95.65 95.65 95.69 95.73 95.81 95.83 95.92 95.96 96.00 96.03 96.04 96.11 96.13 96.17 96.21 96.24 96.30 96.45 96.54 96.55
92.20 92.43 92.58 92.80 93.07 93.43 93.34 93.48 93.56 93.75 93.89 94.02 94.14 94.24 94.36 94.49 94.60 94.67 94.82 95.01 95.23 95.41 95.11 95.35 95.53 95.59 95.54 95.54 95.51 95.51 95.56 95.58 95.66 95.64 95.69 95.73 95.84 95.83 95.90 95.92 95.99 96.00 96.06 96.10 96.17 96.18 96.22 96.27 96.34 96.48 96.53 96.58
92.29 92.45 92.64 92.88 93.13 93.19 93.28 93.42 93.50 93.69 93.84 93.98 94.12 94.25 94.38 94.47 94.56 94.65 94.75 94.90 95.07 95.26 95.43 95.35 95.47 95.54 95.63 95.43 95.43 95.36 95.49 95.52 95.56 95.61 95.66 95.71 95.82 95.85 95.93 95.97 95.95 95.99 96.08 96.15 96.14 96.16 96.23 96.30 96.36 96.49 96.56 96.59
92.30 92.49 92.63 92.84 93.14 93.09 93.24 93.43 93.52 93.64 93.79 93.94 94.07 94.20 94.32 94.40 94.51 94.63 94.72 94.86 94.97 95.14 95.29 95.33 95.56 95.49 95.46 95.36 95.46 95.45 95.47 95.40 95.51 95.55 95.68 95.70 95.81 95.85 95.97 96.00 95.96 96.01 96.10 96.10 96.14 96.17 96.29 96.35 96.41 96.53 96.57 96.64
92.30 92.45 92.58 92.78 93.10 93.09 93.19 93.35 93.46 93.59 93.74 93.88 93.99 94.07 94.28 94.38 94.51 94.62 94.71 94.79 94.87 94.98 95.07 95.20 95.26 95.26 95.10 95.40 95.22 95.48 95.47 95.28 95.43 95.53 95.63 95.74 95.82 95.88 95.94 95.99 95.96 96.01 96.10 96.16 96.16 96.22 96.29 96.36 96.43 96.57 96.62 96.66
92.23 92.39 92.60 92.79 93.01 93.00 93.07 93.25 93.39 93.52 93.68 93.79 93.92 94.04 94.21 94.33 94.44 94.54 94.61 94.74 94.83 94.91 94.95 94.92 94.93 95.04 95.05 95.10 94.93 95.33 95.06 95.32 95.31 95.49 95.63 95.68 95.83 95.86 95.93 96.01 96.06 96.08 96.15 96.17 96.20 96.29 96.35 96.41 96.49 96.60 96.64 96.71
92.26 92.39 92.52 92.70 92.83 92.67 92.99 93.10 93.22 93.46 93.58 93.73 93.83 93.95 94.10 94.21 94.32 94.45 94.58 94.67 94.76 94.79 94.76 94.76 94.68 94.64 94.74 94.83 95.12 95.12 95.13 95.29 95.47 95.40 95.51 95.65 95.81 95.90 95.96 96.03 96.07 96.15 96.21 96.23 96.25 96.34 96.43 96.44 96.54 96.60 96.68 96.74
92.28 92.38 92.42 92.60 92.76 92.57 92.89 92.99 93.18 93.36 93.51 93.66 93.75 93.84 93.99 94.12 94.26 94.38 94.46 94.53 94.54 94.57 94.54 94.48 94.43 94.34 94.11 95.03 95.10 95.15 95.20 94.97 95.44 95.51 95.49 95.61 95.79 95.85 95.97 96.05 96.09 96.19 96.25 96.26 96.29 96.36 96.43 96.52 96.60 96.67 96.69 96.81
92.25 92.35 92.43 92.57 92.53 92.47 92.76 92.92 93.09 93.30 93.51 93.62 93.68 93.75 93.86 94.00 94.10 94.17 94.25 94.31 94.32 94.24 94.19 94.11 93.79 94.80 94.91 94.99 95.14 95.17 95.24 95.22 95.08 95.39 95.55 95.55 95.75 95.89 95.97 96.05 96.09 96.18 96.28 96.30 96.36 96.39 96.50 96.53 96.66 96.67 96.71 96.81
92.18 92.28 92.38 92.40 92.01 92.42 92.64 92.86 93.08 93.29 93.47 93.55 93.60 93.62 93.73 93.79 93.88 93.92 93.95 93.99 93.96 93.88 93.64 94.31 94.63 94.76 94.84 94.95 95.04 95.18 95.21 95.29 95.36 95.37 95.51 95.72 95.69 95.86 96.01 96.08 96.12 96.23 96.32 96.35 96.36 96.44 96.50 96.58 96.68 96.70 96.73 96.82
91.98 92.15 92.24 92.10 91.80 92.47 92.68 92.87 93.08 93.22 93.36 93.44 93.49 93.55 93.57 93.57 93.61 93.61 93.61 93.57 93.46 93.81 94.23 94.47 94.60 94.69 94.75 94.97 95.01 95.11 95.19 95.31 95.38 95.54 95.64 95.88 95.77 95.77 95.99 96.08 96.16 96.24 96.32 96.38 96.47 96.51 96.59 96.65 96.73 96.71 96.76 96.88
91.84 91.92 91.94 91.51 92.07 92.43 92.67 92.88 93.01 93.15 93.22 93.32 93.39 93.46 93.44 93.38 93.31 93.24 93.18 93.24 93.76 93.98 94.20 94.36 94.51 94.63 94.72 94.99 95.08 95.13 95.16 95.26 95.38 95.48 95.64 95.79 95.96 95.85 96.01 96.12 96.18 96.29 96.36 96.47 96.52 96.56 96.65 96.76 96.78 96.78 96.84 96.94
91.57 91.65 91.42 91.47 92.15 92.44 92.69 92.88 92.97 93.06 93.15 93.22 93.30 93.25 93.20 93.11 92.94 92.51 93.14 93.38 93.68 93.89 94.15 94.37 94.53 94.62 94.73 94.95 95.07 95.15 95.14 95.23 95.38 95.49 95.54 95.46 95.72 96.07 96.07 96.22 96.27 96.35 96.47 96.54 96.60 96.60 96.67 96.80 96.87 96.82 96.91 97.01
91.20 91.27 91.11 91.82 92.15 92.39 92.60 92.77 92.90 92.99 93.05 93.16 93.17 93.13 92.98 91.89 92.65 92.81 93.08 93.37 93.55 93.88 94.15 94.37 94.49 94.58 94.72 94.89 95.00 95.07 95.12 95.24 95.36 95.50 95.60 95.81 95.88 96.26 96.15 96.25 96.32 96.43 96.51 96.59 96.63 96.69 96.71 96.90 96.93 96.89 96.96 97.08
88.94 90.23 91.19 91.81 92.10 92.33 92.46 92.66 92.84 92.90 92.97 92.98 92.94 92.79 92.65 92.68 92.80 92.88 93.09 93.28 93.62 93.91 94.12 94.32 94.42 94.50 94.67 94.85 94.99 95.04 95.15 95.26 95.39 95.50 95.61 95.67 95.69 95.82 96.35 96.19 96.39 96.50 96.57 96.65 96.71 96.71 96.81 97.00 96.97 96.96 96.99 97.12
91.07 90.93 91.24 91.93 92.19 92.26 92.24 92.43 92.50 92.50 92.52 92.70 92.92 92.88 92.82 92.80 92.92 93.01 93.18 93.36 93.62 93.89 94.10 94.25 94.36 94.48 94.68 94.88 94.99 95.05 95.16 95.25 95.38 95.48 95.61 95.74 95.99 96.04 96.42 96.31 96.43 96.52 96.62 96.73 96.79 96.82 96.89 97.02 97.03 96.96 97.04 97.14
91.24 91.05 92.73 92.77 92.47 92.28 92.36 92.50 92.51 92.56 92.66 92.85 92.99 93.06 93.01 93.06 93.17 93.28 93.25 93.38 93.60 93.82 94.00 94.24 94.36 94.46 94.70 94.85 94.96 95.04 95.16 95.28 95.36 95.48 95.60 95.79 95.90 96.06 95.98 96.50 96.43 96.56 96.66 96.75 96.82 96.87 96.93 97.04 97.06 97.04 97.06 97.17
91.31 90.85 92.71 92.71 92.70 92.66 92.89 92.71 92.69 92.79 92.86 92.99 93.18 93.30 93.29 93.33 93.44 93.47 93.41 93.47 93.67 93.86 94.07 94.25 94.40 94.51 94.73 94.87 94.97 95.01 95.13 95.28 95.35 95.55 95.70 95.82 96.00 96.19 96.33 96.62 96.58 96.62 96.68 96.76 96.87 96.90 96.96 97.07 97.06 97.05 97.10 97.11
