ncols 52
nrows 52
xllcorner 441344
yllcorner 5716992
cellsize 10
NODATA_value -9999
94.22 94.33 94.41 94.43 94.51 94.60 94.68 94.71 94.81 94.88 94.83 94.77 94.77 94.73 94.68 94.60 94.49 94.38 94.25 94.12 94.01 93.85 93.93 93.62 93.51 93.57 93.57 93.64 93.67 93.74 93.75 93.79 93.78 93.80 93.81 93.81 93.86 93.77 93.68 93.58 93.59 93.56 93.53 93.42 93.32 93.20 93.11 93.02 92.94 92.85 92.75 92.66
94.33 94.44 94.50 94.57 94.65 94.73 94.74 94.82 94.90 94.94 94.90 94.87 94.83 94.76 94.70 94.63 94.52 94.40 94.26 94.15 93.99 93.93 93.80 93.67 93.62 93.64 93.68 93.67 93.69 93.76 93.81 93.82 93.84 93.81 93.79 93.71 93.89 93.89 93.86 93.81 93.76 93.68 93.59 93.51 93.37 93.24 93.17 93.10 93.03 92.95 92.83 92.73
94.42 94.49 94.63 94.70 94.75 94.79 94.89 94.91 94.96 95.00 95.00 94.93 94.90 94.81 94.74 94.65 94.52 94.38 94.26 94.14 93.95 93.94 93.62 93.82 93.69 93.69 93.75 93.76 93.84 93.83 93.84 93.73 93.85 93.92 93.96 94.03 94.03 94.06 94.00 93.92 93.81 93.74 93.63 93.56 93.47 93.37 93.29 93.19 93.11 93.04 92.96 92.91
94.50 94.60 94.70 94.78 94.84 94.90 94.97 95.03 95.06 95.11 95.04 94.93 94.89 94.84 94.74 94.60 94.45 94.37 94.23 94.14 93.99 93.99 93.92 93.88 93.81 93.83 93.88 93.86 93.88 93.76 93.96 94.01 94.03 94.08 94.10 94.11 94.17 94.11 94.03 93.95 93.90 93.83 93.78 93.68 93.60 93.46 93.39 93.33 93.27 93.18 93.10 93.01
94.60 94.69 94.78 94.86 94.91 94.97 95.01 95.08 95.13 95.15 95.06 94.94 94.90 94.81 94.72 94.63 94.47 94.35 94.19 94.08 94.02 93.96 94.00 93.92 93.90 93.94 93.93 93.93 94.00 93.99 94.16 94.15 94.13 94.15 94.16 94.19 94.20 94.19 94.13 94.08 94.01 93.96 93.89 93.82 93.74 93.65 93.55 93.47 93.35 93.25 93.14 93.07
94.68 94.74 94.83 94.89 94.93 94.97 95.04 95.13 95.18 95.19 95.15 94.99 94.89 94.78 94.63 94.50 94.42 94.39 94.32 93.75 94.15 94.14 94.06 94.01 93.99 93.99 93.98 93.96 94.16 94.18 94.27 94.22 94.25 94.24 94.27 94.34 94.35 94.32 94.27 94.22 94.17 94.11 94.05 93.97 93.86 93.74 93.63 93.51 93.41 93.36 93.29 93.20
94.73 94.81 94.89 94.92 95.02 95.05 95.11 95.16 95.17 95.13 95.03 94.88 94.79 94.79 94.74 94.63 94.57 94.52 94.43 94.30 94.15 94.10 94.09 94.09 94.07 94.06 94.05 94.07 94.21 94.36 94.43 94.35 94.36 94.40 94.43 94.48 94.52 94.47 94.41 94.39 94.31 94.22 94.14 94.04 93.96 93.82 93.76 93.64 93.57 93.47 93.40 93.32
94.80 94.87 94.91 94.94 94.99 94.96 94.98 94.99 95.04 95.08 94.92 94.82 94.85 94.87 94.71 94.85 94.65 94.52 94.40 94.30 94.20 94.17 94.19 94.17 94.17 94.14 94.14 94.17 94.33 94.49 94.54 94.51 94.56 94.59 94.61 94.64 94.66 94.59 94.51 94.46 94.39 94.33 94.22 94.17 94.09 94.00 93.85 93.79 93.71 93.60 93.54 93.43
94.73 94.76 94.79 94.86 94.93 94.96 94.93 94.96 94.99 94.95 94.99 95.01 94.98 94.98 94.82 94.76 94.68 94.55 94.45 94.37 94.32 94.31 94.30 94.27 94.26 94.24 94.27 94.30 94.45 94.60 94.65 94.69 94.71 94.70 94.74 94.72 94.73 94.67 94.61 94.54 94.48 94.46 94.38 94.30 94.22 94.12 94.01 93.92 93.83 93.75 93.68 93.60
94.79 94.81 94.87 94.93 94.99 94.99 95.05 94.97 94.93 94.85 94.88 94.90 94.93 94.93 94.85 94.83 94.78 94.65 94.52 94.43 94.39 94.42 94.44 94.38 94.36 94.37 94.40 94.39 94.56 94.75 94.75 94.78 94.75 94.76 94.80 94.81 94.82 94.78 94.74 94.69 94.66 94.59 94.55 94.46 94.36 94.28 94.19 94.09 94.01 93.92 93.83 93.73
94.93 94.93 95.01 94.93 95.00 95.01 94.90 94.88 94.79 94.78 94.88 94.96 94.99 95.00 94.96 94.92 94.86 94.71 94.64 94.54 94.50 94.51 94.53 94.50 94.46 94.49 94.48 94.54 94.65 94.83 94.87 94.89 94.85 94.86 94.86 94.90 94.94 94.93 94.88 94.85 94.82 94.77 94.70 94.64 94.55 94.46 94.37 94.26 94.14 94.08 93.97 93.88
94.92 94.91 94.89 94.89 94.89 94.90 94.92 94.85 94.85 94.86 94.92 95.01 95.07 95.10 95.04 95.01 94.97 94.79 94.69 94.63 94.62 94.62 94.63 94.60 94.58 94.59 94.58 94.64 94.77 95.00 95.00 94.97 94.90 94.98 95.03 95.08 95.11 95.08 95.04 95.03 95.03 94.96 94.91 94.83 94.73 94.62 94.53 94.42 94.34 94.24 94.18 94.06
94.91 94.90 94.90 94.93 94.93 94.94 94.96 94.92 94.91 94.85 94.93 95.07 95.09 95.12 95.11 95.04 95.06 94.86 94.78 94.73 94.71 94.71 94.69 94.67 94.67 94.66 94.73 94.78 94.89 95.15 95.09 95.13 95.07 95.11 95.21 95.28 95.29 95.27 95.23 95.21 95.20 95.16 95.10 95.01 94.92 94.85 94.74 94.63 94.50 94.36 94.25 94.15
94.99 94.93 94.90 94.94 94.96 94.90 94.97 94.92 94.93 94.90 94.95 95.08 95.09 95.18 95.17 95.04 95.09 94.94 94.84 94.78 94.77 94.78 94.77 94.71 94.73 94.74 94.82 94.92 95.03 95.26 95.14 95.29 95.18 95.24 95.37 95.45 95.46 95.47 95.44 95.41 95.38 95.38 95.33 95.26 95.16 95.01 94.87 94.72 94.60 94.50 94.42 94.30
95.01 94.95 94.93 94.92 94.93 94.93 94.96 94.95 94.96 94.95 95.00 95.12 95.17 95.21 95.22 95.10 95.15 94.98 94.89 94.85 94.84 94.85 94.81 94.79 94.81 94.88 95.00 95.07 95.16 95.29 95.34 95.42 95.38 95.42 95.51 95.63 95.68 95.67 95.64 95.61 95.61 95.57 95.50 95.39 95.25 95.12 94.99 94.97 94.75 94.59 94.47 94.32
95.02 94.97 94.95 94.94 94.94 94.94 94.99 94.97 94.99 94.98 95.05 95.15 95.20 95.25 95.25 95.21 95.25 95.06 95.01 95.04 95.01 94.98 94.98 95.02 95.02 95.09 95.14 95.22 95.32 95.41 95.46 95.57 95.53 95.60 95.69 95.81 95.90 95.87 95.80 95.76 95.73 95.68 95.60 95.53 95.47 95.28 95.14 94.96 94.81 94.69 94.56 94.43
95.04 94.99 94.96 94.96 95.01 94.98 95.00 95.02 95.01 95.03 95.12 95.21 95.26 95.29 95.35 95.31 95.40 95.25 95.25 95.29 95.21 95.21 95.21 95.24 95.27 95.23 95.24 95.31 95.37 95.43 95.58 95.70 95.71 95.75 95.82 95.92 95.98 95.96 95.92 95.86 95.86 95.83 95.87 95.69 95.54 95.35 95.17 95.01 94.90 94.72 94.58 94.44
95.07 95.02 95.00 95.03 95.01 95.03 95.02 95.04 95.07 95.11 95.23 95.28 95.35 95.40 95.47 95.47 95.39 95.43 95.45 95.44 95.39 95.35 95.31 95.31 95.31 95.31 95.33 95.38 95.45 95.52 95.69 95.82 95.83 95.87 95.93 96.02 96.07 96.11 96.05 96.12 95.97 95.93 95.81 95.69 95.53 95.44 95.23 95.06 94.93 94.80 94.69 94.57
95.06 95.06 95.05 95.05 95.06 95.08 95.11 95.11 95.12 95.20 95.32 95.38 95.45 95.52 95.58 95.61 95.61 95.57 95.53 95.47 95.41 95.39 95.34 95.39 95.39 95.38 95.47 95.52 95.58 95.70 95.86 95.95 96.00 96.00 96.02 96.13 96.25 96.25 96.20 96.10 96.01 95.92 95.88 95.79 95.57 95.46 95.30 95.19 95.06 94.92 94.80 94.69
95.09 95.10 95.09 95.14 95.11 95.13 95.16 95.15 95.17 95.24 95.36 95.46 95.54 95.60 95.72 95.77 95.62 95.62 95.56 95.55 95.49 95.46 95.42 95.45 95.52 95.54 95.58 95.65 95.79 95.86 95.99 96.11 96.18 96.21 96.29 96.25 96.29 96.34 96.28 96.21 96.09 96.00 95.91 95.78 95.65 95.55 95.42 95.29 95.18 95.02 94.88 94.74
95.08 95.11 95.14 95.16 95.17 95.17 95.16 95.19 95.20 95.27 95.38 95.53 95.63 95.72 95.79 95.81 95.75 95.73 95.62 95.62 95.60 95.55 95.54 95.58 95.60 95.69 95.75 95.82 95.95 96.05 96.16 96.22 96.33 96.32 96.31 96.34 96.38 96.44 96.40 96.25 96.14 96.06 95.98 95.86 95.75 95.63 95.49 95.35 95.23 95.04 94.91 94.79
95.13 95.17 95.19 95.19 95.22 95.23 95.18 95.23 95.24 95.31 95.44 95.59 95.76 95.81 95.89 95.88 95.82 95.85 95.73 95.70 95.66 95.67 95.65 95.67 95.78 95.83 95.90 96.03 96.14 96.21 96.33 96.42 96.55 96.48 96.43 96.48 96.50 96.49 96.46 96.36 96.22 96.15 96.03 95.90 95.76 95.63 95.51 95.35 95.21 95.07 94.96 94.83
95.21 95.22 95.22 95.27 95.27 95.26 95.26 95.31 95.37 95.43 95.55 95.70 95.82 95.87 95.91 95.94 95.90 95.94 95.82 95.76 95.76 95.78 95.78 95.79 95.89 96.01 96.10 96.18 96.32 96.38 96.47 96.50 96.58 96.55 96.55 96.58 96.56 96.54 96.50 96.37 96.24 96.13 96.03 95.88 95.75 95.62 95.50 95.36 95.26 95.12 95.00 94.88
95.29 95.31 95.30 95.37 95.40 95.43 95.43 95.47 95.53 95.62 95.70 95.82 95.93 95.95 95.99 95.97 95.96 95.98 95.91 95.86 95.87 95.88 95.86 95.92 96.01 96.12 96.27 96.36 96.43 96.54 96.62 96.64 96.78 96.68 96.61 96.59 96.52 96.48 96.42 96.34 96.21 96.11 96.00 95.87 95.76 95.62 95.49 95.39 95.26 95.15 95.01 94.92
95.39 95.43 95.44 95.54 95.58 95.62 95.63 95.64 95.72 95.78 95.85 95.91 96.01 96.02 96.01 96.04 96.03 96.07 96.01 95.96 95.94 96.00 96.03 96.07 96.13 96.28 96.39 96.48 96.58 96.64 96.70 96.74 96.85 96.71 96.58 96.52 96.45 96.42 96.38 96.31 96.21 96.12 96.00 95.89 95.75 95.62 95.49 95.37 95.26 95.13 95.00 94.91
95.50 95.54 95.58 95.66 95.73 95.77 95.77 95.81 95.88 95.92 95.95 96.05 96.08 96.06 96.05 96.07 96.08 96.10 96.09 96.06 96.08 96.11 96.17 96.24 96.28 96.42 96.53 96.60 96.68 96.76 96.76 96.79 96.88 96.71 96.56 96.48 96.46 96.44 96.40 96.33 96.24 96.13 96.01 95.86 95.74 95.61 95.48 95.36 95.24 95.15 95.02 94.93
95.57 95.62 95.69 95.76 95.86 95.92 95.92 95.96 96.03 96.06 96.10 96.11 96.13 96.13 96.07 96.09 96.14 96.18 96.15 96.15 96.16 96.25 96.32 96.34 96.45 96.52 96.60 96.76 96.77 96.79 96.85 96.85 96.92 96.78 96.61 96.52 96.49 96.46 96.42 96.35 96.23 96.13 96.00 95.88 95.74 95.62 95.49 95.36 95.25 95.17 95.05 94.96
95.61 95.64 95.75 95.85 95.96 96.01 96.04 96.07 96.14 96.19 96.17 96.18 96.16 96.15 96.12 96.17 96.24 96.21 96.26 96.25 96.31 96.36 96.44 96.49 96.53 96.64 96.68 96.78 96.84 96.85 96.84 96.87 96.92 96.84 96.65 96.54 96.51 96.47 96.42 96.35 96.26 96.13 96.01 95.88 95.76 95.63 95.54 95.41 95.29 95.21 95.11 95.04
95.69 95.73 95.80 95.92 96.04 96.08 96.12 96.15 96.20 96.23 96.19 96.19 96.21 96.19 96.17 96.20 96.25 96.27 96.36 96.38 96.43 96.50 96.59 96.64 96.66 96.69 96.78 96.86 96.86 96.89 96.86 96.88 96.90 96.90 96.72 96.58 96.54 96.49 96.42 96.36 96.26 96.16 96.03 95.92 95.79 95.68 95.58 95.49 95.38 95.31 95.18 95.11
95.74 95.77 95.82 95.91 96.03 96.10 96.17 96.14 96.21 96.21 96.21 96.18 96.19 96.22 96.22 96.28 96.27 96.28 96.43 96.52 96.56 96.62 96.73 96.74 96.79 96.82 96.85 96.89 96.95 96.93 96.88 96.87 96.88 96.90 96.74 96.61 96.56 96.48 96.44 96.36 96.28 96.15 96.05 95.96 95.85 95.76 95.67 95.57 95.46 95.39 95.25 95.15
95.78 95.78 95.84 95.90 96.01 96.09 96.14 96.15 96.15 96.18 96.22 96.17 96.21 96.23 96.26 96.30 96.32 96.38 96.52 96.62 96.65 96.73 96.79 96.86 96.85 96.89 96.92 96.94 96.94 96.95 96.90 96.86 96.84 96.92 96.76 96.60 96.56 96.51 96.46 96.42 96.32 96.22 96.13 96.07 95.96 95.90 95.77 95.67 95.54 95.44 95.32 95.18
95.81 95.82 95.86 95.90 95.97 96.06 96.11 96.10 96.13 96.13 96.18 96.19 96.20 96.29 96.30 96.33 96.38 96.41 96.57 96.71 96.75 96.79 96.87 96.90 96.93 96.93 96.90 96.96 96.94 96.89 96.89 96.85 96.84 96.88 96.76 96.62 96.59 96.55 96.53 96.47 96.40 96.32 96.27 96.20 96.10 95.99 95.89 95.76 95.60 95.47 95.33 95.19
95.80 95.79 95.85 95.89 95.97 96.04 96.07 96.06 96.07 96.12 96.17 96.20 96.27 96.34 96.37 96.36 96.43 96.51 96.59 96.73 96.84 96.83 96.90 96.99 96.97 96.95 96.96 96.94 96.93 96.91 96.84 96.83 96.82 96.87 96.78 96.68 96.62 96.60 96.59 96.56 96.48 96.43 96.38 96.31 96.19 96.11 95.96 95.80 95.65 95.51 95.35 95.22
95.78 95.83 95.83 95.87 95.94 96.03 96.04 96.01 96.05 96.09 96.15 96.18 96.30 96.37 96.41 96.41 96.46 96.51 96.62 96.75 96.88 96.88 96.88 96.96 96.99 96.97 96.98 96.93 96.93 96.89 96.85 96.77 96.76 96.83 96.76 96.68 96.66 96.66 96.66 96.62 96.55 96.51 96.46 96.39 96.32 96.20 96.04 95.88 95.72 95.54 95.40 95.25
95.74 95.81 95.78 95.84 95.92 95.97 96.02 96.02 96.02 96.07 96.16 96.21 96.30 96.39 96.43 96.45 96.48 96.54 96.65 96.72 96.88 96.87 96.90 96.94 96.95 96.98 96.95 96.91 96.95 96.89 96.81 96.71 96.69 96.73 96.70 96.67 96.68 96.71 96.74 96.71 96.61 96.60 96.53 96.50 96.42 96.26 96.11 95.98 95.77 95.62 95.48 95.33
95.76 95.76 95.77 95.84 95.86 95.96 95.98 96.01 96.01 96.07 96.15 96.24 96.30 96.39 96.46 96.48 96.54 96.61 96.65 96.73 96.86 96.86 96.84 96.90 96.90 96.91 96.93 96.88 96.86 96.85 96.74 96.58 96.59 96.63 96.64 96.68 96.70 96.77 96.82 96.82 96.74 96.71 96.67 96.60 96.51 96.37 96.20 96.04 95.85 95.66 95.55 95.36
95.70 95.72 95.76 95.79 95.84 95.92 95.94 95.98 96.00 96.04 96.13 96.21 96.27 96.35 96.43 96.47 96.54 96.57 96.61 96.73 96.81 96.85 96.80 96.82 96.86 96.90 96.88 96.83 96.78 96.74 96.65 96.50 96.48 96.53 96.60 96.67 96.73 96.82 96.89 96.93 96.87 96.82 96.77 96.71 96.57 96.42 96.24 96.07 95.86 95.71 95.56 95.39
95.65 95.70 95.73 95.78 95.79 95.86 95.89 95.98 95.96 96.05 96.14 96.22 96.25 96.32 96.40 96.45 96.55 96.55 96.56 96.68 96.74 96.75 96.71 96.74 96.74 96.80 96.79 96.71 96.63 96.64 96.57 96.43 96.43 96.48 96.61 96.67 96.77 96.88 96.93 96.99 96.96 96.90 96.83 96.71 96.61 96.43 96.26 96.08 95.87 95.71 95.57 95.41
95.62 95.70 95.71 95.76 95.73 95.81 95.86 95.92 95.95 96.01 96.10 96.20 96.22 96.28 96.34 96.41 96.52 96.52 96.51 96.59 96.61 96.60 96.54 96.54 96.58 96.61 96.60 96.56 96.50 96.46 96.48 96.40 96.48 96.56 96.69 96.74 96.81 96.90 97.00 97.08 97.05 96.96 96.88 96.76 96.65 96.46 96.28 96.08 95.90 95.74 95.60 95.48
95.58 95.65 95.68 95.71 95.71 95.75 95.83 95.87 95.92 95.99 96.04 96.15 96.18 96.24 96.31 96.34 96.45 96.49 96.44 96.39 96.41 96.40 96.36 96.35 96.40 96.46 96.50 96.46 96.44 96.45 96.50 96.50 96.62 96.66 96.83 96.82 96.87 96.98 97.08 97.10 97.04 96.94 96.84 96.72 96.59 96.42 96.23 96.04 95.80 95.65 95.55 95.44
95.54 95.62 95.60 95.65 95.62 95.69 95.77 95.82 95.87 95.94 95.97 96.06 96.12 96.21 96.25 96.31 96.37 96.42 96.39 96.27 96.22 96.22 96.24 96.31 96.34 96.43 96.53 96.53 96.51 96.57 96.62 96.69 96.72 96.76 96.85 96.98 96.98 97.02 97.14 97.17 97.10 96.98 96.86 96.75 96.63 96.49 96.29 96.09 95.93 95.80 95.61 95.52
95.44 95.54 95.56 95.56 95.60 95.65 95.72 95.77 95.80 95.88 95.90 95.96 96.07 96.17 96.23 96.35 96.38 96.46 96.35 96.20 96.20 96.27 96.38 96.46 96.46 96.58 96.68 96.72 96.67 96.69 96.76 96.81 96.89 96.96 97.00 96.96 97.04 97.18 97.21 97.29 97.24 97.15 97.06 96.91 96.64 96.29 96.04 96.05 96.00 95.84 95.69 95.57
95.36 95.45 95.47 95.50 95.53 95.59 95.66 95.82 95.91 95.98 95.99 96.08 96.15 96.25 96.29 96.38 96.46 96.51 96.40 96.39 96.35 96.49 96.57 96.61 96.65 96.73 96.85 96.90 96.87 96.88 96.94 96.96 96.85 96.79 96.82 97.16 97.26 97.29 97.32 97.36 97.26 97.11 96.93 96.77 96.62 96.44 96.26 96.06 95.90 95.74 95.61 95.49
95.28 95.34 95.43 95.49 95.51 95.59 95.69 95.82 95.89 95.97 96.02 96.07 96.10 96.18 96.21 96.25 96.25 96.29 96.31 96.31 96.21 96.23 96.56 96.77 96.82 96.85 96.88 96.89 96.89 96.90 96.93 97.00 97.04 97.04 97.08 97.13 97.19 97.23 97.25 97.24 97.20 97.04 96.85 96.73 96.58 96.40 96.21 96.04 95.86 95.72 95.59 95.48
95.14 95.17 95.24 95.29 95.34 95.54 95.65 95.69 95.73 95.73 95.53 95.45 95.75 95.83 95.96 96.08 96.14 96.22 96.48 96.39 96.57 96.61 96.63 96.65 96.66 96.70 96.74 96.76 96.77 96.78 96.85 96.96 97.03 97.04 97.10 97.15 97.20 97.25 97.26 97.27 97.21 97.05 96.86 96.72 96.54 96.38 96.21 96.02 95.83 95.66 95.54 95.43
94.98 94.97 94.91 94.79 94.15 94.24 95.43 93.70 93.79 95.17 95.40 95.61 95.84 95.98 96.06 96.13 96.17 96.24 96.39 96.39 96.53 96.53 96.56 96.59 96.64 96.70 96.76 96.77 96.77 96.81 96.92 97.03 97.10 97.10 97.11 97.17 97.23 97.24 97.25 97.26 97.22 97.04 96.85 96.69 96.52 96.36 96.20 96.04 95.90 95.74 95.60 95.49
93.33 94.28 94.88 95.13 95.29 95.39 95.67 95.46 95.55 95.70 95.68 95.79 95.93 96.00 96.07 96.09 96.16 96.23 96.35 96.50 96.62 96.56 96.56 96.61 96.66 96.70 96.77 96.79 96.81 96.88 96.96 97.07 97.16 97.15 97.18 97.21 97.26 97.29 97.31 97.29 97.26 97.14 96.94 96.75 96.61 96.43 96.26 96.11 95.98 95.83 95.70 95.56
94.77 94.88 95.08 95.30 95.33 95.46 95.73 95.77 95.70 95.72 95.78 95.82 95.93 96.10 96.15 96.19 96.21 96.31 96.39 96.53 96.67 96.58 96.57 96.64 96.68 96.73 96.80 96.83 96.86 96.93 97.02 97.12 97.21 97.22 97.23 97.26 97.29 97.32 97.33 97.35 97.34 97.22 97.03 96.83 96.65 96.48 96.30 96.15 96.00 95.85 95.71 95.57
94.94 95.10 95.25 95.45 95.50 95.56 95.74 95.79 95.79 95.88 95.89 95.97 96.05 96.17 96.22 96.28 96.33 96.39 96.43 96.56 96.65 96.62 96.63 96.69 96.71 96.75 96.83 96.89 96.92 96.98 97.08 97.19 97.27 97.31 97.33 97.36 97.37 97.38 97.38 97.37 97.33 97.19 97.00 96.79 96.59 96.41 96.26 96.12 95.98 95.85 95.71 95.59
95.14 95.24 95.38 95.52 95.63 95.69 95.84 95.91 95.92 96.00 96.03 96.04 96.13 96.21 96.28 96.34 96.35 96.43 96.47 96.59 96.64 96.61 96.66 96.71 96.74 96.78 96.86 96.93 96.96 97.03 97.14 97.26 97.35 97.40 97.41 97.42 97.44 97.43 97.40 97.32 97.22 97.10 96.95 96.76 96.58 96.41 96.28 96.14 96.03 95.92 95.81 95.69
95.28 95.39 95.47 95.63 95.70 95.77 95.92 95.94 96.02 96.06 96.12 96.13 96.16 96.26 96.31 96.33 96.40 96.44 96.51 96.56 96.65 96.65 96.69 96.75 96.79 96.82 96.89 96.96 97.00 97.08 97.19 97.31 97.45 97.48 97.45 97.45 97.43 97.41 97.36 97.26 97.18 97.08 96.96 96.81 96.67 96.51 96.36 96.24 96.12 96.00 95.90 95.80
95.40 95.50 95.56 95.71 95.81 95.86 95.99 96.04 96.10 96.16 96.18 96.17 96.22 96.29 96.34 96.36 96.42 96.48 96.50 96.62 96.65 96.68 96.73 96.79 96.86 96.88 96.94 97.04 97.06 97.13 97.23 97.39 97.51 97.54 97.49 97.44 97.40 97.35 97.32 97.24 97.18 97.09 96.98 96.86 96.70 96.55 96.43 96.29 96.15 96.06 95.95 95.82
