ncols 52
nrows 52
xllcorner 441344
yllcorner 5715968
cellsize 10
NODATA_value -9999
97.14 97.17 97.16 97.24 97.24 97.30 97.29 97.34 97.44 97.50 97.54 97.66 97.68 97.73 97.84 98.00 98.17 98.17 98.26 98.43 98.55 98.68 98.83 98.97 99.20 99.39 99.59 99.79 100.03 100.30 100.53 100.75 100.97 101.10 101.28 101.37 101.31 101.17 101.14 101.14 101.14 101.00 100.87 100.77 100.69 100.59 100.57 100.69 100.28 100.09 99.93 99.84
97.21 97.22 97.26 97.27 97.38 97.36 97.39 97.37 97.39 97.52 97.60 97.65 97.74 97.78 97.88 98.04 98.15 98.20 98.32 98.47 98.58 98.71 98.88 99.07 99.27 99.44 99.64 99.85 100.07 100.36 100.56 100.80 100.98 101.10 101.28 101.44 101.47 101.33 101.28 101.24 101.17 101.04 100.91 100.83 100.75 100.64 100.69 100.71 100.35 100.13 100.02 99.92
97.39 97.37 97.40 97.27 97.31 97.42 97.43 97.49 97.51 97.58 97.69 97.75 97.79 97.91 98.00 98.10 98.29 98.29 98.36 98.48 98.62 98.84 98.97 99.13 99.35 99.51 99.68 99.93 100.19 100.39 100.65 100.90 101.03 101.15 101.31 101.82 101.63 101.65 101.54 101.43 101.30 101.17 101.03 100.92 100.80 100.75 100.74 100.72 100.46 100.32 100.18 100.03
97.89 97.85 97.90 97.96 98.12 98.54 98.59 98.71 98.92 99.00 99.16 99.04 98.41 98.21 98.14 98.17 98.28 98.32 98.47 98.59 98.71 98.86 99.02 99.22 99.45 99.63 99.80 100.06 100.29 100.55 100.77 101.01 101.16 101.26 101.34 102.00 101.86 101.95 102.06 102.19 102.20 101.89 101.44 101.12 101.06 100.90 101.11 100.89 100.57 100.36 100.29 100.25
97.87 97.91 98.07 98.47 98.42 98.71 98.71 98.87 98.98 99.07 99.38 99.38 99.65 99.98 99.76 99.62 99.80 99.81 100.17 99.83 99.96 100.19 100.44 100.04 100.13 100.10 100.08 100.23 100.40 100.64 100.85 101.03 101.19 101.30 101.23 102.49 101.84 101.92 101.99 102.06 102.01 101.95 101.90 101.85 101.67 101.54 101.30 101.14 101.34 101.10 100.93 100.73
98.07 97.81 98.15 98.49 98.50 98.64 98.65 98.79 98.99 98.99 99.39 99.47 99.76 100.09 100.08 99.74 99.78 99.92 99.84 100.00 100.26 100.38 100.61 100.57 100.46 100.45 100.53 100.97 101.10 101.35 101.42 101.36 102.79 101.47 101.62 102.45 101.86 101.93 101.99 102.10 102.02 101.95 101.87 101.76 101.57 101.39 101.21 101.53 101.29 101.22 101.09 101.01
98.45 98.35 98.13 98.22 98.30 98.42 98.58 98.74 98.87 99.01 99.16 99.26 99.74 99.88 100.00 100.00 100.04 100.07 100.00 100.14 100.35 100.30 100.73 100.71 100.61 100.56 100.70 100.99 101.23 101.32 101.37 101.48 104.93 101.48 101.60 102.29 101.87 101.94 102.02 102.08 102.01 101.94 101.86 101.62 101.25 101.22 101.36 101.32 101.32 101.19 101.07 100.99
98.36 98.45 98.34 98.41 98.42 98.76 98.69 98.93 99.03 99.04 99.27 99.29 99.43 99.46 99.65 100.08 99.93 100.00 100.21 100.14 100.27 100.32 100.71 100.55 100.56 100.64 100.76 100.98 101.25 101.37 101.47 102.03 104.27 101.68 101.84 101.95 101.88 101.96 102.03 102.08 102.00 101.92 101.83 101.50 101.33 101.42 101.44 101.39 101.40 101.18 101.07 101.00
98.44 98.46 98.36 98.39 98.40 98.76 98.75 98.92 98.94 99.09 99.35 99.35 99.50 99.93 99.67 100.16 100.08 100.00 100.11 100.08 100.03 100.08 100.17 100.27 100.52 100.62 100.80 100.97 101.15 101.37 101.30 102.94 103.46 101.74 101.93 101.88 101.90 101.96 102.05 102.06 101.99 101.89 101.82 101.56 101.38 101.36 101.61 101.38 101.40 101.19 101.08 101.03
98.66 98.79 98.79 98.76 99.30 99.32 99.06 99.11 99.13 99.28 99.21 99.28 99.69 99.86 99.61 100.09 100.15 100.11 100.33 100.01 100.23 100.30 100.28 100.31 100.58 100.72 100.99 101.08 101.10 101.36 101.41 103.82 102.71 101.57 102.06 101.82 101.90 101.99 102.06 102.05 101.98 101.90 101.81 101.56 101.47 101.62 101.65 101.35 101.29 101.22 101.12 101.07
98.81 98.80 98.80 99.06 99.41 99.33 99.45 99.57 99.62 99.65 99.94 99.74 99.59 99.60 99.65 99.89 100.17 100.12 100.37 100.30 100.32 100.33 100.28 100.43 100.65 101.07 101.14 101.15 101.19 101.50 101.59 104.62 101.93 101.68 102.31 101.83 101.91 101.99 102.08 102.04 101.98 101.89 101.75 101.84 101.75 101.86 101.65 101.47 101.40 101.27 101.18 101.13
99.16 99.19 98.92 99.28 99.32 99.43 99.54 99.74 99.63 99.61 99.74 99.83 99.60 100.00 99.82 99.92 100.04 100.06 100.23 100.45 100.33 100.56 100.68 100.67 100.70 101.07 101.13 101.26 101.29 101.54 101.68 105.41 101.79 101.82 102.40 101.83 101.92 102.00 102.08 102.01 101.96 101.88 101.88 101.78 101.74 101.84 101.60 101.37 101.46 101.33 101.25 101.21
99.26 99.25 99.41 99.43 99.45 99.49 99.64 99.62 99.59 99.54 99.68 99.75 99.70 99.88 99.83 100.06 100.05 100.10 100.18 100.42 100.41 100.69 100.96 100.88 100.76 101.18 101.17 101.30 101.37 101.48 101.92 105.49 102.19 101.89 102.32 101.87 101.92 102.01 102.08 102.02 101.94 101.86 101.95 101.82 101.83 101.93 101.63 101.46 101.38 101.29 101.34 101.31
99.19 99.29 99.60 99.69 99.57 99.56 99.52 99.48 99.41 99.43 99.57 99.53 99.63 99.68 99.75 99.83 99.96 100.07 100.18 100.32 100.38 100.81 100.93 100.87 100.77 101.06 101.09 101.31 101.47 101.54 101.88 105.04 102.54 102.07 101.95 101.88 101.94 102.03 102.07 102.01 101.93 101.84 102.00 102.01 101.98 102.01 101.93 101.76 101.57 101.40 101.54 101.38
100.47 99.23 99.65 99.67 99.65 99.82 99.54 99.29 99.67 99.69 98.90 99.08 99.75 99.83 99.87 99.92 99.92 100.04 100.10 100.11 100.25 100.40 100.59 100.79 100.78 101.14 101.15 101.57 101.58 101.59 103.64 104.34 102.52 102.22 102.04 101.88 101.89 102.02 102.05 101.99 101.91 101.82 102.35 102.16 102.16 102.31 103.65 103.40 102.90 102.13 101.64 101.64
100.51 100.31 99.59 99.61 99.64 99.78 99.55 99.55 99.70 99.60 99.04 99.18 99.82 99.78 99.80 99.96 99.97 99.94 100.07 100.25 100.30 100.42 100.46 100.59 100.77 101.10 101.20 101.59 101.60 101.65 104.21 103.60 102.54 102.25 102.49 102.42 102.44 102.32 102.36 102.27 102.15 102.04 103.03 102.43 102.54 102.77 102.82 101.40 101.40 101.35 101.35 101.34
98.22 101.34 99.67 99.62 99.68 99.62 99.52 99.49 99.51 99.40 99.38 99.67 99.87 99.85 99.93 99.90 99.93 100.32 100.21 100.26 100.35 100.36 100.49 100.72 100.82 100.93 101.08 101.46 101.53 101.58 105.22 102.71 102.34 102.59 102.79 102.68 102.46 102.49 102.47 102.38 102.40 103.01 103.92 102.62 102.47 103.55 102.54 101.40 101.32 101.35 101.39 101.41
98.25 98.80 101.42 99.64 99.54 99.52 99.57 99.49 99.65 99.62 99.50 99.67 99.90 99.96 99.92 100.06 99.87 100.22 100.32 100.35 100.38 100.41 100.41 100.60 100.72 100.86 100.99 101.19 101.40 101.65 105.90 102.18 102.31 103.19 103.53 103.31 102.71 103.21 103.22 102.89 103.22 103.54 104.40 102.68 102.49 103.96 102.01 101.35 101.42 101.44 101.43 101.46
98.32 98.38 99.76 100.43 99.52 99.54 99.60 99.57 99.61 99.67 99.58 99.68 99.85 99.82 99.94 99.97 100.03 100.21 100.21 100.34 100.39 100.39 100.39 100.52 100.65 100.74 100.87 101.23 101.30 101.62 106.13 102.01 102.32 103.16 102.64 102.67 102.68 102.69 102.71 102.75 104.73 104.19 105.38 102.78 102.54 103.76 101.69 101.33 101.43 101.48 101.53 101.56
98.35 98.36 98.49 101.08 99.61 99.69 99.63 99.65 99.46 99.63 99.58 99.57 99.66 99.92 99.82 99.86 99.98 99.93 99.92 100.00 100.32 100.29 100.38 100.52 100.54 100.74 100.79 101.12 101.26 102.72 105.56 101.98 102.50 103.02 102.83 102.83 102.81 102.75 102.73 103.26 105.06 106.59 105.79 102.84 102.58 103.20 101.39 101.34 101.44 101.49 101.53 101.56
98.40 98.44 98.39 98.40 101.47 99.53 99.76 99.60 99.55 99.37 99.57 99.68 99.73 99.94 99.99 99.99 100.04 99.98 100.03 100.02 99.93 100.16 100.33 100.40 100.49 100.62 100.70 101.12 101.32 103.24 104.48 102.07 102.82 102.76 102.77 102.80 102.79 102.82 102.82 103.47 103.92 104.96 103.65 102.89 102.72 103.12 101.39 101.40 101.45 101.50 101.54 101.54
98.47 98.56 98.69 98.77 99.04 101.31 99.65 99.72 99.67 99.59 99.36 99.45 99.53 99.93 99.97 99.92 99.93 99.89 100.17 100.11 100.00 100.01 100.21 100.40 100.49 100.62 100.71 101.23 101.46 104.45 103.50 102.15 102.74 102.96 102.96 102.87 102.86 102.84 102.82 102.88 102.95 102.95 102.98 102.86 103.17 102.78 101.36 101.42 101.46 101.50 101.55 101.53
98.53 98.60 98.73 98.93 98.99 99.75 100.59 99.71 99.65 99.62 99.56 99.57 99.65 99.84 99.87 99.87 99.72 99.86 100.05 100.05 99.99 100.04 100.10 100.32 100.38 100.65 100.71 101.17 101.51 104.13 103.02 102.13 102.84 102.92 102.88 102.93 102.93 102.91 102.87 102.91 102.97 103.03 102.96 103.00 103.85 102.47 101.35 101.42 101.46 101.51 101.54 101.53
98.58 98.73 98.75 98.89 99.07 99.09 100.74 100.03 99.71 99.65 99.56 99.54 99.54 99.79 99.79 99.85 99.82 99.77 99.89 99.74 99.94 100.10 100.03 100.25 100.35 100.59 100.71 101.03 101.29 101.55 102.01 102.11 102.82 102.89 102.85 102.88 102.88 102.85 102.88 102.93 102.99 103.04 102.95 102.92 104.06 102.04 101.33 101.42 101.48 101.52 101.56 101.52
98.64 98.70 98.78 98.91 99.03 99.14 99.14 101.26 99.65 99.72 99.75 99.71 99.62 99.88 99.74 99.85 99.78 99.65 99.79 99.67 99.99 99.97 99.95 100.12 100.26 100.53 100.65 100.99 101.25 101.58 101.93 102.18 102.90 102.87 102.84 102.82 102.83 102.85 102.89 102.94 103.01 103.17 103.02 102.93 103.97 101.74 101.32 101.43 101.48 101.53 101.55 101.51
98.71 98.74 98.83 98.96 99.03 99.17 99.19 99.25 99.69 99.82 99.78 99.75 99.53 99.69 99.54 99.63 99.46 99.54 99.72 99.71 99.63 99.71 99.95 100.07 100.31 100.55 100.72 100.99 101.30 101.74 102.00 102.42 102.89 102.85 103.00 102.85 102.83 102.86 102.90 102.97 103.05 103.22 103.19 102.95 103.45 101.41 101.33 101.43 101.48 101.53 101.53 101.50
98.80 98.88 98.94 99.00 99.07 99.20 99.40 99.39 99.44 99.54 99.62 99.68 99.52 99.42 99.35 99.35 99.32 99.50 99.61 99.63 99.62 99.73 99.86 99.97 100.16 100.48 100.84 101.04 101.34 101.69 101.99 102.45 102.87 102.83 102.99 102.90 102.97 102.88 102.93 103.16 103.08 103.19 103.30 103.06 103.18 101.42 101.39 101.46 101.50 101.54 101.53 101.49
99.03 99.15 99.22 99.28 99.30 99.39 99.57 99.47 100.03 99.79 99.61 99.49 99.16 98.96 98.83 98.76 99.17 99.19 99.26 99.39 99.61 99.64 99.90 100.10 100.15 100.71 100.86 101.12 101.41 101.57 101.99 102.61 102.85 102.82 102.89 102.72 102.27 102.90 102.96 103.03 103.16 103.24 103.22 103.10 102.74 101.39 101.41 101.45 101.50 101.54 101.51 101.48
99.32 99.44 99.45 99.43 99.48 99.66 99.50 99.50 99.73 99.39 99.53 98.61 97.40 97.35 97.36 97.36 97.35 98.31 99.26 99.38 99.45 99.69 100.01 100.12 100.15 100.52 100.85 101.22 101.39 101.57 101.97 102.66 102.81 102.94 102.98 102.79 102.90 103.01 102.99 103.07 103.07 103.25 103.36 103.97 102.68 101.42 101.31 101.36 101.40 101.44 101.51 101.48
99.25 99.38 99.44 99.54 99.70 99.67 99.47 99.54 99.34 99.18 99.14 99.04 98.74 98.64 98.92 98.96 99.18 99.20 99.07 99.14 99.35 99.56 99.79 100.08 100.33 100.62 100.94 101.17 101.30 101.62 101.96 102.52 102.80 103.01 103.10 103.00 103.07 102.95 103.02 103.12 103.03 103.38 103.29 104.12 102.24 101.42 101.35 101.33 101.36 101.39 101.38 101.32
98.98 99.08 99.53 99.45 99.45 99.47 99.56 99.33 99.29 99.27 98.89 98.92 98.84 98.81 98.83 98.31 98.40 98.45 98.58 98.96 99.44 99.04 99.16 99.48 100.18 100.62 100.93 101.20 101.46 101.75 102.15 102.35 102.69 102.92 103.05 103.15 103.17 103.14 103.00 103.04 103.13 103.33 103.24 102.83 102.87 103.29 102.31 101.32 101.31 101.33 101.33 101.32
98.94 99.00 99.25 99.33 99.22 99.18 99.18 99.15 99.04 98.99 98.85 98.71 98.75 98.63 98.63 98.62 98.22 98.01 97.99 99.42 99.60 99.39 99.54 99.74 100.03 100.35 100.65 101.07 101.47 101.83 102.12 102.36 102.40 102.55 102.89 103.04 103.26 103.37 103.43 103.38 103.17 103.28 103.11 102.73 102.46 102.23 102.14 102.37 101.49 101.36 101.37 101.57
98.90 98.94 99.16 99.23 99.05 99.11 99.06 99.09 98.97 98.88 98.80 98.68 98.53 98.52 97.33 97.97 98.86 99.22 99.43 99.60 99.72 99.54 100.05 100.32 100.32 100.47 100.79 101.11 101.54 101.84 102.56 102.62 102.77 102.95 103.12 103.36 103.56 103.64 103.57 103.40 103.21 103.02 102.86 102.68 102.40 102.17 101.89 101.65 101.71 101.45 101.81 101.90
98.79 98.90 99.03 99.11 98.91 98.94 99.11 98.93 98.79 98.82 98.54 98.59 98.35 98.56 99.57 99.68 99.83 99.74 100.00 99.99 99.79 100.05 100.07 100.34 100.42 100.67 100.94 101.18 101.70 102.18 102.62 102.75 102.83 102.96 103.14 103.25 103.34 103.33 103.32 103.24 103.10 102.97 102.95 102.90 102.44 101.95 101.67 101.43 101.27 101.02 100.74 100.53
98.61 98.82 98.92 99.00 98.76 98.94 99.27 99.96 98.79 98.84 98.54 98.53 98.40 98.27 98.65 100.19 99.87 99.84 100.11 100.00 99.95 100.13 100.15 100.37 100.51 100.82 101.11 101.40 101.74 102.13 102.79 102.82 102.89 102.99 103.11 103.24 103.26 103.21 103.17 103.08 102.96 102.82 102.66 102.50 102.29 102.03 101.69 101.36 101.02 100.98 100.63 100.43
98.44 98.67 98.73 98.77 98.67 99.28 100.34 101.24 99.87 98.68 98.55 98.56 98.51 98.31 98.46 100.60 99.92 100.31 100.04 100.10 100.12 100.08 100.21 100.56 100.79 100.84 101.11 101.47 101.82 102.20 102.84 102.88 102.92 103.06 103.13 103.24 103.23 103.15 103.04 102.95 102.82 102.73 102.60 102.38 102.20 101.96 101.64 101.32 101.06 100.81 100.53 100.36
98.40 98.50 98.48 98.55 98.10 98.73 100.44 100.93 99.41 98.51 98.52 98.48 98.57 98.48 98.47 98.90 100.34 100.33 100.23 100.34 100.28 100.23 100.43 101.03 100.96 100.96 101.36 101.58 102.06 102.24 102.58 102.93 102.92 102.99 103.07 103.13 103.15 103.10 102.99 102.89 102.79 102.67 102.49 102.24 102.03 101.76 101.49 101.20 100.95 100.68 100.64 100.30
97.28 98.26 98.23 97.94 96.97 96.85 98.98 100.72 98.34 98.44 98.52 98.47 98.50 98.46 98.51 98.58 101.03 100.36 100.20 100.15 100.44 100.48 100.49 100.72 100.96 101.15 101.33 101.67 102.14 102.36 102.58 102.99 102.92 102.97 102.95 103.03 103.02 102.99 102.89 102.80 102.68 102.52 102.35 102.10 101.88 101.62 101.38 101.12 100.84 100.60 100.53 100.22
97.83 97.89 97.68 97.60 96.92 96.86 97.83 98.37 97.71 98.23 98.42 98.41 98.46 98.44 98.80 98.63 99.95 99.94 100.25 100.18 100.51 100.57 100.63 100.93 101.04 101.12 101.54 101.76 102.07 102.23 102.37 102.92 102.96 102.91 102.90 102.96 102.95 102.90 102.80 102.69 102.57 102.40 102.22 101.94 101.74 101.49 101.24 100.97 100.77 100.49 100.46 100.09
97.59 97.78 97.79 97.40 96.90 96.83 96.94 97.33 97.59 97.57 97.79 98.16 98.32 98.38 98.43 98.72 98.85 101.02 100.83 100.95 100.58 100.55 100.73 101.00 101.07 101.14 101.25 101.87 102.11 102.32 102.52 102.88 103.03 102.87 102.79 102.88 102.85 102.82 102.70 102.58 102.44 102.28 102.08 101.81 101.60 101.34 101.07 100.84 100.61 100.35 100.25 99.97
97.18 97.46 97.73 97.18 96.86 96.80 96.83 97.04 97.22 98.84 97.90 98.16 98.32 98.28 98.37 98.94 98.79 101.13 100.86 101.01 100.46 100.57 101.03 101.32 101.44 101.82 101.88 101.99 102.22 102.39 102.61 102.83 102.88 102.78 102.76 102.81 102.80 102.70 102.57 102.46 102.31 102.13 101.90 101.63 101.40 101.18 100.91 100.66 100.47 100.24 100.18 99.85
96.99 97.14 97.57 97.60 97.01 96.84 96.98 96.96 96.96 98.90 97.77 98.10 98.31 98.26 98.37 98.59 99.03 99.43 101.29 100.69 100.78 100.89 101.11 101.40 101.52 101.74 101.84 102.15 102.34 102.56 102.60 102.74 102.83 102.71 102.79 102.79 102.71 102.59 102.49 102.36 102.22 102.07 101.82 101.53 101.24 100.99 100.75 100.49 100.33 100.08 100.02 99.69
97.04 97.02 97.35 97.54 97.73 97.27 97.71 97.46 97.16 97.49 98.74 98.06 98.07 98.27 98.37 98.68 99.28 99.21 101.32 100.26 100.87 101.07 101.14 101.47 101.63 101.72 101.85 102.20 102.33 102.60 102.67 102.77 102.77 102.71 102.75 102.76 102.67 102.54 102.38 102.26 102.12 101.93 101.65 101.34 101.08 100.81 100.56 100.34 100.18 99.94 99.84 99.54
97.02 97.85 97.72 97.65 97.78 97.69 97.67 97.49 97.38 97.31 97.46 97.65 97.93 98.14 98.55 98.75 98.93 99.46 99.51 101.77 100.88 101.12 101.43 101.46 101.89 102.02 102.00 102.18 102.37 102.60 102.74 102.76 102.87 102.68 102.87 102.68 102.61 102.55 102.39 102.25 101.84 101.99 101.67 101.64 101.25 100.88 100.62 100.34 100.12 99.82 99.70 99.40
96.85 97.85 97.51 97.43 97.66 97.75 97.40 96.71 96.46 97.14 97.64 97.46 97.79 98.11 98.31 98.52 98.79 99.38 99.60 100.40 101.42 101.42 101.46 101.50 102.11 102.08 101.97 102.21 102.46 102.57 102.82 102.87 103.01 102.50 102.53 102.62 102.54 102.50 102.12 102.09 101.81 101.60 101.53 101.29 101.11 101.18 101.16 101.20 101.31 101.03 99.43 99.26
96.44 96.94 97.06 96.95 97.76 97.71 97.20 95.45 94.42 94.83 96.79 96.89 97.55 97.67 98.32 98.33 98.89 99.06 99.58 99.58 101.35 101.40 101.48 101.58 101.83 102.24 102.27 102.48 102.49 102.61 102.81 102.75 102.72 102.49 102.43 102.41 102.51 102.38 102.10 102.00 101.82 101.57 101.50 101.06 101.08 101.01 101.26 101.40 100.28 98.77 99.29 99.13
96.32 96.67 96.86 97.01 97.72 97.65 97.04 95.58 94.42 95.18 96.30 96.72 97.07 97.37 97.74 98.10 98.76 99.15 99.30 100.10 99.92 102.38 102.31 101.69 101.92 101.96 102.60 102.62 102.48 102.53 102.69 102.75 102.82 102.49 102.36 102.19 102.10 102.08 101.90 101.67 101.43 101.19 100.99 100.77 100.82 100.85 100.97 101.33 101.26 99.47 99.19 99.04
96.37 96.57 96.89 96.88 97.61 97.71 96.97 95.78 96.07 97.46 97.50 96.71 97.20 97.31 97.76 98.24 98.44 99.05 99.48 99.72 100.29 100.50 101.99 101.90 101.99 101.97 102.59 102.62 102.61 102.56 102.58 102.78 102.73 102.46 102.40 102.32 101.95 101.86 101.82 101.76 101.37 101.05 101.01 100.85 100.47 100.45 100.49 100.38 100.12 99.67 99.12 99.00
96.22 96.39 96.32 96.23 96.38 97.50 97.69 96.72 96.88 97.50 97.00 96.68 97.14 97.29 97.95 98.06 98.36 98.85 99.32 99.72 100.06 100.51 101.22 101.07 101.51 101.91 102.35 102.67 102.72 102.75 102.74 102.64 102.68 102.47 102.42 102.20 101.94 101.61 101.72 101.73 101.62 101.38 101.19 101.00 100.63 100.48 100.38 100.40 100.26 99.80 98.99 98.86
94.30 94.03 93.69 93.97 94.91 96.18 97.33 97.42 97.33 97.43 97.39 96.76 97.10 97.29 97.68 97.99 98.34 98.77 99.17 99.79 100.01 100.35 100.79 101.16 101.51 101.93 102.50 102.67 102.71 102.82 102.78 102.57 102.61 102.40 102.14 102.08 102.01 101.60 101.71 101.48 101.22 101.01 100.94 100.77 100.49 100.44 100.29 100.26 100.06 99.82 98.78 98.63
93.47 93.61 93.36 93.96 94.36 94.87 95.91 96.83 97.10 97.17 96.71 96.68 97.07 97.46 97.66 98.01 98.55 98.81 99.28 99.81 100.37 100.65 100.82 101.09 101.52 101.88 102.08 102.61 102.68 102.82 102.79 102.64 102.56 102.43 102.18 102.08 102.01 101.49 101.51 101.47 101.12 101.00 100.74 100.62 100.43 100.35 100.22 99.83 99.36 99.16 99.15 98.92
93.24 93.25 93.07 94.09 94.42 94.66 94.99 96.57 96.93 96.82 96.62 96.82 97.06 97.34 97.64 97.99 98.62 99.04 99.49 99.92 100.36 100.74 101.11 101.34 101.49 101.90 102.16 102.68 102.65 102.72 102.71 102.67 102.49 102.50 102.17 102.04 101.95 101.52 101.50 101.56 101.12 101.04 100.64 100.63 100.47 100.35 100.26 99.77 99.64 99.21 99.54 99.12
