ncols 52
nrows 52
xllcorner 441344
yllcorner 5714944
cellsize 10
NODATA_value -9999
99.38 99.38 99.28 99.43 99.56 99.71 99.96 100.28 100.27 100.63 100.85 101.21 101.39 101.62 101.71 101.75 101.70 101.68 101.95 101.68 101.44 101.44 101.42 101.35 101.26 101.29 101.32 101.40 101.45 101.21 101.16 101.21 101.17 101.03 100.96 100.75 99.89 100.88 100.82 100.61 100.47 100.54 100.44 100.32 100.10 100.07 100.18 99.76 99.34 99.26 99.18 99.10
99.76 99.77 99.70 99.68 100.02 100.07 100.19 100.45 100.77 100.68 101.06 101.34 101.56 101.64 101.69 101.74 101.60 101.57 101.46 101.46 101.31 100.36 99.89 101.09 101.29 101.28 101.56 101.67 101.61 101.29 101.29 101.20 101.20 101.04 101.04 100.83 99.88 100.89 100.88 100.92 100.81 100.57 100.29 100.17 100.04 100.31 100.22 99.30 99.19 99.12 99.07 99.06
100.16 100.22 100.18 100.07 100.52 100.47 100.55 100.67 100.99 101.10 101.25 101.38 101.54 101.60 101.62 101.55 101.51 101.47 101.40 101.32 101.12 99.90 99.89 100.96 101.27 101.30 101.80 101.55 101.57 101.48 101.43 101.39 101.31 101.07 101.02 100.90 99.82 100.83 100.87 100.90 100.79 100.51 100.26 98.85 100.65 100.91 101.03 99.37 99.26 99.18 99.08 99.10
100.54 100.58 100.58 100.57 100.72 100.92 100.98 101.01 101.31 101.38 101.46 101.47 101.55 101.68 101.66 101.62 101.49 101.45 101.32 101.28 101.13 101.08 101.01 101.17 101.35 101.37 101.71 101.71 101.53 101.49 101.39 101.41 101.38 100.96 101.22 101.27 99.78 100.79 100.71 100.77 100.67 100.50 100.30 100.28 101.15 101.10 101.07 101.11 101.06 100.76 99.01 99.13
100.89 100.92 100.96 100.86 100.78 101.22 101.28 101.32 101.42 101.48 101.52 101.64 101.71 101.78 101.71 101.58 101.41 101.33 101.34 101.32 101.27 101.24 101.27 101.34 101.37 101.33 101.66 101.62 101.56 101.49 101.38 101.32 101.35 101.01 101.21 101.26 99.54 100.28 100.86 100.75 100.73 100.42 100.49 99.55 100.50 100.49 101.05 101.10 100.92 100.65 99.22 99.16
101.18 101.23 101.30 101.28 101.12 101.54 101.51 101.59 101.66 101.83 101.86 101.86 101.83 101.90 101.76 101.60 101.90 101.53 101.58 101.43 101.50 101.49 101.46 101.41 101.58 101.46 101.61 101.61 101.56 101.48 101.39 101.28 101.20 101.07 101.10 101.23 100.36 99.63 101.02 100.83 100.72 100.68 100.65 100.29 101.15 101.18 101.04 101.22 100.19 100.38 99.25 99.18
101.47 101.45 101.49 101.51 101.41 101.52 101.78 101.81 101.81 102.00 102.16 101.95 101.94 101.97 101.86 101.83 101.82 101.90 101.90 101.78 101.68 101.45 101.44 101.40 101.58 101.52 101.53 101.52 101.53 101.52 101.44 101.39 101.36 101.24 100.99 100.95 100.80 99.93 100.99 100.93 100.95 100.92 100.88 100.26 100.36 100.22 100.65 99.86 100.06 99.76 99.40 99.20
101.72 101.74 101.73 101.74 101.71 101.51 101.98 102.00 101.98 102.15 102.13 102.36 102.35 102.15 102.04 101.97 102.04 102.00 102.18 101.85 101.78 101.78 101.75 101.65 101.58 101.43 101.40 101.26 101.51 101.50 101.43 101.37 101.41 101.33 100.89 100.93 100.95 99.93 100.94 100.95 100.87 100.76 100.61 100.37 100.49 100.45 100.20 100.18 99.89 100.04 99.89 99.43
101.96 101.96 101.99 101.97 102.02 101.86 102.23 102.20 102.13 102.17 102.19 102.42 102.40 102.40 102.29 102.21 102.07 101.99 102.23 101.78 101.72 101.71 101.61 101.54 101.46 101.58 101.24 100.97 100.92 100.80 101.00 101.08 101.21 101.17 100.84 100.84 100.70 99.92 100.97 100.93 100.90 100.82 100.71 100.48 100.47 100.48 100.22 100.19 100.11 100.10 99.99 99.69
102.26 102.29 102.31 102.32 102.31 102.23 102.18 102.37 102.32 102.27 102.32 102.39 102.57 102.33 102.24 102.13 101.90 101.71 101.56 101.62 101.63 101.60 101.49 101.38 101.22 101.06 100.94 101.09 101.20 101.30 101.17 100.74 100.26 100.24 100.14 100.22 100.11 100.00 100.94 101.52 100.82 100.75 100.94 100.72 100.46 100.58 100.19 100.14 100.12 99.93 99.72 99.57
102.37 102.35 102.42 102.51 102.58 102.48 102.46 102.43 102.43 102.42 102.36 102.28 102.19 102.09 102.00 101.87 101.79 101.63 101.75 102.08 102.05 101.93 101.82 101.68 101.54 101.39 101.24 101.18 101.25 101.32 101.36 101.33 101.26 101.21 101.15 101.21 101.08 100.10 100.56 102.21 100.78 100.82 101.09 100.73 100.62 100.64 100.26 100.21 100.21 100.32 99.84 99.57
102.73 102.79 102.83 102.87 102.88 102.87 102.85 102.72 102.68 102.73 102.54 102.52 102.47 102.44 102.40 102.39 102.37 102.33 102.29 102.23 102.14 102.00 101.88 101.75 101.57 101.43 101.32 101.29 101.31 101.42 101.50 101.47 101.44 101.38 101.30 101.29 101.21 100.22 100.26 101.37 100.67 100.53 100.99 100.82 100.40 100.33 100.15 99.92 100.25 100.13 99.93 99.65
102.73 102.79 102.79 102.78 102.81 102.79 102.76 102.90 102.87 102.96 102.78 102.64 102.53 102.52 102.50 102.49 102.49 102.48 102.43 102.37 102.30 102.18 102.03 101.87 101.69 101.53 101.38 101.26 101.29 101.43 101.56 101.57 101.53 101.49 101.43 101.40 101.33 100.46 100.15 100.43 100.31 100.31 100.27 100.42 100.13 99.99 99.71 99.69 99.61 99.71 99.72 99.68
102.80 102.88 102.90 102.90 102.92 102.89 102.97 102.97 103.04 103.13 102.92 102.77 102.72 102.69 102.68 102.62 102.63 102.58 102.53 102.46 102.36 102.22 102.07 101.92 101.73 101.53 101.38 101.31 101.31 101.44 101.60 101.64 101.64 101.59 101.50 101.38 101.38 101.05 100.21 101.36 100.31 100.34 100.31 100.33 100.27 100.22 99.90 99.71 99.03 98.31 98.59 98.83
102.88 102.96 102.99 103.00 103.02 103.03 103.07 103.10 103.18 103.34 103.09 102.91 102.84 102.77 102.77 102.76 102.74 102.71 102.65 102.55 102.42 102.27 102.14 102.01 101.81 101.60 101.43 101.39 101.40 101.56 101.71 101.78 101.75 101.69 101.61 101.48 101.47 101.32 100.31 100.18 100.40 100.32 100.37 100.36 100.32 100.33 100.21 100.10 97.47 98.01 99.25 99.21
103.01 103.09 103.13 103.14 103.18 103.21 103.21 103.26 103.35 103.50 103.28 103.04 102.98 102.94 102.93 102.92 102.92 102.86 102.79 102.69 102.52 102.37 102.20 102.04 101.89 101.69 101.56 101.51 101.58 101.72 101.85 101.87 101.82 101.76 101.67 101.55 101.53 101.36 100.40 100.41 100.18 100.86 100.49 100.34 100.26 100.75 100.59 97.46 97.37 99.84 99.49 99.31
103.13 103.21 103.26 103.29 103.36 103.39 103.38 103.42 103.53 103.70 103.43 103.25 103.16 103.10 103.10 103.06 103.02 102.98 102.90 102.78 102.61 102.49 102.36 102.20 101.99 101.84 101.74 101.71 101.79 101.93 101.99 101.97 101.86 101.78 101.72 101.65 101.57 101.40 100.47 100.31 99.97 99.47 98.85 98.23 97.60 97.07 96.67 96.33 98.54 99.71 99.47 99.33
103.25 103.33 103.38 103.43 103.50 103.53 103.56 103.58 103.70 103.87 103.60 103.38 103.26 103.20 103.15 103.11 103.06 103.00 102.94 102.89 102.82 102.69 102.57 102.40 102.24 102.08 102.01 101.99 102.02 102.05 102.10 102.01 101.95 101.85 101.79 101.77 101.68 101.50 100.65 100.37 100.02 99.51 99.21 99.96 100.09 99.08 96.64 95.59 95.40 97.43 99.44 99.41
103.36 103.44 103.51 103.58 103.64 103.69 103.71 103.74 103.86 103.99 103.74 103.51 103.35 103.26 103.20 103.17 103.15 103.08 103.03 103.01 102.99 102.88 102.74 102.61 102.45 102.35 102.26 102.20 102.19 102.20 102.18 102.16 102.07 102.00 101.94 101.88 101.75 101.60 101.13 100.48 100.31 101.82 100.89 100.86 100.82 100.75 100.89 98.53 94.83 94.48 96.72 99.43
103.47 103.58 103.63 103.70 103.79 103.85 103.88 103.93 104.03 104.13 103.90 103.64 103.46 103.38 103.36 103.28 103.23 103.19 103.16 103.11 103.05 102.97 102.86 102.76 102.65 102.53 102.44 102.39 102.33 102.34 102.30 102.26 102.21 102.13 102.08 101.94 101.79 101.66 101.45 100.59 100.28 100.81 100.80 100.75 100.80 100.68 100.50 100.74 97.34 94.05 93.88 97.57
103.62 103.73 103.78 103.84 103.92 103.96 104.02 104.07 104.18 104.28 104.09 103.72 103.60 103.49 103.44 103.38 103.33 103.29 103.24 103.18 103.12 103.04 102.96 102.85 102.77 102.69 102.61 102.53 102.49 102.46 102.42 102.37 102.29 102.21 102.12 102.02 101.86 101.69 101.51 100.65 100.89 100.80 100.79 100.74 100.67 100.53 100.35 100.26 101.19 96.82 93.40 93.99
103.76 103.88 103.91 103.97 104.02 104.07 104.12 104.18 104.30 104.43 104.17 103.84 103.71 103.61 103.54 103.48 103.43 103.35 103.32 103.28 103.25 103.18 103.10 103.00 102.91 102.81 102.72 102.63 102.57 102.53 102.46 102.40 102.32 102.24 102.15 102.07 101.95 101.80 101.66 100.75 100.97 101.04 100.89 101.44 100.94 101.20 101.26 100.74 100.07 99.08 95.07 93.35
103.85 103.98 104.04 104.07 104.13 104.19 104.24 104.31 104.41 104.54 104.29 104.02 103.83 103.74 103.67 103.60 103.52 103.46 103.44 103.44 103.40 103.33 103.21 103.08 102.99 102.91 102.79 102.71 102.63 102.56 102.51 102.45 102.36 102.30 102.24 102.15 102.05 101.96 101.83 101.10 100.90 101.03 101.59 100.98 101.08 101.21 101.24 101.01 100.30 99.86 97.05 93.44
103.90 104.07 104.15 104.18 104.25 104.32 104.36 104.43 104.56 104.68 104.45 104.20 103.99 103.87 103.80 103.72 103.62 103.58 103.57 103.54 103.51 103.43 103.26 103.13 103.04 102.95 102.86 102.77 102.69 102.65 102.57 102.51 102.44 102.35 102.27 102.19 102.10 101.97 101.93 101.70 100.86 101.04 101.48 101.25 101.29 101.25 101.21 100.88 100.01 99.38 99.51 96.00
103.95 104.15 104.26 104.31 104.36 104.42 104.48 104.55 104.69 104.82 104.61 104.32 104.13 104.01 103.93 103.83 103.75 103.71 103.67 103.65 103.60 103.50 103.35 103.20 103.07 102.99 102.89 102.80 102.71 102.65 102.61 102.56 102.48 102.43 102.35 102.28 102.16 102.01 101.98 101.83 100.86 101.26 101.77 101.49 101.59 101.55 101.20 100.16 99.68 99.35 98.88 99.48
104.01 104.23 104.36 104.40 104.49 104.54 104.61 104.67 104.79 104.94 104.71 104.39 104.21 104.13 104.03 103.95 103.86 103.80 103.76 103.71 103.65 103.52 103.37 103.21 103.11 103.01 102.91 102.85 102.79 102.75 102.69 102.67 102.61 102.55 102.47 102.38 102.27 102.12 102.02 101.90 100.93 101.56 101.55 101.62 101.61 101.43 100.64 99.82 99.02 99.41 101.50 100.19
104.11 104.31 104.46 104.53 104.60 104.67 104.71 104.77 104.88 105.02 104.77 104.46 104.32 104.21 104.12 104.01 103.95 103.86 103.80 103.76 103.72 103.61 103.44 103.30 103.19 103.14 103.05 103.00 102.93 102.86 102.81 102.76 102.70 102.63 102.57 102.49 102.40 102.26 102.17 102.05 101.03 101.47 101.63 101.57 101.47 101.22 100.01 99.75 99.58 99.69 100.78 100.23
104.22 104.42 104.59 104.65 104.70 104.77 104.81 104.86 104.95 105.13 104.88 104.62 104.44 104.31 104.22 104.13 104.04 103.97 103.93 103.88 103.84 103.73 103.60 103.44 103.33 103.26 103.21 103.15 103.07 103.01 102.93 102.89 102.81 102.73 102.66 102.60 102.51 102.41 102.30 102.24 101.11 101.36 101.01 100.68 100.33 100.46 100.07 99.46 98.97 102.17 100.26 100.19
104.31 104.51 104.69 104.78 104.82 104.85 104.87 104.95 105.03 105.18 104.99 104.74 104.56 104.46 104.36 104.27 104.18 104.09 104.06 104.00 103.96 103.90 103.75 103.61 103.50 103.42 103.33 103.28 103.24 103.19 103.16 103.11 103.08 103.02 102.93 102.84 102.71 102.58 102.23 101.73 101.18 101.32 101.73 101.74 101.71 101.46 99.14 99.57 101.61 101.10 100.26 100.15
104.37 104.60 104.79 104.87 104.91 104.95 104.96 105.01 105.10 105.26 105.11 104.83 104.67 104.58 104.50 104.40 104.31 104.21 104.18 104.12 104.11 104.06 103.96 103.83 103.74 103.69 103.62 103.55 103.51 103.47 103.39 103.29 103.27 103.28 103.17 102.96 102.82 102.90 102.64 102.43 102.03 101.41 101.85 101.84 101.61 100.12 99.68 100.29 100.97 100.32 100.25 100.05
104.48 104.70 104.86 104.95 105.04 105.11 105.13 105.17 105.18 105.37 105.21 104.96 104.79 104.76 104.66 104.58 104.52 104.43 104.42 104.39 104.34 104.24 104.13 103.98 103.89 103.79 103.73 103.60 103.63 103.72 103.57 103.44 103.47 103.46 103.57 103.04 102.89 102.55 102.62 102.38 101.95 101.45 101.90 101.85 101.33 99.58 98.94 101.67 99.52 99.63 100.01 99.96
104.65 104.79 104.94 105.04 105.10 105.16 105.21 105.26 105.37 105.47 105.39 105.11 105.05 104.96 104.93 104.86 104.73 104.60 104.44 104.35 104.46 104.47 104.24 104.07 104.05 103.85 103.74 103.65 103.67 103.69 103.54 103.44 103.35 103.41 103.28 103.07 102.76 102.47 102.42 102.58 102.05 101.54 101.84 101.78 99.35 99.76 101.84 99.71 99.71 99.74 99.94 99.90
104.68 104.86 105.03 105.17 105.27 105.37 105.42 105.52 105.62 105.47 105.39 105.31 105.26 105.14 105.01 104.93 104.91 104.79 104.71 104.68 104.62 104.53 104.42 104.22 104.21 103.89 103.80 103.71 103.70 103.67 103.59 103.59 103.58 103.13 103.13 103.05 102.95 102.69 102.34 102.31 101.64 101.67 101.89 99.89 99.68 101.01 99.76 99.82 99.89 99.73 99.85 99.83
104.85 104.93 105.11 105.30 105.53 105.51 105.51 105.74 105.71 105.66 105.64 105.48 105.33 105.40 105.27 104.69 105.07 104.91 104.78 104.68 104.62 104.51 104.60 104.49 104.40 104.03 103.88 103.94 103.76 103.70 103.62 103.65 103.47 103.25 103.17 103.18 103.08 102.71 102.40 102.21 101.39 101.91 101.65 99.88 99.58 101.65 99.82 99.77 99.78 99.71 99.87 99.81
105.00 105.18 105.33 105.45 105.56 105.59 105.67 105.78 105.79 105.81 105.72 105.62 105.57 105.45 105.43 105.35 105.11 105.07 104.98 104.77 104.72 104.69 104.73 104.75 104.70 104.09 103.95 103.94 103.98 103.75 103.64 103.63 103.49 103.40 103.19 103.07 103.00 102.80 102.81 102.38 101.51 101.90 99.75 99.18 103.25 100.27 99.87 99.87 99.85 99.77 99.82 99.55
104.88 105.10 105.28 105.46 105.56 105.65 105.81 106.06 105.91 105.86 105.80 105.69 105.60 105.58 105.58 105.65 105.24 105.12 105.14 104.99 104.96 104.98 104.99 105.08 104.79 104.19 104.07 103.96 104.03 103.86 103.65 103.71 103.76 103.32 102.96 103.11 103.05 102.90 102.70 101.83 101.79 99.51 99.92 102.32 101.02 100.12 99.91 99.89 100.25 99.96 99.91 100.03
104.92 105.09 105.29 105.46 105.57 105.73 105.90 106.16 105.97 105.89 105.87 105.81 105.74 105.69 105.74 105.75 105.42 105.15 105.24 105.41 105.26 105.17 105.07 105.00 104.76 104.32 104.23 104.03 104.04 103.96 103.81 103.79 103.69 103.27 103.28 103.12 103.13 102.98 102.89 101.61 100.33 99.81 101.35 102.32 100.33 100.43 100.66 100.35 100.36 100.51 100.50 100.34
104.87 105.09 105.28 105.43 105.58 105.69 105.98 106.17 106.03 105.97 105.97 105.92 105.86 105.84 105.83 105.82 105.72 105.35 105.46 105.33 105.27 105.25 105.07 104.93 104.75 104.39 104.31 104.11 104.04 103.99 104.03 103.99 103.54 103.43 103.43 103.16 103.22 103.10 101.64 101.87 99.92 100.17 101.47 101.12 101.18 100.75 100.63 100.25 100.20 100.54 100.63 100.47
104.86 105.10 105.31 105.48 105.62 105.73 106.00 106.24 106.15 106.07 106.07 106.01 105.96 105.92 105.88 105.89 105.88 105.82 105.60 105.43 105.34 105.34 105.22 105.08 104.77 104.51 104.35 104.14 104.01 103.87 103.96 103.68 103.48 103.50 103.25 103.27 102.86 101.80 101.92 100.05 100.30 101.51 101.69 101.25 101.00 100.53 100.45 100.29 100.18 100.62 100.65 100.57
104.91 105.12 105.32 105.51 105.68 105.77 106.10 106.35 106.24 106.17 106.17 106.10 106.04 106.00 105.95 105.93 105.83 105.89 105.61 105.44 105.33 105.25 105.11 104.88 104.65 104.49 104.30 104.14 103.68 103.26 103.09 102.94 102.97 102.67 102.32 102.04 102.01 101.92 99.93 99.53 101.94 101.77 101.46 101.28 100.85 100.50 100.36 100.16 100.14 100.66 100.64 100.47
104.94 105.13 105.32 105.53 105.71 105.89 106.19 106.45 106.35 106.27 106.26 106.19 106.15 106.08 106.03 105.98 105.90 106.14 105.56 105.39 105.47 105.42 105.38 105.18 105.65 105.29 104.97 103.74 103.03 102.64 102.46 102.35 102.41 102.68 102.53 102.26 102.06 99.86 100.07 102.10 101.88 101.76 101.35 101.51 101.41 101.48 100.47 100.27 100.36 100.66 100.64 100.46
104.95 105.17 105.38 105.56 105.76 105.94 106.27 106.54 106.42 106.34 106.33 106.29 106.24 106.18 106.12 106.07 105.94 105.90 106.02 105.97 105.89 105.75 105.72 105.47 105.64 105.83 104.78 103.90 102.93 102.66 102.60 102.47 102.45 102.22 102.39 102.21 99.66 100.15 102.33 102.24 102.00 101.62 101.70 101.68 101.61 101.52 100.54 100.43 100.51 100.59 100.58 100.49
105.02 105.23 105.43 105.67 105.86 106.03 106.34 106.60 106.45 106.38 106.37 106.34 106.31 106.25 106.19 106.12 106.06 106.00 106.04 105.92 105.93 105.77 106.06 105.59 105.55 105.35 104.82 104.05 103.15 102.97 102.86 102.72 102.70 102.62 102.41 100.05 100.07 101.41 102.73 102.28 101.90 101.65 101.85 101.75 101.54 101.24 101.62 101.51 100.34 100.57 100.57 100.51
105.07 105.27 105.50 105.70 105.93 106.06 106.39 106.66 106.46 106.40 106.40 106.38 106.35 106.32 106.28 106.19 106.14 106.50 106.15 106.27 106.01 105.75 105.59 105.42 105.47 105.59 104.99 104.37 103.27 103.13 103.08 103.19 102.69 102.68 100.50 100.09 100.60 102.84 102.80 102.24 101.94 101.75 101.72 101.71 101.78 101.71 101.43 101.05 100.47 100.37 100.39 100.28
105.14 105.37 105.57 105.78 106.01 106.18 106.49 106.71 106.52 106.43 106.43 106.43 106.42 106.36 106.36 106.30 106.19 106.18 106.34 106.21 106.15 105.80 106.07 106.01 105.81 105.94 105.00 104.37 103.90 103.36 103.26 103.04 102.96 100.67 100.21 100.01 103.29 102.90 102.78 102.35 101.85 101.91 101.81 101.81 101.90 101.49 101.19 100.86 100.59 100.45 100.50 100.09
105.22 105.43 105.65 105.89 106.14 106.38 106.62 106.74 106.58 106.51 106.49 106.50 106.46 106.42 106.42 106.36 106.29 106.15 106.47 106.28 106.13 105.86 106.07 106.32 106.03 105.76 105.04 104.73 104.28 103.41 103.37 103.27 101.02 100.34 99.72 103.19 103.01 102.87 102.75 102.45 101.96 102.00 101.87 101.85 101.68 101.31 101.15 100.82 100.65 100.62 100.52 99.98
105.32 105.54 105.73 105.93 106.25 106.43 106.62 106.75 106.67 106.58 106.57 106.57 106.52 106.47 106.45 106.37 106.34 106.27 106.47 106.26 106.22 105.93 106.10 105.96 105.76 105.57 105.25 104.72 104.38 103.67 103.67 101.01 100.42 99.66 103.69 103.04 102.99 102.92 102.79 102.43 102.07 102.12 102.08 101.98 101.87 101.74 101.09 100.75 100.59 100.37 100.35 100.06
105.34 105.55 105.71 105.92 106.22 106.45 106.68 106.82 106.71 106.63 106.62 106.61 106.56 106.52 106.49 106.42 106.36 106.32 106.39 106.40 106.23 106.02 106.21 106.23 105.54 105.31 105.02 104.63 103.96 104.05 101.13 100.45 99.68 103.77 103.47 103.36 103.32 102.90 102.83 102.47 102.10 102.11 102.11 101.55 101.31 101.10 100.90 100.65 100.49 100.49 100.21 100.04
105.39 105.58 105.76 106.00 106.24 106.47 106.66 106.81 106.71 106.66 106.65 106.64 106.59 106.56 106.53 106.45 106.57 106.42 106.50 106.48 106.34 106.07 106.16 106.02 105.42 105.06 104.90 104.28 104.40 101.16 100.49 99.61 104.00 103.63 103.43 103.29 103.10 102.85 102.62 102.30 102.19 102.12 101.93 101.61 101.29 101.16 100.80 100.58 100.40 100.63 100.07 100.00
105.39 105.57 105.72 105.93 106.23 106.42 106.67 106.81 106.71 106.68 106.68 106.68 106.63 106.64 106.60 106.60 106.78 106.45 106.59 106.57 106.38 106.12 106.22 106.00 105.46 105.04 104.60 104.77 100.76 100.52 99.73 103.92 103.98 103.82 103.69 103.23 103.21 103.02 102.55 102.30 102.44 102.23 102.05 101.69 101.18 101.01 100.78 100.61 100.47 100.19 100.04 99.93
105.42 105.60 105.76 105.97 106.25 106.41 106.61 106.78 106.69 106.68 106.70 106.68 106.66 106.68 106.64 106.68 106.77 106.43 106.56 106.64 106.43 106.19 106.47 106.18 105.56 104.96 105.13 100.58 100.56 100.17 104.20 104.00 103.77 103.71 103.68 103.27 103.23 103.15 102.72 102.37 102.33 102.19 102.16 101.49 101.18 101.10 100.92 100.81 100.76 100.22 100.01 99.88
105.52 105.65 105.80 106.02 106.27 106.42 106.58 106.72 106.71 106.67 106.70 106.68 106.64 106.69 106.63 106.65 106.80 106.43 106.53 105.08 106.76 106.20 106.33 106.37 105.30 105.35 100.74 100.59 100.11 104.47 104.18 104.38 103.96 103.66 103.52 103.27 103.14 102.88 102.65 102.46 102.41 102.26 101.94 101.79 101.39 101.19 100.76 100.51 100.48 100.19 100.05 99.93
