ncols 52
nrows 52
xllcorner 441344
yllcorner 5715456
cellsize 10
NODATA_value -9999
93.19 93.23 93.03 94.14 94.45 94.62 94.81 96.51 96.93 96.67 96.60 96.83 97.07 97.37 97.62 97.99 98.71 99.09 99.54 99.94 100.35 100.78 101.17 101.22 101.49 102.02 102.24 102.74 102.66 102.73 102.75 102.66 102.51 102.47 102.23 102.04 101.97 101.52 101.49 101.57 101.13 101.04 100.65 100.64 100.45 100.20 100.25 99.74 99.57 99.21 99.11 99.08
92.49 92.45 92.77 93.34 93.82 94.31 94.78 95.47 96.25 96.12 96.16 97.30 97.38 97.64 97.80 98.09 98.80 99.29 99.71 100.09 100.41 100.94 101.25 101.52 101.74 101.90 102.19 102.68 102.67 102.76 102.90 102.62 102.60 102.39 102.30 101.96 101.83 101.45 101.37 101.26 101.11 100.97 100.58 100.58 100.38 100.29 100.19 99.88 99.44 99.30 99.17 99.04
92.54 92.73 93.03 93.34 93.73 94.24 94.70 95.18 95.57 96.17 96.67 97.13 97.56 97.94 98.30 98.49 99.10 99.50 99.94 100.39 100.78 101.03 101.50 101.80 102.08 102.09 102.36 102.35 102.68 102.59 102.53 102.36 102.21 102.04 101.90 101.68 101.44 101.22 101.11 100.93 100.75 100.57 100.40 100.22 100.04 99.86 99.64 99.49 99.29 99.14 99.00 98.86
92.55 92.74 93.15 93.56 93.89 94.38 94.89 95.19 95.71 96.17 96.64 97.10 97.57 97.93 98.35 98.77 99.27 99.74 100.33 100.80 101.13 101.51 101.77 101.87 101.99 102.19 102.26 102.32 102.28 102.54 102.62 102.56 102.26 102.33 102.29 101.92 101.87 101.17 101.19 101.03 100.86 100.47 100.25 100.15 99.88 99.72 99.86 99.36 99.29 99.13 98.85 98.75
92.76 92.79 93.12 93.49 93.93 94.38 94.94 95.32 95.85 96.35 96.82 97.34 97.80 98.17 98.50 98.96 99.43 99.88 101.67 104.80 105.11 104.90 104.38 103.62 102.50 102.40 102.43 102.39 102.49 102.56 102.64 102.58 102.42 102.06 101.94 101.46 101.23 101.11 101.12 101.04 100.94 100.21 100.11 99.83 99.61 99.69 99.74 99.54 99.35 99.15 98.96 98.88
92.38 92.65 92.85 93.41 93.82 94.44 94.85 95.38 95.94 96.41 96.94 97.43 97.94 98.35 98.75 99.16 99.58 100.04 100.57 101.71 103.17 104.38 104.57 103.69 102.68 102.21 102.43 102.34 102.36 102.32 102.25 102.31 101.90 101.73 101.74 101.45 101.11 101.01 100.64 100.28 99.95 99.97 99.85 99.65 99.20 99.67 99.50 99.24 99.29 99.37 98.83 98.74
91.44 92.60 92.88 93.41 93.85 94.35 94.88 95.33 95.92 96.43 96.98 97.47 98.03 98.47 98.91 99.32 99.84 100.24 100.59 101.02 101.38 101.68 101.97 102.11 102.14 102.25 102.30 102.38 102.32 102.12 102.12 102.03 101.96 101.50 101.44 101.29 101.26 100.88 100.44 100.19 99.91 99.72 99.72 99.43 99.03 98.92 98.88 98.99 98.62 98.56 98.50 98.59
91.17 92.56 93.05 93.46 93.88 94.34 94.82 95.33 95.96 96.47 96.95 97.50 98.05 98.54 99.01 99.54 99.95 100.36 100.82 101.23 101.55 101.88 102.24 102.27 102.28 102.26 102.41 102.35 102.37 102.22 102.08 101.99 101.82 101.52 101.42 101.31 101.18 100.83 100.36 100.09 99.82 99.69 99.85 99.32 98.93 98.98 98.66 98.79 98.84 98.63 98.67 98.66
91.15 92.57 93.17 93.55 94.03 94.53 94.96 95.48 96.01 96.59 97.07 97.63 98.15 98.61 99.10 99.62 100.05 100.47 100.94 101.28 101.75 102.07 102.60 102.41 102.31 102.35 102.37 102.44 102.24 102.21 102.08 101.85 101.90 101.59 101.34 101.35 101.21 100.72 100.21 100.00 99.80 99.52 99.33 99.16 98.98 99.07 98.67 98.96 98.93 98.47 98.88 98.65
91.19 92.60 93.21 93.64 94.10 94.64 95.11 95.61 96.21 96.75 97.31 97.82 98.38 98.84 99.35 99.83 100.29 100.73 101.16 101.54 101.90 102.12 102.44 102.48 102.30 102.32 102.33 102.27 102.07 101.94 101.67 101.86 102.02 101.65 101.47 100.72 100.72 100.62 100.61 100.19 99.94 99.62 99.42 99.21 99.07 98.80 98.79 98.84 98.83 98.36 98.47 98.55
91.14 92.74 93.24 93.68 94.11 94.63 95.14 95.70 96.31 96.84 97.40 98.00 98.58 99.02 99.60 100.05 100.57 101.38 101.52 101.68 102.07 102.33 102.54 102.49 102.44 102.40 102.39 102.31 102.11 101.90 101.68 101.60 101.90 101.53 101.57 100.73 100.61 100.46 100.35 100.11 99.80 99.64 99.41 99.26 98.98 98.64 98.67 98.83 98.60 98.29 98.32 98.49
91.36 92.79 93.35 93.72 94.27 94.74 95.25 95.83 96.44 96.98 97.53 98.10 98.66 99.16 99.70 100.38 101.20 101.46 101.57 101.93 102.07 102.39 102.55 102.44 102.39 102.33 102.29 102.11 102.01 101.79 101.56 101.47 101.53 101.64 101.57 101.06 100.55 100.30 100.06 99.89 99.74 99.52 99.33 99.28 98.93 98.70 98.66 98.61 98.48 98.38 98.30 98.60
91.83 92.93 93.53 93.82 94.30 94.85 95.42 95.93 96.55 97.07 97.64 98.24 98.83 99.36 99.91 100.41 101.26 102.13 101.75 102.00 102.19 102.48 102.54 102.45 102.39 102.37 102.24 102.07 101.97 101.71 101.36 101.29 101.19 101.33 100.79 100.60 100.37 100.36 99.82 99.92 99.83 99.35 99.35 99.26 99.01 98.81 98.71 98.63 98.49 98.43 98.63 98.35
92.05 93.02 93.60 93.96 94.53 94.98 95.51 96.12 96.74 97.31 97.86 98.46 99.05 99.55 100.07 100.57 101.29 101.46 101.79 102.06 102.28 102.56 102.58 102.46 102.43 102.39 102.21 102.07 101.97 101.63 101.36 101.10 101.00 101.21 100.70 100.53 100.39 100.21 99.71 99.43 99.66 99.25 99.15 99.12 99.05 98.78 98.61 98.55 98.43 98.36 98.39 98.40
92.68 93.12 93.81 94.16 94.66 95.23 95.78 96.40 96.96 97.54 98.16 98.73 99.31 99.83 100.33 100.78 101.29 101.68 101.94 102.16 102.37 102.67 102.61 102.45 102.38 102.31 102.17 101.94 101.82 101.50 101.24 101.03 100.81 100.97 100.46 100.22 100.13 100.11 99.60 99.61 99.52 99.04 98.88 98.98 98.84 98.84 98.73 98.66 98.43 98.32 98.37 98.29
92.98 93.38 94.03 94.40 94.90 95.46 96.07 96.71 97.32 97.95 98.54 99.14 99.68 100.17 100.64 101.09 101.46 101.79 102.03 102.25 102.49 102.70 102.60 102.45 102.36 102.23 102.12 101.93 101.67 101.41 101.15 100.87 100.76 100.82 100.37 100.17 100.55 100.26 99.54 99.64 99.71 99.00 98.93 98.90 98.90 98.98 99.02 98.88 98.43 98.32 98.34 98.24
93.28 93.57 94.10 94.51 94.98 95.56 96.17 96.80 97.44 98.07 98.73 99.35 99.93 100.44 100.93 101.33 101.68 101.99 102.24 102.38 102.60 102.79 102.64 102.49 102.35 102.20 102.01 101.81 101.57 101.33 101.06 100.82 100.70 100.77 100.30 100.15 99.97 99.83 99.46 99.54 99.25 99.01 98.87 98.84 98.94 98.97 99.00 98.91 98.49 98.69 98.35 98.03
93.42 93.78 94.21 94.64 95.14 95.70 96.31 96.95 97.57 98.22 98.89 99.51 100.08 100.58 101.04 101.43 101.72 102.07 102.27 102.42 102.58 102.66 102.57 102.51 102.33 102.12 101.99 101.74 101.51 101.32 101.06 100.82 100.65 100.56 100.35 100.08 99.93 99.99 99.46 99.59 99.32 98.91 98.92 98.51 98.36 98.35 98.33 98.28 98.55 98.43 98.27 98.03
93.40 94.02 94.39 94.79 95.31 95.90 96.53 97.22 97.94 98.57 99.15 99.82 100.36 100.83 101.24 101.52 101.84 102.17 102.24 102.46 102.59 102.63 102.50 102.39 102.27 102.09 101.91 101.65 101.40 101.14 100.93 100.68 100.58 100.44 100.36 100.15 99.99 99.90 99.42 99.60 99.43 98.82 98.84 98.60 98.49 98.35 98.24 98.21 98.19 98.12 98.12 98.10
93.51 94.15 94.52 94.92 95.44 96.08 96.74 97.42 98.06 98.71 99.37 99.97 100.52 100.96 101.36 101.72 102.00 102.15 102.35 102.45 102.59 102.61 102.43 102.37 102.24 102.01 101.84 101.56 101.27 101.07 100.82 100.61 100.50 100.26 100.28 100.10 99.94 99.92 99.42 99.61 99.53 99.46 99.10 98.82 98.60 98.41 98.38 98.31 98.27 98.17 98.15 98.10
93.54 94.31 94.70 95.20 95.75 96.40 97.00 97.64 98.26 98.89 99.60 100.12 100.62 101.06 101.45 101.75 101.98 102.15 102.37 102.43 102.42 102.46 102.56 102.30 102.10 101.93 101.72 101.53 101.21 101.00 100.71 100.62 100.50 100.12 100.21 100.03 99.82 99.85 99.40 99.58 99.53 99.22 99.25 98.82 98.97 98.82 98.83 98.76 98.79 98.39 98.24 98.22
93.84 94.82 94.97 95.43 96.08 96.82 97.43 98.07 98.70 99.26 99.82 100.36 100.82 101.21 101.57 101.85 102.07 102.28 102.45 102.44 102.41 102.38 102.33 102.24 102.08 101.85 101.65 101.43 101.12 100.86 100.68 100.47 100.40 100.02 100.06 99.94 99.96 100.02 99.38 99.25 99.10 99.02 99.10 98.86 99.05 98.96 98.83 98.72 98.85 98.52 98.22 98.39
94.11 94.85 95.13 95.59 96.42 97.06 97.61 98.29 98.90 99.58 100.09 100.60 101.04 101.39 101.70 101.92 102.06 102.28 102.50 102.38 102.38 102.39 102.29 102.20 102.04 101.76 101.61 101.34 101.09 100.83 100.60 100.39 100.36 99.92 99.91 99.89 99.76 99.49 99.35 99.22 99.49 99.24 99.10 98.95 98.59 98.43 98.34 98.37 98.47 98.54 98.21 99.04
94.30 94.85 95.25 95.89 96.46 97.35 97.83 98.36 99.01 99.59 100.15 100.65 101.10 101.47 101.73 101.94 102.02 102.30 102.40 102.40 102.33 102.30 102.21 102.09 101.90 101.71 101.55 101.28 101.04 100.83 100.62 100.42 100.27 99.71 99.78 99.78 99.60 99.77 99.77 99.22 99.40 99.29 98.99 99.17 99.03 98.87 98.66 98.79 98.63 98.22 98.25 98.88
94.44 95.01 95.93 96.01 96.82 97.60 97.99 98.65 99.24 99.78 100.31 100.78 101.21 101.50 101.78 101.91 102.06 102.34 102.54 102.44 102.35 102.26 102.18 102.07 101.92 101.70 101.53 101.26 101.08 100.81 100.63 100.45 100.33 100.21 99.77 99.59 99.58 99.71 99.76 99.25 99.43 99.65 99.15 98.97 98.94 98.82 98.37 98.82 98.71 98.62 98.27 97.84
94.75 95.08 96.07 96.22 97.05 97.85 98.31 98.81 99.37 99.88 100.50 100.96 101.31 101.58 101.79 101.99 102.09 102.41 102.55 102.30 102.28 102.20 102.09 102.00 101.79 101.69 101.44 101.17 101.03 100.82 100.67 100.49 100.36 99.79 99.78 99.75 99.72 99.55 99.77 99.25 99.40 99.25 99.02 98.88 98.76 98.71 98.74 98.74 98.64 98.57 98.46 98.53
94.99 95.30 96.23 97.57 97.50 97.92 98.50 98.92 99.55 100.02 100.63 100.99 101.30 101.48 101.74 101.85 102.06 102.40 102.51 102.37 102.14 102.03 102.01 101.89 101.75 101.51 101.30 101.20 100.99 100.80 100.61 100.44 100.40 99.92 99.98 99.43 99.69 99.69 99.57 99.19 99.40 99.32 99.02 98.93 98.89 98.72 98.76 98.92 98.74 98.40 98.66 98.51
94.82 95.39 95.96 97.28 97.58 98.32 98.66 99.11 99.68 100.19 100.71 101.10 101.48 101.75 101.96 101.98 102.14 102.55 102.54 102.35 102.19 102.11 102.01 101.85 101.72 101.51 101.29 101.11 100.87 100.73 100.56 100.35 100.27 99.95 99.94 99.87 99.67 99.57 99.54 99.19 99.68 100.24 99.14 99.12 99.07 99.01 98.82 98.64 98.57 98.47 98.62 98.50
94.29 95.43 95.75 96.69 98.16 98.12 98.75 99.12 99.65 100.28 100.76 101.21 101.49 101.70 101.90 101.98 102.22 102.49 102.52 102.29 102.18 102.06 101.90 101.77 101.65 101.46 101.23 101.07 100.87 100.72 100.54 100.35 100.22 100.01 99.99 99.93 100.06 100.06 99.89 99.25 99.57 99.65 99.15 99.12 99.11 98.90 98.81 98.88 98.73 98.55 98.61 98.29
93.51 95.62 95.84 96.50 97.10 97.89 98.72 99.16 99.73 100.27 100.76 101.18 101.47 101.69 101.89 102.02 102.29 102.49 102.55 102.31 102.31 102.05 101.93 101.82 101.70 101.51 101.32 101.14 100.96 100.83 100.81 100.50 100.26 100.11 100.00 100.00 99.96 99.97 99.74 99.32 99.58 99.37 99.24 99.10 99.10 98.86 98.81 98.82 98.71 98.57 98.85 98.64
93.93 95.43 95.97 96.40 97.01 97.76 98.71 99.19 99.71 100.26 100.78 101.14 101.47 101.74 101.84 102.08 102.22 102.56 102.39 102.16 102.14 101.91 101.81 101.65 101.50 101.34 101.15 100.96 100.79 100.66 100.48 100.28 100.13 99.76 100.00 100.26 99.87 99.69 99.55 99.38 99.58 99.43 99.31 99.23 99.02 99.02 98.66 98.70 98.72 98.73 98.79 98.46
94.00 94.88 96.17 96.42 96.90 97.65 98.72 99.02 99.59 100.16 100.62 101.05 101.29 101.57 101.75 101.89 102.11 102.40 102.25 102.07 101.95 101.85 101.69 101.55 101.41 101.25 101.07 100.90 100.74 100.57 100.45 100.28 100.16 99.83 100.04 100.10 99.92 99.71 99.85 99.77 99.50 99.57 99.42 99.40 99.19 98.94 98.86 98.89 98.76 98.91 98.84 98.44
94.09 94.04 96.02 96.29 96.91 97.36 98.45 98.87 99.38 99.97 100.49 100.90 101.25 101.51 101.70 101.87 102.10 102.39 102.21 102.04 101.96 101.81 101.68 101.54 101.40 101.23 101.05 100.89 100.71 100.59 100.49 100.44 100.21 99.86 100.04 100.04 100.21 98.96 100.09 99.96 99.57 99.65 99.54 99.49 99.33 98.96 98.97 98.91 98.82 98.97 98.78 98.28
94.18 94.32 96.08 96.30 96.79 97.36 98.22 98.79 99.24 99.79 100.31 100.79 101.13 101.40 101.61 101.78 102.07 102.31 102.10 101.95 101.82 101.72 101.59 101.47 101.34 101.17 101.03 100.90 100.69 100.54 100.47 100.35 100.24 100.05 100.07 100.15 100.16 100.17 100.15 99.93 99.47 99.71 99.58 99.54 99.61 99.26 99.09 98.98 98.89 99.08 98.77 98.49
94.46 94.40 94.91 96.68 96.72 97.40 98.02 98.63 99.08 99.61 100.17 100.63 101.01 101.30 101.57 101.72 101.97 102.20 101.98 101.84 101.71 101.64 101.51 101.39 101.30 101.13 100.95 100.81 100.65 100.54 100.49 100.35 100.27 100.13 100.08 100.19 100.08 99.90 99.89 100.25 99.45 99.73 99.66 99.53 99.55 99.42 99.02 99.08 98.94 98.97 98.67 98.44
94.69 94.58 94.46 96.41 96.90 97.15 97.84 98.51 98.81 99.34 99.90 100.42 100.80 101.13 101.40 101.65 101.91 102.13 101.92 101.79 101.71 101.62 101.51 101.39 101.28 101.08 100.95 100.82 100.68 100.58 100.52 100.39 100.31 100.19 100.09 100.19 100.15 100.08 99.98 99.83 99.54 99.65 99.82 99.60 99.50 99.44 99.21 99.18 98.93 98.78 98.63 98.29
94.92 94.84 94.68 95.36 96.74 97.02 97.67 98.33 98.70 99.25 99.82 100.32 100.72 101.06 101.35 101.58 101.87 102.10 101.91 101.80 101.68 101.55 101.45 101.31 101.20 101.06 100.91 100.78 100.68 100.58 100.55 100.42 100.27 100.20 100.12 100.21 100.24 100.16 100.06 99.98 99.64 99.65 99.71 99.54 99.37 97.85 98.91 99.11 99.52 99.12 98.61 98.43
95.22 95.01 94.78 94.69 96.56 97.03 97.33 98.34 98.61 99.13 99.66 100.19 100.64 100.97 101.25 101.50 101.81 101.98 101.82 101.71 101.61 101.49 101.37 101.27 101.17 101.02 100.91 100.82 100.69 100.60 100.53 100.44 100.31 100.29 100.15 100.40 100.26 100.00 99.90 100.00 99.64 99.54 99.47 99.42 99.33 99.31 99.19 99.19 99.44 99.21 98.69 98.37
95.38 95.31 95.09 94.82 96.46 97.12 98.14 98.21 98.50 99.01 99.61 100.09 100.53 100.90 101.24 101.51 101.81 101.97 101.75 101.62 101.53 101.45 101.38 101.24 101.14 101.00 100.90 100.82 100.72 100.66 100.57 100.49 100.34 100.35 100.15 100.25 100.28 100.06 99.80 99.77 99.78 99.68 99.67 99.58 99.42 99.54 99.41 99.29 99.34 99.24 98.68 98.51
95.83 95.53 95.29 95.07 95.74 97.34 97.82 98.19 98.54 98.99 99.59 100.08 100.51 100.85 101.18 101.44 101.75 101.85 101.68 101.57 101.49 101.42 101.31 101.19 101.12 100.99 100.91 100.92 100.82 100.73 100.68 100.56 100.43 100.42 100.19 100.46 100.26 100.28 100.13 99.83 100.12 100.39 100.16 99.97 99.47 99.86 99.67 99.39 99.50 99.30 98.76 98.62
96.36 95.71 95.46 95.27 94.86 97.49 97.81 98.23 98.58 99.05 99.61 100.07 100.50 100.82 101.10 101.36 101.69 101.83 101.65 101.54 101.48 101.39 101.30 101.24 101.19 101.08 100.95 100.86 100.81 100.77 100.70 100.65 100.52 100.43 100.21 100.47 100.35 100.35 100.73 100.31 100.29 100.28 100.03 99.99 99.89 99.85 99.79 99.51 99.45 99.32 99.08 98.89
98.23 95.71 95.51 95.50 95.00 97.63 98.00 98.13 98.68 99.09 99.58 100.10 100.53 100.84 101.11 101.36 101.67 101.82 101.88 101.79 101.77 101.71 101.63 101.54 101.51 101.22 101.04 101.00 100.99 100.86 100.78 100.72 100.65 100.44 100.25 100.17 100.47 100.46 100.56 100.36 100.27 100.25 100.09 100.01 100.00 99.96 99.59 99.63 99.44 99.50 99.26 99.10
98.88 96.09 95.71 95.60 95.79 97.71 97.96 98.21 98.80 99.23 99.69 100.18 100.62 100.90 101.15 101.42 101.68 101.75 101.99 101.75 101.67 101.83 101.59 101.52 101.44 101.31 101.22 100.67 100.32 100.68 100.81 100.01 100.90 99.85 100.33 100.28 100.28 100.26 100.26 100.19 100.09 100.05 100.01 99.93 99.92 99.83 99.73 99.64 99.51 99.34 99.16 98.99
98.70 98.08 97.04 95.49 97.35 97.75 97.76 98.54 99.07 99.42 99.89 100.35 100.70 100.97 101.23 101.58 101.61 101.71 101.74 101.68 101.62 101.71 101.60 101.58 101.14 100.91 101.04 100.96 101.00 101.12 101.10 101.03 101.03 101.00 99.48 100.00 101.25 100.33 100.44 100.25 100.11 100.15 100.05 99.98 99.81 99.82 99.80 99.57 99.51 99.46 99.07 98.94
98.89 98.00 97.16 96.98 97.49 97.72 98.06 98.57 99.23 99.67 100.00 100.46 100.83 101.10 101.33 101.54 101.65 101.68 101.69 101.74 101.73 101.71 101.56 101.55 101.04 100.75 101.01 100.97 101.03 101.08 101.05 101.00 101.06 101.00 99.13 100.05 101.53 100.57 100.58 100.41 100.14 100.17 100.27 100.14 99.96 99.90 99.75 99.43 99.54 99.52 98.96 98.82
98.53 97.82 95.68 95.68 97.61 98.29 98.10 98.91 99.58 99.97 100.39 100.60 100.92 101.19 101.35 101.45 101.53 101.60 101.60 101.83 101.70 101.71 101.54 101.46 101.11 100.90 101.07 101.04 100.99 100.97 100.98 101.04 101.03 101.03 100.03 100.16 101.31 100.68 100.68 100.53 100.22 100.24 100.45 100.18 99.82 99.92 99.71 99.40 99.51 99.52 98.95 98.85
98.05 97.99 95.57 95.51 98.17 97.52 97.55 99.05 99.79 100.15 100.44 100.77 101.05 101.26 101.47 101.56 101.65 101.65 101.60 101.83 101.82 101.72 101.53 101.41 101.18 100.88 101.04 101.01 100.92 100.95 100.96 101.04 100.98 100.99 100.75 100.17 100.90 100.72 100.74 100.60 100.32 100.27 100.17 100.10 99.94 99.84 99.64 99.47 99.56 99.47 98.99 98.93
98.15 98.39 95.87 96.23 98.06 97.57 97.81 99.22 99.81 100.28 100.58 100.92 101.19 101.41 101.50 101.59 101.65 101.69 101.65 101.81 102.00 101.75 101.53 101.35 100.99 100.83 101.04 101.01 100.95 100.96 100.93 100.99 100.99 100.97 100.93 100.14 100.44 100.65 100.63 100.60 100.38 100.45 100.68 100.34 100.15 99.84 99.71 99.58 99.37 99.26 99.23 98.94
98.34 98.20 98.25 96.92 97.92 98.14 98.35 99.24 99.92 100.43 100.71 100.98 101.25 101.49 101.68 101.68 101.70 101.72 101.65 101.83 101.86 101.79 101.55 101.34 101.00 100.79 101.01 100.96 100.95 100.96 100.93 100.96 101.02 100.94 100.93 100.04 100.48 100.95 100.71 100.62 100.55 100.49 100.48 100.21 100.07 99.90 99.92 99.66 99.39 99.27 99.21 99.15
98.67 98.53 98.66 98.48 97.67 98.33 98.90 99.30 99.87 100.47 100.77 101.04 101.29 101.49 101.65 101.68 101.71 101.75 102.10 102.00 101.85 101.85 101.57 101.38 101.17 100.96 100.76 100.75 100.89 100.97 100.97 100.90 100.71 100.95 100.89 99.40 100.20 100.90 101.01 100.99 100.91 100.51 100.54 100.57 100.43 100.09 100.02 99.62 99.39 99.28 99.14 98.95
98.97 98.86 98.76 98.96 99.12 98.72 98.75 99.25 99.99 100.48 100.74 101.02 101.31 101.49 101.62 101.71 101.69 101.74 102.08 102.12 101.69 101.69 101.64 101.33 101.24 101.12 101.02 101.03 101.08 101.19 101.21 101.17 100.83 100.94 100.95 99.94 99.62 100.76 100.76 100.56 100.55 100.44 100.60 100.23 100.32 100.06 100.04 99.62 99.41 99.29 99.18 98.99
99.29 99.31 99.15 99.43 99.46 99.64 100.06 99.78 100.10 100.61 100.86 101.19 101.39 101.61 101.70 101.75 101.73 101.70 102.04 101.73 101.50 101.45 101.46 101.28 101.24 101.26 101.26 101.37 101.25 101.19 101.16 101.23 101.09 100.94 100.93 100.72 99.90 100.71 100.43 100.32 100.29 100.50 100.47 100.34 100.18 100.06 100.11 99.75 99.48 99.34 99.26 99.04
