ncols 52
nrows 52
xllcorner 441344
yllcorner 5713408
cellsize 10
NODATA_value -9999
105.10 105.46 105.71 105.90 106.16 106.26 106.62 106.54 106.52 106.52 106.53 106.50 106.46 106.39 106.29 106.18 106.09 105.99 105.87 105.81 105.70 105.53 105.33 105.15 105.01 104.90 104.94 105.00 104.71 104.58 104.53 104.41 104.33 104.30 104.27 104.21 104.16 104.08 104.02 103.98 103.97 103.93 103.91 103.87 103.84 103.87 103.97 104.15 104.40 104.71 105.20 105.27
104.99 105.40 105.73 106.00 106.19 106.45 106.80 106.65 106.65 106.63 106.61 106.55 106.51 106.46 106.37 106.26 106.15 106.06 105.97 105.90 105.81 105.68 105.46 105.24 105.08 104.92 104.93 105.04 104.74 104.58 104.54 104.49 104.41 104.36 104.34 104.29 104.23 104.15 104.11 104.05 104.04 104.01 103.96 103.94 103.94 104.04 104.18 104.31 104.55 104.87 105.41 105.49
104.94 105.37 105.78 106.07 106.26 106.39 106.52 106.75 106.67 106.72 106.67 106.62 106.57 106.50 106.42 106.32 106.24 106.15 106.08 105.99 105.91 105.80 105.56 105.32 105.15 105.01 104.97 105.10 104.76 104.63 104.62 104.56 104.49 104.45 104.38 104.35 104.28 104.19 104.14 104.12 104.11 104.08 104.06 104.07 104.10 104.18 104.35 104.54 104.73 104.96 105.54 105.60
104.95 105.38 105.79 106.09 106.27 106.34 106.58 107.04 106.78 106.72 106.69 106.66 106.61 106.53 106.48 106.43 106.32 106.23 106.11 106.03 105.86 105.73 105.62 105.34 105.16 105.07 105.12 105.18 104.81 104.75 104.71 104.63 104.57 104.49 104.43 104.37 104.31 104.26 104.24 104.20 104.21 104.19 104.18 104.23 104.24 104.35 104.50 104.76 104.97 105.02 105.65 105.74
105.00 105.42 105.78 106.10 106.29 106.42 106.58 106.93 106.85 106.82 106.74 106.73 106.68 106.63 106.51 106.41 106.29 106.16 106.02 105.90 105.81 105.69 105.51 105.30 105.11 105.00 105.06 105.25 104.90 104.76 104.67 104.68 104.62 104.57 104.54 104.45 104.40 104.35 104.32 104.34 104.36 104.30 104.35 104.39 104.43 104.55 104.66 104.85 104.98 104.94 105.73 105.86
105.04 105.40 105.79 106.11 106.35 106.47 106.61 107.05 107.01 106.90 106.86 106.80 106.71 106.60 106.48 106.35 106.22 106.08 105.95 105.83 105.76 105.69 105.53 105.32 105.15 105.06 105.12 105.34 104.96 104.96 104.90 104.85 104.79 104.74 104.68 104.65 104.57 104.51 104.52 104.52 104.46 104.52 104.51 104.63 104.71 104.79 104.86 104.97 105.27 104.98 105.78 105.91
105.13 105.46 105.83 106.14 106.38 106.52 106.65 107.06 107.12 106.97 106.89 106.78 106.68 106.55 106.43 106.30 106.18 106.03 105.93 105.80 105.75 105.66 105.53 105.34 105.17 105.12 105.19 105.43 105.05 104.93 104.83 104.76 104.75 104.74 104.72 104.70 104.64 104.63 104.60 104.62 104.56 104.57 104.61 104.73 104.82 104.90 104.93 105.06 105.28 105.17 105.82 105.90
105.21 105.53 105.85 106.18 106.41 106.57 106.72 106.96 107.16 106.93 106.82 106.73 106.62 106.51 106.42 106.31 106.19 106.07 105.94 105.83 105.76 105.68 105.58 105.42 105.29 105.22 105.23 105.46 105.05 104.90 104.84 104.76 104.76 104.80 104.78 104.76 104.67 104.65 104.62 104.68 104.67 104.62 104.79 104.88 104.95 105.07 105.06 105.20 105.39 105.52 105.81 105.94
105.31 105.59 105.93 106.23 106.46 106.64 106.83 107.03 107.16 106.96 106.79 106.70 106.62 106.51 106.41 106.29 106.18 106.06 105.93 105.85 105.78 105.73 105.63 105.48 105.33 105.24 105.27 105.53 105.07 104.93 104.88 104.80 104.81 104.85 104.83 104.80 104.79 104.75 104.75 104.76 104.76 104.75 104.87 104.96 105.18 105.24 105.22 105.34 105.46 105.70 105.88 106.06
105.33 105.63 105.96 106.28 106.52 106.68 106.91 107.08 107.20 106.94 106.82 106.71 106.62 106.51 106.40 106.30 106.20 106.08 105.97 105.88 105.82 105.76 105.68 105.53 105.36 105.34 105.34 105.64 105.16 105.03 104.94 104.89 104.86 104.89 104.89 104.88 104.89 104.86 104.88 104.85 104.76 104.99 105.05 105.17 105.29 105.36 105.39 105.46 105.49 105.76 105.93 106.06
105.41 105.68 106.00 106.33 106.62 106.88 107.03 107.16 107.28 107.01 106.82 106.75 106.64 106.54 106.45 106.35 106.25 106.14 106.04 105.96 105.90 105.87 105.80 105.66 105.47 105.38 105.44 105.69 105.25 105.10 105.06 104.97 104.91 104.92 104.96 104.99 105.01 105.01 104.98 104.98 104.91 105.11 105.17 105.27 105.38 105.46 105.43 105.46 105.44 105.81 106.02 106.16
105.47 105.74 106.18 106.46 106.60 106.64 106.98 107.23 107.31 107.05 106.85 106.75 106.66 106.57 106.47 106.38 106.30 106.19 106.09 106.01 105.98 105.95 105.91 105.78 105.57 105.46 105.52 105.71 105.33 105.21 105.15 105.08 105.00 104.99 105.02 105.08 105.11 105.10 105.08 105.08 105.01 105.07 105.21 105.26 105.36 105.44 105.45 105.46 105.60 105.87 106.04 106.11
105.71 105.84 106.04 106.43 106.72 106.91 107.02 107.23 107.35 107.06 106.90 106.81 106.71 106.62 106.53 106.43 106.35 106.25 106.15 106.08 106.04 106.04 106.00 105.88 105.68 105.57 105.62 105.74 105.41 105.29 105.23 105.15 105.07 105.07 105.09 105.14 105.18 105.18 105.19 105.21 105.07 105.06 105.17 105.23 105.37 105.40 105.43 105.47 105.64 105.92 106.05 106.18
105.68 105.98 106.20 106.40 106.61 106.81 106.98 107.28 107.40 107.19 106.99 106.86 106.77 106.70 106.62 106.54 106.46 106.34 106.25 106.17 106.13 106.12 106.11 106.01 105.80 105.65 105.71 105.79 105.49 105.36 105.30 105.22 105.15 105.13 105.17 105.24 105.24 105.26 105.28 105.30 105.19 105.20 105.25 105.27 105.39 105.46 105.53 105.57 105.71 105.98 106.11 106.26
105.85 105.98 106.10 106.37 106.66 106.86 107.04 107.35 107.47 107.20 107.06 106.95 106.90 106.80 106.74 106.64 106.53 106.42 106.33 106.26 106.24 106.24 106.24 106.17 105.96 105.83 105.79 105.88 105.58 105.46 105.39 105.29 105.23 105.20 105.26 105.31 105.33 105.35 105.38 105.40 105.31 105.31 105.36 105.33 105.45 105.58 105.61 105.65 105.82 106.05 106.17 106.32
105.88 105.92 106.21 106.49 106.72 106.94 107.12 107.44 107.53 107.26 107.10 107.02 106.96 106.88 106.78 106.71 106.63 106.52 106.43 106.37 106.34 106.33 106.34 106.26 106.05 105.91 105.90 105.91 105.70 105.57 105.51 105.41 105.33 105.32 105.36 105.42 105.43 105.46 105.51 105.54 105.44 105.44 105.49 105.43 105.52 105.67 105.70 105.74 105.93 106.13 106.24 106.42
105.91 105.99 106.25 106.56 106.79 107.04 107.21 107.52 107.60 107.35 107.18 107.12 107.06 107.00 106.91 106.83 106.74 106.64 106.55 106.49 106.46 106.46 106.48 106.38 106.21 106.04 105.99 106.03 105.83 105.72 105.66 105.55 105.46 105.42 105.46 105.52 105.54 105.60 105.66 105.69 105.62 105.61 105.65 105.57 105.60 105.76 105.82 105.86 106.01 106.23 106.33 106.51
105.99 106.06 106.34 106.62 106.86 107.11 107.31 107.59 107.57 107.51 107.34 107.26 107.23 107.15 107.07 106.99 106.90 106.81 106.72 106.67 106.63 106.61 106.61 106.57 106.42 106.25 106.14 106.14 105.96 105.85 105.78 105.68 105.57 105.53 105.54 105.62 105.65 105.75 105.83 105.89 105.79 105.82 105.83 105.71 105.69 105.86 105.91 105.99 105.81 106.32 106.45 106.65
106.00 106.14 106.41 106.70 106.94 107.21 107.40 107.71 107.68 107.61 107.50 107.40 107.34 107.29 107.22 107.14 107.04 106.94 106.87 106.82 106.78 106.75 106.73 106.69 106.57 106.40 106.23 106.27 106.07 105.96 105.88 105.79 105.68 105.65 105.65 105.70 105.72 105.88 105.97 106.01 105.97 106.01 105.97 105.82 105.79 105.92 106.00 106.13 105.89 106.45 106.55 106.76
106.13 106.18 106.48 106.79 107.04 107.30 107.50 107.79 107.76 107.75 107.54 107.44 107.42 107.36 107.29 107.20 107.12 107.04 106.97 106.91 106.86 106.84 106.81 106.74 106.63 106.58 106.41 106.38 106.17 106.07 106.00 105.92 105.80 105.78 105.75 105.81 105.81 105.96 106.06 106.12 106.09 106.14 106.05 105.91 105.92 106.01 106.05 106.19 106.11 106.55 106.64 106.85
106.21 106.25 106.57 106.87 107.14 107.40 107.61 107.86 107.85 107.66 107.68 107.51 107.48 107.45 107.39 107.29 107.21 107.17 107.11 107.06 107.02 106.98 106.93 106.85 106.79 106.60 106.54 106.49 106.28 106.22 106.11 106.02 105.94 105.91 105.87 105.93 105.94 106.05 106.16 106.23 106.19 106.19 106.08 105.96 106.00 106.07 106.07 106.25 106.56 106.62 106.73 106.96
106.28 106.38 106.67 106.97 107.24 107.50 107.71 107.96 107.96 107.79 107.67 107.62 107.61 107.57 107.50 107.43 107.39 107.37 107.34 107.27 107.19 107.10 107.01 106.92 106.85 106.69 106.61 106.62 106.42 106.35 106.21 106.18 106.07 106.05 106.01 106.08 106.06 106.17 106.25 106.31 106.24 106.23 106.14 106.01 106.06 106.08 106.13 106.34 106.72 106.70 106.83 107.07
106.40 106.51 106.81 107.12 107.36 107.62 107.84 108.07 108.04 107.86 107.80 107.73 107.69 107.65 107.58 107.54 107.51 107.50 107.46 107.38 107.28 107.18 107.07 106.98 106.96 106.85 106.76 106.74 106.61 106.54 106.43 106.36 106.24 106.24 106.20 106.25 106.24 106.31 106.34 106.35 106.27 106.31 106.20 106.07 106.09 106.16 106.20 106.43 106.77 106.77 106.88 107.10
106.49 106.67 106.94 107.23 107.47 107.73 107.98 108.16 108.13 107.95 107.88 107.79 107.75 107.69 107.61 107.56 107.53 107.51 107.48 107.40 107.28 107.20 107.15 107.11 107.14 107.01 106.94 106.94 106.83 106.72 106.60 106.56 106.39 106.42 106.39 106.39 106.39 106.40 106.38 106.40 106.31 106.33 106.22 106.09 106.12 106.21 106.25 106.47 106.74 106.81 106.91 107.09
106.58 106.79 107.08 107.33 107.57 107.84 108.13 108.29 108.19 108.01 108.01 107.90 107.88 107.81 107.74 107.67 107.64 107.63 107.60 107.53 107.41 107.34 107.28 107.24 107.21 107.21 107.10 107.05 106.96 106.84 106.71 106.65 106.48 106.50 106.48 106.44 106.42 106.40 106.36 106.40 106.30 106.30 106.24 106.15 106.18 106.24 106.31 106.48 106.73 106.82 106.90 107.09
106.71 106.96 107.25 107.51 107.71 107.98 108.25 108.40 108.27 108.13 108.10 108.04 108.02 107.98 107.91 107.85 107.80 107.79 107.77 107.69 107.57 107.48 107.41 107.37 107.37 107.34 107.24 107.15 107.04 106.91 106.80 106.70 106.55 106.55 106.54 106.47 106.42 106.41 106.42 106.43 106.31 106.32 106.24 106.18 106.21 106.30 106.33 106.54 106.75 106.83 106.95 107.15
106.96 107.21 107.46 107.70 107.91 108.14 108.40 108.54 108.38 108.24 108.20 108.18 108.20 108.17 108.11 108.01 107.96 107.94 107.90 107.82 107.70 107.60 107.51 107.49 107.55 107.45 107.38 107.26 107.13 107.00 106.90 106.82 106.69 106.64 106.59 106.52 106.44 106.47 106.48 106.43 106.33 106.37 106.25 106.21 106.26 106.32 106.40 106.57 106.76 106.85 106.99 107.22
107.22 107.44 107.65 107.87 108.07 108.30 108.53 108.67 108.51 108.38 108.43 108.39 108.40 108.37 108.30 108.22 108.14 108.08 108.02 107.93 107.83 107.73 107.67 107.63 107.64 107.60 107.52 107.36 107.24 107.13 107.01 106.94 106.82 106.77 106.66 106.62 106.50 106.54 106.50 106.45 106.38 106.41 106.29 106.24 106.33 106.38 106.45 106.67 106.77 106.88 106.99 107.21
107.46 107.64 107.83 108.02 108.22 108.43 108.68 108.79 108.67 108.60 108.68 108.65 108.61 108.56 108.47 108.38 108.28 108.21 108.13 108.06 107.99 107.92 107.85 107.79 107.81 107.73 107.66 107.49 107.34 107.25 107.14 107.05 106.92 106.89 106.78 106.76 106.63 106.60 106.57 106.52 106.44 106.45 106.37 106.31 106.37 106.43 106.53 106.77 106.81 106.88 107.03 107.25
107.72 107.88 108.05 108.22 108.39 108.60 108.80 108.88 108.82 108.74 108.79 108.76 108.71 108.63 108.57 108.48 108.39 108.31 108.24 108.18 108.10 108.04 107.98 107.97 108.01 107.92 107.88 107.61 107.48 107.38 107.26 107.19 107.07 107.02 106.93 106.89 106.74 106.71 106.65 106.59 106.52 106.54 106.45 106.38 106.45 106.52 106.60 106.83 106.85 106.93 107.09 107.33
108.00 108.14 108.28 108.43 108.58 108.73 108.84 108.92 108.90 108.82 108.80 108.76 108.73 108.68 108.62 108.56 108.46 108.36 108.29 108.22 108.17 108.12 108.08 108.06 108.13 108.02 108.01 107.71 107.60 107.51 107.39 107.32 107.23 107.16 107.10 107.02 106.89 106.83 106.76 106.74 106.62 106.66 106.56 106.46 106.51 106.62 106.69 106.68 106.91 107.01 107.18 107.40
108.21 108.31 108.47 108.62 108.71 108.80 108.83 108.91 108.93 108.90 108.83 108.81 108.80 108.77 108.74 108.68 108.59 108.49 108.42 108.36 108.29 108.25 108.20 108.15 108.18 108.06 108.10 107.84 107.73 107.61 107.57 107.45 107.39 107.31 107.27 107.18 107.06 106.99 106.93 106.84 106.74 106.75 106.67 106.57 106.63 106.69 106.81 106.68 107.00 107.09 107.25 107.48
108.39 108.48 108.62 108.72 108.77 108.84 108.88 108.98 108.99 108.99 109.00 108.92 108.94 108.93 108.90 108.85 108.77 108.68 108.58 108.51 108.43 108.39 108.32 108.25 108.22 108.18 108.21 107.99 107.88 107.75 107.71 107.60 107.54 107.48 107.41 107.35 107.21 107.13 107.07 106.93 106.87 106.88 106.78 106.78 106.78 106.81 106.96 107.00 107.13 107.17 107.33 107.55
108.57 108.62 108.70 108.80 108.87 108.95 109.02 109.10 109.12 109.13 109.17 109.10 109.11 109.10 109.07 109.01 108.93 108.83 108.73 108.63 108.58 108.51 108.42 108.37 108.43 108.37 108.34 108.12 108.03 107.90 107.85 107.77 107.67 107.63 107.56 107.52 107.34 107.27 107.20 107.12 107.00 107.04 106.94 106.92 106.93 106.96 107.14 107.29 107.25 107.29 107.44 107.64
108.68 108.72 108.79 108.90 108.98 109.10 109.18 109.24 109.19 109.35 109.22 109.25 109.26 109.24 109.21 109.17 109.10 108.98 108.87 108.77 108.70 108.63 108.57 108.53 108.53 108.62 108.46 108.27 108.14 108.05 107.97 107.90 107.83 107.80 107.71 107.66 107.45 107.37 107.31 107.26 107.12 107.19 107.11 107.07 107.09 107.12 107.29 107.43 107.36 107.41 107.56 107.74
108.75 108.81 108.90 109.04 109.12 109.25 109.34 109.42 109.24 109.35 109.42 109.45 109.44 109.43 109.39 109.35 109.27 109.17 109.06 108.95 108.87 108.80 108.75 108.67 108.61 108.61 108.60 108.39 108.26 108.18 108.10 108.06 107.98 107.93 107.86 107.76 107.57 107.47 107.47 107.40 107.29 107.36 107.26 107.23 107.26 107.29 107.45 107.52 107.51 107.54 107.69 107.88
108.85 108.93 109.05 109.19 109.29 109.42 109.50 109.58 109.56 109.64 109.65 109.62 109.65 109.61 109.60 109.60 109.52 109.38 109.24 109.15 109.07 109.03 108.92 108.84 108.76 108.79 108.67 108.53 108.36 108.25 108.21 108.16 108.10 108.06 107.98 107.87 107.68 107.55 107.59 107.50 107.46 107.49 107.43 107.40 107.44 107.44 107.60 107.65 107.64 107.70 107.84 108.01
108.97 109.07 109.21 109.35 109.46 109.57 109.65 109.71 109.78 109.74 109.78 109.80 109.80 109.79 109.74 109.68 109.66 109.50 109.37 109.25 109.18 109.07 109.01 108.95 108.86 108.83 108.93 108.65 108.48 108.36 108.31 108.27 108.25 108.20 108.09 107.96 107.76 107.62 107.68 107.62 107.60 107.64 107.61 107.56 107.59 107.60 107.76 107.78 107.80 107.86 108.00 108.18
109.08 109.19 109.34 109.51 109.60 109.73 109.78 109.86 109.96 109.93 109.92 109.90 109.88 109.85 109.81 109.76 109.71 109.65 109.57 109.49 109.40 109.29 109.20 109.08 108.96 108.92 109.03 108.80 108.61 108.47 108.40 108.35 108.34 108.30 108.21 108.05 107.81 107.69 107.75 107.74 107.69 107.78 107.76 107.74 107.77 107.80 107.91 107.91 107.89 108.01 108.18 108.35
109.17 109.35 109.48 109.65 109.76 109.87 109.93 109.98 110.10 110.06 110.11 110.12 110.17 110.16 110.08 110.11 109.99 109.92 109.79 109.67 109.48 109.34 109.25 109.15 109.10 109.04 109.05 108.90 108.68 108.56 108.48 108.45 108.42 108.37 108.25 108.09 107.84 107.71 107.79 107.83 107.81 107.87 107.86 107.87 107.85 107.89 108.03 108.04 108.06 108.19 108.35 108.50
109.25 109.45 109.67 109.83 109.94 110.00 110.03 110.12 110.23 110.21 110.25 110.31 110.33 110.35 110.28 110.27 110.18 110.09 109.90 109.80 109.63 109.56 109.44 109.32 109.24 109.08 109.27 108.91 108.74 108.63 108.61 108.54 108.45 108.40 108.26 108.17 107.93 107.79 107.81 107.83 107.87 107.94 107.97 107.97 107.94 108.00 108.09 108.15 108.20 108.29 108.43 108.64
109.39 109.57 109.81 110.00 110.12 110.14 110.24 110.31 110.36 110.40 110.39 110.39 110.36 110.36 110.33 110.27 110.18 110.09 109.96 109.80 109.65 109.51 109.40 109.30 109.22 109.17 109.25 109.00 108.71 108.57 108.54 108.48 108.35 108.26 108.18 108.05 107.92 107.81 107.83 107.87 108.02 108.10 108.10 108.16 108.21 108.23 108.10 108.34 108.34 108.44 108.63 108.79
109.63 109.88 110.08 110.29 110.42 110.51 110.58 110.64 110.70 110.67 110.61 110.55 110.49 110.43 110.34 110.22 110.07 109.99 109.86 109.76 109.65 109.54 109.46 109.40 109.35 109.24 109.47 109.25 108.79 108.59 108.53 108.46 108.42 108.35 108.30 108.27 108.23 108.13 108.15 108.35 108.08 108.08 108.15 108.17 108.16 108.27 108.12 108.61 108.50 108.57 108.67 108.81
109.64 109.79 110.00 110.20 110.33 110.47 110.59 110.65 110.73 110.76 110.74 110.76 110.77 110.64 110.43 110.07 109.96 109.86 109.75 109.64 109.49 109.49 109.37 109.32 109.30 109.31 109.40 109.29 109.10 109.07 109.03 108.96 108.86 108.76 108.68 108.64 108.57 108.55 108.60 108.61 108.61 108.61 108.60 108.54 108.54 108.75 107.93 109.01 108.91 109.03 108.95 109.03
109.74 109.96 110.07 110.32 110.43 110.60 110.66 110.83 110.87 110.88 110.82 110.80 110.80 110.68 110.27 110.10 109.90 109.76 109.60 109.50 109.47 109.47 109.43 109.41 109.38 109.46 109.47 109.34 109.28 109.24 109.24 109.04 108.96 108.90 108.78 108.67 108.59 108.62 108.64 108.65 108.67 108.68 108.64 108.58 108.62 108.77 108.18 108.93 108.92 109.03 109.29 109.57
109.90 110.00 110.22 110.39 110.59 110.71 110.76 110.99 110.85 110.99 110.90 110.86 110.78 110.69 110.07 110.01 109.90 109.93 109.87 109.89 109.90 109.92 109.91 109.79 109.71 109.72 109.68 109.50 109.37 109.26 109.23 109.11 109.01 108.91 108.79 108.69 108.64 108.61 108.62 108.61 108.61 108.61 108.60 108.60 108.67 108.77 108.58 108.88 108.99 109.16 109.38 109.65
110.01 110.04 110.36 110.42 110.74 110.82 111.04 111.11 111.15 111.15 110.99 110.96 110.92 110.31 110.21 110.08 110.30 110.38 110.41 110.39 110.37 110.32 110.17 110.07 109.92 109.92 109.88 109.71 109.58 109.45 109.41 109.30 109.21 109.07 108.96 108.86 108.76 108.68 108.63 108.65 108.66 108.66 108.65 108.68 108.76 108.86 109.00 109.03 109.07 109.25 109.49 109.81
110.13 110.26 110.41 110.56 110.84 110.88 111.14 111.19 111.29 111.28 111.14 111.00 110.87 110.38 110.50 110.65 110.74 110.75 110.71 110.61 110.50 110.46 110.26 110.15 110.05 110.06 110.07 109.89 109.77 109.65 109.60 109.51 109.40 109.28 109.15 109.02 108.89 108.80 108.71 108.68 108.71 108.74 108.75 108.77 108.88 109.01 109.15 109.11 109.18 109.36 109.60 109.88
110.18 110.45 110.57 110.79 110.92 111.13 111.26 111.25 111.42 111.28 111.23 111.12 110.49 110.79 110.77 111.05 111.05 111.04 110.93 110.78 110.68 110.54 110.44 110.29 110.19 110.12 110.15 110.01 109.91 109.89 109.84 109.76 109.64 109.50 109.34 109.18 109.04 108.92 108.81 108.74 108.77 108.83 108.88 108.92 109.04 109.14 109.25 109.22 109.31 109.51 109.74 109.99
110.29 110.59 110.63 110.94 111.00 111.24 111.30 111.45 111.47 111.37 111.29 111.24 110.78 111.04 111.03 111.12 111.16 111.13 110.99 110.85 110.74 110.60 110.46 110.38 110.22 110.26 110.28 110.13 110.06 110.04 109.99 109.94 109.84 109.66 109.52 109.37 109.17 109.04 108.89 108.82 108.84 108.91 108.96 109.02 109.14 109.21 109.31 109.35 109.43 109.62 109.86 110.12
110.54 110.67 110.85 111.07 111.12 111.38 111.35 111.57 111.54 111.46 111.46 110.72 111.24 111.17 111.40 111.41 111.34 111.26 111.14 111.08 110.93 110.79 110.64 110.55 110.42 110.43 110.41 110.26 110.23 110.17 110.13 110.10 110.00 109.83 109.68 109.51 109.32 109.19 109.03 108.93 108.96 109.00 109.03 109.08 109.22 109.28 109.40 109.39 109.54 109.76 109.99 110.23
110.65 110.73 110.95 111.13 111.33 111.44 111.49 111.66 111.58 111.56 111.48 110.90 111.41 111.54 111.60 111.56 111.51 111.36 111.30 111.16 111.08 110.93 110.77 110.72 110.65 110.62 110.56 110.46 110.36 110.32 110.25 110.21 110.13 110.02 109.84 109.67 109.50 109.36 109.21 109.11 109.09 109.10 109.10 109.13 109.30 109.35 109.47 109.53 109.64 109.88 110.14 110.36
