ncols 52
nrows 52
xllcorner 441344
yllcorner 5712896
cellsize 10
NODATA_value -9999
110.67 110.72 111.00 111.13 111.36 111.44 111.54 111.64 111.58 111.57 111.43 111.22 111.43 111.62 111.63 111.59 111.52 111.35 111.29 111.20 111.09 110.93 110.80 110.74 110.63 110.66 110.61 110.49 110.39 110.33 110.27 110.22 110.16 110.03 109.88 109.71 109.52 109.38 109.25 109.16 109.12 109.12 109.12 109.15 109.31 109.37 109.48 109.55 109.65 109.92 110.15 110.41
110.78 110.90 111.13 111.16 111.43 111.44 111.69 111.68 111.67 111.77 110.79 111.62 111.61 111.65 111.66 111.63 111.49 111.40 111.29 111.20 111.08 111.00 110.89 110.79 110.74 110.81 110.76 110.64 110.50 110.40 110.35 110.29 110.26 110.18 110.04 109.87 109.69 109.55 109.44 109.37 109.25 109.20 109.20 109.25 109.36 109.43 109.56 109.58 109.79 110.05 110.31 110.54
110.84 111.06 111.22 111.38 111.50 111.57 111.72 111.71 111.72 111.66 111.38 111.79 111.93 111.94 111.92 111.85 111.70 111.61 111.54 111.47 111.31 111.26 111.17 111.09 110.99 110.96 110.95 110.75 110.61 110.46 110.40 110.35 110.31 110.28 110.19 110.04 109.86 109.73 109.60 109.48 109.39 109.31 109.29 109.31 109.45 109.47 109.64 109.69 109.96 110.23 110.51 110.71
110.81 111.11 111.17 111.44 111.59 111.76 111.85 111.82 111.78 111.10 111.97 111.95 112.03 112.04 111.98 111.92 111.84 111.73 111.62 111.58 111.48 111.42 111.29 111.21 111.13 111.13 111.12 110.89 110.73 110.57 110.46 110.42 110.39 110.40 110.34 110.24 110.08 109.92 109.82 109.66 109.55 109.43 109.38 109.38 109.52 109.56 109.76 109.78 110.07 110.33 110.62 110.87
111.04 111.21 111.35 111.58 111.59 111.84 111.91 111.89 111.90 111.59 112.15 112.14 112.16 112.10 112.12 112.03 111.97 111.87 111.81 111.72 111.59 111.57 111.44 111.36 111.25 111.31 111.26 111.07 110.89 110.73 110.61 110.56 110.51 110.56 110.56 110.51 110.35 110.22 110.06 109.91 109.78 109.61 109.49 109.43 109.57 109.63 109.87 109.93 110.22 110.50 110.79 111.08
111.14 111.24 111.46 111.62 111.79 111.91 111.93 111.88 111.56 112.24 112.20 112.32 112.31 112.28 112.22 112.21 112.11 112.07 111.98 111.92 111.85 111.76 111.69 111.62 111.53 111.46 111.39 111.20 111.01 110.88 110.75 110.68 110.66 110.69 110.73 110.66 110.57 110.43 110.26 110.14 109.97 109.77 109.61 109.54 109.67 109.52 109.99 110.02 110.33 110.66 110.97 111.24
111.22 111.25 111.54 111.62 111.90 111.98 111.99 111.94 111.65 112.24 112.35 112.33 112.33 112.26 112.24 112.21 112.17 112.08 112.08 111.99 111.92 111.88 111.81 111.71 111.55 111.62 111.56 111.36 111.18 111.06 110.97 110.88 110.88 110.89 110.92 110.89 110.74 110.62 110.47 110.31 110.14 109.91 109.73 109.65 109.74 109.68 110.08 110.15 110.50 110.80 111.12 111.40
111.32 111.50 111.65 111.72 112.03 112.02 112.07 112.04 112.41 112.42 112.50 112.45 112.45 112.43 112.40 112.38 112.31 112.24 112.20 112.12 112.12 112.10 112.00 111.83 111.82 111.76 111.75 111.54 111.43 111.31 111.25 111.17 111.15 111.16 111.15 111.09 110.96 110.80 110.65 110.50 110.31 110.05 109.87 109.78 109.87 109.98 110.17 110.30 110.61 110.94 111.28 111.65
111.36 111.62 111.70 111.92 112.11 112.14 112.13 111.79 112.56 112.57 112.63 112.60 112.56 112.53 112.48 112.52 112.45 112.40 112.32 112.29 112.24 112.18 112.14 112.04 111.96 111.96 111.95 111.74 111.66 111.56 111.54 111.43 111.40 111.38 111.34 111.27 111.15 111.00 110.83 110.67 110.46 110.18 110.00 109.93 110.03 110.24 110.28 110.42 110.74 111.14 111.50 111.83
111.59 111.76 111.75 112.11 112.18 112.24 112.22 112.73 112.71 112.70 112.65 112.64 112.57 112.56 112.53 112.47 112.43 112.41 112.35 112.32 112.29 112.22 112.15 112.07 112.01 112.10 112.14 111.95 111.86 111.82 111.78 111.72 111.64 111.62 111.59 111.49 111.33 111.16 110.99 110.81 110.59 110.31 110.13 110.09 110.21 110.39 110.39 110.55 110.92 111.32 111.64 111.94
111.79 111.83 112.07 112.24 112.28 112.32 111.90 112.97 112.93 112.98 112.94 112.91 112.88 112.89 112.84 112.76 112.70 112.68 112.61 112.58 112.54 112.50 112.43 112.36 112.26 112.26 112.29 112.17 112.07 112.06 112.01 111.99 111.92 111.87 111.79 111.65 111.46 111.30 111.13 110.95 110.71 110.44 110.28 110.25 110.39 110.60 110.66 110.82 111.12 111.53 111.88 112.21
111.94 111.95 112.21 112.31 112.40 112.50 113.14 113.05 113.19 113.22 113.21 113.18 113.13 113.10 113.02 112.99 112.91 112.87 112.84 112.78 112.73 112.68 112.58 112.46 112.43 112.40 112.51 112.38 112.31 112.29 112.25 112.21 112.15 112.07 111.96 111.80 111.62 111.43 111.29 111.10 110.86 110.60 110.41 110.45 110.54 110.60 110.95 111.11 111.44 111.78 112.15 112.47
112.08 112.13 112.42 112.42 112.51 112.24 113.33 113.20 113.26 113.26 113.33 113.34 113.30 113.27 113.20 113.17 113.13 113.10 113.03 112.99 112.93 112.90 112.78 112.62 112.54 112.57 112.68 112.58 112.55 112.51 112.50 112.44 112.41 112.31 112.18 112.03 111.83 111.63 111.47 111.27 111.03 110.76 110.56 110.59 110.69 110.87 111.19 111.33 111.58 111.93 112.33 112.64
112.17 112.46 112.51 112.58 112.60 113.34 113.35 113.31 113.35 113.40 113.37 113.43 113.44 113.47 113.40 113.41 113.39 113.39 113.32 113.28 113.17 113.15 113.06 112.91 112.78 112.79 112.87 112.82 112.76 112.74 112.71 112.67 112.60 112.53 112.40 112.22 112.04 111.82 111.64 111.45 111.20 110.95 110.74 110.80 110.85 111.18 111.29 111.42 111.67 111.97 112.33 112.68
112.46 112.59 112.70 112.79 112.62 113.40 113.26 113.35 113.36 113.39 113.45 113.44 113.51 113.49 113.51 113.50 113.47 113.50 113.52 113.48 113.45 113.41 113.30 113.16 113.03 113.04 113.05 113.04 112.97 112.94 112.90 112.84 112.79 112.71 112.57 112.42 112.20 112.00 111.82 111.63 111.42 111.15 110.88 110.94 110.98 111.36 111.40 111.56 111.83 112.15 112.49 112.83
112.75 112.64 112.77 112.81 113.43 113.48 113.47 113.52 113.57 113.60 113.60 113.61 113.61 113.61 113.63 113.65 113.66 113.70 113.69 113.69 113.71 113.64 113.58 113.44 113.34 113.32 113.26 113.27 113.21 113.17 113.13 113.07 113.03 112.93 112.80 112.65 112.41 112.19 111.99 111.82 111.61 111.35 111.07 111.14 111.14 111.57 111.67 111.79 112.03 112.39 112.71 113.00
113.03 113.09 113.04 113.12 113.57 113.42 113.58 113.68 113.68 113.68 113.74 113.70 113.72 113.70 113.73 113.71 113.73 113.72 113.76 113.75 113.77 113.72 113.70 113.59 113.50 113.52 113.46 113.45 113.40 113.38 113.36 113.33 113.26 113.18 113.10 112.91 112.66 112.42 112.18 112.01 111.82 111.57 111.30 111.35 111.35 111.82 111.89 112.01 112.28 112.60 112.96 113.26
113.13 113.26 113.30 113.64 113.65 113.55 113.65 113.68 113.75 113.77 113.76 113.77 113.76 113.75 113.71 113.71 113.74 113.77 113.76 113.74 113.73 113.72 113.65 113.57 113.57 113.65 113.67 113.61 113.56 113.53 113.53 113.48 113.42 113.36 113.26 113.07 112.82 112.59 112.37 112.18 111.99 111.79 111.54 111.51 111.50 112.04 112.06 112.20 112.44 112.79 113.18 113.47
113.15 113.39 113.42 113.72 113.61 113.79 113.91 114.00 114.03 114.01 114.07 114.04 114.01 114.04 113.97 113.96 113.97 113.99 114.00 113.94 113.95 113.95 113.88 113.81 113.75 113.82 113.89 113.75 113.68 113.65 113.64 113.60 113.57 113.49 113.39 113.21 112.96 112.71 112.51 112.33 112.15 111.96 111.74 111.66 111.40 112.22 112.25 112.40 112.67 113.02 113.39 113.68
113.25 113.35 113.74 113.87 113.82 113.92 114.03 114.12 114.18 114.21 114.18 114.24 114.22 114.16 114.17 114.12 114.12 114.13 114.13 114.11 114.10 114.02 114.03 113.99 113.89 113.99 114.12 113.89 113.85 113.77 113.77 113.76 113.73 113.66 113.57 113.37 113.11 112.90 112.72 112.55 112.38 112.15 111.90 111.81 111.62 112.36 112.46 112.63 112.89 113.24 113.62 113.93
113.44 113.47 113.89 113.81 113.89 114.03 114.16 114.27 114.30 114.32 114.35 114.31 114.37 114.28 114.33 114.29 114.26 114.23 114.26 114.21 114.21 114.17 114.09 114.08 114.04 114.15 114.35 114.08 114.01 113.96 113.95 113.97 113.90 113.83 113.73 113.53 113.31 113.08 112.88 112.75 112.58 112.32 112.07 111.98 112.14 112.56 112.68 112.84 113.10 113.44 113.81 114.13
113.50 113.92 113.96 113.97 114.06 114.17 114.35 114.46 114.51 114.57 114.61 114.65 114.60 114.60 114.58 114.58 114.56 114.50 114.51 114.44 114.46 114.36 114.39 114.32 114.26 114.33 114.56 114.34 114.25 114.16 114.20 114.21 114.12 114.02 113.94 113.74 113.47 113.25 113.07 112.92 112.76 112.54 112.30 112.15 112.53 112.76 112.84 112.98 113.25 113.58 113.97 114.32
113.68 114.11 114.01 114.05 114.16 114.25 114.40 114.55 114.61 114.65 114.76 114.78 114.73 114.71 114.67 114.66 114.66 114.66 114.65 114.60 114.56 114.55 114.47 114.47 114.42 114.54 114.71 114.47 114.43 114.43 114.43 114.37 114.32 114.24 114.11 113.93 113.69 113.47 113.26 113.10 112.93 112.76 112.48 112.38 112.74 112.84 113.01 113.20 113.45 113.80 114.15 114.46
114.19 114.24 114.19 114.24 114.33 114.47 114.56 114.74 114.82 114.88 114.86 114.98 114.93 114.95 114.88 114.94 114.90 114.87 114.85 114.81 114.74 114.74 114.66 114.65 114.61 114.73 114.89 114.72 114.70 114.68 114.64 114.60 114.52 114.42 114.28 114.08 113.83 113.61 113.40 113.23 113.05 112.84 112.68 112.54 112.89 112.95 113.19 113.42 113.67 113.98 114.35 114.71
114.43 114.32 114.47 114.51 114.62 114.72 114.85 114.96 115.00 115.07 115.10 115.13 115.14 115.07 115.05 115.11 115.08 115.11 115.08 115.04 115.01 114.93 114.82 114.88 114.82 114.97 115.04 114.93 114.87 114.86 114.85 114.83 114.78 114.67 114.52 114.32 114.06 113.82 113.60 113.43 113.22 113.01 112.78 112.74 113.02 113.14 113.36 113.60 113.83 114.15 114.51 114.87
114.51 114.45 114.50 114.60 114.77 114.92 115.03 115.12 115.18 115.22 115.24 115.21 115.24 115.21 115.26 115.25 115.25 115.20 115.19 115.17 115.12 115.12 115.08 115.03 115.05 115.15 115.21 115.14 115.11 115.05 115.06 115.04 114.98 114.88 114.74 114.54 114.28 114.03 113.79 113.61 113.40 113.20 112.93 112.90 113.22 113.36 113.54 113.79 114.02 114.35 114.72 115.05
114.57 114.68 114.75 114.91 115.05 115.21 115.35 115.47 115.56 115.57 115.65 115.63 115.69 115.63 115.58 115.64 115.62 115.56 115.53 115.50 115.48 115.45 115.41 115.38 115.22 115.34 115.40 115.37 115.36 115.30 115.28 115.25 115.21 115.11 114.96 114.76 114.50 114.25 114.04 113.82 113.61 113.39 113.12 113.04 113.44 113.60 113.78 114.07 114.31 114.57 114.91 115.26
114.64 114.84 114.92 115.05 115.14 115.27 115.36 115.53 115.68 115.70 115.81 115.89 115.90 115.93 115.95 115.92 115.92 115.94 115.90 115.85 115.82 115.80 115.70 115.68 115.58 115.64 115.59 115.60 115.53 115.51 115.51 115.52 115.45 115.36 115.23 115.05 114.78 114.51 114.26 114.04 113.82 113.60 113.33 113.22 113.67 113.80 114.01 114.27 114.53 114.82 115.15 115.50
114.75 114.80 114.91 115.02 115.17 115.29 115.41 115.56 115.63 115.71 115.78 115.88 115.92 116.03 116.04 116.08 116.10 116.09 116.05 116.01 116.00 115.96 115.92 115.90 115.89 116.01 115.83 115.81 115.80 115.78 115.79 115.76 115.71 115.62 115.47 115.28 115.00 114.69 114.43 114.19 113.94 113.71 113.47 113.45 113.85 113.96 114.18 114.46 114.71 115.04 115.37 115.69
114.87 115.02 115.10 115.24 115.35 115.49 115.63 115.76 115.79 115.83 115.91 116.03 116.04 116.13 116.24 116.28 116.34 116.39 116.29 116.36 116.40 116.33 116.28 116.26 116.12 116.24 116.10 116.12 116.11 116.09 116.07 116.03 115.97 115.89 115.72 115.50 115.18 114.87 114.61 114.37 114.10 113.81 113.61 113.59 114.04 114.15 114.36 114.59 114.89 115.19 115.56 115.87
115.01 115.10 115.27 115.36 115.53 115.68 115.77 115.88 115.93 115.99 116.04 116.14 116.18 116.34 116.43 116.49 116.47 116.44 116.54 116.56 116.53 116.52 116.48 116.43 116.38 116.47 116.42 116.44 116.43 116.44 116.45 116.42 116.35 116.25 116.09 115.84 115.51 115.16 114.85 114.54 114.25 113.97 113.77 113.72 114.15 114.38 114.54 114.76 115.04 115.40 115.77 116.07
115.18 115.23 115.42 115.58 115.72 115.87 115.96 116.07 116.11 116.14 116.20 116.32 116.33 116.53 116.65 116.60 116.67 116.69 116.75 116.68 116.73 116.72 116.69 116.60 116.60 116.75 116.72 116.66 116.70 116.72 116.73 116.74 116.68 116.59 116.41 116.16 115.79 115.39 115.04 114.71 114.41 114.14 113.94 113.82 113.74 114.57 114.74 114.95 115.28 115.63 115.98 116.25
115.37 115.51 115.60 115.82 115.89 116.13 116.23 116.22 116.31 116.40 116.44 116.53 116.59 116.70 116.83 116.90 116.88 116.92 116.96 116.96 116.94 116.92 116.92 116.83 116.78 116.95 116.97 116.86 116.85 116.85 116.88 116.90 116.86 116.79 116.62 116.35 115.98 115.60 115.24 114.93 114.64 114.34 114.12 113.99 113.98 114.70 114.90 115.14 115.47 115.83 116.20 116.49
115.49 115.57 115.68 115.82 115.99 116.17 116.29 116.35 116.40 116.46 116.58 116.66 116.75 116.83 116.96 116.99 116.99 117.05 117.05 117.05 116.99 117.00 116.99 116.98 116.97 117.15 117.16 116.99 116.98 117.00 117.01 117.00 116.98 116.89 116.74 116.50 116.19 115.85 115.52 115.23 114.93 114.63 114.40 114.19 114.18 114.83 115.12 115.39 115.75 116.07 116.38 116.65
115.74 115.75 115.93 116.05 116.24 116.42 116.53 116.61 116.70 116.78 116.82 116.88 117.02 117.12 117.22 117.22 117.28 117.33 117.37 117.28 117.24 117.30 117.26 117.29 117.18 117.34 117.32 117.14 117.15 117.19 117.21 117.20 117.15 117.08 116.91 116.68 116.42 116.10 115.78 115.49 115.22 114.96 114.74 114.53 114.48 114.99 115.26 115.61 115.94 116.23 116.54 116.82
115.95 115.98 116.15 116.22 116.41 116.55 116.71 116.79 116.94 116.97 117.09 117.13 117.20 117.29 117.45 117.49 117.49 117.57 117.60 117.54 117.54 117.44 117.45 117.43 117.41 117.56 117.58 117.31 117.33 117.37 117.39 117.40 117.36 117.26 117.12 116.87 116.59 116.28 115.98 115.70 115.44 115.21 115.02 114.82 114.72 115.12 115.43 115.72 116.05 116.41 116.68 116.96
115.98 116.08 116.20 116.34 116.47 116.61 116.74 116.82 116.93 117.03 117.15 117.18 117.26 117.37 117.50 117.53 117.56 117.62 117.66 117.61 117.59 117.55 117.53 117.56 117.61 117.76 117.79 117.59 117.60 117.61 117.60 117.61 117.56 117.46 117.32 117.08 116.78 116.47 116.17 115.89 115.64 115.42 115.22 115.03 114.89 115.10 115.57 115.84 116.19 116.54 116.81 117.12
116.28 116.42 116.56 116.74 116.74 116.99 117.06 117.17 117.33 117.37 117.49 117.56 117.61 117.75 117.82 117.88 117.89 117.97 118.01 117.96 117.94 117.92 117.90 117.89 117.79 117.96 117.96 117.79 117.81 117.81 117.82 117.81 117.77 117.66 117.49 117.23 116.96 116.63 116.33 116.06 115.82 115.64 115.47 115.26 115.12 114.95 115.73 116.00 116.33 116.68 116.97 117.28
116.52 116.62 116.74 116.88 116.97 117.09 117.22 117.33 117.49 117.62 117.65 117.76 117.83 117.97 118.07 118.05 118.13 118.20 118.20 118.23 118.16 118.12 118.09 118.07 118.04 118.15 118.17 118.04 118.04 118.04 118.04 118.02 117.97 117.88 117.70 117.46 117.14 116.82 116.52 116.26 116.04 115.85 115.68 115.48 115.32 115.29 115.90 116.13 116.46 116.79 117.06 117.38
116.61 116.78 116.96 117.15 117.22 117.38 117.50 117.65 117.64 117.83 117.93 118.03 118.12 118.26 118.35 118.30 118.37 118.46 118.51 118.47 118.42 118.35 118.37 118.32 118.28 118.38 118.35 118.28 118.26 118.28 118.28 118.26 118.19 118.08 117.90 117.65 117.32 116.99 116.68 116.43 116.23 116.07 115.89 115.68 115.52 115.70 116.07 116.28 116.60 116.91 117.21 117.50
116.76 117.05 117.17 117.28 117.41 117.52 117.65 117.85 117.89 118.06 118.17 118.22 118.32 118.46 118.55 118.56 118.68 118.68 118.78 118.73 118.71 118.71 118.69 118.64 118.58 118.60 118.61 118.49 118.52 118.50 118.50 118.46 118.38 118.26 118.07 117.81 117.47 117.14 116.84 116.61 116.42 116.26 116.10 115.87 115.72 115.98 116.19 116.47 116.77 117.10 117.37 117.66
117.11 117.09 117.23 117.35 117.44 117.62 117.79 117.96 118.04 118.17 118.26 118.36 118.46 118.61 118.75 118.79 118.78 118.85 118.98 118.99 119.00 118.96 118.97 118.96 118.86 119.01 118.93 118.81 118.86 118.82 118.78 118.72 118.62 118.48 118.28 118.00 117.68 117.38 117.09 116.87 116.70 116.54 116.39 116.16 116.05 116.19 116.38 116.68 117.00 117.29 117.54 117.82
117.49 117.31 117.36 117.34 117.55 117.88 118.03 118.14 118.26 118.42 118.49 118.68 118.74 118.90 118.97 118.94 119.05 119.14 119.21 119.26 119.21 119.23 119.22 119.25 119.15 119.30 119.26 119.12 119.13 119.10 119.03 118.91 118.76 118.57 118.34 118.06 117.76 117.49 117.25 117.06 116.90 116.77 116.62 116.43 116.33 116.39 116.68 116.93 117.21 117.47 117.71 117.96
117.06 117.83 117.57 117.64 117.72 117.86 118.04 118.31 118.45 118.60 118.72 118.84 118.98 119.16 119.21 119.24 119.21 119.33 119.37 119.40 119.42 119.46 119.43 119.40 119.36 119.57 119.47 119.31 119.29 119.24 119.13 118.99 118.81 118.60 118.33 118.04 117.74 117.48 117.27 117.10 116.96 116.88 116.78 116.76 116.34 116.62 116.87 117.10 117.36 117.60 117.85 118.12
117.19 117.27 117.78 118.03 117.92 118.12 118.17 118.35 118.51 118.67 118.77 118.91 119.04 119.20 119.28 119.26 119.30 119.37 119.40 119.42 119.43 119.47 119.48 119.46 119.47 119.69 119.63 119.54 119.51 119.40 119.29 119.15 118.95 118.70 118.43 118.17 117.88 117.49 117.30 117.19 117.04 117.00 116.94 116.94 116.30 116.85 117.04 117.24 117.51 117.75 118.01 118.24
117.48 117.42 117.40 117.43 118.26 118.21 118.40 118.53 118.71 118.98 119.12 119.28 119.37 119.57 119.67 119.65 119.61 119.70 119.79 119.74 119.72 119.77 119.75 119.75 119.65 119.86 119.64 119.64 119.53 119.44 119.35 119.21 118.99 118.73 118.45 118.17 117.83 117.61 117.34 117.17 117.05 117.09 117.06 117.13 116.36 117.03 117.18 117.40 117.68 117.93 118.17 118.37
117.88 117.74 117.60 117.56 117.66 118.10 118.57 118.78 118.97 119.00 119.21 119.38 119.54 119.72 119.82 119.81 119.85 119.90 119.96 119.98 119.96 119.96 120.00 119.91 119.86 120.05 119.77 119.78 119.66 119.58 119.44 119.31 119.10 118.85 118.60 118.25 117.88 117.66 117.39 117.25 117.26 117.19 117.19 117.27 116.99 117.15 117.31 117.59 117.87 118.11 118.32 118.50
118.26 118.16 118.00 117.82 117.75 117.89 117.97 118.69 118.95 119.28 119.43 119.43 119.59 119.84 119.93 119.95 119.97 120.07 120.11 120.09 120.13 120.14 120.14 120.12 120.08 120.30 119.95 119.96 119.88 119.78 119.63 119.46 119.24 119.00 118.70 118.38 117.99 117.75 117.51 117.39 117.36 117.30 117.37 117.37 117.15 117.28 117.48 117.73 118.07 118.32 118.49 118.63
118.57 118.53 118.44 118.26 118.08 118.01 118.07 118.25 118.42 119.11 119.55 119.74 119.76 120.00 120.08 120.19 120.21 120.33 120.46 120.37 120.42 120.37 120.45 120.38 120.35 120.51 120.14 120.16 120.06 119.95 119.77 119.58 119.35 119.10 118.82 118.48 118.13 117.85 117.58 117.50 117.49 117.44 117.51 117.46 117.24 117.55 117.69 117.98 118.28 118.51 118.68 118.82
118.80 118.83 118.77 118.70 118.55 118.38 118.30 118.35 118.50 118.65 119.28 119.53 120.03 120.16 120.22 120.22 120.34 120.55 120.57 120.57 120.56 120.62 120.57 120.61 120.50 120.66 120.35 120.34 120.23 120.11 119.94 119.71 119.47 119.20 118.91 118.59 118.24 118.01 117.73 117.66 117.62 117.63 117.65 117.57 117.52 117.67 117.82 118.18 118.53 118.80 119.04 119.17
119.07 119.07 119.07 119.04 118.96 118.81 118.65 118.59 118.68 118.79 118.97 119.17 119.78 120.18 120.45 120.47 120.42 120.65 120.73 120.90 120.82 120.86 120.88 120.83 120.70 120.88 120.54 120.53 120.44 120.29 120.07 119.85 119.58 119.27 119.00 118.71 118.37 118.18 117.95 117.85 117.78 117.76 117.86 117.50 117.72 117.82 118.00 118.34 118.73 119.03 119.23 119.35
119.26 119.29 119.34 119.32 119.28 119.17 119.07 118.97 118.92 118.97 119.07 119.26 119.39 119.92 120.04 120.59 120.76 120.73 120.90 120.97 121.05 121.09 121.12 121.04 120.93 121.07 120.73 120.71 120.62 120.43 120.24 119.99 119.69 119.40 119.13 118.82 118.51 118.37 118.20 118.06 118.02 117.97 118.04 117.42 117.93 117.99 118.25 118.55 118.93 119.26 119.43 119.54
