ncols 52
nrows 52
xllcorner 441344
yllcorner 5714432
cellsize 10
NODATA_value -9999
105.53 105.66 105.81 106.01 106.29 106.41 106.55 106.71 106.71 106.67 106.70 106.67 106.63 106.68 106.63 106.64 106.79 106.43 106.50 105.14 106.68 106.18 106.27 105.86 105.39 104.41 99.96 100.43 100.94 104.80 104.19 104.49 104.02 103.69 103.51 103.18 103.16 102.89 102.64 102.48 102.43 102.28 101.96 101.78 101.27 101.14 100.87 100.56 100.59 100.21 100.05 99.95
105.56 105.69 105.85 106.08 106.29 106.42 106.51 106.61 106.68 106.65 106.68 106.66 106.63 106.65 106.65 106.63 106.80 106.67 106.47 106.28 106.25 106.09 105.74 105.82 103.66 99.99 100.51 101.31 104.74 104.48 104.23 104.33 104.06 103.82 103.60 103.52 103.26 102.93 102.71 102.50 102.40 102.32 102.30 101.51 101.24 101.13 100.76 100.54 100.54 100.21 99.99 99.89
105.57 105.71 105.86 106.08 106.29 106.39 106.43 106.55 106.71 106.64 106.65 106.67 106.65 106.69 106.71 106.81 106.94 106.79 106.86 106.48 106.26 106.08 106.18 102.69 100.29 100.61 101.47 105.05 104.73 104.48 103.86 104.16 103.97 103.90 103.66 103.51 103.19 103.05 102.84 102.63 102.52 101.98 102.10 101.60 101.29 101.04 100.75 100.61 100.61 100.22 100.07 99.74
105.54 105.69 105.88 106.07 106.26 106.30 106.41 106.59 106.72 106.63 106.68 106.76 106.74 106.84 106.76 106.69 106.81 106.74 106.45 106.40 106.48 106.05 101.71 100.54 100.74 102.14 105.32 104.96 104.67 104.49 104.46 104.15 104.02 104.08 103.55 103.47 103.26 103.05 102.73 102.64 102.41 102.17 101.86 101.67 101.31 101.42 101.05 100.74 100.31 100.23 100.18 99.78
105.53 105.67 105.86 106.07 106.26 106.33 106.37 106.57 106.75 106.67 106.82 106.79 106.83 106.89 106.82 106.67 106.69 106.75 106.82 106.41 105.03 100.05 100.63 100.62 102.72 105.49 105.23 104.90 104.71 104.55 104.40 104.27 104.13 103.97 103.78 103.45 103.31 103.07 102.65 102.72 102.54 102.19 101.92 101.59 101.41 101.14 100.88 100.64 100.47 100.25 101.47 100.62
105.53 105.69 105.88 106.10 106.27 106.32 106.35 106.58 106.82 106.90 106.93 107.00 107.04 107.05 107.06 107.05 106.85 106.49 106.42 103.38 99.56 100.83 100.17 103.38 105.73 105.43 105.22 104.98 104.79 104.61 104.50 104.26 104.06 103.94 103.74 103.56 103.10 102.97 102.74 102.80 102.72 102.43 101.88 101.54 101.36 101.21 100.83 100.65 100.49 100.26 100.10 99.87
105.52 105.68 105.87 106.07 106.24 106.30 106.39 106.63 107.22 107.24 107.16 107.07 107.07 106.91 106.80 106.62 106.69 106.48 102.13 100.04 100.86 99.90 104.29 105.82 105.63 105.37 105.25 105.04 104.81 104.69 104.60 104.41 104.28 104.03 103.79 103.41 103.21 103.07 102.75 102.81 102.79 102.45 102.06 101.57 101.32 101.15 100.96 100.86 100.40 100.27 100.12 99.93
105.47 105.65 105.85 106.06 106.35 106.51 107.08 107.12 106.98 106.82 107.00 106.83 106.93 106.89 106.86 106.68 105.80 100.99 100.31 100.75 100.43 105.17 106.11 105.79 105.58 105.46 105.29 105.10 104.88 104.73 104.65 104.33 104.21 104.08 103.86 103.61 103.25 103.12 102.75 102.78 102.55 102.29 101.94 101.71 101.50 101.19 100.99 101.37 100.51 100.37 100.22 100.17
105.44 105.57 105.87 106.26 106.79 106.87 106.70 106.85 106.83 106.83 106.81 106.77 106.79 106.78 106.97 102.55 100.03 100.71 100.93 101.64 105.96 106.34 106.06 105.79 105.65 105.52 105.34 105.15 104.97 104.79 104.70 104.44 104.20 104.21 103.93 103.51 103.14 103.01 102.93 102.88 102.64 102.42 102.17 101.74 101.60 101.25 101.12 100.83 100.66 100.53 100.51 100.12
105.40 105.73 106.15 106.61 106.53 106.78 106.78 106.79 106.83 106.89 106.88 106.91 106.99 106.75 101.16 99.60 100.90 100.47 102.70 106.57 106.43 106.21 106.00 105.82 105.72 105.58 105.41 105.23 104.99 104.85 104.67 104.53 104.46 104.16 103.98 103.62 103.26 102.94 102.89 102.85 102.54 102.26 102.13 101.65 101.46 101.29 101.09 100.77 100.66 100.57 100.31 100.09
105.56 106.28 106.51 106.46 106.64 106.74 106.78 106.84 106.95 106.91 107.14 107.39 104.69 100.22 100.15 100.86 100.03 103.81 106.46 106.37 106.26 106.15 106.04 105.87 105.72 105.60 105.43 105.26 105.04 104.85 104.65 104.53 104.33 104.21 104.33 103.64 103.26 102.94 102.93 102.61 102.47 102.21 102.00 101.78 101.65 101.45 101.21 100.90 100.71 100.52 100.27 100.10
106.14 105.98 106.06 106.35 106.67 106.75 106.77 107.01 106.90 107.00 107.31 102.36 99.57 100.72 100.92 100.99 104.96 106.28 106.20 106.15 106.12 106.06 105.91 105.80 105.63 105.54 105.38 105.23 105.00 104.79 104.58 104.56 104.53 104.25 104.27 103.65 103.25 102.92 102.81 102.73 102.55 102.28 102.00 101.76 101.62 101.40 101.49 101.21 100.95 100.76 100.52 100.58
105.57 105.68 105.99 106.34 106.53 106.71 107.00 106.89 107.23 105.64 100.68 99.85 100.92 100.62 102.57 106.35 106.23 106.10 106.07 106.04 105.98 105.91 105.77 105.64 105.47 105.36 105.25 105.07 104.86 104.70 104.50 104.59 104.28 104.40 104.18 103.83 103.25 103.03 102.83 102.67 102.80 103.32 102.83 102.10 101.75 101.53 101.39 101.11 102.01 101.29 101.65 101.12
105.50 105.76 106.06 106.40 106.47 106.69 106.76 107.01 103.06 99.42 100.38 100.79 100.08 104.25 106.54 106.33 106.12 106.07 106.07 106.02 105.90 105.79 105.68 105.52 105.39 105.22 105.11 104.93 104.68 104.58 104.38 104.21 103.99 104.20 104.06 103.79 103.27 103.05 103.09 102.83 102.62 103.02 102.68 101.74 101.76 101.33 101.05 100.90 100.74 100.65 100.75 100.42
105.75 104.46 103.29 103.74 106.52 106.54 105.88 101.33 99.71 100.80 100.93 101.73 105.80 106.59 106.46 106.29 106.16 106.13 106.09 106.01 105.88 105.78 105.60 105.46 105.29 105.15 105.02 104.87 104.64 104.49 104.28 104.08 103.90 103.71 103.56 103.34 103.14 102.95 102.79 102.57 102.50 102.44 102.21 101.93 101.73 101.26 101.54 101.18 101.08 101.09 100.66 100.54
99.95 99.78 99.87 101.07 105.82 103.31 99.83 100.25 100.82 100.02 103.33 106.87 106.68 106.56 106.46 106.36 106.25 106.18 106.10 106.02 105.88 105.73 105.60 105.41 105.26 105.13 105.01 104.83 104.59 104.44 104.21 104.10 104.39 103.96 103.46 103.31 103.10 103.09 103.24 102.92 102.60 102.99 102.09 101.94 101.58 101.49 101.57 101.14 101.49 101.12 100.83 100.67
99.59 99.69 99.76 100.04 100.89 99.57 100.76 100.95 101.18 105.02 106.81 106.69 106.60 106.55 106.52 106.43 106.28 106.20 106.13 106.00 105.86 105.72 105.58 105.40 105.25 105.08 104.93 104.75 104.54 104.44 104.15 104.10 104.26 103.99 103.17 103.28 103.09 103.26 103.25 103.24 102.30 102.32 102.06 101.93 101.68 101.48 101.26 101.14 101.03 101.03 100.99 100.87
99.59 99.77 100.70 99.46 100.42 100.76 99.99 103.23 106.81 106.90 106.82 106.71 106.62 106.60 106.56 106.46 106.32 106.24 106.16 106.02 105.86 105.70 105.54 105.35 105.14 105.01 104.87 104.69 104.49 104.32 104.07 104.05 104.07 104.13 103.62 103.25 103.10 103.26 103.57 102.97 102.31 102.15 101.99 102.01 101.95 101.49 101.17 101.02 101.03 100.80 100.76 100.76
99.83 99.43 99.87 100.86 100.75 101.13 105.30 106.83 106.88 106.84 106.82 106.75 106.68 106.68 106.63 106.51 106.37 106.24 106.12 105.98 105.78 105.66 105.51 105.29 105.11 104.96 104.79 104.63 104.39 104.21 104.04 103.66 103.75 103.51 103.36 103.27 103.23 103.21 103.01 102.83 102.28 102.05 101.97 101.95 101.91 101.46 101.18 101.07 100.85 100.78 100.79 100.69
99.37 100.70 100.80 99.86 103.69 106.79 106.66 106.70 106.74 106.86 106.87 106.80 106.71 106.69 106.64 106.50 106.34 106.20 106.08 105.96 105.82 105.63 105.47 105.26 105.06 104.88 104.73 104.52 104.29 104.10 103.95 103.79 103.59 103.42 103.33 103.16 103.17 102.86 102.76 102.68 102.40 102.11 101.98 101.83 101.66 101.24 101.21 101.06 100.81 100.69 100.68 100.61
100.82 100.14 102.46 106.29 106.50 106.56 106.54 106.64 106.77 106.86 106.88 106.84 106.68 106.67 106.62 106.52 106.36 106.21 106.08 105.93 105.78 105.61 105.41 105.20 104.98 104.81 104.65 104.45 104.20 103.94 103.86 103.76 103.39 103.40 103.33 103.24 103.24 102.77 102.63 102.54 102.12 102.08 101.91 101.53 101.31 101.18 101.06 100.96 100.82 100.74 100.67 100.58
100.74 104.62 106.31 106.41 106.40 106.49 106.55 106.62 106.73 106.85 106.90 106.82 106.75 106.69 106.64 106.51 106.35 106.20 106.07 105.90 105.69 105.52 105.32 105.13 104.87 104.73 104.54 104.36 104.13 103.89 103.78 103.75 103.57 103.43 103.35 103.35 103.07 102.52 102.52 102.41 102.17 102.04 101.90 101.60 101.42 101.25 101.12 100.96 100.99 100.87 100.60 100.68
105.95 106.03 106.18 106.27 106.34 106.42 106.52 106.62 106.75 106.84 106.87 106.83 106.79 106.71 106.64 106.49 106.31 106.16 106.01 105.85 105.64 105.45 105.24 105.03 104.83 104.62 104.46 104.28 104.08 103.92 103.75 103.69 103.42 103.43 103.46 103.35 103.27 102.51 102.51 102.33 102.18 102.04 101.71 101.84 101.56 101.28 101.11 100.88 100.98 100.91 100.66 100.53
105.75 105.89 106.07 106.22 106.32 106.39 106.49 106.60 106.70 106.80 106.83 106.77 106.73 106.68 106.61 106.46 106.27 106.09 105.95 105.76 105.61 105.37 105.13 104.94 104.74 104.51 104.37 104.19 104.07 103.93 103.77 103.38 103.39 103.48 104.21 104.07 103.15 102.90 102.52 102.21 101.95 101.79 101.66 101.65 101.46 101.09 101.05 100.82 100.84 100.94 100.67 100.62
105.65 105.83 106.03 106.21 106.26 106.32 106.42 106.51 106.64 106.77 106.77 106.75 106.67 106.61 106.55 106.39 106.21 106.00 105.83 105.69 105.52 105.31 105.06 104.82 104.66 104.58 104.46 103.97 103.74 103.52 103.32 103.17 103.03 103.46 103.59 103.46 103.18 102.67 102.65 102.32 102.00 101.76 101.57 101.33 101.16 101.07 100.98 100.92 100.88 100.89 100.74 100.73
105.56 105.75 105.97 106.10 106.20 106.26 106.34 106.47 106.59 106.67 106.71 106.67 106.59 106.53 106.47 106.30 106.13 105.99 105.78 105.59 105.46 105.25 105.05 104.64 104.40 104.19 104.00 103.79 103.51 103.33 103.16 103.02 102.95 103.06 103.39 103.32 102.92 102.66 102.65 102.17 101.89 101.82 101.82 101.66 101.43 101.25 101.31 101.04 100.90 100.81 100.80 100.73
105.51 105.71 105.93 106.06 106.15 106.19 106.27 106.41 106.48 106.60 106.63 106.60 106.55 106.51 106.45 106.28 106.12 105.97 105.82 105.39 105.15 104.95 104.75 104.52 104.23 104.07 103.91 103.77 103.56 103.37 103.19 103.03 102.98 103.06 103.39 103.33 102.89 102.68 102.70 102.15 101.97 101.88 101.92 101.82 101.36 101.29 101.27 101.15 101.26 100.96 100.98 100.78
105.48 105.65 105.84 105.97 106.07 106.11 106.16 106.29 106.40 106.54 106.59 106.60 106.65 106.63 106.45 106.13 105.93 105.69 105.46 105.23 105.04 104.90 104.75 104.47 104.33 104.19 104.07 103.93 103.73 103.51 103.30 103.09 102.95 103.29 103.43 103.67 104.99 104.10 102.94 102.41 102.10 101.89 101.91 101.78 101.37 101.44 101.32 101.22 101.36 101.01 100.99 100.77
105.43 105.56 105.70 105.81 105.91 106.01 106.08 106.21 106.31 106.45 106.46 106.41 106.46 106.40 106.13 105.93 105.80 105.56 105.37 105.12 105.03 105.00 104.85 104.64 104.48 104.33 104.17 104.02 103.86 103.62 103.37 103.16 102.98 103.18 103.46 103.03 102.44 101.98 102.10 102.90 103.79 104.72 104.47 103.65 102.22 101.60 101.37 101.29 101.07 100.87 100.85 100.68
105.36 105.43 105.57 105.64 105.78 105.96 106.10 106.22 106.31 106.35 106.37 106.41 106.53 106.25 106.13 105.97 105.84 105.59 105.39 105.20 105.15 105.10 104.90 104.71 104.53 104.31 104.21 104.09 103.91 103.71 103.46 103.20 103.07 103.31 103.45 102.97 102.43 101.66 101.56 101.47 101.30 101.15 101.00 100.87 101.41 102.11 102.89 103.83 103.93 102.73 101.35 100.72
105.36 105.42 105.54 105.65 105.81 105.98 106.15 106.25 106.34 106.39 106.40 106.49 106.56 106.32 106.15 106.08 105.94 105.68 105.48 105.31 105.23 105.13 104.91 104.70 104.52 104.34 104.22 104.11 103.98 103.77 103.51 103.25 103.13 103.38 103.50 102.93 102.74 102.46 102.21 101.98 101.76 101.58 101.47 101.26 101.13 100.96 100.60 100.42 100.26 100.19 100.47 102.71
105.43 105.54 105.69 105.85 106.01 106.19 106.31 106.41 106.41 106.44 106.42 106.53 106.57 106.29 106.18 106.12 106.04 105.82 105.60 105.36 105.26 105.13 104.89 104.71 104.56 104.36 104.23 104.15 104.01 103.81 103.57 103.29 103.17 103.50 103.59 102.99 102.95 102.74 102.54 102.36 102.21 102.07 101.96 101.86 101.79 101.74 101.37 101.09 100.82 100.42 100.22 100.52
105.53 105.66 105.80 105.97 106.17 106.39 106.52 106.57 106.50 106.48 106.49 106.56 106.58 106.30 106.18 106.10 106.03 105.88 105.65 105.42 105.27 105.10 104.91 104.75 104.57 104.42 104.28 104.14 104.07 103.89 103.64 103.41 103.28 103.62 103.61 103.24 103.11 102.92 102.78 102.65 102.55 102.47 102.41 102.38 102.35 102.36 102.12 102.12 101.80 101.39 100.50 100.14
105.55 105.72 105.91 106.09 106.32 106.48 106.59 106.60 106.55 106.50 106.49 106.57 106.58 106.29 106.20 106.09 105.99 105.90 105.67 105.42 105.29 105.14 104.93 104.77 104.59 104.43 104.31 104.18 104.10 103.94 103.72 103.54 103.49 103.72 103.37 103.07 102.98 102.90 102.88 102.89 102.81 102.78 102.82 102.79 102.83 102.89 102.29 102.24 102.14 102.34 100.73 100.35
105.60 105.81 106.03 106.22 106.41 106.58 106.69 106.66 106.58 106.54 106.50 106.53 106.51 106.29 106.18 106.04 105.96 105.88 105.68 105.43 105.31 105.15 104.95 104.80 104.63 104.46 104.35 104.25 104.15 104.03 103.83 103.63 103.64 103.77 103.33 103.04 102.92 102.83 102.78 102.75 102.77 102.76 102.70 102.62 102.54 102.48 102.44 102.04 101.72 101.46 100.78 100.46
105.69 105.90 106.09 106.29 106.49 106.65 106.75 106.73 106.64 106.55 106.53 106.57 106.40 106.26 106.15 106.04 105.93 105.87 105.72 105.44 105.32 105.16 104.97 104.82 104.67 104.52 104.37 104.29 104.18 104.07 103.88 103.74 103.71 103.85 103.36 103.07 102.90 102.79 102.70 102.63 102.60 102.56 102.49 102.40 102.34 102.33 102.39 101.95 101.49 101.10 100.94 100.66
105.75 105.97 106.16 106.35 106.51 106.65 106.77 106.74 106.65 106.57 106.54 106.51 106.36 106.24 106.11 105.99 105.91 105.88 105.71 105.51 105.38 105.20 105.03 104.85 104.69 104.52 104.38 104.26 104.15 104.02 103.84 103.74 103.82 103.79 103.56 103.16 102.93 102.74 102.62 102.52 102.43 102.37 102.29 102.23 102.15 102.29 102.26 101.99 101.57 101.32 101.08 100.69
105.73 105.95 106.15 106.33 106.50 106.65 106.77 106.75 106.64 106.56 106.55 106.53 106.36 106.22 106.08 106.00 105.91 105.86 105.72 105.55 105.40 105.20 105.03 104.86 104.66 104.53 104.37 104.19 104.11 103.97 103.85 103.74 103.94 104.04 103.39 103.15 102.88 102.68 102.55 102.38 102.27 102.18 102.10 102.05 102.24 102.26 102.27 102.08 101.82 101.62 101.35 101.13
105.69 105.92 106.10 106.29 106.49 106.64 106.76 106.76 106.64 106.58 106.58 106.58 106.35 106.20 106.06 105.96 105.88 105.83 105.68 105.55 105.44 105.19 104.99 104.84 104.67 104.49 104.35 104.21 104.05 103.92 103.88 103.75 104.04 104.02 104.15 104.17 104.02 103.14 102.61 102.13 102.04 101.98 101.90 101.86 101.95 102.15 102.21 102.25 102.32 101.82 101.76 101.49
105.67 105.90 106.08 106.26 106.46 106.67 106.76 106.76 106.66 106.57 106.61 106.67 106.37 106.17 106.02 105.93 105.86 105.76 105.66 105.54 105.38 105.15 104.97 104.82 104.61 104.46 104.31 104.17 104.03 103.93 103.88 103.90 104.16 104.28 104.36 104.29 104.26 104.25 102.57 102.44 102.35 102.22 102.16 102.05 101.94 101.61 101.66 102.34 101.99 101.80 101.55 100.85
105.68 105.92 106.14 106.31 106.49 106.62 106.73 106.74 106.68 106.59 106.58 106.66 106.39 106.17 105.99 105.89 105.82 105.73 105.58 105.50 105.34 105.10 104.95 104.78 104.64 104.45 104.29 104.15 104.00 103.88 103.86 104.04 104.20 104.33 104.36 104.35 104.32 104.26 102.67 102.53 102.44 102.32 102.24 102.27 102.13 102.10 102.02 101.43 100.97 100.82 100.88 100.85
105.67 105.93 106.15 106.29 106.46 106.55 106.64 106.66 106.61 106.59 106.57 106.67 106.37 106.19 105.97 105.90 105.84 105.72 105.56 105.48 105.29 105.05 104.93 104.76 104.58 104.43 104.27 104.09 103.95 103.85 103.89 104.16 104.18 104.28 104.35 104.35 104.30 104.15 102.70 102.59 102.51 102.40 102.39 102.37 102.29 102.22 102.33 100.99 100.90 100.88 100.82 100.81
105.62 105.91 106.09 106.29 106.38 106.52 106.56 106.59 106.54 106.50 106.63 106.53 106.34 106.21 106.04 105.96 105.82 105.72 105.57 105.40 105.21 105.05 104.88 104.72 104.55 104.39 104.22 104.05 103.94 103.89 103.96 104.29 104.24 104.49 104.39 104.36 104.36 103.93 102.76 102.67 102.60 102.53 102.50 102.49 102.45 102.45 102.51 102.29 101.22 101.21 101.66 100.96
105.57 105.85 106.07 106.24 106.36 106.46 106.68 106.65 106.61 106.51 106.61 106.49 106.37 106.29 106.11 105.92 105.78 105.65 105.48 105.30 105.14 104.99 104.82 104.68 104.53 104.34 104.21 104.05 103.96 103.99 104.10 104.42 104.19 104.34 104.32 104.38 104.36 102.97 102.87 102.78 102.68 102.65 102.67 102.66 102.68 102.68 102.69 102.58 101.82 102.57 102.61 102.58
105.47 105.77 105.98 106.35 106.44 106.51 106.56 106.55 106.50 106.45 106.61 106.53 106.42 106.31 106.09 105.87 105.69 105.57 105.43 105.25 105.06 104.93 104.79 104.62 104.49 104.36 104.20 104.10 104.07 104.11 104.32 104.41 104.40 104.36 104.22 104.15 104.23 103.02 102.89 102.87 102.82 102.81 102.88 102.92 102.92 102.43 103.04 103.04 102.96 102.93 102.56 102.27
105.53 105.79 106.02 106.18 106.30 106.35 106.44 106.44 106.44 106.46 106.62 106.50 106.36 106.26 106.04 105.76 105.62 105.52 105.38 105.23 105.06 104.92 104.79 104.62 104.52 104.38 104.26 104.16 104.11 104.17 104.51 104.37 104.12 104.29 104.21 104.21 103.91 103.15 103.10 103.13 103.11 103.06 103.24 103.52 103.44 103.40 103.23 102.94 102.35 102.24 102.15 101.76
105.28 105.60 105.86 106.07 106.16 106.27 106.35 106.40 106.44 106.53 106.54 106.43 106.35 106.21 105.99 105.76 105.62 105.54 105.39 105.25 105.08 104.93 104.82 104.68 104.53 104.43 104.31 104.18 104.16 104.17 104.69 104.43 104.15 104.14 103.96 103.68 103.41 103.35 103.40 103.87 103.86 103.81 103.73 103.51 103.32 102.34 103.15 102.99 102.76 102.50 102.19 101.76
105.10 105.39 105.70 105.94 106.14 106.25 106.31 106.37 106.39 106.54 106.49 106.42 106.31 106.18 106.00 105.79 105.63 105.58 105.43 105.23 105.08 104.96 104.83 104.73 104.60 104.44 104.32 104.19 104.18 104.21 104.88 104.73 103.79 103.71 103.65 104.06 104.37 104.32 104.24 104.14 103.89 103.65 102.84 103.43 103.38 103.35 103.21 103.00 102.83 102.59 102.34 101.94
104.92 105.27 105.56 105.84 106.07 106.17 106.26 106.31 106.38 106.52 106.48 106.40 106.29 106.19 105.98 105.82 105.67 105.55 105.41 105.26 105.10 104.99 104.87 104.74 104.61 104.49 104.33 104.27 104.29 104.51 105.05 104.94 104.83 104.81 104.77 104.69 104.51 104.26 104.06 103.54 103.53 103.52 103.46 103.39 103.35 103.30 103.22 103.08 102.93 102.76 102.49 102.14
104.78 105.12 105.44 105.74 105.96 106.09 106.21 106.29 106.37 106.49 106.50 106.36 106.29 106.18 106.02 105.83 105.67 105.56 105.42 105.27 105.13 105.02 104.93 104.75 104.71 104.59 104.52 104.49 104.73 105.26 105.25 105.18 105.07 104.90 104.61 104.28 103.70 103.62 103.57 103.51 103.47 103.45 103.44 103.41 103.40 103.38 103.29 103.18 103.03 102.87 102.63 102.30
104.71 105.02 105.34 105.66 105.93 106.07 106.15 106.22 106.32 106.51 106.42 106.31 106.25 106.14 105.99 105.82 105.67 105.55 105.44 105.29 105.19 105.12 105.05 104.93 104.81 105.26 105.68 105.66 105.60 105.46 105.26 104.98 104.47 103.96 103.80 103.68 103.62 103.59 103.51 103.53 103.52 103.55 103.57 103.56 103.50 103.44 103.35 103.25 103.13 102.96 102.69 102.39
104.73 104.98 105.32 105.63 105.87 106.03 106.11 106.17 106.20 106.40 106.40 106.24 106.16 106.11 105.96 105.87 105.71 105.61 105.51 105.43 105.31 105.13 105.71 105.98 106.00 105.97 105.84 105.60 105.32 104.94 104.43 104.08 103.96 103.84 103.72 103.67 103.62 103.62 103.59 103.58 103.58 103.60 103.59 103.57 103.54 103.45 103.35 103.27 103.14 102.97 102.71 102.39
