ncols 52
nrows 52
xllcorner 441344
yllcorner 5713920
cellsize 10
NODATA_value -9999
104.68 104.95 105.29 105.63 105.88 106.01 106.11 106.16 106.22 106.41 106.40 106.24 106.14 106.13 105.98 105.82 105.72 105.62 105.56 105.44 105.32 104.96 106.02 106.04 106.04 105.97 105.77 105.50 105.07 104.87 104.35 104.07 103.92 103.81 103.73 103.68 103.65 103.62 103.61 103.62 103.62 103.60 103.62 103.58 103.55 103.45 103.35 103.25 103.17 102.96 102.73 102.40
104.62 104.89 105.24 105.60 105.80 105.96 106.06 106.15 106.23 106.43 106.43 106.26 106.19 106.18 106.10 105.97 105.80 105.68 105.49 106.12 106.19 106.22 106.18 106.00 105.75 104.96 104.57 104.46 104.45 104.68 104.22 104.05 103.95 103.84 103.79 103.74 103.69 103.67 103.65 103.62 103.62 103.60 103.60 103.57 103.56 103.46 103.35 103.26 103.14 102.97 102.74 102.43
104.60 104.85 105.14 105.53 105.79 105.94 106.05 106.18 106.40 106.40 106.45 106.33 106.29 106.29 105.49 105.73 106.04 106.15 106.26 106.19 106.04 105.89 105.11 104.90 104.83 104.78 104.62 104.49 104.43 104.69 104.30 104.12 103.92 103.83 103.81 103.76 103.74 103.72 103.66 103.66 103.61 103.58 103.59 103.55 103.51 103.42 103.31 103.21 103.12 102.97 102.75 102.53
104.47 104.75 105.12 105.46 105.73 105.92 106.08 106.25 106.32 105.76 106.01 104.92 105.61 105.79 105.98 106.10 106.03 105.96 105.14 105.50 105.30 105.19 105.14 104.88 104.77 104.69 104.63 104.61 104.57 104.71 104.28 104.12 104.00 103.89 103.84 103.78 103.73 103.73 103.67 103.61 103.58 103.54 103.53 103.53 103.47 103.38 103.28 103.19 103.10 102.97 102.81 102.65
104.18 104.69 105.03 105.45 105.76 105.83 105.85 104.84 104.40 105.14 105.38 105.62 105.75 105.67 105.54 105.07 105.90 105.68 105.56 105.40 105.23 105.20 105.15 104.99 104.85 104.69 104.58 104.52 104.51 104.74 104.35 104.19 104.08 103.94 103.88 103.83 103.78 103.73 103.67 103.61 103.55 103.52 103.49 103.50 103.44 103.37 103.26 103.18 103.10 103.01 102.90 102.79
103.89 104.50 104.94 104.94 103.37 104.09 104.47 104.77 105.04 105.20 105.29 105.31 105.32 106.26 106.14 106.01 105.82 105.62 105.53 105.38 105.21 105.26 105.03 104.89 104.82 104.79 104.68 104.60 104.59 104.80 104.38 104.20 104.08 104.00 103.92 103.85 103.77 103.72 103.66 103.58 103.52 103.49 103.45 103.42 103.40 103.33 103.28 103.21 103.17 103.12 103.05 102.94
103.02 102.25 103.30 103.69 104.03 104.32 104.47 104.46 105.49 105.59 105.58 106.44 106.26 106.13 106.16 106.05 105.76 105.54 105.47 105.39 105.40 105.32 105.12 104.96 104.92 104.82 104.72 104.59 104.60 104.82 104.43 104.24 104.07 103.98 103.88 103.79 103.75 103.69 103.60 103.54 103.48 103.43 103.41 103.40 103.39 103.36 103.32 103.28 103.26 103.25 103.20 103.11
102.70 103.11 103.43 103.51 103.64 104.00 105.97 106.04 106.47 106.34 106.11 106.41 106.28 106.15 106.05 105.88 105.75 105.63 105.57 105.60 105.53 105.42 105.12 105.01 104.94 104.81 104.67 104.61 104.69 104.82 104.44 104.24 104.10 103.94 103.83 103.79 103.71 103.63 103.56 103.47 103.45 103.42 103.39 103.42 103.43 103.42 103.42 103.39 103.36 103.34 103.27 103.17
102.50 102.22 103.27 105.06 105.50 105.85 106.15 106.25 106.72 106.60 106.47 106.42 106.23 106.18 106.15 106.04 105.94 105.72 105.63 105.47 105.32 105.38 105.12 104.98 104.92 104.80 104.71 104.68 104.74 104.80 104.43 104.17 103.98 103.84 103.77 103.71 103.63 103.56 103.50 103.50 103.44 103.44 103.43 103.45 103.49 103.49 103.46 103.42 103.40 103.33 103.28 103.20
103.39 104.25 104.87 105.47 105.94 106.10 106.26 106.34 106.57 106.91 106.61 106.47 106.47 106.46 106.33 105.88 105.74 105.59 105.61 105.39 105.32 105.39 105.12 105.04 104.91 104.86 104.79 104.75 104.73 104.74 104.28 104.05 103.87 103.75 103.68 103.61 103.51 103.48 103.47 103.48 103.47 103.47 103.49 103.50 103.50 103.51 103.50 103.50 103.47 103.39 103.35 103.23
103.70 104.20 104.91 105.56 105.92 106.21 106.35 106.45 106.58 106.70 106.80 106.53 106.44 106.25 106.26 105.95 105.79 105.70 105.61 105.43 105.32 105.36 105.14 105.06 104.94 104.82 104.75 104.65 104.72 104.65 104.17 103.94 103.76 103.70 103.64 103.58 103.52 103.46 103.48 103.48 103.47 103.49 103.51 103.56 103.56 103.58 103.60 103.57 103.54 103.49 103.39 103.20
103.06 104.10 104.99 105.33 105.69 106.16 106.35 106.43 106.71 106.51 106.72 106.51 106.43 106.30 106.22 105.92 105.77 105.68 105.61 105.38 105.28 105.30 105.09 105.00 104.86 104.75 104.65 104.57 104.65 104.54 104.06 103.84 103.73 103.72 103.69 103.61 103.55 103.49 103.49 103.50 103.51 103.54 103.58 103.62 103.64 103.63 103.66 103.65 103.62 103.54 103.38 103.14
103.20 104.11 104.60 105.17 105.49 106.03 106.41 106.42 106.48 106.59 106.68 106.46 106.34 106.25 106.24 105.92 105.74 105.63 105.57 105.31 105.21 105.21 104.99 104.85 104.75 104.65 104.60 104.60 104.58 104.47 104.01 103.88 103.77 103.73 103.69 103.67 103.62 103.60 103.60 103.57 103.58 103.62 103.65 103.66 103.66 103.67 103.67 103.66 103.61 103.46 103.27 103.02
103.28 104.14 104.56 105.19 105.52 105.74 106.43 106.67 106.71 106.55 106.64 106.46 106.38 106.28 106.17 105.85 105.68 105.58 105.50 105.22 105.06 105.17 104.90 104.83 104.81 104.53 104.45 104.38 104.51 104.38 104.04 103.92 103.78 103.74 103.71 103.69 103.68 103.64 103.65 103.64 103.65 103.66 103.71 103.71 103.72 103.69 103.66 103.60 103.51 103.34 103.13 102.87
103.45 104.18 104.69 105.18 105.42 105.67 106.06 106.64 106.38 106.38 106.57 106.51 106.42 106.27 106.16 105.76 105.65 105.49 105.43 105.18 105.11 105.12 104.84 104.74 104.61 104.50 104.40 104.34 104.58 104.37 104.03 103.83 103.81 103.78 103.75 103.72 103.69 103.69 103.68 103.69 103.71 103.74 103.75 103.75 103.73 103.69 103.62 103.53 103.41 103.24 103.02 102.72
103.69 104.17 104.51 105.17 105.33 105.58 105.83 106.02 106.11 106.38 106.46 106.47 106.35 106.22 106.08 105.82 105.75 105.60 105.34 105.14 105.04 105.10 104.81 104.67 104.62 104.44 104.47 104.42 104.65 104.33 103.99 103.93 103.88 103.83 103.84 103.83 103.82 103.80 103.79 103.81 103.79 103.79 103.77 103.75 103.69 103.65 103.57 103.44 103.29 103.07 102.78 102.45
103.62 104.18 104.47 105.17 105.22 105.52 105.85 105.94 105.94 106.21 106.43 106.28 106.27 106.26 106.13 105.84 105.75 105.44 105.21 105.13 105.03 105.07 104.73 104.69 104.55 104.43 104.36 104.40 104.68 104.28 104.07 104.03 103.94 103.93 103.93 103.93 103.94 103.89 103.90 103.87 103.85 103.86 103.82 103.76 103.73 103.59 103.46 103.29 103.07 102.79 102.45 102.03
103.57 104.10 104.38 105.02 105.25 105.45 105.67 105.89 106.07 106.19 106.43 106.25 106.14 106.11 106.00 105.87 105.60 105.40 105.28 105.16 105.03 105.09 104.75 104.71 104.59 104.47 104.48 104.43 104.61 104.32 104.15 104.12 104.07 104.07 104.05 104.03 104.00 103.96 103.95 103.93 103.90 103.89 103.84 103.75 103.65 103.51 103.32 103.08 102.78 102.40 101.97 101.59
103.57 104.10 104.44 104.76 105.25 105.44 105.66 105.86 106.04 106.04 106.39 106.28 106.11 106.03 106.02 105.82 105.71 105.41 105.31 105.20 105.09 105.12 104.76 104.83 104.66 104.59 104.54 104.66 104.74 104.44 104.27 104.22 104.20 104.17 104.16 104.11 104.07 104.02 103.99 103.97 103.92 103.87 103.79 103.70 103.57 103.36 103.10 102.74 102.33 101.92 101.59 101.35
103.65 104.04 104.31 104.64 105.01 105.32 105.60 105.79 105.92 106.17 106.38 106.21 106.06 106.09 106.05 105.89 105.74 105.42 105.31 105.21 105.23 105.22 104.96 105.01 104.87 104.81 104.75 104.79 104.79 104.57 104.42 104.34 104.29 104.27 104.23 104.15 104.10 104.04 104.01 103.96 103.94 103.89 103.78 103.61 103.40 103.05 102.64 102.23 101.85 101.58 101.46 101.40
103.62 104.06 104.37 104.68 105.01 105.31 105.58 105.75 105.96 106.08 106.36 106.30 106.10 106.10 106.06 106.04 105.83 105.46 105.42 105.31 105.28 105.54 105.21 105.13 105.01 104.96 104.93 105.05 104.90 104.75 104.57 104.50 104.40 104.32 104.25 104.16 104.08 104.05 104.01 103.99 103.96 103.83 103.65 103.35 102.97 102.56 102.17 101.86 101.69 101.61 101.61 101.63
103.75 104.04 104.33 104.64 105.01 105.30 105.51 105.68 105.91 106.06 106.34 106.19 106.11 106.13 106.09 106.01 105.97 105.65 105.53 105.44 105.47 105.57 105.32 105.29 105.27 105.07 104.95 104.88 105.03 104.87 104.66 104.54 104.42 104.35 104.26 104.20 104.15 104.06 103.98 103.88 103.78 103.62 103.28 102.92 102.55 102.25 102.03 101.93 101.87 101.90 101.90 101.88
103.69 104.01 104.28 104.62 104.95 105.29 105.45 105.60 105.77 105.98 106.30 106.16 106.16 106.19 106.20 106.13 105.92 105.69 105.64 105.54 105.57 105.60 105.49 105.29 105.19 105.02 105.01 105.11 105.07 104.84 104.70 104.55 104.47 104.40 104.34 104.28 104.16 104.07 103.92 103.79 103.56 103.29 102.93 102.60 102.45 102.32 102.22 102.19 102.21 102.19 102.14 101.97
103.68 103.97 104.28 104.58 104.90 105.19 105.40 105.57 105.69 105.91 106.23 106.20 106.12 106.18 106.18 106.13 105.90 105.96 105.77 105.62 105.49 105.53 105.41 105.32 105.23 105.17 105.14 105.21 105.01 104.84 104.67 104.56 104.47 104.40 104.29 104.22 104.08 104.05 103.87 103.65 103.35 103.02 102.75 102.64 102.60 102.53 102.48 102.43 102.40 102.31 102.16 101.98
103.67 103.96 104.25 104.56 104.90 105.18 105.35 105.50 105.65 105.88 106.19 106.14 106.10 106.18 106.43 106.23 106.06 105.75 105.61 105.55 105.46 105.50 105.45 105.34 105.23 105.13 105.18 105.18 104.99 104.76 104.60 104.43 104.36 104.29 104.26 104.19 104.10 104.01 103.81 103.56 103.28 103.02 102.89 102.89 102.86 102.75 102.62 102.49 102.38 102.28 102.11 101.99
103.74 104.01 104.29 104.59 104.91 105.17 105.36 105.49 105.66 105.87 106.20 106.39 106.18 106.17 106.16 106.07 105.92 105.77 105.72 105.61 105.52 105.58 105.45 105.28 105.22 105.18 105.08 105.04 104.89 104.69 104.50 104.39 104.36 104.31 104.28 104.28 104.13 104.03 103.85 103.60 103.40 103.21 103.08 103.02 102.97 102.83 102.67 102.51 102.36 102.24 102.08 101.96
103.79 104.05 104.29 104.60 104.94 105.21 105.39 105.50 105.69 105.93 106.23 106.41 106.10 106.13 106.17 106.20 106.07 105.84 105.69 105.63 105.54 105.46 105.40 105.24 105.15 105.07 104.96 105.03 104.81 104.58 104.44 104.42 104.44 104.43 104.37 104.31 104.19 104.09 103.96 103.68 103.33 103.20 103.07 102.96 102.89 102.78 102.61 102.44 102.29 102.16 102.01 101.96
103.86 104.12 104.38 104.68 105.00 105.26 105.44 105.61 105.77 105.95 106.25 106.43 106.21 106.18 106.18 106.16 105.98 105.82 105.69 105.58 105.53 105.46 105.38 105.21 105.12 105.04 104.99 104.96 104.67 104.53 104.41 104.43 104.47 104.42 104.44 104.39 104.27 104.10 103.92 103.61 103.35 103.19 103.08 102.99 102.91 102.79 102.61 102.41 102.25 102.13 102.04 102.00
103.94 104.21 104.49 104.76 105.08 105.34 105.53 105.70 105.83 106.02 106.27 106.35 106.20 106.22 106.18 106.15 106.01 105.83 105.70 105.58 105.54 105.53 105.36 105.32 105.19 105.05 104.92 104.95 104.59 104.59 104.64 104.53 104.58 104.53 104.50 104.39 104.24 104.01 103.75 103.52 103.40 103.25 103.13 102.99 102.90 102.78 102.59 102.40 102.23 102.10 102.11 102.11
103.98 104.28 104.60 104.89 105.17 105.38 105.57 105.75 105.90 106.05 106.31 106.47 106.17 106.20 106.31 106.13 105.90 105.79 105.62 105.60 105.51 105.58 105.49 105.31 105.19 105.01 104.90 104.60 104.62 104.68 104.71 104.65 104.59 104.47 104.43 104.23 104.00 103.81 103.66 103.52 103.38 103.21 103.04 102.93 102.85 102.73 102.54 102.36 102.27 102.18 102.17 102.23
104.01 104.33 104.68 105.00 105.25 105.42 105.58 105.76 105.92 106.09 106.32 106.56 106.17 106.11 106.09 106.00 105.94 105.83 105.75 105.63 105.51 105.60 105.37 105.26 105.02 104.54 104.47 104.47 104.63 104.67 104.67 104.56 104.39 104.26 104.16 104.04 103.90 103.78 103.64 103.49 103.33 103.16 102.99 102.86 102.76 102.65 102.51 102.38 102.31 102.26 102.28 102.29
104.04 104.35 104.71 105.05 105.29 105.46 105.60 105.79 105.94 106.11 106.36 106.43 106.08 106.04 106.04 106.08 106.03 105.84 105.75 105.67 105.52 105.58 105.09 104.59 104.54 104.46 104.55 104.40 104.60 104.56 104.55 104.43 104.34 104.22 104.10 104.01 103.92 103.78 103.68 103.54 103.35 103.16 102.99 102.85 102.72 102.63 102.52 102.41 102.35 102.36 102.37 102.38
104.08 104.36 104.73 105.05 105.32 105.49 105.61 105.77 105.94 106.10 106.32 106.33 106.04 106.04 106.07 106.11 106.08 105.93 105.74 105.57 104.76 104.67 104.68 104.65 104.62 104.59 104.69 104.52 104.57 104.52 104.48 104.48 104.38 104.22 104.07 103.96 103.86 103.74 103.61 103.46 103.29 103.09 102.92 102.77 102.66 102.57 102.48 102.45 102.44 102.42 102.44 102.42
104.16 104.43 104.72 105.08 105.35 105.50 105.57 105.74 105.90 106.05 106.29 106.30 106.10 106.09 106.11 106.10 106.02 105.82 104.78 104.88 104.87 104.85 104.82 104.82 104.80 104.74 104.78 104.58 104.65 104.49 104.51 104.44 104.35 104.19 104.00 103.85 103.72 103.65 103.55 103.41 103.21 103.01 102.82 102.68 102.59 102.54 102.52 102.50 102.46 102.45 102.48 102.44
104.21 104.43 104.74 105.08 105.36 105.53 105.60 105.70 105.82 106.02 106.24 106.22 106.06 106.13 106.08 105.69 104.82 105.04 105.09 105.07 105.08 105.07 105.09 105.06 104.96 104.87 104.87 104.66 104.71 104.52 104.50 104.45 104.31 104.12 103.93 103.76 103.63 103.53 103.46 103.32 103.12 102.93 102.79 102.69 102.61 102.58 102.54 102.54 102.50 102.52 102.53 102.52
104.28 104.49 104.74 105.06 105.36 105.54 105.68 105.74 105.83 106.04 106.18 106.18 106.06 105.28 105.33 105.44 105.39 105.31 105.34 105.35 105.30 105.29 105.21 105.14 105.05 104.96 104.92 104.72 104.67 104.46 104.43 104.39 104.25 104.07 103.87 103.67 103.52 103.42 103.35 103.26 103.09 102.93 102.79 102.71 102.66 102.65 102.62 102.62 102.62 102.61 102.56 102.67
104.31 104.50 104.77 105.07 105.43 105.58 105.67 105.79 105.94 106.00 105.95 105.61 105.83 105.79 105.76 105.70 105.62 105.55 105.50 105.45 105.39 105.31 105.22 105.17 105.08 105.00 104.98 104.78 104.68 104.46 104.41 104.33 104.18 104.01 103.79 103.56 103.45 103.36 103.29 103.15 102.99 102.88 102.77 102.72 102.72 102.69 102.68 102.69 102.68 102.68 102.64 102.74
104.35 104.55 104.86 105.10 105.36 105.60 105.76 105.81 105.28 105.05 105.77 105.96 105.99 105.96 105.92 105.91 105.82 105.68 105.57 105.48 105.41 105.34 105.25 105.20 105.09 105.00 105.01 104.77 104.69 104.47 104.47 104.31 104.15 103.97 103.73 103.53 103.39 103.32 103.24 103.14 102.99 102.91 102.82 102.79 102.76 102.77 102.76 102.75 102.77 102.76 102.75 102.81
104.44 104.68 104.92 105.12 105.36 105.49 104.32 104.62 105.28 105.60 105.86 105.97 106.05 106.05 106.01 105.97 105.90 105.75 105.61 105.51 105.44 105.38 105.29 105.21 105.13 105.03 105.06 104.82 104.80 104.54 104.49 104.33 104.15 103.93 103.70 103.50 103.37 103.30 103.23 103.12 103.00 102.91 102.87 102.87 102.85 102.84 102.81 102.81 102.80 102.82 102.85 102.61
104.46 104.70 104.92 105.00 103.85 104.46 104.75 105.12 105.55 105.79 105.97 106.07 106.12 106.09 106.05 106.00 105.96 105.84 105.69 105.55 105.47 105.44 105.39 105.33 105.24 105.17 105.11 104.90 104.92 104.63 104.51 104.31 104.06 103.87 103.66 103.50 103.35 103.28 103.21 103.12 103.04 102.99 102.96 102.94 102.91 102.88 102.86 102.88 102.88 102.87 102.97 103.07
104.46 104.64 103.84 104.22 104.54 104.89 105.26 105.60 105.87 106.06 106.11 106.17 106.16 106.12 106.10 106.05 106.00 105.90 105.75 105.65 105.58 105.54 105.49 105.43 105.32 105.18 104.96 104.99 104.99 104.66 104.46 104.15 103.96 103.74 103.58 103.43 103.34 103.31 103.23 103.15 103.06 103.04 103.01 103.01 102.99 102.98 102.96 103.00 102.96 102.95 103.10 103.24
103.71 104.33 104.43 104.63 104.96 105.30 105.59 105.83 106.01 106.13 106.19 106.21 106.22 106.21 106.12 106.04 106.01 105.93 105.82 105.73 105.63 105.57 105.51 105.43 105.31 105.19 105.00 104.91 104.94 104.62 104.35 104.06 103.86 103.68 103.51 103.44 103.36 103.30 103.27 103.22 103.15 103.17 103.14 103.15 103.13 103.09 103.07 103.08 103.07 103.10 103.18 103.54
104.32 104.65 104.76 104.99 105.29 105.57 105.78 105.97 106.12 106.21 106.26 106.26 106.24 106.19 106.17 106.09 106.02 105.94 105.86 105.79 105.66 105.54 105.43 105.33 105.24 105.15 105.05 104.92 104.90 104.51 104.32 104.05 103.85 103.68 103.56 103.49 103.44 103.41 103.38 103.32 103.28 103.26 103.25 103.26 103.22 103.21 103.15 103.18 103.19 103.28 103.02 103.76
104.76 104.89 105.17 105.34 105.54 105.76 105.90 106.04 106.16 106.27 106.33 106.32 106.29 106.26 106.21 106.12 106.03 106.01 105.99 105.86 105.72 105.55 105.43 105.34 105.24 105.15 105.02 104.86 104.81 104.43 104.19 103.98 103.78 103.65 103.58 103.53 103.50 103.51 103.45 103.40 103.39 103.42 103.39 103.40 103.35 103.34 103.30 103.28 103.35 103.47 103.08 103.96
104.90 105.11 105.49 105.51 105.73 105.88 105.99 106.11 106.20 106.27 106.33 106.33 106.31 106.26 106.19 106.12 106.05 106.00 105.93 105.83 105.63 105.48 105.36 105.28 105.18 105.09 104.95 104.86 104.69 104.37 104.23 103.99 103.83 103.69 103.61 103.58 103.55 103.56 103.54 103.52 103.49 103.48 103.45 103.46 103.44 103.40 103.37 103.37 103.41 103.56 103.16 104.10
105.05 105.32 105.44 105.72 105.80 105.95 106.08 106.20 106.27 106.31 106.36 106.38 106.34 106.29 106.23 106.17 106.05 105.99 105.93 105.82 105.67 105.47 105.34 105.23 105.15 105.04 104.94 104.85 104.63 104.33 104.24 104.01 103.85 103.71 103.66 103.63 103.62 103.60 103.58 103.57 103.54 103.52 103.50 103.50 103.47 103.46 103.42 103.43 103.46 103.68 103.72 104.25
105.17 105.41 105.59 105.90 105.85 106.01 106.13 106.25 106.33 106.35 106.40 106.40 106.39 106.32 106.24 106.15 106.07 105.98 105.92 105.83 105.67 105.49 105.33 105.22 105.12 105.00 104.94 104.88 104.69 104.40 104.23 104.04 103.91 103.82 103.76 103.75 103.72 103.69 103.65 103.62 103.62 103.58 103.54 103.51 103.49 103.44 103.43 103.45 103.57 103.83 104.12 104.40
105.20 105.48 105.69 105.75 105.93 106.00 106.18 106.29 106.36 106.38 106.42 106.44 106.42 106.37 106.29 106.19 106.11 106.02 105.94 105.86 105.73 105.53 105.33 105.22 105.13 105.00 104.93 104.91 104.74 104.43 104.26 104.08 103.95 103.89 103.85 103.84 103.81 103.77 103.71 103.70 103.68 103.64 103.60 103.57 103.54 103.51 103.51 103.54 103.70 104.03 104.35 104.58
105.23 105.53 105.71 105.86 106.10 106.08 106.21 106.35 106.44 106.47 106.47 106.48 106.47 106.40 106.32 106.23 106.15 106.06 105.96 105.88 105.75 105.54 105.35 105.21 105.09 104.99 104.89 104.96 104.71 104.45 104.33 104.15 104.01 103.99 103.93 103.93 103.90 103.85 103.82 103.80 103.79 103.71 103.67 103.63 103.60 103.56 103.56 103.64 103.86 104.17 104.54 104.72
105.25 105.52 105.73 105.87 105.96 106.25 106.24 106.37 106.43 106.45 106.46 106.46 106.45 106.39 106.28 106.18 106.08 106.00 105.90 105.82 105.68 105.48 105.29 105.13 105.03 104.91 104.90 104.96 104.70 104.50 104.39 104.22 104.14 104.08 104.04 104.03 103.98 103.95 103.90 103.86 103.82 103.77 103.74 103.74 103.69 103.69 103.72 103.86 104.04 104.34 104.74 104.89
105.21 105.52 105.69 105.83 106.07 106.34 106.33 106.43 106.48 106.49 106.47 106.46 106.44 106.39 106.29 106.17 106.08 105.99 105.89 105.79 105.68 105.53 105.31 105.15 105.01 104.92 104.95 104.97 104.69 104.52 104.46 104.35 104.25 104.21 104.17 104.11 104.08 104.00 103.93 103.89 103.86 103.86 103.82 103.79 103.77 103.76 103.82 104.01 104.18 104.55 104.95 105.09
105.13 105.45 105.68 105.89 106.15 106.33 106.60 106.47 106.53 106.53 106.52 106.47 106.45 106.40 106.31 106.18 106.08 106.00 105.88 105.81 105.70 105.53 105.33 105.17 105.02 104.94 104.94 104.99 104.72 104.59 104.51 104.39 104.32 104.27 104.25 104.21 104.15 104.10 104.02 103.98 103.94 103.89 103.87 103.83 103.83 103.86 103.96 104.12 104.36 104.67 105.17 105.24
