ncols 52
nrows 52
xllcorner 441344
yllcorner 5716480
cellsize 10
NODATA_value -9999
95.41 95.51 95.56 95.72 95.81 95.85 96.00 96.06 96.11 96.16 96.20 96.17 96.21 96.29 96.35 96.37 96.43 96.48 96.52 96.63 96.65 96.68 96.74 96.80 96.88 96.89 96.96 97.03 97.07 97.15 97.25 97.37 97.51 97.53 97.48 97.44 97.41 97.37 97.33 97.26 97.17 97.07 96.98 96.86 96.71 96.55 96.42 96.27 96.16 96.06 95.96 95.83
95.49 95.58 95.65 95.77 95.89 95.93 96.08 96.11 96.16 96.21 96.23 96.26 96.27 96.36 96.40 96.42 96.47 96.52 96.58 96.64 96.64 96.73 96.79 96.88 96.96 96.97 97.03 97.12 97.14 97.17 97.28 97.42 97.54 97.57 97.48 97.43 97.40 97.36 97.31 97.23 97.15 97.07 96.96 96.84 96.70 96.55 96.43 96.29 96.18 96.09 95.95 95.83
95.55 95.65 95.71 95.86 95.98 96.03 96.14 96.19 96.21 96.25 96.30 96.31 96.37 96.41 96.46 96.50 96.49 96.54 96.60 96.72 96.73 96.85 96.88 96.93 97.01 97.04 97.10 97.18 97.21 97.23 97.32 97.43 97.56 97.58 97.46 97.39 97.36 97.32 97.26 97.18 97.11 97.03 96.93 96.83 96.67 96.53 96.39 96.27 96.15 96.05 95.91 95.77
95.63 95.70 95.76 95.91 96.04 96.10 96.19 96.28 96.30 96.33 96.39 96.40 96.43 96.49 96.53 96.56 96.55 96.60 96.66 96.74 96.82 96.94 96.91 97.00 97.09 97.11 97.15 97.24 97.25 97.29 97.40 97.50 97.58 97.55 97.42 97.38 97.37 97.33 97.29 97.20 97.12 97.03 96.92 96.79 96.67 96.51 96.39 96.29 96.18 96.07 95.94 95.80
95.67 95.75 95.83 95.93 96.10 96.18 96.23 96.27 96.37 96.42 96.43 96.47 96.49 96.54 96.60 96.61 96.65 96.68 96.70 96.79 96.90 96.97 96.96 97.04 97.15 97.18 97.20 97.27 97.29 97.32 97.42 97.52 97.59 97.56 97.45 97.43 97.41 97.36 97.31 97.23 97.16 97.08 96.97 96.85 96.69 96.53 96.40 96.29 96.17 96.06 95.91 95.77
95.70 95.79 95.88 95.96 96.14 96.24 96.29 96.33 96.42 96.43 96.52 96.54 96.56 96.61 96.67 96.69 96.70 96.74 96.79 96.85 96.96 97.01 97.01 97.10 97.19 97.22 97.24 97.32 97.36 97.39 97.47 97.56 97.58 97.54 97.47 97.45 97.44 97.40 97.34 97.24 97.16 97.04 96.92 96.79 96.63 96.48 96.35 96.21 96.09 95.96 95.82 95.70
95.74 95.82 95.92 96.00 96.18 96.26 96.31 96.42 96.45 96.54 96.57 96.60 96.64 96.68 96.74 96.76 96.78 96.80 96.88 96.92 97.03 97.07 97.06 97.17 97.26 97.29 97.31 97.37 97.42 97.43 97.47 97.58 97.64 97.60 97.49 97.41 97.38 97.33 97.23 97.13 97.06 96.96 96.85 96.71 96.55 96.41 96.29 96.17 96.04 95.92 95.79 95.66
95.76 95.82 95.95 96.04 96.19 96.31 96.36 96.49 96.53 96.57 96.65 96.67 96.71 96.74 96.82 96.85 96.85 96.92 96.95 97.00 97.10 97.15 97.15 97.25 97.32 97.35 97.38 97.43 97.47 97.49 97.54 97.63 97.67 97.60 97.45 97.37 97.34 97.28 97.21 97.11 97.01 96.93 96.83 96.69 96.55 96.43 96.32 96.21 96.11 95.99 95.85 95.71
95.79 95.86 95.96 96.06 96.23 96.36 96.42 96.53 96.59 96.63 96.70 96.75 96.75 96.80 96.86 96.92 96.96 96.99 97.05 97.10 97.18 97.21 97.24 97.34 97.41 97.46 97.46 97.50 97.54 97.54 97.57 97.65 97.67 97.57 97.44 97.36 97.32 97.28 97.22 97.14 97.05 96.97 96.85 96.71 96.58 96.46 96.35 96.26 96.16 96.04 95.93 95.79
95.83 95.92 95.98 96.06 96.23 96.35 96.41 96.55 96.63 96.69 96.75 96.78 96.83 96.86 96.95 97.00 97.05 97.08 97.12 97.20 97.28 97.27 97.36 97.42 97.50 97.54 97.55 97.57 97.62 97.60 97.61 97.70 97.72 97.64 97.51 97.43 97.36 97.31 97.27 97.21 97.11 97.03 96.92 96.78 96.65 96.54 96.44 96.33 96.21 96.08 95.96 95.83
95.84 95.89 95.99 96.09 96.25 96.34 96.46 96.56 96.69 96.71 96.80 96.83 96.88 96.95 97.01 97.06 97.11 97.15 97.22 97.28 97.38 97.43 97.51 97.52 97.60 97.64 97.64 97.65 97.68 97.66 97.67 97.74 97.78 97.73 97.64 97.57 97.50 97.44 97.35 97.27 97.20 97.10 96.99 96.86 96.74 96.64 96.54 96.43 96.32 96.21 96.07 95.92
95.83 95.89 96.00 96.08 96.24 96.35 96.47 96.58 96.71 96.74 96.82 96.89 96.96 97.01 97.09 97.16 97.18 97.22 97.31 97.40 97.48 97.53 97.64 97.62 97.67 97.74 97.72 97.73 97.76 97.74 97.73 97.79 97.83 97.80 97.71 97.65 97.60 97.52 97.46 97.40 97.33 97.26 97.18 97.05 96.94 96.81 96.72 96.58 96.46 96.33 96.19 96.03
95.83 95.90 95.99 96.08 96.22 96.34 96.46 96.61 96.70 96.79 96.86 96.93 97.00 97.08 97.13 97.24 97.25 97.32 97.40 97.47 97.56 97.62 97.74 97.68 97.77 97.82 97.81 97.80 97.83 97.81 97.81 97.85 97.90 97.86 97.80 97.72 97.69 97.63 97.59 97.56 97.51 97.47 97.41 97.28 97.16 97.02 96.89 96.76 96.59 96.44 96.29 96.11
95.82 95.93 96.03 96.10 96.21 96.35 96.44 96.59 96.68 96.84 96.88 96.97 97.03 97.10 97.22 97.30 97.32 97.38 97.45 97.55 97.60 97.69 97.79 97.77 97.85 97.90 97.91 97.89 97.92 97.93 97.92 97.98 98.03 98.03 97.97 97.90 97.83 97.80 97.74 97.70 97.65 97.63 97.57 97.45 97.31 97.14 97.02 96.88 96.72 96.55 96.38 96.21
95.86 95.92 95.99 96.11 96.20 96.35 96.48 96.57 96.67 96.83 96.90 96.96 97.05 97.17 97.24 97.37 97.40 97.45 97.49 97.58 97.69 97.79 97.85 97.84 97.91 97.98 98.00 97.99 98.05 98.07 98.07 98.11 98.16 98.19 98.12 98.04 98.00 97.98 97.92 97.84 97.81 97.76 97.69 97.58 97.41 97.24 97.08 96.94 96.78 96.63 96.46 96.31
95.86 95.91 96.00 96.10 96.18 96.33 96.43 96.53 96.69 96.84 96.89 96.97 97.06 97.18 97.27 97.41 97.49 97.50 97.56 97.63 97.73 97.86 97.90 97.91 98.01 98.07 98.09 98.10 98.17 98.23 98.25 98.28 98.33 98.36 98.31 98.24 98.19 98.19 98.13 98.06 97.99 97.95 97.86 97.70 97.52 97.35 97.20 97.04 96.88 96.71 96.52 96.34
95.89 95.93 95.97 96.09 96.17 96.30 96.42 96.50 96.68 96.93 96.98 97.04 97.13 97.24 97.33 97.44 97.51 97.53 97.58 97.64 97.75 97.86 97.91 97.99 98.07 98.17 98.24 98.28 98.32 98.39 98.43 98.46 98.53 98.57 98.52 98.46 98.43 98.39 98.31 98.23 98.18 98.11 97.97 97.76 97.55 97.37 97.21 97.04 96.88 96.70 96.51 96.30
95.88 95.92 95.96 96.09 96.24 96.40 96.50 96.62 96.71 97.07 97.14 97.12 97.29 97.46 97.58 97.63 97.67 97.69 97.71 97.71 97.77 97.90 97.94 98.11 98.18 98.27 98.39 98.49 98.56 98.61 98.64 98.69 98.75 98.77 98.71 98.63 98.59 98.52 98.40 98.31 98.24 98.15 98.02 97.82 97.59 97.40 97.23 97.06 96.90 96.72 96.54 96.32
95.92 95.93 96.09 96.21 96.36 96.40 96.50 96.67 96.81 97.03 97.10 97.25 97.39 97.50 97.62 97.76 97.88 97.88 97.88 97.91 97.98 98.03 98.08 98.31 98.32 98.42 98.55 98.68 98.76 98.84 98.92 98.97 98.99 99.00 98.93 98.79 98.71 98.65 98.55 98.45 98.39 98.28 98.11 97.88 97.65 97.46 97.30 97.12 96.95 96.76 96.57 96.36
95.88 96.00 96.16 96.32 96.56 96.50 96.67 96.80 96.89 96.86 97.09 97.38 97.58 97.65 97.66 97.80 97.89 98.11 98.09 98.08 98.21 98.27 98.26 98.48 98.46 98.54 98.69 98.83 98.92 99.01 99.07 99.13 99.19 99.22 99.17 99.03 98.89 98.78 98.68 98.59 98.52 98.41 98.19 97.95 97.72 97.50 97.31 97.15 96.98 96.80 96.63 96.42
96.27 96.16 96.33 96.39 96.26 96.61 96.78 96.88 96.88 97.04 97.26 97.32 97.45 97.62 97.71 97.85 97.97 98.09 98.21 98.05 98.36 98.42 98.46 98.42 98.56 98.71 98.76 98.92 99.01 99.15 99.25 99.28 99.35 99.38 99.34 99.22 99.09 98.95 98.82 98.71 98.61 98.48 98.26 98.01 97.76 97.54 97.35 97.17 97.00 96.84 96.65 96.56
96.10 96.34 96.43 96.50 96.57 96.58 96.60 96.71 96.83 96.93 97.07 97.15 97.29 97.47 97.56 97.74 97.82 97.93 98.07 98.25 98.32 98.40 98.56 98.60 98.86 98.92 99.04 99.06 99.29 99.33 99.43 99.47 99.46 99.49 99.43 99.29 99.19 99.12 99.01 98.87 98.74 98.57 98.33 98.08 97.85 97.65 97.43 97.25 97.08 96.91 96.71 96.69
96.20 96.25 96.26 96.26 96.34 96.46 96.56 96.72 96.81 96.94 97.14 97.24 97.40 97.51 97.65 97.82 97.89 97.85 97.93 98.07 98.21 98.35 98.53 98.73 98.87 99.05 99.08 99.40 99.61 99.54 99.65 99.75 99.65 99.58 99.53 99.40 99.29 99.23 99.14 99.01 98.87 98.70 98.44 98.17 97.95 97.75 97.51 97.32 97.15 96.97 96.76 96.80
96.17 96.06 96.14 96.25 96.38 96.54 96.66 96.82 96.94 97.05 97.25 97.33 97.54 97.63 97.73 97.88 97.95 97.93 98.01 98.14 98.19 98.31 98.51 98.65 98.85 99.01 99.29 99.51 99.68 99.84 99.95 100.15 100.06 99.74 99.58 99.57 99.41 99.31 99.22 99.10 98.97 98.78 98.53 98.26 98.04 97.81 97.57 97.36 97.17 96.99 96.84 96.83
96.18 96.15 96.21 96.32 96.46 96.62 96.72 96.92 97.00 97.08 97.28 97.44 97.57 97.72 97.81 97.96 98.01 98.04 98.08 98.18 98.30 98.42 98.58 98.73 98.86 99.06 99.26 99.40 99.66 99.86 100.10 100.15 100.13 99.86 99.93 99.91 99.54 99.30 99.29 99.14 98.98 98.79 98.55 98.35 98.14 97.92 97.71 97.45 97.23 97.03 97.03 96.47
96.24 96.20 96.24 96.35 96.53 96.65 96.81 97.00 97.03 97.17 97.35 97.48 97.64 97.81 97.90 98.02 98.07 98.10 98.16 98.26 98.40 98.54 98.69 98.85 98.98 99.20 99.45 99.56 99.73 99.87 100.03 100.10 100.13 100.10 99.97 99.86 99.81 99.55 99.54 99.33 98.96 98.72 98.64 98.38 98.22 97.99 97.78 97.57 97.32 97.08 97.11 97.07
96.26 96.24 96.28 96.47 96.60 96.69 96.88 97.01 97.10 97.24 97.38 97.54 97.74 97.84 97.97 98.07 98.12 98.17 98.26 98.37 98.51 98.64 98.79 98.96 99.11 99.30 99.53 99.69 99.86 100.04 100.10 100.18 100.11 99.96 99.95 99.92 99.75 99.63 99.42 99.25 99.07 98.98 98.86 98.52 98.21 98.08 97.86 97.63 97.47 97.29 97.14 97.04
96.32 96.28 96.38 96.51 96.67 96.77 96.96 97.05 97.13 97.28 97.44 97.62 97.79 97.90 98.04 98.19 98.19 98.24 98.35 98.47 98.56 98.76 98.94 99.05 99.20 99.42 99.62 99.80 99.99 100.12 100.26 100.31 100.23 100.15 100.00 99.89 99.73 99.60 99.46 99.36 99.19 98.96 98.83 98.57 98.31 98.35 98.19 97.72 97.50 97.38 97.38 97.19
96.32 96.32 96.42 96.54 96.69 96.80 97.00 97.08 97.18 97.38 97.47 97.69 97.85 97.96 98.10 98.26 98.28 98.32 98.43 98.56 98.67 98.82 99.03 99.14 99.31 99.54 99.76 99.92 100.11 100.24 100.38 100.47 100.34 100.21 100.10 99.97 99.86 99.72 99.55 99.39 99.18 99.00 98.83 98.74 98.53 98.32 98.10 97.88 97.86 97.80 97.54 97.54
96.38 96.38 96.46 96.58 96.72 96.82 97.04 97.14 97.22 97.41 97.50 97.75 97.92 97.98 98.15 98.29 98.36 98.43 98.52 98.64 98.76 98.94 99.11 99.26 99.41 99.64 99.85 100.01 100.21 100.33 100.45 100.54 100.48 100.30 100.21 100.08 99.99 99.83 99.67 99.45 99.25 99.02 98.86 98.74 98.52 98.38 98.22 98.02 97.93 97.82 97.78 97.74
96.46 96.42 96.51 96.65 96.75 96.90 97.07 97.20 97.29 97.42 97.54 97.77 97.95 98.05 98.19 98.33 98.42 98.49 98.60 98.69 98.85 99.01 99.15 99.31 99.49 99.69 99.90 100.11 100.25 100.40 100.51 100.61 100.56 100.40 100.28 100.18 100.06 99.94 99.73 99.57 99.30 99.11 98.87 98.77 98.60 98.41 98.22 98.08 97.91 97.90 97.89 97.76
96.49 96.46 96.52 96.65 96.80 96.96 97.13 97.19 97.33 97.47 97.56 97.82 97.95 98.07 98.20 98.35 98.46 98.53 98.63 98.75 98.82 99.01 99.21 99.32 99.50 99.73 99.92 100.12 100.26 100.41 100.55 100.65 100.61 100.50 100.35 100.27 100.18 99.97 99.83 99.60 99.40 99.19 99.01 98.83 98.68 98.48 98.30 98.16 98.00 97.92 97.92 97.81
96.47 96.47 96.58 96.71 96.80 96.99 97.14 97.21 97.40 97.48 97.59 97.81 97.99 98.04 98.21 98.33 98.45 98.51 98.60 98.73 98.81 99.00 99.19 99.33 99.52 99.76 99.97 100.16 100.36 100.44 100.62 100.74 100.68 100.54 100.43 100.33 100.24 100.06 99.88 99.71 99.44 99.25 99.10 98.93 98.76 98.58 98.39 98.24 98.07 98.01 97.97 97.98
96.53 96.56 96.61 96.76 96.85 97.03 97.14 97.24 97.39 97.49 97.63 97.81 97.95 98.04 98.18 98.31 98.42 98.51 98.62 98.68 98.84 99.03 99.19 99.35 99.57 99.76 100.01 100.22 100.41 100.51 100.64 100.79 100.76 100.61 100.50 100.41 100.29 100.11 99.96 99.76 99.49 99.34 99.19 99.04 98.82 98.67 98.50 98.35 98.15 98.08 98.13 98.08
96.56 96.57 96.68 96.78 96.87 97.10 97.20 97.29 97.43 97.47 97.65 97.80 97.92 98.04 98.15 98.27 98.40 98.52 98.58 98.67 98.83 99.04 99.15 99.35 99.57 99.81 100.03 100.26 100.43 100.54 100.69 100.81 100.81 100.68 100.53 100.48 100.35 100.19 100.00 99.82 99.61 99.43 99.32 99.12 98.95 98.80 98.58 98.44 98.25 98.18 98.25 98.17
96.57 96.59 96.66 96.85 96.91 97.14 97.23 97.30 97.44 97.46 97.65 97.81 97.90 98.03 98.12 98.22 98.34 98.44 98.57 98.67 98.83 99.00 99.14 99.33 99.56 99.82 100.01 100.27 100.42 100.56 100.71 100.83 100.82 100.71 100.56 100.50 100.42 100.28 100.10 99.90 99.72 99.54 99.46 99.24 99.06 98.88 98.69 98.51 98.36 98.25 98.38 98.34
96.62 96.63 96.69 96.85 96.96 97.12 97.25 97.32 97.44 97.50 97.61 97.83 97.90 97.97 98.08 98.19 98.31 98.39 98.55 98.65 98.80 98.95 99.15 99.30 99.54 99.78 100.01 100.23 100.43 100.60 100.70 100.83 100.87 100.71 100.62 100.54 100.47 100.35 100.20 100.00 99.83 99.64 99.54 99.36 99.19 98.99 98.78 98.54 98.44 98.37 98.53 98.51
96.65 96.66 96.73 96.86 96.98 97.15 97.24 97.35 97.43 97.45 97.57 97.76 97.90 97.97 98.04 98.16 98.27 98.36 98.51 98.60 98.78 98.96 99.08 99.27 99.49 99.70 99.98 100.19 100.39 100.54 100.68 100.84 100.88 100.73 100.64 100.60 100.49 100.44 100.30 100.10 99.94 99.79 99.65 99.43 99.26 99.08 98.82 98.62 98.57 98.91 98.71 98.66
96.66 96.68 96.75 96.83 96.96 97.09 97.17 97.28 97.36 97.40 97.56 97.74 97.85 97.95 97.99 98.10 98.22 98.32 98.47 98.57 98.74 98.90 99.01 99.24 99.46 99.67 99.95 100.19 100.33 100.50 100.67 100.81 100.86 100.74 100.68 100.65 100.56 100.51 100.40 100.22 100.05 99.92 99.76 99.54 99.35 99.13 98.88 98.70 98.75 99.07 98.88 98.81
96.72 96.73 96.72 96.74 96.85 96.97 97.08 97.21 97.26 97.33 97.48 97.63 97.71 97.90 97.96 98.06 98.20 98.31 98.42 98.52 98.71 98.84 99.00 99.19 99.38 99.62 99.88 100.10 100.30 100.46 100.64 100.80 100.85 100.77 100.73 100.72 100.65 100.61 100.51 100.36 100.20 100.05 99.90 99.62 99.36 99.13 98.92 98.86 98.96 99.24 99.04 98.95
96.78 96.78 96.73 96.71 96.80 96.85 96.94 97.13 97.17 97.24 97.40 97.50 97.60 97.82 97.91 98.01 98.16 98.23 98.33 98.44 98.67 98.78 98.93 99.12 99.30 99.54 99.82 100.03 100.23 100.43 100.57 100.76 100.85 100.79 100.78 100.74 100.74 100.69 100.57 100.45 100.25 100.12 99.94 99.68 99.40 99.12 99.06 99.09 99.18 99.38 99.13 99.05
96.81 96.79 96.77 96.77 96.89 96.91 97.03 97.13 97.17 97.26 97.36 97.43 97.54 97.77 97.89 97.99 98.09 98.17 98.29 98.41 98.60 98.72 98.82 99.06 99.24 99.49 99.71 99.93 100.15 100.40 100.53 100.71 100.82 100.76 100.72 100.78 100.76 100.71 100.55 100.46 100.31 100.22 99.98 99.64 99.35 99.24 99.24 99.29 99.35 99.38 99.24 99.18
96.83 96.88 96.90 96.93 97.03 97.07 97.12 97.19 97.23 97.37 97.41 97.47 97.62 97.74 97.83 97.97 98.04 98.16 98.27 98.39 98.52 98.68 98.79 99.02 99.20 99.42 99.63 99.85 100.07 100.34 100.53 100.63 100.69 100.75 100.71 100.73 100.76 100.71 100.60 100.53 100.40 100.29 100.01 99.60 99.36 99.37 99.42 99.49 99.51 99.49 99.38 99.34
96.85 96.93 96.93 97.00 97.11 97.12 97.18 97.27 97.31 97.40 97.48 97.56 97.63 97.71 97.75 97.86 97.96 98.12 98.19 98.35 98.48 98.60 98.78 99.04 99.16 99.38 99.59 99.78 100.02 100.27 100.49 100.61 100.68 100.75 100.76 100.76 100.80 100.76 100.68 100.59 100.49 100.32 99.92 99.56 99.44 99.54 99.61 99.68 99.80 99.66 99.53 99.50
96.88 96.96 96.93 97.02 97.10 97.10 97.17 97.25 97.29 97.37 97.47 97.57 97.60 97.62 97.65 97.76 97.88 98.05 98.15 98.30 98.48 98.57 98.78 98.99 99.12 99.33 99.57 99.71 100.00 100.28 100.51 100.63 100.72 100.76 100.80 100.84 100.85 100.87 100.76 100.62 100.52 100.30 99.90 99.75 99.73 99.82 99.86 99.87 100.11 99.76 99.63 99.56
96.96 97.02 96.99 97.07 97.08 97.11 97.18 97.26 97.30 97.36 97.49 97.56 97.62 97.59 97.64 97.74 97.85 98.04 98.15 98.31 98.48 98.59 98.72 98.95 99.10 99.31 99.55 99.74 99.99 100.31 100.52 100.65 100.76 100.81 100.83 100.90 100.93 100.91 100.80 100.67 100.54 100.35 100.13 100.05 100.08 100.06 100.01 100.01 100.12 99.81 99.65 99.58
97.02 97.04 97.03 97.09 97.13 97.15 97.21 97.26 97.32 97.38 97.46 97.57 97.63 97.63 97.67 97.79 97.93 98.05 98.18 98.33 98.44 98.57 98.78 98.96 99.11 99.35 99.53 99.72 100.00 100.29 100.56 100.67 100.76 100.85 100.88 100.99 100.96 100.91 100.82 100.71 100.62 100.47 100.34 100.29 100.25 100.20 100.07 100.10 100.17 99.82 99.69 99.60
97.10 97.08 97.07 97.11 97.13 97.17 97.22 97.26 97.36 97.41 97.46 97.52 97.62 97.66 97.74 97.85 97.96 98.07 98.20 98.36 98.43 98.58 98.79 98.95 99.12 99.36 99.57 99.73 100.03 100.27 100.53 100.65 100.75 100.85 100.96 101.04 101.00 100.93 100.86 100.76 100.81 100.60 100.44 100.41 100.36 100.27 100.16 100.21 100.07 99.88 99.77 99.67
97.10 97.14 97.14 97.19 97.18 97.21 97.27 97.26 97.35 97.43 97.50 97.58 97.65 97.67 97.75 97.85 98.02 98.09 98.18 98.33 98.47 98.59 98.76 98.94 99.16 99.38 99.56 99.76 100.01 100.25 100.49 100.65 100.78 100.90 101.02 101.12 101.06 101.01 100.90 100.86 100.86 100.71 100.57 100.49 100.44 100.34 100.27 100.28 100.11 99.98 99.85 99.73
97.16 97.15 97.13 97.24 97.19 97.24 97.27 97.30 97.39 97.42 97.50 97.60 97.64 97.73 97.79 97.89 98.06 98.12 98.22 98.42 98.48 98.64 98.81 98.93 99.15 99.38 99.57 99.78 99.99 100.25 100.47 100.67 100.80 100.99 101.11 101.23 101.15 101.08 101.00 100.96 100.96 100.81 100.66 100.60 100.53 100.42 100.40 100.56 100.18 100.03 99.89 99.74
97.17 97.17 97.15 97.26 97.22 97.28 97.26 97.32 97.43 97.45 97.51 97.62 97.68 97.73 97.80 97.96 98.14 98.15 98.26 98.42 98.49 98.62 98.80 98.95 99.18 99.39 99.57 99.78 100.01 100.24 100.48 100.70 100.91 101.08 101.21 101.28 101.24 101.13 101.07 101.05 101.06 100.90 100.75 100.67 100.60 100.47 100.44 100.61 100.23 100.03 99.91 99.78
97.17 97.13 97.22 97.22 97.24 97.30 97.29 97.33 97.42 97.49 97.50 97.66 97.68 97.71 97.83 97.98 98.17 98.15 98.25 98.42 98.55 98.65 98.82 98.96 99.19 99.40 99.58 99.81 100.04 100.27 100.50 100.75 100.96 101.10 101.24 101.39 101.31 101.17 101.11 101.14 101.14 100.99 100.86 100.74 100.67 100.54 100.55 100.67 100.26 100.08 99.94 99.82
