ncols 52
nrows 52
xllcorner 441344
yllcorner 5717504
cellsize 10
NODATA_value -9999
89.20 89.23 89.26 89.31 89.37 89.35 89.45 89.20 89.00 89.51 89.76 89.86 90.30 90.35 90.30 90.37 90.50 90.20 90.29 89.35 89.26 89.67 90.30 90.23 89.39 90.26 90.56 90.85 90.87 90.52 90.01 89.99 89.68 89.57 89.43 89.25 89.11 88.28 88.02 87.60 87.00 87.33 87.43 87.46 88.28 88.52 88.44 88.43 88.39 88.37 88.33 88.29
89.24 89.28 89.34 89.40 89.43 89.44 89.54 89.46 89.10 89.17 89.29 89.45 89.98 90.34 89.86 89.76 89.64 89.60 90.10 90.50 90.46 90.38 90.43 90.43 89.94 89.76 90.50 90.84 90.85 90.71 90.31 90.28 90.09 89.69 89.50 89.27 89.02 88.27 87.73 87.20 87.20 87.36 87.49 88.52 88.68 88.70 88.65 88.65 88.64 88.58 88.55 88.50
89.28 89.32 89.42 89.45 89.50 89.53 89.38 89.24 89.38 89.50 89.62 89.87 89.89 90.04 90.01 90.12 90.26 90.38 90.40 90.44 90.46 90.40 90.38 90.37 90.35 89.47 90.21 90.61 90.72 90.60 90.44 90.25 90.03 89.84 89.18 89.01 88.80 88.10 87.39 87.41 87.39 87.45 88.25 88.79 88.91 88.94 88.91 88.88 88.84 88.79 88.75 88.71
89.36 89.39 89.46 89.51 89.61 89.54 88.95 89.42 89.52 89.67 89.78 89.97 90.05 90.16 90.20 90.32 90.38 90.41 90.50 90.49 90.51 90.47 90.41 90.40 90.46 90.42 89.51 90.31 90.49 90.36 90.22 90.05 89.11 89.03 88.67 88.67 88.67 88.81 87.54 87.51 87.80 88.11 89.13 89.20 89.15 89.13 89.11 89.07 89.05 88.99 88.96 88.91
89.37 89.45 89.51 89.58 89.63 89.17 89.26 89.54 89.58 89.79 89.95 90.11 90.25 90.19 90.35 90.44 90.51 90.50 90.53 90.55 90.54 90.52 90.52 90.51 90.43 90.51 90.49 89.47 89.62 89.61 89.18 89.20 89.42 88.77 88.73 88.60 88.94 88.90 88.84 87.64 87.84 89.25 89.39 89.32 89.32 89.33 89.30 89.25 89.22 89.15 89.12 89.07
89.44 89.48 89.58 89.68 89.65 89.38 89.66 89.60 89.89 90.05 90.20 90.19 90.26 90.30 90.44 90.50 90.56 90.57 90.60 90.60 90.62 90.63 90.62 90.60 90.52 90.43 90.56 90.51 90.12 89.53 90.01 90.00 89.82 89.21 88.41 88.40 88.54 88.04 87.15 89.08 89.16 89.47 89.53 89.46 89.47 89.46 89.43 89.40 89.38 89.34 89.27 89.24
89.54 89.54 89.66 89.59 89.49 89.75 89.73 89.87 89.96 90.08 90.09 90.24 90.32 90.40 90.46 90.59 90.64 90.65 90.65 90.67 90.67 90.69 90.69 90.67 90.65 90.60 90.56 90.73 90.45 89.93 90.42 90.30 90.11 89.37 88.71 88.17 88.06 87.22 87.81 89.10 89.52 89.69 89.74 89.61 89.63 89.62 89.61 89.56 89.51 89.48 89.43 89.37
89.60 89.67 89.62 89.11 89.66 89.79 89.81 89.98 90.05 90.12 90.21 90.33 90.39 90.44 90.49 90.60 90.68 90.70 90.71 90.74 90.75 90.76 90.75 90.74 90.72 90.68 90.64 90.73 89.83 90.31 90.64 90.51 90.20 89.68 89.01 88.41 88.07 88.29 88.43 89.83 89.81 89.78 89.84 89.79 89.77 89.76 89.77 89.71 89.65 89.62 89.59 89.51
89.72 89.70 89.49 89.64 89.93 89.84 89.97 90.06 90.14 90.22 90.29 90.36 90.44 90.49 90.53 90.63 90.71 90.76 90.77 90.78 90.79 90.82 90.80 90.78 90.76 90.71 90.68 90.74 89.79 90.74 90.82 90.71 90.36 89.95 89.31 88.79 88.57 89.33 89.82 90.02 90.05 89.86 89.93 89.96 89.88 89.90 89.86 89.85 89.79 89.73 89.65 89.59
89.88 89.73 89.79 89.91 89.90 90.03 90.11 90.19 90.30 90.36 90.38 90.42 90.47 90.51 90.53 90.62 90.73 90.78 90.81 90.82 90.85 90.85 90.83 90.81 90.81 90.76 90.71 90.82 89.69 90.86 90.92 90.77 90.47 90.15 89.76 89.30 89.57 89.96 90.15 90.01 90.09 90.11 90.10 90.12 90.04 89.99 89.96 89.92 89.86 89.79 89.71 89.64
89.87 89.79 89.85 89.93 90.08 90.19 90.25 90.33 90.40 90.44 90.48 90.47 90.50 90.51 90.52 90.58 90.68 90.75 90.80 90.83 90.85 90.89 90.89 90.87 90.85 90.80 90.77 90.86 89.67 90.46 90.96 90.76 90.61 90.33 90.06 89.75 90.12 90.19 90.36 90.40 90.18 90.21 90.05 90.18 90.15 90.06 90.02 89.94 89.89 89.86 89.83 89.81
89.17 89.75 89.92 90.03 90.23 90.33 90.37 90.43 90.49 90.53 90.54 90.51 90.49 90.51 90.54 90.57 90.65 90.72 90.76 90.83 90.86 90.89 90.91 90.88 90.79 90.80 90.79 90.90 90.32 90.52 90.97 90.84 90.68 90.35 90.06 89.89 90.14 90.39 90.53 90.54 90.46 90.35 90.29 90.31 90.20 90.10 89.96 89.95 89.97 89.99 89.98 89.94
89.84 89.97 89.98 90.20 90.33 90.40 90.45 90.48 90.50 90.55 90.58 90.59 90.58 90.55 90.56 90.55 90.60 90.67 90.68 90.74 90.82 90.87 90.88 90.88 90.86 90.81 90.82 90.83 90.83 90.30 91.15 90.88 90.88 90.65 90.16 89.93 90.26 90.32 90.75 90.66 90.68 90.54 90.47 90.24 90.24 90.16 90.07 90.07 90.08 90.07 90.10 90.07
89.96 89.98 90.14 90.31 90.40 90.49 90.49 90.53 90.55 90.61 90.65 90.64 90.58 90.55 90.54 90.60 90.59 90.61 90.69 90.76 90.79 90.90 90.93 90.93 90.95 90.92 90.87 90.82 90.81 90.49 90.53 90.84 90.83 90.58 90.32 90.07 90.38 90.45 90.64 90.70 90.74 90.71 90.46 90.34 90.52 90.34 90.28 90.20 90.25 90.21 90.22 90.20
90.17 90.21 90.29 90.38 90.49 90.54 90.54 90.57 90.59 90.62 90.69 90.71 90.65 90.65 90.67 90.66 90.65 90.70 90.76 90.89 90.93 90.97 91.02 90.99 90.95 90.94 90.89 90.80 90.75 90.62 90.26 90.62 90.74 90.58 90.31 90.31 90.42 90.54 90.64 90.76 90.78 90.67 90.46 90.46 90.44 90.45 90.46 90.38 90.35 90.33 90.36 90.36
90.37 90.39 90.39 90.46 90.57 90.63 90.64 90.67 90.74 90.75 90.75 90.80 90.80 90.80 90.84 90.80 90.78 90.79 90.82 90.90 90.94 90.99 91.00 90.97 90.95 90.88 90.82 90.75 90.75 90.71 90.36 90.45 90.54 90.51 89.47 90.50 90.53 90.61 90.72 90.69 90.65 90.54 90.51 90.49 90.58 90.81 90.56 90.55 90.48 90.49 90.47 90.42
90.50 90.50 90.51 90.62 90.67 90.71 90.80 90.85 90.88 90.92 90.90 90.90 90.95 90.92 90.89 90.88 90.85 90.82 90.87 90.93 90.96 90.96 90.98 90.96 90.93 90.89 90.82 90.75 90.75 90.74 90.62 90.26 90.38 89.78 90.12 90.52 90.58 90.63 90.56 90.54 90.52 90.64 90.71 90.76 90.76 90.79 90.72 90.73 90.64 90.60 90.57 90.52
90.58 90.63 90.65 90.72 90.83 90.86 90.90 90.94 90.97 90.97 90.98 91.01 90.99 91.01 90.96 90.92 90.86 90.83 90.89 90.95 90.99 91.01 91.06 91.02 90.94 90.93 90.88 90.79 90.80 90.74 90.67 90.63 90.12 89.42 90.29 90.33 90.40 90.40 90.53 90.64 90.77 90.84 90.84 90.82 90.85 90.92 91.02 90.85 90.80 90.69 90.65 90.63
90.65 90.70 90.77 90.83 90.90 90.96 90.98 91.01 91.05 91.04 91.01 90.99 91.01 91.01 90.99 90.95 90.91 90.85 90.89 90.94 91.03 91.08 91.10 91.11 91.10 91.01 90.98 90.95 90.90 90.83 90.80 90.66 89.92 90.25 90.24 90.27 90.50 90.64 90.73 90.83 90.86 90.85 90.96 90.96 90.91 91.00 91.01 90.96 91.03 90.84 90.78 90.78
90.80 90.84 90.87 90.96 90.99 91.04 91.05 91.08 91.11 91.09 91.07 91.03 91.03 91.01 90.97 90.96 90.93 90.88 90.93 91.01 91.06 91.14 91.18 91.14 91.13 91.07 91.02 90.99 90.96 90.92 90.89 90.86 90.15 90.65 90.52 90.60 90.76 90.86 90.88 91.04 91.08 91.10 91.12 91.11 91.06 91.07 91.15 91.15 91.08 91.10 90.93 90.87
90.89 90.93 90.97 91.05 91.12 91.12 91.14 91.14 91.16 91.13 91.13 91.09 91.01 91.04 91.01 90.96 90.93 90.91 90.93 91.02 91.08 91.11 91.18 91.14 91.13 91.15 91.12 91.04 90.93 90.94 90.98 90.81 90.60 90.90 90.84 90.83 90.97 91.03 91.16 91.19 91.20 91.14 91.18 91.25 91.27 91.22 91.19 91.23 91.21 91.19 91.06 91.00
91.01 91.05 91.10 91.17 91.20 91.24 91.26 91.25 91.28 91.25 91.15 91.07 91.07 90.99 90.98 90.93 90.90 90.90 90.93 91.02 91.11 91.16 91.10 91.00 91.05 91.06 91.02 91.01 90.94 90.92 90.94 89.78 90.83 90.99 91.07 91.07 91.15 91.18 91.16 91.22 91.33 91.36 91.35 91.38 91.29 91.21 91.37 91.39 91.33 91.17 91.07 91.12
91.14 91.18 91.21 91.30 91.34 91.35 91.36 91.38 91.35 91.29 91.14 91.08 91.03 91.00 91.00 90.98 90.96 90.89 90.88 91.01 91.08 91.10 91.10 91.09 91.07 91.03 91.06 91.04 90.99 91.02 90.94 90.45 91.08 91.13 91.16 91.10 91.17 91.28 91.36 91.46 91.42 91.40 91.34 91.46 91.49 91.54 91.54 91.44 91.45 91.37 91.25 91.07
91.26 91.32 91.35 91.39 91.45 91.43 91.48 91.47 91.43 91.39 91.29 91.22 91.13 91.07 91.10 91.10 91.10 91.07 91.11 91.17 91.19 91.25 91.24 91.21 91.19 91.19 91.18 91.15 91.12 91.12 90.94 90.58 91.11 91.22 91.24 91.26 91.31 91.33 91.35 91.41 91.54 91.57 91.63 91.63 91.67 91.66 91.55 91.52 91.48 91.40 91.29 91.06
91.38 91.44 91.49 91.50 91.58 91.63 91.62 91.55 91.51 91.53 91.49 91.45 91.41 91.42 91.40 91.37 91.36 91.35 91.32 91.34 91.37 91.37 91.37 91.39 91.36 91.33 91.29 91.27 91.22 91.25 90.83 91.07 91.21 91.26 91.33 91.28 91.40 91.39 91.55 91.60 91.74 91.65 91.69 91.71 91.80 91.76 91.65 91.56 91.55 91.55 91.43 91.13
91.57 91.59 91.56 91.59 91.68 91.70 91.71 91.71 91.71 91.71 91.70 91.70 91.69 91.66 91.64 91.61 91.56 91.52 91.51 91.49 91.49 91.48 91.47 91.43 91.44 91.42 91.41 91.40 91.35 91.29 90.59 91.15 91.36 91.33 91.40 91.41 91.50 91.61 91.60 91.62 91.69 91.85 91.96 91.94 91.91 91.86 91.73 91.70 91.62 91.65 91.81 91.31
91.65 91.68 91.71 91.75 91.80 91.81 91.85 91.86 91.83 91.86 91.85 91.84 91.84 91.80 91.79 91.73 91.68 91.63 91.61 91.60 91.61 91.58 91.58 91.53 91.51 91.51 91.46 91.43 91.42 91.31 90.86 91.43 91.43 91.54 91.56 91.57 91.58 91.62 91.73 91.82 91.92 92.06 92.06 91.97 91.97 92.03 91.96 91.84 91.71 91.69 91.75 91.60
91.78 91.82 91.83 91.85 91.92 91.93 91.96 91.96 91.95 91.96 91.95 91.96 91.93 91.91 91.89 91.85 91.83 91.80 91.73 91.71 91.70 91.67 91.63 91.63 91.55 91.53 91.49 91.47 91.44 91.35 91.20 91.59 91.60 91.54 91.57 91.64 91.71 91.79 91.91 91.97 92.03 92.11 92.25 92.21 92.16 92.07 92.01 91.88 91.83 91.77 91.80 91.74
91.90 91.94 91.95 91.98 92.01 92.02 92.04 92.04 92.06 92.05 92.07 92.07 92.06 92.02 91.99 91.99 91.94 91.90 91.84 91.79 91.75 91.71 91.68 91.66 91.60 91.57 91.53 91.45 91.50 90.43 91.47 91.60 91.62 91.64 91.69 91.76 91.82 91.86 92.01 92.14 92.25 92.28 92.24 92.22 92.15 92.13 92.09 91.98 91.94 91.87 91.83 91.92
91.97 92.02 92.01 92.05 92.08 92.14 92.14 92.16 92.15 92.15 92.18 92.16 92.15 92.14 92.08 92.07 92.04 91.98 91.94 91.86 91.86 91.81 91.75 91.75 91.71 91.66 91.59 91.57 91.56 91.14 91.67 91.69 91.72 91.75 91.74 91.85 91.97 92.09 92.21 92.21 92.20 92.24 92.27 92.28 92.24 92.24 92.18 92.14 92.05 92.00 91.95 91.96
92.05 92.12 92.14 92.15 92.18 92.21 92.22 92.24 92.23 92.21 92.24 92.24 92.21 92.20 92.15 92.14 92.14 92.07 92.03 92.00 91.92 91.88 91.83 91.81 91.78 91.72 91.61 91.69 91.55 91.29 91.79 91.72 91.82 91.92 91.93 92.05 92.04 92.08 92.15 92.24 92.28 92.32 92.34 92.34 92.37 92.32 92.31 92.25 92.15 92.09 92.01 91.94
92.15 92.19 92.21 92.24 92.23 92.28 92.29 92.31 92.29 92.28 92.32 92.31 92.31 92.28 92.26 92.25 92.24 92.18 92.12 92.09 92.00 91.93 91.89 91.84 91.82 91.78 91.72 91.77 91.43 91.83 91.87 91.86 92.02 91.99 91.98 92.01 92.07 92.15 92.28 92.39 92.42 92.46 92.45 92.45 92.47 92.41 92.38 92.32 92.25 92.16 92.08 92.01
92.22 92.24 92.26 92.27 92.27 92.34 92.38 92.38 92.39 92.39 92.39 92.40 92.40 92.37 92.37 92.34 92.32 92.31 92.26 92.17 92.10 92.04 91.97 91.95 91.92 91.90 91.88 91.85 91.32 92.09 91.93 91.95 91.97 92.03 92.07 92.11 92.18 92.26 92.39 92.47 92.54 92.56 92.58 92.61 92.58 92.52 92.45 92.39 92.33 92.24 92.14 92.06
92.28 92.32 92.32 92.35 92.35 92.41 92.43 92.44 92.45 92.48 92.48 92.49 92.50 92.51 92.48 92.49 92.47 92.42 92.36 92.31 92.22 92.13 92.09 92.06 92.01 91.99 92.01 91.97 91.60 92.10 91.99 91.98 92.07 92.13 92.15 92.23 92.27 92.39 92.51 92.60 92.66 92.70 92.71 92.70 92.67 92.63 92.58 92.50 92.41 92.31 92.20 92.12
92.30 92.35 92.38 92.39 92.41 92.45 92.47 92.52 92.54 92.54 92.58 92.61 92.61 92.59 92.62 92.60 92.57 92.55 92.49 92.39 92.32 92.29 92.25 92.20 92.17 92.10 92.17 92.05 92.05 92.09 92.07 92.10 92.17 92.20 92.28 92.32 92.40 92.51 92.65 92.75 92.78 92.81 92.83 92.79 92.79 92.74 92.67 92.57 92.46 92.37 92.26 92.11
92.30 92.35 92.39 92.42 92.41 92.46 92.52 92.56 92.56 92.60 92.64 92.70 92.72 92.75 92.72 92.74 92.71 92.69 92.61 92.56 92.49 92.47 92.43 92.38 92.31 92.29 92.31 91.24 92.09 92.13 92.13 92.21 92.25 92.35 92.38 92.45 92.54 92.65 92.77 92.85 92.89 92.92 92.94 92.92 92.90 92.82 92.73 92.61 92.50 92.39 92.26 92.13
92.26 92.31 92.30 92.35 92.43 92.48 92.57 92.65 92.70 92.69 92.74 92.80 92.86 92.90 92.90 92.91 92.88 92.88 92.82 92.77 92.71 92.65 92.61 92.57 92.50 92.53 92.38 91.99 92.21 92.19 92.22 92.31 92.39 92.45 92.51 92.58 92.65 92.76 92.87 92.94 92.99 92.99 93.03 93.02 92.95 92.86 92.76 92.66 92.56 92.46 92.29 92.13
92.18 92.24 92.33 92.43 92.51 92.61 92.72 92.84 92.92 92.88 92.88 92.96 93.04 93.09 93.11 93.11 93.10 93.10 93.06 92.97 92.93 92.91 92.84 92.78 92.71 92.73 92.57 92.20 92.36 92.35 92.38 92.44 92.51 92.57 92.63 92.70 92.78 92.89 92.97 93.01 93.03 93.06 93.08 93.07 92.99 92.90 92.83 92.75 92.61 92.47 92.31 92.14
92.25 92.36 92.50 92.62 92.69 92.78 92.91 93.00 93.08 93.11 93.12 93.18 93.26 93.32 93.33 93.32 93.30 93.31 93.30 93.28 93.25 93.20 93.17 93.17 92.96 92.82 92.46 92.49 92.45 92.50 92.51 92.52 92.60 92.66 92.71 92.80 92.86 92.98 93.04 93.07 93.09 93.11 93.14 93.11 93.06 92.95 92.89 92.79 92.64 92.48 92.31 92.15
92.43 92.57 92.68 92.79 92.88 92.96 93.04 93.17 93.26 93.29 93.35 93.43 93.52 93.57 93.61 93.60 93.59 93.71 93.76 93.63 93.46 93.32 93.18 92.98 92.80 92.71 92.16 92.64 92.62 92.64 92.61 92.63 92.71 92.75 92.82 92.85 92.93 93.02 93.08 93.14 93.17 93.18 93.15 93.18 93.12 93.04 92.92 92.80 92.62 92.44 92.31 92.16
92.60 92.72 92.83 92.93 93.04 93.14 93.22 93.31 93.41 93.56 93.61 93.74 93.99 94.04 93.98 93.94 93.87 93.76 93.64 93.55 93.46 93.36 93.21 93.05 92.88 92.90 92.63 92.85 92.73 92.73 92.71 92.75 92.76 92.81 92.85 92.91 92.99 93.08 93.16 93.17 93.18 93.20 93.21 93.22 93.18 93.06 92.91 92.76 92.61 92.44 92.32 92.15
92.76 92.87 93.02 93.15 93.27 93.34 93.51 93.82 93.84 93.85 93.89 93.90 93.88 93.87 93.91 93.90 93.85 93.78 93.76 93.67 93.57 93.40 93.26 93.11 92.94 93.07 92.85 92.88 92.83 92.79 92.79 92.79 92.81 92.88 92.92 92.97 93.04 93.14 93.22 93.24 93.26 93.27 93.25 93.24 93.18 93.05 92.88 92.74 92.57 92.43 92.30 92.19
93.07 93.23 93.56 93.58 93.56 93.59 93.59 93.64 93.69 93.78 93.87 93.89 93.95 93.99 94.02 93.97 93.94 93.90 93.82 93.71 93.58 93.44 93.26 93.11 93.04 92.11 92.98 92.92 92.91 92.87 92.88 92.87 92.90 92.92 93.00 93.06 93.11 93.21 93.27 93.30 93.30 93.31 93.29 93.25 93.15 93.00 92.86 92.71 92.57 92.46 92.32 92.27
93.21 93.31 93.32 93.39 93.50 93.57 93.65 93.74 93.83 93.93 93.97 94.01 94.07 94.08 94.08 94.05 94.00 93.92 93.84 93.74 93.62 93.49 93.38 93.18 93.17 93.06 93.07 93.02 92.98 92.96 92.94 92.95 93.00 93.02 93.08 93.12 93.19 93.26 93.32 93.35 93.35 93.32 93.28 93.22 93.10 93.01 92.88 92.71 92.60 92.42 92.40 92.29
93.22 93.34 93.44 93.55 93.67 93.72 93.81 93.90 94.00 94.05 94.07 94.10 94.13 94.15 94.15 94.15 94.09 94.00 93.97 93.86 93.74 93.60 93.43 93.24 93.34 93.15 93.17 93.11 93.07 93.06 93.02 93.04 93.05 93.11 93.13 93.17 93.25 93.32 93.38 93.36 93.33 93.32 93.28 93.20 93.07 92.99 92.87 92.78 92.64 92.52 92.42 92.31
93.39 93.53 93.64 93.71 93.78 93.88 93.94 94.01 94.13 94.19 94.23 94.24 94.24 94.27 94.27 94.18 94.12 94.05 93.96 93.85 93.76 93.65 93.50 93.41 93.31 93.24 93.17 93.18 93.14 93.12 93.10 93.12 93.14 93.16 93.19 93.22 93.28 93.36 93.40 93.42 93.39 93.31 93.24 93.18 93.21 93.05 92.91 92.74 92.68 92.52 92.39 92.26
93.57 93.68 93.75 93.85 93.96 94.01 94.09 94.19 94.35 94.39 94.33 94.33 94.32 94.29 94.26 94.19 94.12 94.07 94.02 93.94 93.84 93.72 93.55 93.51 93.09 93.31 93.25 93.25 93.23 93.19 93.19 93.18 93.19 93.23 93.24 93.29 93.35 93.42 93.46 93.45 93.39 93.45 93.28 93.22 93.12 93.04 92.92 92.82 92.67 92.54 92.43 92.05
93.72 93.84 93.99 94.04 94.10 94.18 94.24 94.33 94.41 94.46 94.45 94.36 94.37 94.34 94.32 94.26 94.21 94.19 94.11 94.00 93.90 93.73 93.57 93.57 93.46 93.42 93.32 93.32 93.26 93.26 93.25 93.26 93.28 93.29 93.33 93.36 93.41 93.49 93.55 93.50 93.42 93.34 93.33 93.21 93.16 93.06 92.96 92.88 92.68 92.53 91.79 92.32
93.83 93.98 94.07 94.12 94.21 94.28 94.33 94.43 94.54 94.55 94.52 94.47 94.46 94.44 94.43 94.38 94.32 94.25 94.14 94.04 93.89 93.74 93.58 93.69 93.43 93.39 93.36 93.34 93.34 93.33 93.32 93.32 93.34 93.37 93.40 93.47 93.53 93.60 93.55 93.57 93.45 93.46 93.37 93.29 93.19 93.05 93.02 92.90 92.71 92.35 92.46 92.43
93.93 94.06 94.18 94.25 94.31 94.41 94.44 94.52 94.65 94.69 94.60 94.57 94.53 94.51 94.49 94.43 94.38 94.33 94.21 94.10 93.96 93.76 93.68 92.97 93.44 93.35 93.40 93.42 93.42 93.38 93.40 93.43 93.50 93.50 93.53 93.54 93.62 93.64 93.70 93.62 93.53 93.47 93.35 93.28 93.17 93.04 92.94 92.75 92.74 92.69 92.64 92.52
94.08 94.17 94.30 94.38 94.42 94.44 94.51 94.59 94.68 94.72 94.67 94.67 94.65 94.63 94.60 94.55 94.47 94.37 94.26 94.14 93.97 93.81 93.79 93.58 93.49 93.44 93.47 93.50 93.53 93.56 93.59 93.60 93.63 93.69 93.69 93.71 93.74 93.72 93.80 93.60 93.60 93.45 93.35 93.12 93.13 93.10 93.05 92.97 92.88 92.80 92.69 92.59
94.18 94.31 94.38 94.45 94.48 94.56 94.61 94.71 94.79 94.84 94.81 94.77 94.73 94.73 94.65 94.60 94.50 94.38 94.27 94.10 93.99 93.83 93.88 93.57 93.51 93.51 93.61 93.59 93.67 93.67 93.76 93.77 93.76 93.79 93.79 93.87 93.79 93.79 93.71 93.57 93.51 93.52 93.49 93.42 93.28 93.21 93.11 93.01 92.92 92.84 92.74 92.63
