ncols 52
nrows 52
xllcorner 441856
yllcorner 5714432
cellsize 10
NODATA_value -9999
99.95 99.78 99.65 99.67 99.39 99.09 98.81 98.44 98.19 97.83 97.72 97.10 97.06 96.62 96.81 96.78 96.87 96.91 95.50 95.41 95.42 94.49 94.38 94.14 93.97 93.77 93.52 92.66 94.33 94.35 94.43 94.77 95.00 95.17 95.31 95.37 95.41 95.40 95.38 95.28 95.18 95.03 94.85 94.65 94.40 94.07 93.69 93.35 93.15 92.88 92.66 92.76
99.88 99.80 99.68 99.50 99.25 99.08 98.86 98.38 98.40 97.75 97.42 97.25 96.94 96.78 95.93 95.56 95.42 95.35 95.29 95.29 95.15 94.32 94.10 94.03 93.73 93.46 92.97 94.27 94.67 94.49 94.74 95.00 95.20 95.32 95.42 95.48 95.50 95.49 95.46 95.38 95.27 95.13 94.96 94.78 94.54 94.23 93.86 93.55 93.29 93.08 91.40 92.64
99.68 99.71 99.64 99.38 99.23 99.10 98.80 98.43 98.26 97.32 97.24 97.28 96.83 96.50 95.88 95.59 95.37 95.07 94.78 94.66 94.43 94.21 93.94 92.82 93.81 93.80 94.06 94.43 94.83 94.79 94.99 95.18 95.34 95.45 95.53 95.58 95.59 95.59 95.57 95.48 95.39 95.27 95.11 94.92 94.68 94.35 94.02 93.66 93.40 93.20 91.64 92.76
99.76 99.75 99.67 99.52 99.23 99.05 98.74 98.39 98.11 97.33 98.52 97.18 96.82 96.19 96.12 95.63 95.34 95.09 94.75 94.61 94.43 94.32 93.83 93.84 93.96 94.16 94.31 94.63 95.07 95.02 95.21 95.38 95.50 95.61 95.66 95.71 95.71 95.71 95.67 95.59 95.50 95.40 95.24 95.04 94.80 94.47 94.11 93.75 93.48 93.35 92.93 92.90
100.22 99.75 99.57 99.47 99.26 98.99 98.93 98.41 98.23 97.71 97.35 97.07 96.93 96.31 96.24 95.83 95.30 95.09 95.05 94.62 94.55 94.04 93.60 94.02 94.15 94.37 94.59 95.01 95.25 95.27 95.39 95.54 95.66 95.74 95.76 95.79 95.79 95.79 95.74 95.67 95.58 95.47 95.31 95.13 94.87 94.62 94.30 93.96 93.68 93.49 93.11 91.91
99.80 99.71 99.53 99.38 99.18 98.92 98.81 98.29 97.68 97.66 97.36 97.09 97.02 96.34 96.23 96.09 95.41 95.08 95.33 94.71 94.54 94.21 94.06 94.19 94.42 94.62 94.83 95.27 95.40 95.36 95.52 95.65 95.74 95.80 95.82 95.82 95.80 95.79 95.76 95.69 95.61 95.49 95.38 95.21 95.02 94.81 94.55 94.22 93.91 93.68 93.40 93.28
99.90 99.87 99.68 99.42 99.08 98.79 98.65 98.12 97.68 97.67 97.31 97.13 97.06 96.68 96.40 95.85 95.44 95.28 95.03 94.87 94.71 93.38 94.18 94.42 94.66 94.87 95.11 95.48 95.47 95.45 95.62 95.72 95.78 95.82 95.81 95.79 95.77 95.76 95.73 95.67 95.63 95.56 95.45 95.32 95.20 95.03 94.82 94.51 94.20 93.94 93.68 93.47
100.15 99.96 99.82 99.45 99.11 98.67 98.57 98.31 98.01 97.68 97.43 97.33 97.34 96.93 96.36 95.77 95.43 95.24 94.96 94.83 94.60 93.99 94.35 94.60 94.92 95.12 95.33 95.72 95.56 95.62 95.73 95.78 95.81 95.82 95.81 95.79 95.76 95.74 95.72 95.68 95.65 95.59 95.54 95.44 95.35 95.22 95.04 94.79 94.45 94.14 93.90 93.59
100.08 100.03 99.68 99.61 99.22 98.73 98.61 98.46 97.80 97.75 97.48 97.39 97.23 96.86 96.36 95.79 95.59 95.24 95.12 94.49 94.30 94.33 94.61 94.90 95.18 95.44 95.65 95.97 95.78 95.77 95.87 95.92 95.91 95.89 95.87 95.83 95.81 95.79 95.76 95.72 95.71 95.70 95.67 95.60 95.50 95.39 95.23 94.99 94.65 94.31 94.04 93.70
100.10 99.97 99.77 99.60 99.29 99.10 98.65 98.30 97.68 97.74 97.52 97.65 97.41 96.95 96.43 95.94 95.49 95.42 94.59 94.82 93.93 94.53 94.89 95.23 95.54 95.76 95.94 96.26 96.04 96.02 96.07 96.08 96.06 96.04 95.99 95.94 95.91 95.90 95.85 95.83 95.83 95.83 95.82 95.77 95.67 95.57 95.42 95.18 94.87 94.49 94.18 93.90
100.08 100.07 99.92 99.64 99.46 99.13 98.78 98.56 98.10 97.93 97.71 97.87 97.77 97.16 96.42 96.00 95.36 94.75 94.71 94.77 94.55 94.78 95.20 95.54 95.86 96.05 96.27 96.53 96.28 96.28 96.30 96.31 96.27 96.23 96.15 96.08 96.03 96.00 95.96 95.95 95.95 95.94 95.93 95.89 95.81 95.72 95.57 95.34 95.03 94.64 94.34 93.92
100.53 100.05 99.75 99.66 99.47 99.12 98.90 98.74 98.40 97.96 98.15 97.78 97.75 96.78 96.36 95.84 95.34 94.56 94.83 93.58 94.77 95.07 95.55 95.86 96.17 96.37 96.62 96.82 96.53 96.54 96.56 96.56 96.46 96.42 96.33 96.24 96.18 96.14 96.09 96.06 96.05 96.04 96.03 95.99 95.92 95.83 95.69 95.48 95.19 94.82 94.48 94.10
100.70 100.16 99.79 99.63 99.49 98.97 98.79 98.71 98.47 98.23 98.33 98.30 98.34 96.55 96.25 95.72 94.53 94.50 94.91 94.76 95.04 95.44 95.88 96.21 96.49 96.69 96.95 97.10 96.80 96.79 96.82 96.77 96.67 96.61 96.51 96.43 96.32 96.30 96.23 96.21 96.17 96.14 96.12 96.08 96.01 95.96 95.83 95.63 95.35 94.94 94.61 94.26
100.37 100.28 99.56 99.53 99.44 99.75 99.12 98.68 98.44 98.40 98.48 98.38 97.71 96.69 96.03 95.71 94.58 95.20 93.82 95.13 95.39 95.88 96.26 96.60 96.84 97.00 97.29 97.35 97.11 97.08 97.08 97.00 96.91 96.81 96.71 96.61 96.52 96.47 96.38 96.33 96.28 96.26 96.23 96.18 96.12 96.03 95.94 95.75 95.47 95.09 94.72 94.36
100.54 100.32 99.59 99.49 99.51 99.50 99.32 98.96 98.59 98.71 98.76 98.57 97.10 96.74 96.07 95.71 95.45 95.50 95.23 95.54 95.85 96.32 96.68 96.94 97.15 97.29 97.64 97.60 97.40 97.35 97.32 97.25 97.14 97.03 96.92 96.81 96.69 96.60 96.52 96.46 96.39 96.35 96.29 96.25 96.18 96.10 96.03 95.84 95.56 95.19 94.78 94.48
100.64 100.42 99.80 99.76 99.68 99.54 99.38 98.89 98.83 98.93 99.04 98.89 97.47 97.19 96.38 96.06 95.82 95.01 95.69 95.88 96.32 96.72 97.03 97.28 97.45 97.63 97.96 97.82 97.63 97.59 97.55 97.46 97.35 97.21 97.10 96.99 96.87 96.77 96.67 96.60 96.51 96.45 96.41 96.36 96.29 96.22 96.10 95.92 95.63 95.25 94.85 94.57
100.71 100.18 99.92 99.91 99.79 99.50 99.21 98.92 99.04 98.98 98.85 98.62 97.79 96.70 96.53 96.09 95.96 95.05 95.90 96.22 96.69 97.09 97.34 97.54 97.77 97.93 98.24 98.01 97.83 97.82 97.81 97.70 97.57 97.45 97.32 97.18 97.05 96.96 96.84 96.76 96.66 96.58 96.52 96.45 96.38 96.28 96.14 95.97 95.66 95.32 94.87 94.70
100.72 100.26 100.07 99.98 100.02 100.02 99.42 99.15 99.19 99.32 98.76 98.01 97.37 96.74 96.39 96.15 95.45 95.79 96.07 96.48 96.96 97.33 97.60 97.86 98.04 98.22 98.58 98.21 98.04 98.02 97.99 97.90 97.76 97.63 97.49 97.35 97.21 97.12 96.98 96.85 96.76 96.64 96.53 96.44 96.36 96.24 96.09 95.93 95.67 95.35 95.06 94.82
100.57 100.14 100.20 100.11 99.96 99.47 99.39 99.77 99.34 99.12 98.34 97.88 97.21 96.66 96.21 96.09 95.28 95.92 96.25 96.68 97.13 97.53 97.83 98.10 98.29 98.51 98.87 98.49 98.23 98.18 98.12 98.05 97.92 97.72 97.59 97.43 97.28 97.18 97.03 96.86 96.73 96.58 96.43 96.31 96.19 96.04 95.94 95.79 95.56 95.34 95.02 94.87
100.64 100.44 99.79 100.00 99.98 99.74 99.46 99.81 99.65 99.57 97.99 97.49 97.12 96.38 96.08 95.58 95.89 96.09 96.44 96.89 97.33 97.73 98.05 98.33 98.57 98.87 99.20 98.76 98.49 98.40 98.29 98.16 97.99 97.77 97.61 97.48 97.28 97.17 96.99 96.79 96.64 96.46 96.33 96.15 96.06 95.93 95.79 95.60 95.47 95.14 94.05 92.19
100.62 100.65 100.39 99.98 100.00 99.82 99.74 99.74 98.39 97.83 97.55 97.19 96.99 96.33 95.86 95.18 96.25 96.48 96.94 97.38 97.78 98.16 98.46 98.71 98.95 99.29 99.66 99.06 98.82 98.69 98.51 98.34 98.14 97.94 97.77 97.61 97.45 97.32 97.18 97.00 96.86 96.71 96.53 96.35 96.35 95.94 95.66 95.58 95.45 94.81 94.23 93.46
100.71 100.67 100.35 100.31 100.04 99.84 99.92 99.53 98.60 97.45 97.40 97.08 96.89 96.02 95.86 96.48 96.71 97.08 97.59 98.00 98.39 98.71 98.94 99.16 99.34 99.63 99.87 99.26 99.09 98.94 98.77 98.62 98.46 98.29 98.16 98.02 97.89 97.80 97.67 97.55 97.44 97.29 97.09 96.90 96.78 96.86 96.41 96.01 95.65 95.44 94.92 94.42
100.50 100.75 100.43 100.40 100.20 99.92 100.10 99.35 100.27 99.08 98.31 97.34 96.53 96.30 95.15 96.90 97.20 97.69 98.19 98.60 98.94 99.18 99.36 99.48 99.60 99.87 99.99 99.41 99.25 99.11 98.97 98.83 98.71 98.60 98.45 98.33 98.23 98.14 98.02 97.91 97.81 97.64 97.44 97.26 97.15 97.13 96.71 96.40 95.99 95.58 95.21 95.19
100.62 100.56 100.53 100.46 100.24 100.15 99.92 99.66 99.01 99.06 98.38 97.38 96.83 96.28 96.89 97.17 97.63 98.13 98.61 98.99 99.27 99.48 99.58 99.67 99.76 100.03 100.07 99.54 99.40 99.25 99.15 99.03 98.93 98.80 98.65 98.54 98.43 98.31 98.22 98.10 97.96 97.79 97.61 97.45 97.37 97.55 97.03 96.72 96.30 95.85 95.46 95.50
100.74 100.75 100.61 100.41 100.33 100.10 99.92 99.92 99.71 98.72 98.09 97.52 97.27 96.33 97.07 97.39 97.93 98.46 98.88 99.21 99.49 99.67 99.74 99.82 99.88 100.18 100.12 99.70 99.57 99.45 99.36 99.23 99.14 99.01 98.87 98.74 98.62 98.51 98.41 98.27 98.12 97.96 97.77 97.62 97.56 97.62 97.18 96.83 96.53 96.02 95.68 95.85
100.67 100.60 100.42 100.40 100.26 100.15 99.83 99.79 99.64 98.70 97.83 97.07 96.20 96.91 97.16 97.67 98.22 98.74 99.15 99.45 99.69 99.84 99.92 99.97 100.03 100.35 100.25 99.92 99.77 99.67 99.57 99.44 99.36 99.24 99.07 98.93 98.81 98.70 98.59 98.45 98.31 98.13 97.97 97.81 97.74 97.79 97.29 96.98 96.71 96.26 95.90 96.18
100.72 100.54 100.44 100.42 100.11 100.17 100.06 99.43 98.88 98.31 97.58 97.13 95.68 97.02 97.42 97.98 98.52 99.04 99.41 99.71 99.94 100.07 100.17 100.20 100.24 100.59 100.42 100.10 99.97 99.89 99.79 99.66 99.58 99.46 99.30 99.14 99.04 98.90 98.80 98.64 98.49 98.33 98.16 97.97 97.91 97.91 97.50 97.12 96.83 96.61 96.41 96.32
100.76 100.53 100.42 100.39 100.03 99.96 99.79 99.27 98.79 98.05 97.41 96.92 96.38 97.24 97.71 98.32 98.88 99.38 99.75 100.03 100.22 100.33 100.42 100.43 100.51 100.77 100.57 100.30 100.19 100.10 100.01 99.89 99.83 99.70 99.54 99.40 99.25 99.11 99.00 98.85 98.70 98.53 98.37 98.23 98.18 98.06 97.73 97.43 97.22 97.02 96.88 97.08
100.63 100.35 100.25 100.13 99.90 100.00 99.69 99.03 99.14 98.10 97.14 97.85 97.17 97.51 98.05 98.70 99.25 99.74 100.07 100.31 100.51 100.60 100.67 100.69 100.76 101.07 100.75 100.51 100.39 100.30 100.19 100.11 100.06 99.93 99.78 99.61 99.49 99.34 99.20 99.08 98.96 98.74 98.65 98.52 98.42 98.20 97.61 97.30 97.46 97.42 97.39 97.21
100.65 100.26 100.10 100.16 99.85 99.68 99.44 98.92 98.30 97.25 97.15 96.24 97.49 97.83 98.43 99.07 99.60 100.04 100.33 100.61 100.79 100.87 100.92 100.93 100.99 101.41 100.97 100.71 100.60 100.51 100.41 100.35 100.28 100.16 100.01 99.88 99.75 99.58 99.46 99.33 99.16 98.96 98.82 98.06 98.08 98.06 97.95 97.78 97.58 97.34 97.12 96.92
103.72 100.39 100.26 100.04 99.87 99.66 99.12 98.69 98.25 97.27 97.97 97.05 97.70 98.16 98.81 99.41 99.93 100.33 100.62 100.88 101.07 101.10 101.15 101.18 101.22 101.60 101.17 100.90 100.81 100.71 100.65 100.56 100.51 100.43 100.29 100.18 100.06 99.91 99.71 99.65 99.26 98.97 98.82 98.60 98.38 98.09 97.79 97.69 97.39 97.15 97.00 96.76
101.42 101.57 100.10 99.91 99.74 99.52 98.89 98.42 97.79 97.23 96.73 97.68 98.01 98.56 99.20 99.75 100.23 100.62 100.91 101.13 101.31 101.34 101.39 101.37 101.47 101.82 101.34 101.12 101.05 101.02 100.98 100.89 100.83 100.73 100.60 100.46 100.29 99.73 99.93 99.71 99.49 99.29 98.85 98.21 98.83 98.50 98.15 97.65 97.47 97.08 96.90 96.94
100.10 104.22 100.02 99.71 99.72 99.50 98.72 99.02 97.68 98.13 97.53 97.91 98.32 98.97 99.54 100.06 100.49 100.86 101.13 101.39 101.51 101.61 101.67 101.70 101.73 102.03 101.56 101.41 101.36 101.36 101.30 101.18 101.07 100.64 100.85 100.84 100.64 100.44 100.15 99.73 98.70 99.30 99.84 99.46 99.18 98.62 98.06 97.66 97.31 97.21 97.11 97.30
100.26 103.85 100.39 99.74 99.86 99.75 99.53 99.13 98.23 96.18 97.94 98.17 98.72 99.32 99.86 100.32 100.73 101.10 101.42 101.68 101.75 101.79 101.79 101.80 101.92 102.20 101.87 101.66 101.60 101.60 101.14 101.65 101.60 101.46 101.32 100.97 100.65 99.43 100.79 100.68 100.36 100.07 99.82 99.58 99.29 98.69 98.32 97.86 97.64 97.46 97.24 97.21
100.40 101.82 102.38 100.12 100.05 99.97 99.77 98.71 97.20 97.88 98.09 98.50 99.07 99.69 100.27 100.61 100.95 101.22 101.50 101.66 101.82 102.28 103.47 105.12 103.81 102.47 102.10 101.79 102.28 102.21 102.11 102.01 101.65 101.11 100.63 101.49 101.29 101.07 100.86 100.66 100.45 100.27 100.02 99.75 99.33 98.68 98.33 97.96 97.71 97.47 97.53 97.62
100.58 100.19 104.75 100.62 100.89 100.24 99.73 96.47 96.65 98.08 98.36 98.90 99.39 99.88 100.29 100.54 101.07 102.16 103.68 105.52 105.17 103.49 102.65 102.21 102.53 102.64 102.64 102.61 102.50 102.21 101.44 101.65 102.00 101.75 101.58 101.40 101.27 101.15 101.06 100.88 100.68 100.50 100.25 99.87 99.43 98.87 98.53 97.94 97.78 97.59 97.58 97.94
100.64 99.63 103.43 103.91 101.84 100.35 98.72 97.02 97.42 98.22 98.40 99.04 99.81 101.66 103.63 105.42 105.69 104.32 102.69 102.53 101.93 102.72 102.89 102.90 102.92 102.72 102.54 101.82 102.50 102.46 102.19 102.00 101.86 101.79 101.72 101.63 101.50 101.39 101.27 101.09 100.91 100.74 100.44 100.07 99.64 99.21 98.21 97.72 97.52 97.06 97.62 98.37
101.14 101.21 101.08 101.03 101.39 101.17 99.24 98.64 99.16 100.86 102.14 104.39 105.60 104.68 102.89 102.02 102.05 102.12 102.83 102.93 103.02 103.06 102.83 102.71 102.08 103.36 103.08 102.82 102.60 102.43 102.28 102.20 102.10 102.05 101.98 101.90 101.75 101.65 101.51 101.36 101.18 101.00 100.73 100.38 99.85 99.42 98.70 98.36 97.64 97.20 97.71 98.68
101.29 100.76 101.31 101.91 104.09 104.61 104.73 104.16 105.01 103.68 102.58 101.60 100.91 100.96 102.19 102.71 102.82 102.94 102.97 102.85 102.33 102.61 103.19 103.25 103.33 103.25 103.03 102.90 102.79 102.68 102.58 102.49 102.40 102.33 102.27 102.18 102.06 101.94 101.79 101.64 101.48 101.28 101.06 100.70 100.19 99.74 99.17 98.90 98.25 97.51 98.12 99.01
100.81 100.79 100.78 99.32 99.16 99.00 99.16 99.35 99.11 99.30 100.64 102.14 102.43 102.57 102.73 102.65 102.65 101.93 102.91 103.21 103.35 103.39 103.51 103.52 103.51 103.28 103.16 103.10 103.00 102.91 102.79 102.71 102.62 102.55 102.46 102.36 102.27 102.16 102.04 101.85 101.68 101.54 101.30 101.02 100.58 100.20 99.90 99.83 98.96 97.61 98.64 99.29
100.89 100.78 100.80 99.60 99.35 98.87 99.00 101.16 102.08 102.21 102.34 102.48 102.33 102.27 101.51 102.72 102.85 102.94 103.07 103.27 103.39 103.46 103.61 103.67 103.55 103.35 103.27 103.22 103.12 103.03 102.92 102.82 102.74 102.64 102.54 102.44 102.38 102.27 102.17 102.00 101.82 101.67 101.52 101.26 100.93 100.68 100.28 99.75 99.32 97.74 99.04 99.53
100.81 101.44 100.83 99.78 101.46 102.08 102.12 102.20 102.25 102.10 101.58 100.83 101.79 102.26 102.53 102.77 102.93 103.07 103.22 103.41 103.55 103.63 103.76 103.84 103.69 103.57 103.45 103.38 103.27 103.15 103.07 102.96 102.86 102.76 102.65 102.59 102.49 102.40 102.29 102.15 101.95 101.82 101.70 101.51 101.25 101.10 101.06 100.40 99.99 97.92 99.27 99.74
100.95 102.10 102.26 102.27 102.27 102.17 101.97 101.06 99.43 100.10 100.68 101.23 101.81 102.31 102.66 102.96 103.16 103.33 103.45 103.64 103.76 103.82 103.89 104.04 103.81 103.77 103.57 103.55 103.46 103.32 103.21 103.15 103.04 102.94 102.86 102.81 102.70 102.58 102.47 102.32 102.14 101.97 101.89 101.77 101.61 101.46 101.23 100.92 100.66 98.21 99.45 99.90
102.57 102.53 102.28 102.02 100.70 98.60 100.51 99.26 99.49 99.99 100.60 101.26 101.94 102.48 102.93 103.23 103.46 103.57 103.71 103.86 103.99 104.05 104.06 104.25 104.07 104.00 103.78 103.75 103.65 103.53 103.41 103.34 103.25 103.19 103.08 103.04 102.91 102.76 102.64 102.50 102.33 102.20 102.10 101.99 101.82 101.75 101.65 101.53 101.23 98.60 99.61 99.85
102.06 100.65 100.52 99.97 99.65 97.56 99.41 99.29 99.42 100.00 100.67 101.40 102.10 102.71 103.17 103.51 103.72 103.83 103.93 104.02 104.10 104.15 104.20 104.41 104.35 104.20 104.00 103.91 103.86 103.75 103.62 103.54 103.48 103.40 103.32 103.25 103.13 102.98 102.83 102.70 102.54 102.41 102.29 102.14 102.04 101.91 101.89 101.93 101.77 99.06 99.60 99.72
101.65 101.13 100.54 100.07 99.72 98.36 98.99 99.28 99.47 100.09 100.81 101.57 102.31 102.93 103.42 103.76 103.86 103.94 104.07 104.22 104.36 104.35 104.40 104.58 104.53 104.43 104.22 104.13 104.05 103.96 103.82 103.75 103.71 103.64 103.56 103.49 103.38 103.21 103.05 102.89 102.71 102.59 102.46 102.32 102.21 102.07 101.99 102.29 102.18 99.26 99.75 99.83
101.66 101.18 100.66 100.23 99.83 99.69 98.11 99.38 99.62 100.19 100.90 101.68 102.43 102.97 103.48 103.85 104.07 104.24 104.28 104.40 104.49 104.55 104.58 104.77 104.71 104.62 104.40 104.32 104.25 104.15 104.06 103.97 103.92 103.85 103.80 103.71 103.55 103.36 103.23 103.08 102.89 102.72 102.55 102.40 102.30 102.30 101.97 102.36 100.00 99.43 100.10 100.15
101.84 101.38 100.82 100.35 99.91 99.82 98.14 99.33 99.83 100.26 100.85 101.60 102.41 103.07 103.64 103.97 104.22 104.42 104.49 104.57 104.70 104.78 104.82 104.90 104.90 104.81 104.56 104.50 104.43 104.36 104.28 104.22 104.14 104.04 103.98 103.93 103.78 103.56 103.37 103.20 103.00 102.79 102.60 102.44 102.32 102.22 102.22 100.38 99.50 99.55 100.88 100.90
102.04 101.57 101.01 100.50 100.07 99.85 99.03 99.44 99.88 100.29 100.89 101.62 102.36 103.05 103.65 104.10 104.36 104.52 104.62 104.76 104.89 104.97 104.99 105.00 105.12 104.98 104.76 104.70 104.65 104.58 104.47 104.45 104.36 104.27 104.15 104.04 103.91 103.69 103.48 103.29 103.07 102.88 102.61 102.46 102.18 101.43 100.36 100.20 100.03 99.68 101.57 101.59
102.18 101.75 101.18 100.67 100.19 99.93 99.86 98.89 99.86 100.22 100.75 101.50 102.26 102.98 103.60 104.10 104.43 104.63 104.78 104.93 105.06 105.14 105.13 105.14 105.36 105.16 105.01 104.86 104.86 104.80 104.71 104.63 104.54 104.44 104.28 104.16 104.03 103.80 103.60 103.35 103.13 103.01 101.96 101.76 101.70 101.66 101.32 101.37 99.88 99.85 102.23 102.13
102.29 101.82 101.32 100.81 100.41 100.05 99.97 98.17 99.87 100.19 100.67 101.37 102.12 102.85 103.54 104.10 104.49 104.77 104.95 105.08 105.23 105.32 105.30 105.30 105.47 105.33 105.17 105.03 105.02 105.00 104.91 104.79 104.68 104.58 104.42 104.26 104.17 103.91 103.79 102.78 101.81 101.88 102.03 102.07 101.92 102.02 102.14 101.77 99.95 100.24 102.75 102.60
102.30 101.90 101.42 100.96 100.61 100.27 100.14 98.34 99.90 100.17 100.57 101.22 101.98 102.74 103.48 104.08 104.57 104.90 105.12 105.27 105.41 105.48 105.49 105.47 105.60 105.45 105.40 105.25 105.21 105.18 105.07 104.92 104.81 104.68 104.57 104.36 104.35 102.96 100.83 100.90 101.47 102.26 102.49 102.59 102.71 103.25 102.71 102.60 100.00 100.95 103.03 102.92
