ncols 52
nrows 52
xllcorner 441856
yllcorner 5716992
cellsize 10
NODATA_value -9999
92.65 92.60 92.50 92.47 92.44 92.38 92.35 92.28 92.21 92.07 92.00 91.92 91.82 91.66 91.57 91.47 91.37 91.26 91.15 91.07 90.98 90.87 90.76 90.66 90.58 90.42 90.26 90.08 89.89 89.71 89.54 89.47 89.39 89.43 89.23 88.89 88.69 88.37 88.29 88.26 88.08 87.82 87.57 87.36 87.15 86.93 86.66 86.39 86.07 85.71 85.37 85.08
92.72 92.68 92.63 92.61 92.57 92.53 92.44 92.32 92.24 92.12 92.07 91.99 91.90 91.73 91.59 91.50 91.40 91.29 91.21 91.09 90.96 90.85 90.73 90.64 90.51 90.40 90.29 90.11 89.99 89.90 89.85 89.68 89.26 89.02 88.90 88.80 88.50 88.23 87.99 88.03 87.81 87.57 87.32 87.10 86.88 86.66 86.41 86.11 85.83 85.56 84.83 85.45
92.89 92.85 92.77 92.70 92.60 92.54 92.45 92.37 92.24 92.18 92.10 92.05 91.96 91.80 91.63 91.54 91.44 91.35 91.22 91.11 90.99 90.85 90.71 90.57 90.46 90.40 90.39 90.32 90.19 89.14 90.30 89.38 89.26 88.86 88.79 88.57 88.32 88.12 87.70 87.73 87.51 87.28 87.01 86.79 86.58 86.37 86.10 85.91 85.12 85.65 85.77 85.92
93.00 92.89 92.79 92.75 92.67 92.60 92.51 92.42 92.29 92.23 92.16 92.10 92.03 91.86 91.65 91.52 91.44 91.34 91.24 91.11 90.97 90.82 90.67 90.60 90.56 90.61 90.48 90.03 90.03 89.86 89.43 89.67 89.06 88.83 88.59 88.47 88.23 87.97 87.49 87.25 87.18 86.96 86.64 86.45 86.22 86.08 85.55 85.88 85.96 86.10 86.24 86.40
93.07 92.97 92.93 92.82 92.74 92.67 92.57 92.46 92.34 92.25 92.18 92.12 92.03 91.87 91.66 91.51 91.40 91.33 91.19 91.07 90.97 90.91 90.85 90.72 89.72 90.24 90.26 90.22 90.04 89.82 89.36 89.56 89.15 88.78 88.49 88.21 88.00 87.70 87.33 86.91 86.93 86.73 86.30 86.15 85.90 86.22 86.23 86.33 86.44 86.56 86.71 86.80
93.17 93.10 93.00 92.91 92.82 92.74 92.64 92.52 92.43 92.32 92.22 92.15 92.06 91.90 91.67 91.46 91.35 91.28 91.23 91.15 91.17 90.67 90.53 90.52 90.47 90.24 90.10 90.05 89.90 89.61 89.50 89.04 88.99 88.61 88.34 87.99 87.80 87.40 87.05 86.76 86.85 86.20 86.32 86.56 86.59 86.66 86.72 86.79 86.89 86.96 87.04 87.07
93.28 93.20 93.11 92.99 92.91 92.83 92.72 92.60 92.50 92.37 92.27 92.18 92.07 91.92 91.65 91.47 91.40 91.46 91.36 90.49 90.78 90.72 90.66 90.60 90.49 90.30 89.97 89.85 89.63 89.42 89.24 88.84 88.81 88.50 88.08 87.67 87.36 87.10 86.72 86.08 86.95 86.85 86.88 86.97 87.01 87.12 87.16 87.18 87.20 87.24 87.25 87.25
93.41 93.33 93.23 93.13 93.01 92.90 92.82 92.71 92.56 92.43 92.34 92.21 92.13 91.99 91.77 91.60 90.74 91.07 91.04 90.92 90.81 90.72 90.58 90.52 90.34 90.16 89.77 89.47 89.36 89.17 88.93 88.76 88.14 88.29 87.90 87.54 87.01 86.67 86.90 87.15 86.30 87.00 87.30 87.40 87.43 87.49 87.46 87.43 87.42 87.42 87.41 87.42
93.58 93.45 93.32 93.24 93.12 93.01 92.90 92.79 92.68 92.56 92.45 92.32 92.34 92.03 91.13 91.50 91.39 91.22 91.09 90.97 90.73 90.57 90.44 90.31 90.16 89.86 89.49 89.12 89.04 88.84 88.63 88.41 88.07 87.84 87.61 87.04 86.38 87.30 87.41 87.31 87.13 87.63 87.62 87.69 87.72 87.71 87.67 87.64 87.60 87.56 87.56 87.57
93.72 93.59 93.48 93.36 93.24 93.15 93.03 92.92 92.76 92.74 92.52 92.40 92.34 92.20 91.14 91.66 91.43 91.25 91.05 90.85 90.65 90.45 90.22 90.02 89.82 89.46 89.18 88.83 88.65 88.47 88.18 87.82 87.40 86.74 86.68 87.15 87.47 87.82 87.71 87.61 87.84 87.97 87.93 87.87 87.90 87.87 87.82 87.77 87.74 87.71 87.70 87.68
93.84 93.75 93.64 93.48 93.36 93.25 93.17 92.97 92.89 92.73 92.60 92.46 92.40 92.29 91.99 91.67 91.40 91.22 91.02 90.72 90.40 90.16 89.80 88.70 88.59 88.78 88.62 88.29 87.90 87.82 86.73 86.21 86.63 87.27 87.44 87.94 88.00 88.05 88.12 88.00 88.21 87.92 88.12 88.04 88.04 87.94 87.92 87.88 87.83 87.82 87.77 87.69
94.02 93.87 93.72 93.58 93.57 93.36 93.22 93.08 92.91 92.76 92.63 92.44 92.32 92.26 92.35 91.63 91.44 91.21 90.82 90.51 88.94 88.55 87.61 87.35 87.16 87.83 87.52 86.38 86.99 87.96 88.29 88.39 88.33 88.16 88.22 88.36 88.40 88.40 88.25 88.31 88.42 88.15 88.35 88.17 88.08 88.05 88.03 87.95 87.90 87.83 87.75 87.64
94.12 94.07 93.84 93.74 93.54 93.40 93.29 93.13 92.93 92.73 92.60 92.47 92.37 92.31 92.28 91.47 91.35 91.00 90.68 88.49 87.62 87.13 87.17 87.18 87.16 88.65 88.83 88.90 88.92 88.82 88.80 88.89 88.79 88.64 88.67 88.70 88.78 88.82 88.53 88.55 88.65 88.35 88.48 88.25 88.17 88.13 88.06 87.97 87.88 87.77 87.70 87.63
94.28 94.10 93.93 93.75 93.57 93.46 93.29 93.13 92.95 92.79 92.67 92.54 92.42 92.31 92.32 91.07 91.18 90.87 90.23 88.01 87.30 87.21 87.13 87.21 87.12 88.17 88.86 88.98 89.12 89.10 89.09 89.11 89.10 89.04 89.08 88.97 89.01 89.19 88.83 88.70 88.72 88.60 88.52 88.34 88.19 88.15 88.04 87.92 87.82 87.74 87.71 87.63
94.29 94.11 93.96 93.74 93.60 93.46 93.33 93.20 93.05 92.88 92.75 92.63 92.47 92.38 92.31 91.22 91.09 90.77 90.41 89.22 88.04 88.01 87.75 87.38 87.74 88.65 88.94 89.11 89.37 89.30 89.43 89.45 89.52 89.38 89.18 89.16 89.25 89.14 88.99 88.80 88.79 88.74 88.17 88.46 88.24 88.11 88.00 87.92 87.85 87.77 87.68 87.62
94.39 94.20 94.00 93.81 93.68 93.57 93.42 93.28 93.15 92.98 92.86 92.73 92.56 92.39 92.26 92.17 91.06 90.82 90.57 90.29 90.00 89.43 89.19 89.35 89.43 89.16 89.05 89.37 89.63 89.75 89.78 89.82 89.79 89.63 89.32 89.30 89.40 89.15 88.94 88.88 88.85 88.67 88.35 88.56 88.22 88.10 88.03 87.92 87.87 87.73 87.68 87.62
94.43 94.27 94.11 93.94 93.78 93.66 93.51 93.37 93.24 93.08 92.94 92.75 92.55 92.38 92.23 92.13 91.18 90.93 90.59 90.33 90.15 90.19 89.69 89.57 89.47 89.33 89.20 89.44 89.85 90.00 89.97 89.99 89.89 89.72 89.44 89.46 89.45 89.14 89.02 88.97 88.82 88.61 88.26 88.52 88.18 88.15 87.99 87.92 87.85 87.76 87.68 87.57
94.52 94.38 94.21 94.05 93.89 93.75 93.60 93.45 93.31 93.13 92.94 92.75 92.57 92.42 92.25 92.09 91.58 91.21 90.96 90.51 90.78 90.57 90.11 89.61 89.38 89.20 89.29 89.44 89.85 90.11 90.06 90.01 89.93 89.79 89.58 89.50 89.56 89.18 89.16 89.01 88.76 88.58 88.18 88.36 88.15 87.99 87.93 87.86 87.80 87.72 87.63 87.51
94.65 94.49 94.32 94.14 93.98 93.79 93.63 93.47 93.36 93.18 93.01 92.82 92.66 92.51 92.35 92.21 91.71 91.71 90.99 90.40 90.31 90.65 90.71 89.95 89.76 89.29 89.42 89.49 89.69 90.15 90.17 90.08 90.00 89.91 89.58 89.49 89.29 89.13 88.93 88.68 88.46 88.32 87.99 87.91 87.90 88.10 87.93 87.93 87.81 87.66 87.57 87.47
94.71 94.54 94.34 94.17 94.00 93.84 93.67 93.55 93.38 93.27 93.10 92.95 92.74 92.62 92.49 92.34 91.99 92.03 91.57 90.42 90.22 90.26 90.12 89.93 89.71 89.68 89.67 89.58 89.68 90.00 90.24 90.12 89.90 89.49 89.32 89.26 87.86 87.56 87.41 87.84 88.31 87.85 87.44 87.00 86.70 86.51 86.34 86.26 86.51 87.54 87.56 87.45
94.75 94.58 94.40 94.24 94.05 93.91 93.75 93.62 93.50 93.36 93.20 93.06 92.88 92.74 92.61 92.47 92.28 92.23 92.01 91.65 91.23 90.32 90.11 89.94 89.79 89.68 89.71 89.65 89.71 89.79 90.01 89.67 89.37 89.29 87.82 88.07 87.96 87.79 87.64 87.78 87.19 87.85 88.18 88.01 87.94 87.90 87.86 87.66 87.51 87.31 86.88 85.81
94.80 94.65 94.48 94.33 94.13 94.00 93.84 93.73 93.56 93.44 93.28 93.16 92.99 92.84 92.72 92.58 92.51 92.55 92.12 92.14 91.77 91.32 90.80 90.18 90.04 89.79 89.77 89.79 89.71 89.65 89.50 89.25 88.70 88.39 88.00 87.96 87.70 87.70 87.59 87.62 87.88 88.00 88.24 88.11 88.06 87.88 87.80 87.64 87.48 87.39 87.28 87.29
94.86 94.71 94.56 94.37 94.19 94.04 93.92 93.77 93.63 93.50 93.37 93.23 93.09 92.94 92.82 92.68 92.64 92.62 92.46 92.01 92.22 91.82 91.54 91.18 90.74 90.25 90.19 90.04 89.94 89.66 89.49 89.55 88.52 88.02 87.44 86.73 86.58 86.62 87.33 87.50 87.89 87.90 88.32 88.19 87.95 87.83 87.71 87.54 87.47 87.49 87.16 87.00
94.90 94.74 94.59 94.44 94.24 94.08 93.96 93.81 93.68 93.55 93.41 93.29 93.14 92.99 92.93 92.76 92.69 92.73 92.56 92.34 92.07 91.89 91.85 91.74 91.35 91.18 90.51 90.12 90.11 89.76 90.07 90.53 89.79 88.17 87.43 86.87 86.60 87.58 87.40 87.50 87.88 88.30 88.60 88.18 87.94 87.78 87.72 87.57 87.40 87.19 86.94 86.71
94.90 94.77 94.61 94.45 94.27 94.13 93.99 93.84 93.70 93.58 93.44 93.32 93.20 93.07 93.00 92.90 92.83 92.77 92.61 92.43 92.24 92.06 91.91 91.74 91.65 91.62 91.63 90.90 89.97 90.28 90.28 91.15 90.38 89.58 88.24 87.76 87.88 87.59 88.04 88.11 87.99 88.37 88.54 88.46 88.13 87.85 87.58 87.47 87.28 86.95 86.86 87.11
94.92 94.80 94.63 94.46 94.29 94.15 93.99 93.85 93.75 93.64 93.52 93.41 93.29 93.17 93.09 93.01 92.86 92.82 92.74 92.58 92.43 92.26 92.12 92.01 91.87 91.68 91.29 90.07 90.62 90.54 90.32 90.30 90.02 89.87 88.97 88.52 88.28 88.07 88.37 88.22 88.31 88.50 88.30 88.22 88.13 87.82 87.52 87.50 86.98 87.17 87.29 87.11
94.92 94.81 94.68 94.53 94.34 94.22 94.07 93.95 93.83 93.73 93.61 93.47 93.38 93.26 93.15 93.07 92.96 93.03 92.85 92.74 92.61 92.46 92.31 92.22 92.07 91.33 90.27 90.84 90.82 90.63 90.49 90.40 90.24 89.90 89.42 89.21 88.72 88.52 88.49 88.51 88.51 88.47 88.30 88.00 87.90 87.57 87.40 87.25 87.42 87.44 87.30 87.35
95.02 94.90 94.78 94.60 94.42 94.26 94.13 94.00 93.89 93.77 93.66 93.50 93.42 93.31 93.24 93.14 93.01 93.21 93.13 92.82 92.69 92.58 92.56 92.48 91.96 90.53 91.13 91.09 90.98 90.76 90.51 90.48 90.06 89.97 89.73 89.41 89.05 88.92 88.55 88.49 88.49 88.40 88.04 87.79 87.76 87.54 87.47 87.65 87.54 87.60 87.49 87.53
95.09 94.99 94.82 94.62 94.47 94.30 94.15 94.02 93.92 93.79 93.68 93.56 93.49 93.37 93.31 93.28 93.12 93.28 93.15 92.91 92.84 92.76 92.70 92.24 90.81 91.15 91.39 91.29 91.17 90.95 90.64 90.32 90.06 89.95 89.76 89.51 89.25 88.94 88.55 88.32 88.32 88.17 87.27 85.91 86.68 87.79 87.86 87.76 87.74 87.62 87.72 87.64
95.14 95.01 94.82 94.64 94.47 94.31 94.18 94.05 93.96 93.83 93.74 93.65 93.57 93.47 93.37 93.36 93.26 93.36 93.21 93.06 92.96 92.86 92.66 91.32 90.53 91.58 91.58 91.41 91.26 91.01 90.75 90.54 90.21 89.82 89.74 89.56 89.21 88.96 88.61 87.73 87.88 87.42 86.57 88.25 88.36 88.18 88.06 87.91 87.88 87.90 87.76 87.95
95.15 95.03 94.84 94.67 94.50 94.36 94.21 94.10 93.97 93.89 93.79 93.70 93.61 93.52 93.46 93.42 93.39 93.38 93.29 93.02 92.93 92.91 92.52 90.53 91.75 91.76 91.65 91.44 91.24 91.00 90.77 90.57 90.41 90.17 89.67 89.62 89.22 88.90 88.68 88.61 88.19 87.35 88.73 88.48 88.40 88.29 88.13 88.16 87.98 87.88 87.92 87.73
95.18 95.04 94.88 94.67 94.53 94.39 94.25 94.15 94.06 93.95 93.85 93.74 93.68 93.56 93.50 93.44 93.40 93.55 93.18 93.02 93.02 92.92 91.29 91.92 91.95 91.81 91.64 91.43 91.21 90.97 90.76 90.52 90.18 90.10 90.61 87.93 89.32 88.94 88.60 88.17 87.45 88.65 88.57 88.54 88.48 88.33 88.36 88.14 88.12 87.87 87.82 87.64
95.18 95.06 94.90 94.72 94.57 94.45 94.33 94.25 94.11 94.02 93.91 93.81 93.72 93.61 93.55 93.49 93.52 93.38 93.12 93.00 92.97 91.62 91.99 92.09 92.01 91.82 91.63 91.42 91.18 90.96 90.73 90.45 90.21 89.90 89.69 90.69 87.90 89.01 88.60 86.89 88.74 88.63 88.62 88.52 88.44 88.44 88.26 88.24 87.93 87.91 87.62 87.48
95.24 95.14 94.98 94.80 94.68 94.52 94.42 94.30 94.19 94.07 93.96 93.86 93.76 93.63 93.56 93.49 93.65 93.33 93.29 93.22 92.65 90.95 92.22 92.21 92.07 91.87 91.64 91.36 91.13 90.91 90.65 90.43 90.19 89.92 89.66 89.40 89.61 88.27 87.22 88.88 88.69 88.69 88.57 88.47 88.43 88.29 88.35 87.99 87.93 87.62 87.48 87.18
95.31 95.19 95.03 94.85 94.69 94.57 94.46 94.35 94.25 94.12 93.99 93.88 93.77 93.66 93.61 93.57 93.59 93.46 93.39 93.40 91.92 92.41 92.40 92.27 92.10 91.83 91.57 91.32 91.08 90.87 90.63 90.35 90.06 89.79 89.53 89.42 89.32 89.16 89.06 88.80 88.87 88.61 88.56 88.49 88.33 88.30 87.97 87.93 87.60 88.11 87.14 87.05
95.36 95.21 95.07 94.88 94.73 94.60 94.50 94.37 94.27 94.15 94.02 93.90 93.79 93.70 93.64 93.64 93.70 93.54 93.56 92.19 92.61 92.58 92.47 92.29 92.02 91.76 91.53 91.29 91.06 90.84 90.57 90.31 89.98 89.73 89.55 89.40 89.29 89.28 89.02 89.02 88.69 88.70 88.58 88.40 88.33 88.04 87.93 87.56 87.48 87.18 87.11 85.80
95.40 95.25 95.08 94.90 94.78 94.65 94.54 94.45 94.29 94.19 94.06 93.95 93.83 93.75 93.72 93.62 93.78 93.65 92.47 92.65 92.73 92.62 92.45 92.23 91.98 91.74 91.49 91.25 91.04 90.78 90.54 90.24 90.00 89.78 89.60 89.44 89.29 89.21 89.20 88.95 88.87 88.60 88.50 88.42 88.07 87.95 87.57 87.43 87.24 87.02 85.53 86.94
95.40 95.30 95.14 94.95 94.83 94.72 94.58 94.48 94.35 94.20 94.08 94.04 93.93 93.80 93.67 93.59 93.84 92.76 92.61 92.92 92.79 92.63 92.43 92.22 91.95 91.68 91.44 91.21 90.98 90.74 90.51 90.28 90.06 89.87 89.66 89.47 89.37 89.22 89.08 88.96 88.79 88.67 88.42 88.13 88.02 87.60 87.47 87.21 86.16 86.78 87.01 87.09
95.45 95.33 95.14 95.00 94.82 94.68 94.56 94.44 94.34 94.17 94.02 93.92 93.81 93.75 93.74 93.54 93.13 92.42 93.05 92.94 92.81 92.61 92.39 92.14 91.87 91.64 91.40 91.19 90.97 90.77 90.54 90.37 90.17 89.94 89.72 89.57 89.42 89.25 89.10 88.94 88.75 88.63 88.32 88.08 87.65 87.56 87.25 86.25 87.07 87.14 87.27 87.35
95.41 95.32 95.20 95.01 94.85 94.74 94.65 94.50 94.41 94.35 94.21 94.05 93.96 93.82 93.43 93.09 92.41 93.17 93.07 92.91 92.77 92.56 92.34 92.11 91.85 91.63 91.42 91.23 91.01 90.83 90.62 90.44 90.21 89.99 89.80 89.61 89.41 89.25 89.09 88.91 88.70 88.40 88.22 87.86 87.64 87.28 86.67 86.84 87.21 87.38 87.51 87.67
95.52 95.48 95.33 95.19 95.04 94.88 94.58 94.32 94.29 94.32 94.18 93.95 93.83 93.72 93.71 93.05 93.29 93.21 93.06 92.90 92.73 92.53 92.32 92.09 91.90 91.67 91.46 91.25 91.05 90.85 90.65 90.42 90.20 90.00 89.80 89.59 89.41 89.21 89.04 88.83 88.60 88.27 88.00 87.91 87.38 87.07 86.16 87.23 87.43 87.68 87.89 88.00
95.53 95.43 95.31 95.07 94.89 94.76 94.61 94.46 94.33 94.19 94.03 93.89 93.89 93.85 93.38 93.42 93.32 93.22 93.06 92.90 92.69 92.52 92.37 92.16 91.96 91.68 91.49 91.26 91.07 90.88 90.62 90.36 90.14 89.94 89.75 89.54 89.34 89.14 88.94 88.71 88.44 88.15 87.84 87.58 87.39 86.21 87.28 87.40 87.63 87.95 88.17 88.33
95.47 95.36 95.19 95.02 94.83 94.69 94.57 94.42 94.29 94.17 94.02 93.96 94.05 93.56 93.51 93.43 93.31 93.21 93.04 92.85 92.65 92.50 92.38 92.23 91.99 91.74 91.49 91.26 91.08 90.84 90.58 90.30 90.07 89.87 89.66 89.47 89.25 89.03 88.79 88.54 88.23 87.96 87.69 87.40 86.76 87.19 87.40 87.66 87.93 88.18 88.44 88.61
95.46 95.35 95.20 95.00 94.83 94.69 94.56 94.40 94.29 94.18 94.10 94.23 93.30 93.58 93.53 93.44 93.33 93.18 92.99 92.82 92.65 92.52 92.39 92.25 92.02 91.75 91.49 91.30 91.05 90.79 90.51 90.26 90.00 89.75 89.53 89.29 89.09 88.87 88.60 88.32 88.04 87.75 87.42 87.05 86.87 87.36 87.62 87.92 88.20 88.46 88.70 88.88
95.41 95.31 95.18 95.02 94.85 94.71 94.58 94.49 94.38 94.28 94.34 93.57 93.67 93.64 93.56 93.48 93.32 93.17 93.00 92.83 92.66 92.52 92.37 92.24 91.99 91.75 91.54 91.29 91.03 90.77 90.47 90.19 89.89 89.62 89.36 89.11 88.87 88.64 88.37 88.10 87.87 87.54 87.26 86.16 87.38 87.59 87.89 88.18 88.48 88.73 88.93 89.08
95.46 95.33 95.22 95.05 94.90 94.76 94.67 94.56 94.44 94.43 93.82 93.83 93.74 93.68 93.57 93.46 93.33 93.17 93.02 92.86 92.69 92.50 92.34 92.18 92.00 91.79 91.54 91.26 91.01 90.74 90.43 90.09 89.79 89.47 89.20 88.90 88.67 88.35 88.15 87.90 87.62 87.33 86.81 87.40 87.57 87.79 88.12 88.45 88.73 88.97 89.13 89.25
95.53 95.41 95.26 95.11 94.98 94.86 94.75 94.61 94.61 94.26 93.96 93.88 93.84 93.75 93.65 93.52 93.37 93.26 93.10 92.89 92.69 92.49 92.31 92.16 92.00 91.79 91.50 91.24 90.97 90.67 90.34 90.01 89.68 89.32 89.03 88.73 88.41 88.12 87.85 87.62 87.40 86.96 87.41 87.63 87.85 88.08 88.38 88.71 88.98 89.20 89.34 89.45
95.54 95.40 95.29 95.18 95.06 94.93 94.82 94.68 94.70 94.03 94.12 94.04 93.96 93.85 93.73 93.61 93.52 93.44 93.18 93.01 92.85 92.70 92.50 92.25 92.00 91.75 91.43 91.18 90.90 90.57 90.24 89.90 89.56 89.21 88.86 88.54 88.23 87.91 87.67 87.42 87.19 87.48 87.66 87.90 88.14 88.38 88.66 88.96 89.22 89.42 89.56 89.63
95.57 95.44 95.35 95.26 95.15 95.01 94.88 94.83 94.86 94.29 94.26 94.19 94.03 93.92 93.79 93.68 93.58 93.49 93.18 93.11 92.99 92.82 92.60 92.31 92.00 91.68 91.36 91.09 90.77 90.45 90.13 89.79 89.44 89.10 88.75 88.40 88.10 87.79 87.48 87.02 87.56 87.73 87.97 88.18 88.44 88.68 88.96 89.21 89.44 89.63 89.75 89.81
95.67 95.55 95.42 95.32 95.19 95.09 94.92 94.99 94.56 94.42 94.30 94.22 94.06 93.92 93.81 93.68 93.59 93.46 93.21 93.21 93.09 92.86 92.55 92.24 91.94 91.57 91.23 90.93 90.65 90.31 89.97 89.66 89.29 89.00 88.66 88.36 88.00 87.65 87.02 87.65 87.83 88.04 88.21 88.46 88.73 89.00 89.22 89.45 89.67 89.84 89.95 90.03
95.76 95.65 95.52 95.38 95.27 95.13 94.93 95.01 93.72 94.46 94.38 94.25 94.07 93.96 93.82 93.67 93.53 93.37 93.19 93.15 93.01 92.80 92.54 92.20 91.85 91.49 91.08 90.74 90.46 90.14 89.80 89.49 89.19 88.88 88.60 88.20 87.96 87.41 87.29 87.82 88.06 88.29 88.53 88.76 89.04 89.30 89.50 89.69 89.89 90.04 90.16 90.22
95.79 95.67 95.54 95.44 95.30 95.17 94.97 94.98 94.42 94.53 94.43 94.26 94.10 93.96 93.82 93.65 93.46 93.27 93.12 93.07 92.92 92.69 92.39 92.07 91.72 91.36 90.92 90.53 90.21 89.93 89.62 89.29 88.98 88.71 88.45 88.36 87.72 86.92 87.70 87.93 88.24 88.57 88.84 89.09 89.32 89.55 89.77 89.93 90.06 90.21 90.36 90.40
