ncols 52
nrows 52
xllcorner 441856
yllcorner 5714944
cellsize 10
NODATA_value -9999
99.08 99.03 98.92 98.69 98.65 98.37 98.57 98.66 98.71 99.12 101.74 99.89 98.88 99.75 99.03 98.59 98.56 98.31 96.85 96.29 96.43 96.28 96.25 96.26 96.03 95.62 95.19 94.49 94.72 94.75 94.50 94.07 93.61 93.26 93.22 93.13 92.81 92.60 91.81 91.40 90.92 90.55 90.50 90.29 89.83 89.98 89.71 89.58 89.63 89.89 90.06 90.07
99.05 99.20 99.01 98.69 98.53 98.60 98.81 98.82 98.77 102.00 99.87 98.95 99.82 99.64 98.68 98.48 98.52 98.50 96.49 96.35 96.46 96.31 96.29 96.36 96.28 95.82 95.31 94.58 95.01 94.86 94.68 94.18 93.93 93.40 93.12 93.06 92.94 92.51 92.36 91.80 91.07 90.75 90.82 90.84 90.55 89.59 89.67 89.76 89.78 89.72 89.94 89.95
99.10 99.13 98.81 98.72 98.54 98.88 98.91 98.90 99.56 102.61 99.90 98.95 99.82 99.39 98.60 98.55 98.46 96.88 96.81 96.54 96.57 96.62 96.35 96.25 96.10 95.82 95.37 94.76 95.03 94.90 94.57 94.28 94.03 93.47 93.22 93.12 93.03 92.62 92.57 92.00 91.60 90.94 90.87 90.59 89.81 89.43 89.70 89.79 89.74 89.57 89.65 89.85
99.13 99.10 98.88 98.74 98.54 98.90 98.97 98.92 101.52 99.68 99.00 99.91 99.33 98.81 98.57 98.41 98.50 98.24 97.12 97.03 96.60 96.54 96.54 96.43 96.14 95.73 95.01 94.96 95.05 94.85 94.65 94.49 94.28 93.68 93.61 93.25 93.18 92.67 92.84 92.39 91.69 90.98 90.65 90.08 89.54 89.57 89.38 89.60 89.64 89.57 89.60 89.04
99.15 99.17 98.96 98.74 98.54 98.93 98.99 99.32 102.51 99.96 99.19 99.54 98.82 98.61 98.62 98.30 98.29 98.62 97.89 96.88 96.66 96.55 96.57 96.33 96.20 96.02 94.89 95.57 94.93 94.98 94.59 94.54 94.39 93.82 93.78 93.54 93.15 92.67 92.62 92.38 91.73 91.13 91.03 90.42 89.76 89.68 89.49 89.40 89.46 88.08 89.79 89.82
99.17 98.99 99.18 99.10 98.84 99.19 98.96 101.88 99.69 99.04 99.88 99.35 98.73 98.57 98.40 97.86 97.53 97.40 97.36 97.00 96.74 96.71 96.69 96.51 96.31 95.25 95.06 95.50 94.88 94.79 94.52 94.46 94.42 94.02 93.47 93.31 93.08 92.74 92.53 92.24 91.57 91.06 90.66 90.21 90.02 89.79 89.70 89.47 89.29 89.59 89.54 90.00
99.22 99.01 99.14 99.13 98.99 99.10 99.61 102.06 99.14 99.39 99.82 99.28 98.66 98.40 98.17 97.50 96.97 97.57 97.67 97.41 96.83 96.88 96.65 96.49 96.31 95.02 95.54 95.54 95.46 95.21 94.50 94.52 94.51 94.46 93.35 93.24 93.08 92.37 91.92 91.94 91.39 90.99 90.71 90.25 89.83 89.54 89.65 89.64 89.43 89.77 89.56 89.64
99.38 99.05 99.14 99.12 98.96 99.05 101.87 99.64 99.16 99.85 99.60 99.67 98.57 98.21 97.80 97.44 96.52 97.84 97.90 96.90 96.86 96.79 96.69 96.54 96.04 95.21 95.66 95.67 95.66 95.37 95.03 94.51 94.52 94.42 92.78 92.86 92.95 92.90 92.40 91.61 91.07 90.98 90.66 90.10 90.01 89.55 89.50 89.71 90.25 89.80 89.62 89.54
99.62 99.12 99.14 99.13 98.83 99.11 102.16 99.04 99.32 99.74 99.19 98.73 98.47 97.58 97.50 97.36 97.40 97.42 97.38 96.85 96.74 96.72 96.50 96.32 95.20 95.41 95.56 95.47 95.40 95.36 94.87 94.24 93.76 93.95 92.82 92.74 92.53 92.61 92.35 91.99 90.94 90.62 90.34 89.98 89.52 89.31 89.70 89.97 89.99 90.07 89.75 89.74
99.53 99.10 99.13 99.10 98.67 101.25 99.85 99.21 99.27 99.10 98.88 98.57 97.88 97.63 97.43 97.34 97.44 97.20 96.95 96.90 96.70 96.72 96.22 95.85 95.29 96.12 96.01 95.27 95.19 94.87 94.48 93.83 93.30 92.86 92.75 92.46 92.43 92.34 92.26 91.81 90.73 90.37 90.01 89.61 89.29 89.79 89.83 89.65 89.82 89.63 89.74 89.87
99.51 99.06 99.13 99.12 99.25 101.82 98.88 98.95 99.12 98.75 98.53 98.43 97.67 97.57 97.45 97.46 97.17 96.93 96.82 96.66 96.63 96.20 96.11 95.37 95.86 96.74 95.87 95.31 95.29 94.66 94.21 93.58 93.08 92.70 92.44 92.31 92.50 92.21 91.94 91.17 90.78 90.17 89.87 89.40 89.49 89.89 89.90 88.60 89.65 89.43 90.07 90.62
99.61 99.29 99.00 97.42 100.76 99.64 99.20 100.01 99.27 98.61 98.32 97.96 97.78 97.65 97.56 97.40 97.37 97.10 96.78 96.43 96.38 96.20 96.02 95.21 95.94 96.84 95.74 95.37 95.48 94.50 94.07 93.46 92.99 92.64 92.40 92.29 92.42 91.99 91.93 91.30 90.84 90.40 89.43 89.36 89.33 89.45 89.38 89.57 89.75 89.42 90.10 90.51
99.49 99.18 98.81 99.21 101.61 99.08 98.74 98.86 98.73 98.52 98.07 98.07 97.92 97.85 97.68 97.56 97.43 97.00 96.77 96.44 96.07 95.82 95.34 95.70 95.93 95.94 95.75 95.50 95.23 94.83 94.05 93.40 92.89 92.69 92.49 92.50 92.12 91.57 90.93 90.44 90.13 89.84 89.22 88.34 88.47 89.34 89.80 89.76 89.94 89.62 89.87 90.22
98.90 98.88 99.01 100.66 99.48 99.16 99.40 98.84 98.75 98.63 97.92 97.61 98.08 97.73 97.64 97.57 97.41 96.97 96.62 96.42 96.10 95.75 95.12 95.73 95.79 95.79 95.72 95.50 95.08 95.01 94.71 94.28 94.08 93.64 92.61 92.57 90.96 90.85 90.61 90.21 89.77 89.37 89.43 89.57 90.01 89.82 89.80 89.87 89.95 89.90 89.91 90.49
99.18 99.18 99.15 101.24 99.18 99.19 98.72 98.70 98.60 98.48 97.97 97.83 97.27 96.99 96.65 96.76 98.33 96.88 96.78 96.59 96.01 95.41 95.10 95.91 95.84 95.81 95.60 95.06 92.84 92.58 92.85 93.39 93.64 93.60 93.60 92.87 90.92 90.86 90.43 90.06 89.61 89.51 88.77 90.19 90.58 90.46 89.94 89.62 89.76 89.93 90.07 90.33
99.29 99.34 101.36 98.73 99.25 98.52 98.48 98.75 98.74 98.46 97.93 97.88 97.69 97.17 97.02 96.48 96.10 95.74 95.48 95.49 95.73 95.40 95.03 95.56 95.69 95.54 95.50 95.35 94.87 94.54 93.73 92.12 91.86 91.91 92.10 91.45 91.12 90.60 90.24 89.90 89.53 89.57 89.73 90.28 90.54 90.31 90.01 89.90 90.18 90.62 90.92 90.56
99.26 99.29 100.78 99.34 99.29 98.71 98.41 98.69 98.78 98.36 97.92 97.88 97.93 97.21 97.14 97.15 96.92 96.13 95.61 95.59 95.46 95.28 94.96 94.68 94.52 94.95 94.44 94.60 94.23 94.08 93.93 93.67 93.43 93.00 91.45 91.10 90.76 90.57 90.26 89.79 89.81 89.22 89.99 90.00 89.93 89.79 89.86 90.10 90.29 90.76 90.83 90.52
99.39 101.54 98.83 99.22 98.92 98.82 99.43 99.00 98.60 98.40 98.19 98.00 98.23 97.39 97.19 97.51 97.74 96.88 96.34 95.74 95.49 95.31 95.01 94.43 93.92 93.45 93.03 93.26 93.05 93.23 93.20 93.15 93.06 92.68 91.69 90.98 90.72 90.44 89.95 89.72 88.38 89.49 90.12 90.23 90.39 90.40 90.38 90.40 90.61 90.79 90.93 90.55
99.58 99.97 99.32 99.35 99.47 98.81 98.99 98.95 98.74 98.54 98.55 98.45 98.74 97.32 97.84 97.79 97.74 97.76 97.09 96.99 95.85 95.29 94.71 94.27 94.35 93.18 92.96 92.42 92.15 92.00 92.08 92.12 92.21 91.94 91.29 90.51 90.53 90.46 90.08 89.90 89.74 89.48 89.40 90.20 90.45 90.41 90.21 90.36 90.53 90.82 90.97 90.65
98.55 99.22 98.70 99.49 99.35 99.17 98.81 98.99 98.73 98.47 98.50 98.77 98.09 97.89 97.82 97.79 97.66 97.85 97.31 97.00 96.76 95.35 94.71 94.96 94.50 93.78 93.51 92.97 92.68 91.90 91.53 91.25 91.14 91.06 90.67 90.44 90.41 90.45 90.01 89.96 88.79 89.46 89.57 90.07 90.22 90.35 90.47 90.57 90.65 90.72 90.90 90.80
95.01 98.54 99.72 99.77 99.53 99.22 98.77 98.82 98.73 98.76 98.95 98.59 97.97 97.77 97.79 97.74 97.69 97.97 97.31 97.08 96.65 95.55 95.15 94.97 94.29 94.26 94.06 93.84 93.42 92.68 92.08 91.32 91.03 90.75 90.57 90.42 90.34 90.39 90.00 90.12 89.87 88.97 89.80 90.06 90.39 90.43 90.43 90.47 90.69 90.74 90.76 90.78
93.36 96.81 99.78 99.53 99.47 99.30 99.17 99.06 98.89 98.74 98.59 98.41 98.32 97.91 97.85 97.84 97.66 97.37 97.11 97.02 95.52 95.77 95.92 95.83 95.44 95.31 94.37 94.37 93.69 92.82 92.27 91.92 91.22 90.93 90.85 90.33 90.21 90.21 90.12 90.16 90.09 88.60 89.82 90.10 90.38 90.31 90.31 90.30 90.40 90.52 90.57 90.60
93.28 94.13 99.18 100.41 99.48 99.33 99.15 99.06 98.88 98.74 99.11 98.44 98.35 97.97 97.86 97.68 97.36 97.07 96.73 96.50 95.75 96.05 96.07 95.92 95.68 95.35 95.04 94.93 94.82 93.73 92.51 92.21 91.70 91.48 91.39 90.64 90.40 90.26 90.23 90.12 90.05 90.07 88.73 90.19 90.32 90.56 90.63 90.97 91.13 92.85 93.67 91.85
94.87 93.57 97.32 99.67 99.62 99.94 99.24 99.12 99.01 99.09 98.70 98.39 98.33 98.12 98.03 97.71 97.50 96.91 96.10 95.79 96.25 96.26 96.06 95.83 95.57 94.98 94.88 94.80 94.61 93.92 92.81 92.24 91.68 91.44 91.39 91.06 90.54 90.38 90.43 90.48 90.21 90.48 89.05 90.13 90.58 91.19 91.25 91.65 92.65 93.94 94.47 92.72
98.43 93.92 94.46 99.32 99.44 99.29 99.18 99.11 99.24 99.21 98.77 98.68 98.35 98.12 97.73 97.57 97.54 96.69 96.01 96.18 96.30 96.11 96.11 95.72 95.48 95.15 94.90 94.77 94.38 93.96 92.89 91.74 91.76 90.93 90.60 89.98 90.01 90.15 90.29 90.41 90.23 90.58 89.01 90.14 90.78 91.58 91.96 92.21 93.68 94.09 94.44 94.36
100.13 96.28 94.51 96.99 99.65 99.26 99.21 99.14 98.96 98.79 98.78 98.52 98.21 97.91 97.58 97.07 96.60 96.24 96.39 96.55 96.32 96.17 96.21 95.65 95.35 95.15 94.86 94.53 94.22 93.47 92.65 91.84 91.79 90.80 90.54 89.89 89.77 89.93 89.94 90.21 90.21 90.42 88.51 90.55 91.07 91.52 92.56 92.91 93.81 94.16 94.49 94.35
100.21 99.64 95.04 95.89 99.88 99.47 99.32 99.16 99.31 98.96 98.90 98.62 98.27 97.94 97.64 96.73 96.48 96.74 96.86 96.97 96.28 96.40 96.04 96.51 95.76 94.86 94.58 94.45 94.20 93.14 92.25 91.93 91.81 91.24 90.68 90.40 90.25 90.07 89.92 90.07 90.26 89.86 90.00 90.56 91.29 92.22 93.04 93.12 93.82 94.17 94.34 94.35
100.18 100.11 96.66 95.89 99.60 99.59 99.58 99.29 98.96 98.97 98.90 98.55 98.26 97.86 96.79 96.78 96.82 97.00 97.05 97.43 96.19 96.01 95.82 95.19 94.95 94.75 94.52 94.33 93.48 93.05 92.34 91.94 91.85 91.24 91.04 91.43 90.63 90.42 90.17 90.24 90.62 88.57 90.42 90.62 91.26 92.48 93.15 93.22 93.67 94.12 94.23 94.45
100.12 100.06 99.21 96.34 99.18 99.49 99.49 99.24 98.88 98.69 98.54 98.40 97.07 97.03 97.30 97.29 96.96 97.08 98.88 97.86 95.97 95.69 95.51 95.01 94.89 94.72 94.64 94.28 93.44 93.07 92.68 91.95 91.85 91.39 91.60 91.65 91.17 90.73 90.61 90.69 88.54 90.26 90.22 90.60 91.38 92.94 93.40 93.48 93.57 94.02 94.30 94.21
100.00 99.93 99.90 96.90 97.31 99.27 99.13 98.96 98.96 98.81 97.52 97.32 97.42 98.00 97.75 97.45 97.19 96.98 96.96 96.38 95.82 95.36 95.09 94.88 94.74 94.44 94.14 94.01 93.60 93.21 92.80 91.99 91.87 91.53 91.69 91.56 91.50 91.38 91.46 90.76 92.01 90.12 90.49 89.54 91.05 92.03 93.29 93.19 93.34 93.91 94.07 94.44
99.94 99.77 99.68 97.68 97.61 99.17 98.93 98.14 97.81 97.75 98.04 97.94 98.06 98.01 97.94 97.61 97.31 97.11 97.06 96.20 95.82 95.44 95.09 94.66 94.29 94.04 93.84 93.65 93.48 93.10 92.80 92.10 91.92 91.66 91.45 91.44 90.72 90.72 90.72 92.04 91.92 91.04 90.15 90.39 90.81 91.42 91.97 92.44 93.26 93.89 94.26 94.86
99.88 99.73 99.58 98.47 98.21 98.22 98.21 98.18 98.54 98.99 98.88 98.52 98.11 97.99 97.72 98.33 100.74 97.31 96.91 98.81 95.89 95.45 95.03 94.61 94.28 94.02 93.71 93.34 93.03 92.85 92.82 92.36 92.05 91.81 91.56 90.83 90.74 90.86 91.16 91.90 91.93 91.12 90.32 90.43 90.90 91.57 91.89 91.68 93.65 94.23 94.42 94.94
99.79 99.60 99.41 98.82 98.65 98.61 98.86 98.93 99.28 99.15 99.07 98.27 98.11 98.79 100.73 97.97 97.59 97.28 96.95 96.80 96.90 95.74 96.56 95.74 94.43 94.01 93.62 93.25 92.99 92.68 92.90 92.53 92.74 92.18 90.80 90.76 90.75 91.89 91.67 91.71 91.67 91.08 91.33 89.53 90.40 91.14 91.63 92.66 94.16 94.22 94.33 94.74
99.80 99.34 99.08 99.02 99.35 99.35 99.69 99.57 99.48 99.32 99.16 98.17 100.87 98.59 97.71 97.64 97.64 97.32 97.06 96.56 96.09 95.67 95.29 94.94 96.24 93.94 93.72 93.49 93.11 92.86 92.90 92.90 92.80 92.18 91.17 90.71 90.89 91.80 91.76 91.18 91.76 91.38 91.13 90.16 90.05 90.89 91.38 91.90 94.24 93.94 94.58 94.66
99.52 99.43 99.73 100.03 99.98 99.97 99.90 99.85 99.61 99.42 98.95 98.38 101.57 97.92 97.85 97.67 97.41 97.32 97.17 96.49 96.04 95.57 95.20 94.89 96.89 93.95 93.59 93.42 93.21 93.00 92.74 93.72 93.00 91.97 91.97 92.06 91.75 91.83 91.87 91.68 91.41 91.38 91.29 90.58 90.60 90.61 91.18 91.84 93.35 93.82 94.61 95.33
100.12 100.10 100.19 100.15 100.15 100.17 100.08 99.95 99.74 99.48 98.62 99.35 98.88 97.99 97.95 97.60 97.18 96.95 96.90 96.36 96.39 96.24 95.15 94.79 96.90 93.88 93.56 93.23 93.17 93.51 92.65 92.75 92.57 91.31 92.05 91.99 91.83 91.86 91.89 91.94 91.78 91.22 91.54 90.92 90.74 90.10 91.51 92.14 92.17 93.71 94.68 95.42
100.24 100.05 100.06 99.94 99.87 99.85 99.87 100.06 99.90 99.66 98.47 101.47 98.09 98.05 97.94 97.50 96.96 96.80 96.45 96.25 96.39 96.63 96.39 95.61 96.77 93.94 93.80 93.48 93.15 94.65 92.76 92.28 92.24 91.61 91.90 92.05 92.30 92.11 92.08 92.02 91.89 91.82 91.95 91.19 91.25 91.44 90.99 92.52 92.05 93.45 94.15 95.38
100.36 100.12 99.96 99.81 99.71 99.64 99.62 99.64 99.75 99.60 98.59 101.71 98.03 97.95 97.89 97.42 96.90 96.78 96.56 96.11 96.38 96.38 95.85 94.90 95.19 96.21 93.71 93.30 93.09 95.34 92.72 92.54 91.33 91.63 92.10 92.19 92.40 92.46 92.55 92.46 92.14 91.87 91.76 91.90 91.36 91.41 90.51 91.36 92.87 92.68 93.88 95.50
100.53 100.13 100.02 99.76 99.62 99.52 99.46 99.44 99.71 98.82 99.35 99.14 98.04 97.98 97.80 97.43 97.04 96.72 96.27 96.22 96.44 96.47 96.24 94.71 94.50 94.12 94.82 95.79 95.46 93.08 92.69 92.35 91.96 92.18 92.37 92.49 92.83 93.10 92.89 92.72 92.45 92.16 92.06 91.21 92.11 92.47 91.82 91.47 91.96 92.55 93.68 93.61
100.52 99.90 99.84 99.73 99.55 99.46 99.37 99.32 99.75 98.75 101.35 98.03 97.97 97.95 97.67 97.39 97.06 96.60 96.16 96.34 96.49 96.60 96.22 94.65 94.41 94.12 93.72 93.37 93.11 92.89 92.63 92.02 92.20 92.47 92.73 93.08 93.26 93.45 93.34 93.14 92.82 92.54 92.27 92.07 91.89 92.49 91.81 90.61 92.51 92.77 92.80 92.79
100.46 99.95 99.75 99.60 99.45 99.50 99.37 99.27 99.56 98.74 101.34 98.05 98.04 98.02 97.54 97.29 97.20 96.97 96.17 96.49 96.54 96.64 95.04 94.69 94.22 93.97 93.64 93.24 93.09 92.78 92.72 91.75 92.75 92.88 93.15 93.54 93.78 93.89 93.78 93.56 93.22 92.85 92.52 92.29 92.10 91.23 91.96 91.89 92.01 92.71 92.72 93.07
100.48 99.84 99.65 99.52 99.27 99.26 99.23 99.35 99.01 99.77 98.80 97.90 97.88 97.88 97.44 96.97 96.80 96.37 96.21 96.40 96.54 96.60 96.35 94.92 94.67 94.14 93.40 93.28 93.00 92.66 92.59 92.73 93.07 93.18 93.63 93.94 94.14 94.20 94.08 93.84 93.54 93.18 92.89 92.58 92.27 92.25 91.93 91.96 91.83 92.39 92.88 93.79
100.39 99.87 99.67 99.49 99.34 99.18 99.12 99.61 98.75 101.74 98.20 97.94 97.77 97.50 97.21 96.90 96.82 96.27 96.39 96.51 96.53 96.51 95.86 94.71 94.51 94.03 93.60 92.85 92.35 92.61 92.13 93.14 93.27 93.57 93.96 94.22 94.39 94.47 94.31 94.08 93.81 93.52 93.18 92.84 92.49 92.16 91.36 91.96 90.83 92.75 93.12 93.66
100.15 100.00 99.71 99.58 99.36 99.14 99.10 99.53 98.86 100.81 98.08 97.78 97.74 97.35 97.10 96.88 96.76 96.30 96.55 96.60 96.76 96.27 95.32 94.62 94.47 93.55 93.40 92.46 92.38 92.50 92.79 93.35 93.50 93.84 94.13 94.39 94.60 94.62 94.55 94.24 94.01 93.70 93.43 93.06 92.68 92.30 92.11 91.95 92.17 92.74 93.64 93.80
100.06 99.79 99.73 99.49 99.42 99.31 99.06 98.95 100.10 98.88 98.17 97.81 97.65 97.46 97.18 96.79 96.39 96.45 96.57 96.76 96.72 96.08 94.87 94.42 94.00 93.74 92.89 92.40 92.79 92.51 93.15 93.36 93.62 93.96 94.26 94.52 94.65 94.68 94.63 94.47 94.23 93.86 93.58 93.23 92.85 92.53 92.26 92.19 92.20 91.86 92.92 93.42
99.91 99.72 99.59 99.40 99.34 99.32 99.11 98.87 102.18 99.19 98.15 97.84 97.62 97.33 97.24 97.04 96.35 96.32 96.43 96.43 96.18 95.46 94.75 94.23 93.82 93.52 92.60 92.40 92.92 92.64 93.47 93.46 93.68 94.05 94.35 94.55 94.66 94.69 94.66 94.51 94.33 94.10 93.78 93.44 93.05 92.73 92.47 92.43 91.26 92.20 91.61 93.41
100.07 99.88 99.78 99.38 99.36 99.23 99.04 98.77 101.04 98.15 97.92 97.81 97.64 97.24 97.23 96.59 96.45 96.43 96.68 96.58 95.85 94.82 94.53 94.24 93.84 93.58 92.51 92.42 93.91 92.84 93.50 93.53 93.76 94.15 94.43 94.62 94.73 94.76 94.74 94.60 94.43 94.24 93.96 93.68 93.33 92.98 92.70 92.54 92.46 92.20 92.41 93.20
100.02 99.91 99.88 99.66 99.78 99.39 98.97 99.23 98.56 98.01 97.97 97.73 97.49 97.25 96.85 96.45 96.64 96.69 96.52 96.56 95.35 94.77 94.47 94.20 94.02 93.69 92.54 93.09 93.09 92.32 93.64 93.68 93.93 94.30 94.58 94.75 94.84 94.87 94.83 94.72 94.57 94.40 94.14 93.93 93.57 93.21 92.93 92.69 92.58 91.52 92.52 92.11
100.03 100.05 99.77 99.56 99.39 99.17 98.89 98.41 98.17 97.97 97.81 97.61 97.32 97.18 96.58 96.56 96.85 96.86 96.96 95.76 95.47 94.68 94.44 94.10 94.09 93.74 93.35 93.32 93.36 93.04 93.78 93.86 94.16 94.47 94.73 94.88 94.96 94.99 94.96 94.86 94.75 94.58 94.37 94.12 93.79 93.41 93.05 92.85 92.60 92.43 92.65 92.48
99.90 99.77 99.71 99.59 99.43 99.27 99.06 98.33 98.27 98.09 97.74 97.42 97.04 97.10 96.52 96.71 96.50 96.83 96.95 95.53 95.51 95.51 94.60 94.30 94.11 93.75 93.40 93.34 93.27 93.80 93.99 94.11 94.42 94.69 94.91 95.03 95.11 95.14 95.10 95.02 94.91 94.76 94.56 94.33 94.01 93.62 93.26 92.96 92.77 92.62 92.42 92.58
99.85 99.65 99.35 99.37 99.25 99.11 98.68 98.31 98.48 98.00 97.81 97.34 97.12 96.81 96.68 96.76 96.14 95.96 96.12 95.61 95.65 94.96 94.31 94.27 93.97 93.75 93.77 93.39 92.81 94.18 94.20 94.43 94.69 94.93 95.09 95.21 95.26 95.29 95.25 95.17 95.06 94.91 94.71 94.49 94.21 93.86 93.46 93.14 92.93 92.73 92.30 92.77
99.94 99.79 99.23 99.60 99.39 99.10 98.81 98.37 98.25 97.83 97.72 97.09 97.07 96.64 96.79 96.89 96.79 96.91 95.49 95.43 95.47 94.72 94.43 94.21 93.93 93.73 93.53 92.63 94.26 94.31 94.40 94.70 94.96 95.15 95.27 95.35 95.40 95.38 95.36 95.26 95.17 95.01 94.83 94.61 94.37 94.04 93.66 93.32 93.11 92.88 92.65 92.75
