ncols 52
nrows 52
xllcorner 441856
yllcorner 5713920
cellsize 10
NODATA_value -9999
102.33 101.92 101.46 101.01 100.60 100.33 100.17 98.54 99.87 100.17 100.56 101.19 101.96 102.71 103.47 104.08 104.60 104.92 105.17 105.31 105.46 105.51 105.53 105.49 105.61 105.47 105.43 105.28 105.24 105.21 105.08 104.95 104.84 104.66 104.53 104.39 104.29 101.90 100.79 101.10 101.47 102.33 102.60 102.97 103.75 103.46 102.93 103.12 100.07 101.02 103.11 102.95
102.36 102.02 101.63 101.23 100.85 100.52 100.29 99.29 99.89 100.17 100.49 101.08 101.83 102.61 103.40 104.10 104.68 105.09 105.35 105.47 105.60 105.64 105.61 105.58 105.74 105.64 105.57 105.44 105.40 105.34 105.26 105.08 104.98 104.77 104.80 102.16 101.04 101.23 101.43 102.04 102.62 103.29 103.88 104.02 103.99 103.90 103.85 103.60 100.91 100.99 103.33 103.20
102.47 102.19 101.88 101.48 101.10 100.76 100.44 100.31 99.82 100.21 100.50 101.04 101.79 102.62 103.40 104.11 104.71 105.17 105.43 105.58 105.69 105.75 105.73 105.73 105.88 105.82 105.71 105.62 105.54 105.46 105.38 105.21 105.01 102.14 101.53 101.72 101.82 102.22 102.80 103.53 103.95 104.18 104.31 104.22 104.17 104.10 103.96 103.77 102.06 101.34 103.45 103.44
102.60 102.37 102.08 101.72 101.35 100.95 100.59 100.43 99.31 100.28 100.54 101.10 101.84 102.60 103.36 104.10 104.71 105.21 105.52 105.70 105.79 105.85 105.91 105.90 105.99 105.92 105.90 105.73 105.71 105.60 105.20 102.61 102.45 102.41 102.67 103.18 103.38 103.74 103.98 104.39 104.73 104.73 104.57 104.53 104.49 104.39 104.29 104.06 102.93 101.63 103.82 103.77
102.74 102.53 102.25 101.97 101.63 101.23 100.74 100.51 99.42 100.40 100.64 101.17 101.81 102.54 103.38 104.14 104.81 105.32 105.64 105.79 105.89 105.98 106.03 106.01 106.07 106.03 105.94 105.76 105.27 103.18 103.21 103.27 103.71 103.93 104.26 104.65 104.79 105.02 104.97 104.98 105.01 104.93 104.82 104.77 104.73 104.68 104.59 104.31 103.86 101.90 103.99 104.15
102.91 102.74 102.51 102.16 101.78 101.35 100.85 100.55 99.18 100.44 100.71 101.18 101.83 102.63 103.45 104.18 104.86 105.32 105.63 105.80 105.89 105.95 106.01 105.99 106.03 106.13 105.79 104.24 104.17 104.29 104.56 104.52 105.03 105.34 105.50 105.53 105.47 105.34 105.32 105.26 105.26 105.22 105.12 105.08 105.00 104.91 104.79 104.56 104.44 102.17 104.18 104.38
103.08 102.89 102.63 102.25 101.82 101.32 100.91 100.67 99.24 100.49 100.71 101.25 101.93 102.69 103.46 104.11 104.67 105.10 105.40 105.60 105.65 105.67 105.71 105.70 105.98 106.12 104.84 105.35 105.24 105.49 105.77 105.66 105.95 105.96 105.89 105.85 105.78 105.72 105.63 105.54 105.48 105.40 105.31 105.24 105.15 105.06 104.96 104.78 104.79 102.42 104.36 104.58
103.14 102.93 102.64 102.25 101.86 101.37 101.00 100.87 99.72 100.59 100.85 101.36 102.01 102.70 103.37 103.89 104.32 104.67 104.98 105.17 105.23 105.26 105.39 105.61 106.06 106.40 106.46 106.52 106.54 106.54 106.47 106.40 106.30 106.24 106.13 106.03 105.95 105.85 105.77 105.70 105.62 105.54 105.45 105.36 105.26 105.18 105.05 104.99 104.83 102.65 104.50 104.75
103.18 102.96 102.64 102.25 101.81 101.40 101.04 100.80 100.44 100.69 100.99 101.49 102.03 102.64 103.15 103.50 103.79 104.10 104.42 104.72 104.94 105.19 105.53 105.86 106.39 106.80 106.68 106.66 106.63 106.63 106.61 106.54 106.47 106.40 106.35 106.25 106.16 106.06 105.95 105.89 105.79 105.69 105.67 105.55 105.43 105.36 105.24 105.16 104.97 102.85 104.36 104.90
103.18 102.97 102.66 102.24 101.81 101.40 101.09 99.51 100.66 100.79 101.13 101.52 101.96 102.37 102.73 102.98 103.25 103.64 104.12 104.64 105.14 105.63 106.04 106.35 106.80 107.04 106.98 107.01 106.99 106.98 106.96 106.91 106.83 106.77 106.69 106.62 106.51 106.40 106.28 106.24 106.14 105.97 105.86 105.79 105.65 105.57 105.45 105.34 105.17 103.15 104.54 105.07
103.17 102.89 102.54 102.17 101.79 101.37 101.11 100.50 100.76 100.88 101.14 101.42 101.71 102.03 102.35 102.70 103.15 103.71 104.31 105.01 105.68 106.19 106.54 106.82 107.16 107.31 107.22 107.21 107.23 107.21 107.18 107.10 107.01 106.96 106.88 106.78 106.68 106.57 106.49 106.40 106.31 106.19 106.08 105.97 105.88 105.79 105.67 105.57 105.32 103.37 104.36 105.24
103.09 102.79 102.45 102.06 101.69 101.32 101.04 100.68 100.79 100.89 101.09 101.30 101.57 101.94 102.39 102.92 103.50 104.11 104.76 105.47 106.10 106.55 106.86 107.14 107.48 107.46 107.49 107.43 107.45 107.44 107.41 107.36 107.29 107.22 107.13 107.03 106.87 106.76 106.66 106.57 106.47 106.35 106.22 106.12 106.01 105.90 105.77 105.69 105.53 103.58 104.61 105.41
102.95 102.66 102.31 101.94 101.60 101.26 100.68 100.70 100.74 100.90 101.12 101.40 101.80 102.28 102.79 103.36 103.93 104.50 105.13 105.76 106.30 106.76 107.10 107.35 107.69 107.65 107.60 107.58 107.58 107.58 107.57 107.50 107.44 107.38 107.29 107.19 107.04 106.93 106.83 106.74 106.64 106.52 106.39 106.26 106.15 106.01 105.89 105.85 105.68 103.77 105.25 105.46
102.83 102.52 102.16 101.80 101.41 101.08 99.91 100.76 100.80 101.08 101.42 101.85 102.29 102.75 103.25 103.76 104.31 104.85 105.40 105.97 106.49 106.91 107.21 107.49 107.76 107.82 107.77 107.75 107.77 107.78 107.75 107.71 107.67 107.61 107.53 107.41 107.29 107.18 107.07 106.97 106.85 106.73 106.60 106.49 106.35 106.21 106.06 105.97 105.82 103.89 105.52 105.62
102.65 102.31 101.90 101.46 101.07 100.79 100.59 100.91 101.13 101.47 101.90 102.29 102.68 103.11 103.57 104.06 104.59 105.12 105.63 106.15 106.64 107.03 107.32 107.65 107.87 107.96 107.88 107.93 107.92 107.92 107.90 107.86 107.82 107.78 107.69 107.57 107.45 107.34 107.22 107.11 107.01 106.89 106.76 106.63 106.50 106.33 106.18 106.12 105.96 104.24 105.67 105.85
102.36 101.93 101.47 101.08 100.85 100.59 100.96 101.16 101.46 101.85 102.21 102.56 102.93 103.33 103.75 104.28 104.79 105.29 105.79 106.24 106.71 107.11 107.39 107.71 107.96 108.04 107.93 108.03 108.03 108.02 108.00 107.97 107.92 107.90 107.82 107.71 107.60 107.49 107.36 107.28 107.18 107.07 106.94 106.80 106.65 106.49 106.35 106.35 106.14 104.44 105.78 105.93
101.94 101.52 101.15 100.94 100.75 100.62 101.17 101.35 101.71 102.03 102.36 102.71 103.07 103.48 103.92 104.44 104.94 105.41 105.86 106.28 106.73 107.14 107.41 107.81 108.13 108.10 108.06 108.10 108.11 108.10 108.10 108.08 108.04 108.01 107.94 107.85 107.74 107.63 107.54 107.44 107.34 107.23 107.10 106.97 106.82 106.67 106.53 106.46 106.34 104.67 105.92 106.01
101.53 101.21 101.02 100.91 100.78 100.21 101.29 101.49 101.80 102.11 102.46 102.80 103.17 103.61 104.04 104.52 105.03 105.46 105.88 106.30 106.73 107.13 107.46 107.89 108.23 108.26 108.19 108.24 108.26 108.26 108.25 108.23 108.22 108.18 108.10 108.01 107.91 107.79 107.69 107.58 107.48 107.36 107.26 107.14 106.99 106.84 106.74 106.63 106.56 104.92 106.10 106.15
101.34 101.22 101.13 100.99 100.85 101.12 101.42 101.62 101.91 102.24 102.57 102.90 103.30 103.72 104.12 104.60 105.06 105.47 105.86 106.31 106.76 107.18 107.50 107.92 108.28 108.29 108.27 108.36 108.41 108.41 108.42 108.40 108.38 108.35 108.29 108.20 108.08 107.97 107.84 107.74 107.62 107.50 107.40 107.27 107.14 106.99 106.86 106.81 106.68 105.20 105.78 106.08
101.41 101.38 101.30 101.08 100.92 101.48 101.57 101.83 102.15 102.41 102.71 103.04 103.41 103.79 104.21 104.65 105.07 105.51 105.91 106.33 106.83 107.24 107.50 107.94 108.32 108.29 108.36 108.47 108.53 108.55 108.55 108.52 108.50 108.48 108.44 108.34 108.24 108.11 107.99 107.88 107.76 107.64 107.51 107.40 107.26 107.14 107.02 107.03 106.86 105.46 106.50 106.69
101.62 101.56 101.42 101.02 101.02 101.75 101.81 102.08 102.30 102.53 102.84 103.13 103.49 103.86 104.24 104.67 105.07 105.51 105.94 106.37 106.86 107.30 107.58 108.01 108.38 108.38 108.48 108.59 108.67 108.68 108.72 108.72 108.68 108.67 108.61 108.55 108.44 108.32 108.19 108.06 107.94 107.83 107.71 107.60 107.51 107.37 107.29 107.29 106.97 105.66 107.04 107.72
101.87 101.72 101.43 101.10 100.69 101.80 101.89 102.08 102.28 102.57 102.83 103.11 103.46 103.79 104.19 104.61 105.04 105.47 105.91 106.38 106.85 107.28 107.65 108.14 108.43 108.49 108.60 108.75 108.82 108.86 108.86 108.88 108.87 108.84 108.81 108.73 108.63 108.51 108.39 108.24 108.09 108.00 107.88 107.79 107.69 107.55 107.41 107.41 107.17 105.86 107.36 108.78
101.93 101.75 101.44 101.33 101.55 101.79 101.90 102.11 102.33 102.61 102.87 103.18 103.51 103.87 104.29 104.71 105.12 105.57 106.00 106.42 106.90 107.37 107.80 108.32 108.53 108.54 108.69 108.85 108.96 109.00 109.02 109.01 109.00 108.97 108.96 108.92 108.81 108.69 108.57 108.46 108.32 108.21 108.07 107.98 107.86 107.77 107.61 107.62 107.47 106.07 107.85 109.72
101.94 101.75 101.45 101.38 101.64 101.73 101.92 102.17 102.38 102.62 102.91 103.23 103.57 103.96 104.35 104.80 105.21 105.61 106.02 106.45 106.92 107.44 107.93 108.44 108.60 108.62 108.85 109.03 109.17 109.20 109.21 109.18 109.17 109.16 109.14 109.10 109.01 108.87 108.76 108.63 108.51 108.38 108.25 108.13 108.04 107.92 107.78 107.76 107.66 106.27 108.04 109.95
101.95 101.77 101.51 101.54 101.68 101.77 101.99 102.19 102.39 102.68 102.94 103.26 103.63 104.03 104.46 104.87 105.25 105.66 106.06 106.50 106.98 107.46 107.94 108.54 108.72 108.81 109.04 109.25 109.39 109.44 109.47 109.44 109.38 109.34 109.34 109.29 109.21 109.07 108.96 108.85 108.71 108.57 108.46 108.34 108.22 108.12 107.97 107.90 107.88 106.50 108.43 109.85
101.93 101.79 101.66 101.32 101.76 101.85 102.07 102.28 102.48 102.74 103.00 103.36 103.76 104.14 104.59 104.97 105.33 105.75 106.12 106.56 107.06 107.48 107.95 108.61 108.80 108.89 109.13 109.35 109.48 109.55 109.57 109.57 109.52 109.50 109.47 109.45 109.38 109.26 109.15 109.04 108.90 108.78 108.64 108.52 108.40 108.29 108.10 108.10 108.04 106.72 108.76 107.87
101.99 101.89 101.90 101.64 101.82 101.96 102.14 102.37 102.56 102.85 103.18 103.55 103.95 104.36 104.79 105.15 105.54 105.88 106.26 106.72 107.18 107.57 108.05 108.70 108.82 108.94 109.18 109.38 109.51 109.57 109.58 109.61 109.60 109.61 109.59 109.57 109.53 109.44 109.32 109.21 109.06 108.95 108.85 108.71 108.59 108.46 108.28 108.24 108.19 106.93 108.35 107.76
101.99 102.00 102.02 101.81 101.87 101.97 102.20 102.42 102.66 102.99 103.35 103.77 104.21 104.61 105.00 105.38 105.75 106.08 106.46 106.88 107.33 107.71 108.19 108.75 108.90 109.02 109.27 109.47 109.63 109.68 109.69 109.72 109.73 109.75 109.75 109.74 109.69 109.58 109.47 109.34 109.20 109.10 108.98 108.86 108.76 108.62 108.44 108.46 108.40 107.10 108.38 107.87
102.12 102.15 102.15 102.01 101.98 102.07 102.28 102.51 102.81 103.15 103.54 104.00 104.45 104.83 105.23 105.58 105.93 106.29 106.61 106.98 107.43 107.81 108.31 108.84 108.96 109.10 109.33 109.53 109.70 109.79 109.81 109.79 109.81 109.83 109.88 109.85 109.81 109.73 109.62 109.48 109.35 109.24 109.14 109.03 108.91 108.79 108.65 108.65 108.63 107.30 108.40 108.04
102.24 102.24 101.79 102.10 102.09 102.21 102.39 102.62 102.93 103.30 103.70 104.17 104.60 105.00 105.36 105.72 106.04 106.38 106.72 107.09 107.49 107.88 108.40 108.94 109.07 109.22 109.43 109.62 109.78 109.88 109.91 109.92 109.94 109.96 109.99 110.01 109.99 109.91 109.81 109.68 109.56 109.44 109.35 109.22 109.12 109.01 108.88 108.85 108.90 107.51 108.98 108.29
102.29 102.38 102.18 102.17 102.15 102.27 102.46 102.71 103.05 103.45 103.87 104.30 104.73 105.11 105.45 105.80 106.14 106.47 106.83 107.22 107.61 107.99 108.55 109.06 109.13 109.32 109.54 109.75 109.90 110.01 110.05 110.09 110.10 110.12 110.15 110.17 110.15 110.08 109.98 109.87 109.75 109.65 109.54 109.43 109.35 109.25 109.12 109.12 109.14 107.68 108.87 108.51
102.37 102.41 102.22 102.23 102.24 102.39 102.56 102.87 103.26 103.66 104.06 104.51 104.93 105.27 105.62 105.96 106.28 106.64 106.98 107.38 107.79 108.17 108.78 109.18 109.26 109.46 109.69 109.88 110.03 110.14 110.22 110.24 110.24 110.26 110.31 110.33 110.31 110.24 110.14 110.03 109.92 109.80 109.74 109.64 109.60 109.53 109.38 109.37 109.38 107.86 108.86 108.70
102.39 102.49 102.36 102.27 102.34 102.50 102.75 103.09 103.48 103.88 104.29 104.69 105.09 105.45 105.82 106.12 106.46 106.81 107.15 107.56 107.96 108.38 109.04 109.29 109.38 109.59 109.78 109.97 110.15 110.27 110.32 110.37 110.38 110.40 110.42 110.46 110.43 110.37 110.28 110.18 110.07 110.00 109.93 109.88 109.82 109.74 109.59 109.60 109.67 108.03 108.95 108.87
102.43 102.33 102.43 102.35 102.44 102.64 102.93 103.25 103.65 104.06 104.46 104.82 105.19 105.57 105.90 106.25 106.57 106.90 107.27 107.65 108.07 108.52 109.18 109.38 109.51 109.69 109.90 110.06 110.22 110.34 110.46 110.49 110.51 110.54 110.62 110.64 110.62 110.55 110.46 110.38 110.29 110.23 110.18 110.07 109.97 109.86 109.70 109.79 109.81 108.21 109.10 109.02
102.59 102.57 102.49 102.43 102.58 102.82 103.12 103.45 103.82 104.21 104.58 104.96 105.32 105.66 106.00 106.33 106.66 107.01 107.36 107.76 108.18 108.66 109.28 109.46 109.55 109.77 110.00 110.20 110.36 110.49 110.56 110.62 110.65 110.72 110.76 110.81 110.80 110.75 110.65 110.56 110.49 110.42 110.37 110.25 110.11 110.00 109.88 109.96 109.82 108.41 109.31 109.16
102.72 102.55 102.56 102.62 102.79 103.04 103.36 103.70 104.05 104.40 104.76 105.12 105.42 105.78 106.12 106.43 106.79 107.12 107.48 107.92 108.29 108.78 109.42 109.52 109.65 109.92 110.15 110.35 110.51 110.67 110.76 110.80 110.83 110.86 110.90 110.92 110.91 110.87 110.77 110.68 110.58 110.53 110.45 110.33 110.21 110.13 110.03 110.05 109.81 108.59 109.47 109.31
102.74 102.74 102.67 102.82 103.02 103.31 103.62 103.92 104.29 104.62 104.96 105.28 105.58 105.93 106.25 106.59 106.91 107.24 107.61 108.02 108.39 108.89 109.50 109.54 109.73 110.02 110.26 110.50 110.69 110.85 110.96 111.00 111.01 111.02 111.07 111.12 111.13 111.08 111.00 110.91 110.84 110.76 110.65 110.56 110.45 110.29 110.24 110.25 110.04 108.71 109.66 109.46
102.55 102.86 102.89 103.07 103.31 103.60 103.90 104.19 104.54 104.84 105.17 105.48 105.78 106.07 106.42 106.73 107.04 107.37 107.72 108.09 108.44 108.95 109.45 109.66 109.82 110.03 110.30 110.53 110.72 110.89 111.01 111.07 111.11 111.15 111.21 111.25 111.25 111.21 111.16 111.07 110.98 110.87 110.79 110.69 110.57 110.45 110.37 110.36 110.12 108.78 109.74 109.57
102.99 102.97 103.10 103.32 103.59 103.89 104.17 104.48 104.77 105.04 105.39 105.66 105.96 106.26 106.59 106.88 107.21 107.50 107.82 108.19 108.52 109.02 109.46 109.64 109.77 109.99 110.25 110.45 110.65 110.82 110.98 111.08 111.17 111.24 111.29 111.35 111.37 111.33 111.26 111.17 111.07 110.99 110.88 110.78 110.67 110.56 110.50 110.54 110.12 108.91 109.85 109.74
103.05 103.13 103.34 103.57 103.82 104.14 104.42 104.69 104.99 105.27 105.56 105.83 106.14 106.44 106.76 107.05 107.35 107.62 107.96 108.28 108.61 109.13 109.53 109.68 109.82 110.06 110.27 110.47 110.67 110.82 110.99 111.12 111.23 111.33 111.43 111.50 111.52 111.52 111.46 111.37 111.26 111.14 111.03 110.94 110.84 110.72 110.66 110.66 110.10 109.13 109.98 109.84
103.32 103.38 103.58 103.82 104.08 104.39 104.65 104.92 105.20 105.47 105.75 106.05 106.32 106.60 106.94 107.24 107.51 107.79 108.10 108.39 108.71 109.24 109.53 109.71 109.84 110.08 110.31 110.52 110.70 110.89 111.06 111.24 111.38 111.54 111.65 111.76 111.77 111.77 111.71 111.62 111.49 111.37 111.23 111.10 110.98 110.86 110.79 110.79 110.01 109.34 110.06 109.93
103.56 103.60 103.82 104.09 104.33 104.60 104.88 105.14 105.42 105.66 105.95 106.25 106.51 106.81 107.11 107.40 107.68 107.93 108.22 108.53 108.82 109.39 109.56 109.69 109.83 110.07 110.32 110.56 110.77 110.96 111.14 111.32 111.49 111.65 111.79 111.92 111.98 111.96 111.92 111.82 111.69 111.56 111.43 111.32 111.18 111.06 110.97 110.92 109.87 109.63 110.14 109.96
103.76 103.84 104.10 104.35 104.61 104.86 105.12 105.40 105.65 105.92 106.18 106.44 106.73 107.03 107.28 107.57 107.82 108.05 108.34 108.64 108.96 109.57 109.65 109.67 109.89 110.17 110.42 110.65 110.88 111.06 111.25 111.41 111.58 111.74 111.86 111.98 112.03 112.03 112.00 111.91 111.84 111.74 111.60 111.47 111.34 111.22 111.07 111.07 109.71 110.29 110.26 110.03
103.96 104.05 104.35 104.59 104.86 105.13 105.37 105.63 105.89 106.17 106.42 106.65 106.93 107.21 107.44 107.70 107.94 108.19 108.43 108.70 109.03 109.68 109.72 109.78 109.99 110.23 110.48 110.74 110.97 111.18 111.36 111.52 111.69 111.81 111.92 112.05 112.11 112.11 112.11 112.07 111.98 111.86 111.75 111.62 111.49 111.33 111.24 111.26 110.07 110.56 110.43 110.22
104.10 104.26 104.52 104.79 105.06 105.32 105.57 105.85 106.10 106.34 106.60 106.86 107.11 107.38 107.60 107.84 108.07 108.30 108.50 108.77 109.10 109.72 109.74 109.85 110.07 110.32 110.57 110.79 111.00 111.20 111.40 111.58 111.74 111.89 111.99 112.10 112.16 112.16 112.15 112.10 112.02 111.96 111.83 111.71 111.55 111.41 111.37 111.35 110.42 110.65 110.50 110.31
104.25 104.44 104.72 104.98 105.25 105.51 105.79 106.06 106.29 106.53 106.79 107.01 107.27 107.51 107.72 108.00 108.18 108.39 108.61 108.83 109.21 109.79 109.75 109.88 110.07 110.33 110.59 110.83 111.04 111.26 111.48 111.65 111.82 111.97 112.10 112.18 112.23 112.26 112.26 112.22 112.18 112.09 111.99 111.84 111.69 111.59 111.57 110.69 110.29 110.71 110.56 110.38
104.41 104.62 104.90 105.16 105.44 105.71 105.96 106.22 106.49 106.71 106.94 107.18 107.40 107.63 107.88 108.10 108.30 108.50 108.73 108.92 109.36 109.85 109.85 110.00 110.15 110.41 110.68 110.90 111.10 111.34 111.56 111.72 111.91 112.05 112.18 112.29 112.34 112.39 112.40 112.38 112.36 112.29 112.19 112.07 111.95 111.82 111.78 110.88 110.97 110.80 110.66 110.47
104.57 104.80 105.07 105.36 105.61 105.88 106.13 106.39 106.64 106.84 107.08 107.31 107.51 107.76 108.00 108.18 108.39 108.59 108.78 109.03 109.46 109.89 109.97 110.18 110.36 110.60 110.83 111.05 111.27 111.52 111.70 111.91 112.08 112.25 112.35 112.44 112.51 112.57 112.59 112.58 112.57 112.53 112.46 112.35 112.19 112.06 111.87 111.06 111.08 110.90 110.74 110.56
104.73 104.98 105.25 105.53 105.80 106.04 106.30 106.54 106.78 107.03 107.22 107.43 107.68 107.89 108.10 108.28 108.47 108.65 108.87 109.07 109.51 109.91 110.03 110.22 110.42 110.66 110.90 111.15 111.40 111.63 111.82 112.00 112.18 112.33 112.45 112.55 112.64 112.69 112.71 112.71 112.70 112.63 112.57 112.41 112.27 112.17 111.40 111.45 111.21 111.04 110.87 110.71
104.93 105.19 105.43 105.69 105.97 106.20 106.47 106.71 106.94 107.17 107.35 107.57 107.78 108.00 108.17 108.35 108.50 108.70 108.89 109.08 109.57 109.96 110.05 110.20 110.42 110.70 110.96 111.22 111.50 111.74 111.94 112.12 112.30 112.44 112.59 112.70 112.77 112.81 112.85 112.84 112.78 112.69 112.58 112.44 112.29 112.12 111.60 111.54 111.32 111.18 110.98 110.77
105.10 105.38 105.61 105.86 106.11 106.36 106.61 106.85 107.07 107.27 107.48 107.70 107.87 108.09 108.25 108.43 108.58 108.76 108.93 109.16 109.67 109.97 110.01 110.23 110.44 110.72 111.02 111.30 111.57 111.82 112.01 112.20 112.37 112.51 112.65 112.75 112.84 112.88 112.92 112.89 112.80 112.71 112.57 112.46 112.34 111.67 111.42 111.62 111.45 111.28 111.07 110.89
105.28 105.54 105.80 106.05 106.26 106.50 106.74 106.94 107.16 107.40 107.60 107.79 107.98 108.17 108.34 108.53 108.68 108.83 109.01 109.25 109.78 110.01 110.06 110.26 110.52 110.82 111.11 111.42 111.69 111.94 112.13 112.29 112.46 112.60 112.73 112.85 112.92 113.00 113.01 112.99 112.91 112.77 112.64 112.45 112.38 112.10 111.93 111.71 111.57 111.36 111.15 110.95
