ncols 52
nrows 52
xllcorner 441856
yllcorner 5715456
cellsize 10
NODATA_value -9999
99.09 98.40 98.17 98.14 97.94 97.92 97.79 97.90 97.92 98.05 97.58 97.49 97.50 97.32 97.09 96.64 96.25 95.84 95.66 95.62 95.68 95.23 94.94 92.79 93.65 94.07 94.02 93.94 93.88 93.61 93.57 93.60 93.55 93.48 93.40 93.39 93.27 92.95 95.82 96.34 92.47 92.49 92.60 92.61 92.62 92.57 92.46 92.40 92.30 92.53 92.62 92.69
98.99 98.28 98.13 98.09 97.90 97.79 97.73 97.86 97.92 98.06 97.51 97.35 97.40 97.21 97.04 96.51 95.98 93.48 94.83 95.01 95.40 95.28 94.61 93.71 94.30 94.05 93.94 93.85 93.79 93.62 93.55 93.86 93.62 93.41 93.24 93.17 93.65 93.51 96.40 94.06 92.46 92.55 92.41 92.52 92.67 92.54 92.61 92.57 92.32 92.47 92.55 92.56
98.81 98.55 98.39 98.22 98.01 97.77 97.57 97.65 97.41 97.21 97.16 96.90 96.74 96.60 96.55 96.06 95.63 94.82 94.68 94.72 95.38 95.13 94.29 93.82 94.64 94.13 94.07 93.85 93.70 93.57 93.59 93.82 93.54 93.19 93.06 92.93 92.68 96.00 96.22 92.56 92.36 92.43 92.45 92.45 92.49 92.77 92.90 92.56 92.71 92.81 92.57 92.48
98.71 98.51 98.34 98.22 98.07 97.91 97.71 97.48 97.30 97.10 96.89 96.69 96.50 96.28 96.06 95.91 95.69 95.62 95.37 95.33 95.24 95.19 95.07 95.03 94.69 94.08 94.01 93.77 93.67 93.30 93.60 93.54 93.24 93.03 92.89 93.00 94.75 96.55 93.96 92.34 92.45 92.42 92.36 92.35 92.43 92.78 92.61 92.74 92.62 92.59 92.64 92.72
98.94 98.79 98.53 98.28 98.15 97.65 97.50 97.47 97.43 97.07 96.92 96.79 96.82 96.47 96.07 95.88 95.80 95.71 95.42 95.29 94.89 94.80 94.51 94.35 94.17 93.97 93.79 93.90 93.60 93.41 93.37 93.29 93.16 92.94 92.79 92.33 96.22 96.23 92.45 92.29 92.37 92.40 92.33 92.37 92.43 92.42 92.38 92.94 92.85 92.69 92.70 92.67
98.71 98.64 98.45 98.32 98.18 97.57 97.42 97.25 97.48 97.06 96.73 96.75 96.53 96.38 96.05 95.83 95.72 95.33 95.85 95.16 94.85 94.99 94.65 94.70 94.50 94.11 93.95 93.53 93.31 93.29 93.23 93.12 93.01 92.99 92.85 94.25 96.69 93.08 92.39 92.41 92.36 92.39 92.42 92.43 92.43 92.42 92.40 92.98 92.96 92.96 92.72 92.70
98.53 98.42 98.22 98.38 98.40 97.40 97.15 97.07 96.96 96.65 96.65 96.63 96.19 96.33 96.13 95.78 95.44 95.46 95.06 95.07 94.76 94.76 94.57 94.68 94.28 94.19 94.03 93.71 93.52 92.93 92.56 92.42 92.27 92.75 92.86 96.46 96.20 92.41 92.18 92.29 92.34 92.38 92.41 92.43 92.43 92.43 92.41 92.38 92.47 93.00 93.02 92.69
98.65 98.53 98.15 98.26 98.27 97.30 97.09 96.83 96.80 96.81 96.54 96.51 96.10 95.98 96.13 95.81 95.51 95.35 95.08 94.96 94.89 94.62 94.53 94.36 94.11 94.03 93.99 93.61 93.63 93.35 93.22 92.08 91.57 91.40 92.67 95.08 94.40 92.21 92.13 92.27 92.33 92.37 92.40 92.42 92.43 92.43 92.41 92.37 92.36 93.03 92.81 92.59
98.67 98.60 98.15 98.15 97.99 97.15 96.99 97.36 96.68 96.54 96.50 96.56 95.98 95.86 95.94 95.78 95.35 95.36 95.22 94.90 94.88 94.64 94.45 94.25 94.00 93.94 93.82 93.51 93.71 93.77 93.86 93.20 93.10 90.99 90.88 91.09 92.51 91.64 91.99 92.26 92.32 92.37 92.40 92.42 92.43 92.42 92.42 92.42 92.42 92.33 92.27 92.22
98.55 98.57 98.10 98.24 97.69 97.12 96.93 96.72 96.50 96.42 96.21 96.17 96.04 96.15 95.88 95.75 95.29 95.20 95.19 94.90 94.78 94.62 94.28 94.10 93.86 93.79 93.84 93.43 93.58 94.21 94.20 93.25 92.62 93.89 91.55 90.67 90.83 91.17 92.17 92.25 92.38 92.36 92.40 92.41 92.39 92.43 92.40 92.41 92.43 92.42 92.26 92.38
98.49 98.21 98.13 97.91 97.28 97.21 96.87 96.66 96.41 96.31 96.13 95.96 95.86 95.69 95.49 95.39 95.35 95.30 95.23 94.89 95.01 94.81 94.48 94.17 94.26 93.91 93.58 93.57 93.57 93.60 93.61 93.24 93.32 96.94 96.13 92.35 90.89 90.93 91.72 92.24 92.38 92.41 92.37 92.33 92.24 92.38 92.42 92.11 92.41 92.92 91.89 91.65
98.45 98.06 98.06 97.84 97.19 96.99 96.97 96.68 96.44 96.38 96.22 96.05 95.86 95.71 95.55 95.61 95.35 96.05 95.27 94.88 95.50 94.85 94.57 94.18 94.31 94.35 94.33 93.81 93.65 93.55 93.58 93.46 95.28 96.95 93.69 92.82 92.63 91.03 91.07 91.72 92.41 92.16 92.21 92.12 92.30 92.19 92.01 92.41 92.45 92.40 92.44 91.54
98.33 97.99 98.05 98.01 98.03 96.99 96.99 96.82 96.69 96.71 96.07 96.10 96.00 95.86 95.56 95.32 95.42 95.56 95.12 94.88 94.94 94.79 94.66 94.36 94.32 94.35 94.32 93.72 93.65 93.65 93.67 93.51 97.07 95.99 92.98 93.93 93.74 92.36 91.21 91.26 91.78 92.02 92.02 91.98 91.92 92.07 92.09 91.98 91.86 92.15 91.55 91.56
98.35 97.93 97.74 97.58 97.25 96.98 97.08 96.82 97.22 96.47 96.38 96.01 95.95 96.65 95.56 95.50 95.32 95.22 95.04 95.05 94.90 94.76 94.62 94.29 94.38 94.32 94.36 93.73 93.71 93.68 93.76 95.65 97.10 93.46 93.24 93.16 93.16 93.04 92.01 91.30 91.63 91.78 91.71 91.79 91.87 91.82 91.78 91.76 91.58 91.44 91.51 91.37
98.25 97.97 97.85 97.65 97.39 97.11 96.86 96.68 96.51 96.44 96.29 96.14 95.89 95.65 95.69 95.38 95.26 95.31 95.07 94.87 94.80 94.72 94.46 94.34 94.40 94.49 94.29 93.75 93.71 93.88 93.78 97.17 95.94 93.26 93.17 93.05 92.95 92.97 92.76 91.52 91.43 93.19 94.78 93.01 91.99 92.03 91.95 91.78 91.66 91.51 91.47 91.38
98.10 98.04 97.83 97.68 97.27 97.02 97.12 96.96 96.78 96.83 96.34 96.15 95.83 95.64 95.42 95.30 95.23 95.16 94.98 95.19 95.04 95.17 94.57 94.41 94.56 94.48 94.27 93.95 93.76 93.99 96.04 97.21 93.53 93.36 93.16 92.91 92.73 92.69 92.92 92.44 91.50 91.94 95.48 93.62 91.98 92.17 91.96 91.82 91.72 91.60 91.55 91.40
97.99 97.98 97.68 97.42 97.18 96.94 97.95 96.93 96.76 97.28 96.61 96.33 96.01 95.92 95.64 95.64 95.30 95.17 94.76 95.08 95.59 94.88 94.50 94.47 94.73 94.75 94.42 94.07 94.11 94.12 97.27 96.04 93.48 93.25 93.56 92.91 92.72 92.76 93.13 92.71 91.88 91.80 94.77 93.99 92.27 92.36 92.12 91.83 91.72 91.60 91.43 91.34
98.07 98.04 97.65 97.53 97.29 97.01 96.89 96.80 96.50 96.38 96.54 96.68 96.05 96.15 95.94 95.68 95.49 95.33 94.96 95.06 94.85 94.68 94.47 94.43 94.54 94.47 94.29 94.10 94.25 96.39 97.33 93.68 93.44 93.47 93.22 93.12 92.84 92.60 92.47 92.51 91.93 91.78 93.62 94.17 92.33 92.81 92.38 92.06 91.72 91.61 91.54 91.35
98.07 97.82 97.68 97.47 97.21 97.16 97.03 96.88 96.47 96.32 96.34 96.12 96.12 96.06 95.97 95.76 95.48 95.49 94.95 95.24 95.31 94.76 94.50 94.38 94.23 94.24 94.24 94.36 96.31 97.42 96.81 93.55 93.53 93.29 93.15 92.91 92.85 92.92 92.61 92.38 92.02 91.86 92.83 94.12 92.32 93.90 93.95 92.89 92.32 91.59 91.43 91.36
98.03 97.66 97.45 97.35 97.34 97.20 97.06 97.02 96.58 96.52 96.42 96.31 96.26 95.95 95.90 95.62 95.61 95.49 94.99 95.24 95.34 94.96 94.69 94.51 94.32 94.26 94.22 94.88 96.75 97.46 93.76 93.69 93.46 93.25 93.10 93.08 92.87 92.67 92.66 93.09 92.28 91.94 92.33 93.40 92.35 92.93 93.71 93.04 92.02 91.48 91.36 91.25
98.32 97.50 97.67 97.53 97.29 97.18 97.15 97.07 97.01 96.83 96.92 96.63 96.39 96.23 95.90 95.89 96.35 95.60 95.08 95.42 95.46 95.01 94.80 94.70 94.43 94.35 94.59 97.25 97.60 95.61 93.77 93.77 93.46 93.40 93.25 93.00 92.92 92.97 92.87 93.39 92.49 92.03 92.71 92.29 92.19 91.90 91.65 91.51 91.49 91.40 91.33 91.38
98.55 97.80 97.55 97.33 97.20 97.14 97.08 97.02 97.04 97.07 96.72 96.66 96.53 96.23 96.03 95.93 95.72 95.58 95.19 95.39 95.33 95.20 94.97 94.74 94.70 94.70 95.56 96.99 97.50 93.90 93.96 93.69 93.57 93.35 93.15 93.14 92.99 92.90 93.19 94.16 92.45 92.18 92.28 92.23 92.10 91.95 91.69 91.35 91.69 91.77 91.11 91.05
99.08 98.63 97.77 96.98 96.98 97.08 96.96 96.93 97.06 97.06 96.84 96.65 96.66 96.38 96.16 96.00 96.24 95.61 95.29 95.43 95.29 95.24 95.14 94.84 94.70 94.89 97.39 97.72 95.64 93.93 93.92 93.67 93.53 93.57 93.32 93.11 93.04 93.12 93.80 94.25 92.29 92.32 92.22 92.12 91.85 91.96 91.56 91.51 91.51 91.06 91.22 91.55
98.93 98.51 97.68 97.50 97.46 97.39 96.24 96.76 96.97 97.04 96.49 96.48 96.54 96.20 96.00 95.39 95.67 95.80 95.60 95.37 95.19 95.12 95.00 94.92 95.04 95.88 97.26 97.51 94.33 94.15 93.89 93.79 93.62 93.42 93.31 93.36 93.15 93.46 94.25 93.54 92.40 92.66 92.38 92.12 92.14 91.93 91.83 91.73 91.62 91.21 90.99 90.80
97.16 97.68 97.78 98.89 98.59 98.60 96.25 96.60 96.99 96.93 96.78 96.42 96.58 96.69 96.35 96.00 95.87 95.52 95.56 95.62 95.50 95.25 95.18 95.07 95.08 97.48 97.83 95.62 94.38 94.19 93.88 93.76 93.58 93.58 93.40 93.22 93.37 93.93 94.18 92.85 92.42 94.03 92.26 92.19 92.10 92.22 92.01 91.96 91.51 91.24 90.98 90.84
98.47 98.10 97.91 99.01 99.11 98.32 97.67 96.85 96.91 96.87 96.82 96.56 96.51 96.57 96.32 96.24 96.13 95.58 95.49 95.48 95.45 95.33 95.20 95.29 96.51 97.57 97.46 94.36 94.51 94.11 93.90 93.85 93.74 93.53 93.35 93.41 93.72 94.64 93.80 92.65 92.76 92.68 92.41 92.28 92.10 92.12 92.09 91.90 91.49 91.32 90.99 90.57
98.43 98.23 98.68 98.26 97.94 97.88 97.73 97.19 97.21 97.12 96.79 96.51 96.45 96.35 96.46 96.05 95.67 95.60 95.57 95.47 95.36 95.28 95.29 95.26 97.50 97.95 95.99 94.75 94.64 94.37 94.06 93.85 94.01 93.95 93.51 93.63 94.57 94.68 92.84 92.68 94.48 92.49 92.29 92.15 92.09 92.13 91.92 91.61 91.46 91.34 90.90 90.61
98.51 98.43 98.49 97.97 97.78 97.65 97.51 97.18 97.20 97.42 96.98 96.79 96.82 96.42 96.50 96.29 95.94 95.57 95.74 95.68 95.40 95.36 95.39 96.68 97.85 97.45 95.29 94.83 94.58 94.43 94.43 94.40 94.29 93.83 93.88 93.89 94.58 93.45 92.78 93.17 92.84 92.53 92.23 92.09 92.13 91.86 91.86 91.78 91.39 91.37 90.82 90.65
98.22 97.90 97.90 97.76 97.58 97.46 97.35 97.27 97.09 97.29 96.96 96.81 97.23 96.60 96.36 96.21 95.74 95.72 95.79 95.91 96.40 95.57 95.48 97.68 98.01 95.93 95.05 95.05 94.70 94.49 94.42 94.42 94.03 94.05 94.35 94.19 93.51 93.09 93.07 93.38 93.82 92.69 92.38 92.28 92.01 91.57 91.43 91.65 91.34 91.13 90.68 90.53
98.43 97.86 97.63 97.81 97.60 97.42 96.98 97.07 97.01 96.74 96.94 96.78 96.76 96.67 96.53 96.06 95.65 95.69 95.72 95.76 96.35 95.60 96.82 98.03 97.47 95.31 95.14 95.23 94.88 94.64 94.52 94.52 94.18 94.12 94.42 94.44 93.24 93.05 93.88 93.14 92.78 92.65 92.33 92.08 91.97 91.71 91.43 91.14 91.18 90.90 90.36 90.25
98.28 97.89 97.79 97.90 97.73 97.73 97.35 97.19 96.93 96.92 96.81 96.55 96.62 96.76 96.73 96.19 95.68 95.80 95.68 95.56 96.45 95.48 97.72 98.11 96.43 95.48 95.26 95.17 95.11 94.78 94.65 94.54 94.35 94.04 94.12 93.42 93.17 93.00 93.55 93.00 92.65 92.39 92.32 92.35 91.69 91.57 91.30 90.99 90.79 90.65 90.33 90.13
98.37 98.15 97.82 97.79 97.65 98.13 97.40 97.61 97.10 96.99 97.07 96.55 96.27 96.15 96.28 96.07 95.75 95.81 95.71 95.48 95.74 97.18 98.17 97.51 95.76 95.74 95.35 95.23 95.28 94.99 94.75 94.59 94.59 94.88 93.87 93.32 93.25 93.13 92.89 93.01 92.93 92.54 92.42 92.26 91.74 91.50 91.16 90.90 90.92 90.57 90.35 90.13
98.24 98.14 97.92 97.79 97.66 97.53 97.40 97.36 97.15 97.48 97.61 96.60 96.53 96.46 96.48 96.41 95.99 95.96 95.80 95.82 95.50 97.63 98.17 97.00 96.30 95.82 95.47 95.34 95.36 95.14 94.83 94.65 94.93 94.45 93.50 93.46 93.73 93.71 92.84 92.82 92.54 92.26 92.22 92.24 92.35 91.65 91.12 91.09 90.62 90.45 90.28 89.99
98.39 97.96 97.77 98.12 97.62 97.73 97.28 97.13 97.15 97.13 96.94 96.72 96.67 97.53 96.65 96.60 96.22 96.05 95.85 95.89 97.50 98.24 97.54 96.73 96.20 95.92 95.64 95.46 95.43 95.37 95.14 94.74 94.16 93.83 93.48 94.03 93.69 93.26 92.72 92.49 92.25 92.00 91.79 91.80 91.53 91.22 91.14 90.93 90.68 90.54 90.02 89.39
98.34 97.94 97.81 97.77 97.94 98.57 97.89 97.45 97.73 97.58 97.37 96.77 96.68 96.71 96.46 96.32 96.28 96.48 96.42 95.79 97.62 98.26 96.94 96.50 96.30 96.17 95.87 95.63 95.65 95.36 95.60 95.13 93.93 93.66 94.69 94.68 94.50 93.26 93.32 92.52 92.25 92.03 91.85 91.65 91.47 91.26 91.07 90.81 91.16 90.56 89.90 88.25
98.20 97.96 98.08 97.78 97.63 97.64 97.83 97.44 97.51 97.62 97.47 96.96 97.09 96.78 96.63 96.54 96.25 96.23 96.26 97.81 98.32 97.63 96.82 96.44 96.29 96.14 96.01 95.90 95.87 95.93 96.29 94.99 93.85 94.35 97.79 98.88 98.78 98.25 97.10 95.39 94.96 94.71 91.93 91.73 91.54 91.50 91.26 91.15 90.52 90.85 90.74 88.26
98.36 98.11 98.15 97.92 97.73 97.59 97.39 97.92 97.68 97.63 97.08 97.41 97.08 96.77 96.66 96.64 96.68 97.12 96.16 97.61 98.35 97.82 96.68 96.43 96.25 96.41 96.31 95.97 95.81 95.71 95.39 94.18 93.86 93.93 94.04 94.44 94.50 95.47 97.02 98.05 97.74 97.42 95.24 92.22 91.72 91.62 91.44 91.10 90.71 90.29 90.54 88.27
98.35 98.24 98.17 98.06 97.88 97.81 97.40 97.38 97.58 97.55 97.52 97.62 97.06 96.84 96.75 96.96 96.76 96.76 98.15 98.43 97.72 97.76 96.58 96.42 96.20 96.02 96.05 96.08 95.87 95.80 94.57 94.04 94.25 93.72 92.93 94.02 94.03 94.33 94.27 93.66 95.35 97.85 97.90 94.88 91.72 91.48 91.28 91.10 90.73 90.36 90.26 90.22
98.49 98.37 98.07 98.19 97.99 97.85 97.42 97.60 97.53 97.57 97.60 97.58 97.44 97.07 96.93 96.93 96.92 97.33 98.05 98.43 97.20 97.20 96.53 96.36 96.07 95.82 95.75 95.87 95.81 95.72 94.36 94.06 94.44 93.75 92.42 93.78 92.76 93.85 93.58 93.12 92.81 92.95 95.08 93.64 91.31 91.32 91.15 90.87 90.71 90.49 90.25 90.32
98.54 98.54 98.24 98.28 98.02 97.91 97.49 97.65 97.75 97.73 97.71 97.53 97.15 97.06 97.00 96.92 96.49 95.63 96.43 97.59 97.40 98.42 96.42 96.07 95.82 95.86 95.86 95.83 95.59 95.35 94.24 94.32 94.61 92.65 93.71 93.67 93.52 93.73 93.31 92.99 92.60 92.40 92.30 91.98 91.59 91.17 91.05 90.64 90.66 90.59 90.32 90.26
98.88 98.74 98.37 98.15 98.09 97.95 97.55 97.76 97.95 97.90 97.77 97.66 97.20 97.13 97.15 97.81 98.07 99.27 98.44 95.51 98.36 96.22 95.83 95.82 95.82 95.83 95.83 95.81 95.62 94.90 94.28 94.50 94.47 92.17 93.84 93.61 93.53 93.89 93.33 92.97 92.58 92.40 92.09 91.78 91.42 91.04 90.76 90.56 90.55 90.55 90.39 90.67
99.26 98.88 98.48 98.30 98.49 98.06 97.66 97.97 97.94 97.92 97.79 97.79 97.53 97.48 97.51 98.15 98.51 98.68 98.28 97.04 96.45 96.21 95.87 95.87 95.85 95.87 95.82 95.85 95.69 94.57 94.25 94.57 94.31 92.88 94.36 94.35 93.61 93.74 93.04 92.68 92.52 92.37 92.11 91.22 91.09 90.99 90.64 90.52 90.52 90.39 90.66 89.46
98.95 98.73 98.52 98.34 98.17 97.99 97.68 97.63 97.67 97.73 97.79 97.96 97.92 97.85 98.01 98.64 99.63 99.21 97.07 97.11 96.67 96.18 95.94 95.87 95.85 95.85 95.82 95.89 95.85 94.54 94.37 94.34 93.56 93.15 94.36 94.57 94.18 93.37 92.98 92.44 92.50 92.32 91.90 91.28 90.85 90.76 90.61 90.53 90.52 90.37 90.60 88.73
98.87 98.87 98.60 98.53 98.33 98.21 97.76 97.72 97.71 97.72 97.72 97.78 97.35 98.26 98.48 98.99 98.83 98.72 98.14 97.73 97.32 96.83 96.49 96.19 95.91 95.69 95.50 95.46 94.69 94.35 94.28 94.21 93.15 92.81 93.62 94.51 93.76 93.34 92.69 92.35 92.07 91.79 91.49 90.72 90.50 90.53 90.53 90.49 90.50 90.32 90.56 88.71
98.73 98.74 98.68 98.63 98.60 98.40 97.91 97.99 97.71 97.61 97.61 97.59 97.43 99.17 99.18 99.73 99.59 98.18 98.18 96.69 96.75 96.73 96.40 96.13 96.04 95.50 95.28 95.00 94.59 94.44 94.04 93.74 93.57 93.51 93.62 93.66 93.67 92.95 92.51 91.94 91.76 91.55 90.51 90.46 90.04 90.01 90.53 90.49 90.38 90.28 90.18 88.75
98.76 98.71 98.71 98.65 98.76 98.67 97.96 97.69 97.69 97.57 97.53 96.82 98.54 99.19 99.37 98.89 99.54 98.34 97.03 96.39 96.62 96.31 96.34 96.15 96.11 95.33 95.19 94.97 94.53 94.17 94.25 93.89 93.81 93.47 93.09 92.84 92.77 92.56 92.27 91.81 91.80 90.96 90.31 90.19 89.96 89.88 90.67 90.74 90.37 90.11 90.04 88.79
98.84 98.79 98.69 98.71 98.66 98.57 98.19 97.67 97.61 97.46 99.08 98.66 99.30 99.28 99.65 99.77 98.56 98.32 96.35 96.27 96.51 96.34 96.25 96.19 96.08 95.33 95.13 94.80 94.28 94.09 94.27 93.86 93.88 93.79 93.68 93.30 92.79 92.46 91.90 91.69 91.43 90.75 90.19 90.03 89.78 90.54 90.66 90.60 90.29 89.92 89.73 88.65
98.85 98.97 98.76 98.82 98.15 98.60 98.50 98.64 98.55 98.57 98.55 99.29 99.18 99.51 98.90 99.63 98.42 98.34 96.36 96.40 96.38 96.37 96.21 96.23 96.10 95.61 95.34 94.57 94.07 93.98 94.07 93.60 93.66 93.91 93.74 93.43 93.08 92.69 92.25 91.63 91.10 90.99 90.61 90.19 90.18 90.13 90.33 90.29 90.21 89.66 88.92 88.77
99.12 99.06 98.79 98.81 98.70 98.60 98.55 98.50 98.53 98.61 98.74 99.08 99.28 99.48 99.83 99.08 98.36 98.58 96.84 96.46 96.28 96.31 96.33 96.29 96.22 95.88 95.52 94.86 93.99 93.81 93.46 93.22 93.43 93.95 93.13 92.99 92.80 92.57 92.29 91.96 91.73 90.78 90.46 90.22 90.13 90.23 89.99 90.02 90.07 89.99 89.04 88.96
98.90 98.94 98.90 98.76 98.94 98.53 98.55 98.68 98.61 98.60 98.78 99.22 99.67 98.94 99.72 98.82 98.30 98.03 96.79 96.47 96.32 96.35 96.44 96.39 96.27 95.67 95.18 94.56 94.07 94.33 94.07 93.83 93.64 93.70 92.68 91.99 91.93 91.86 91.50 91.55 91.54 90.80 90.51 90.11 89.99 90.39 89.33 90.07 90.04 89.93 89.56 89.05
98.94 99.19 98.96 98.90 98.86 98.38 98.62 98.71 98.65 98.50 99.27 99.43 99.33 99.86 99.96 98.86 98.38 97.46 96.54 96.32 96.29 96.35 96.42 96.38 96.28 95.60 95.21 94.54 94.26 94.36 94.15 93.82 93.76 93.81 93.45 93.15 91.92 91.51 91.23 90.93 90.69 90.51 90.31 90.09 89.93 89.75 89.68 89.73 89.60 89.91 89.94 89.80
99.05 99.04 99.00 98.80 98.65 98.34 98.56 98.64 98.71 98.92 101.11 99.79 98.92 99.74 99.14 98.57 98.57 98.37 96.98 96.29 96.43 96.28 96.25 96.39 96.09 95.60 95.25 94.49 94.66 94.73 94.41 93.93 93.50 93.25 93.29 93.11 92.56 92.36 91.65 91.28 90.84 90.52 90.33 89.94 89.76 89.99 89.67 89.68 89.57 89.90 90.06 90.06
