ncols 52
nrows 52
xllcorner 441856
yllcorner 5713408
cellsize 10
NODATA_value -9999
105.33 105.58 105.84 106.08 106.29 106.52 106.76 106.98 107.20 107.43 107.61 107.81 108.01 108.19 108.36 108.55 108.70 108.85 109.04 109.28 109.79 110.03 110.06 110.27 110.54 110.83 111.12 111.44 111.70 111.95 112.15 112.32 112.49 112.63 112.75 112.87 112.96 113.04 113.04 113.01 112.92 112.79 112.65 112.45 112.37 112.16 111.95 111.74 111.57 111.38 111.15 110.96
105.55 105.76 106.00 106.24 106.45 106.64 106.86 107.08 107.33 107.53 107.73 107.91 108.09 108.25 108.44 108.60 108.76 108.93 109.08 109.37 109.94 110.08 110.14 110.36 110.67 110.97 111.26 111.58 111.84 112.11 112.31 112.47 112.60 112.76 112.89 113.00 113.10 113.15 113.16 113.12 113.03 112.90 112.72 112.57 112.21 112.31 112.03 111.83 111.67 111.46 111.26 111.03
105.67 105.91 106.10 106.36 106.57 106.76 106.99 107.22 107.43 107.61 107.79 107.99 108.14 108.31 108.48 108.65 108.82 108.98 109.13 109.43 110.02 110.15 110.28 110.50 110.79 111.13 111.44 111.72 112.02 112.29 112.49 112.65 112.78 112.90 113.04 113.15 113.25 113.29 113.29 113.26 113.17 113.03 112.84 112.56 112.56 112.28 112.12 111.96 111.76 111.54 111.33 111.10
105.77 106.03 106.25 106.47 106.66 106.90 107.13 107.33 107.51 107.70 107.86 108.03 108.19 108.35 108.54 108.71 108.86 109.03 109.22 109.54 110.14 110.15 110.32 110.56 110.85 111.17 111.49 111.79 112.07 112.37 112.55 112.71 112.84 112.98 113.10 113.20 113.27 113.32 113.34 113.24 113.14 112.94 112.76 112.56 112.72 112.42 112.21 112.06 111.83 111.60 111.40 111.15
105.88 106.15 106.36 106.59 106.81 107.02 107.24 107.43 107.59 107.77 107.93 108.11 108.26 108.41 108.60 108.75 108.92 109.12 109.31 109.65 110.21 110.29 110.49 110.76 111.04 111.43 111.73 112.00 112.39 112.65 112.86 112.99 113.15 113.25 113.38 113.47 113.52 113.53 113.54 113.45 113.35 113.08 112.95 112.54 112.57 112.54 112.35 112.15 111.93 111.70 111.47 111.21
105.94 106.20 106.42 106.68 106.90 107.10 107.31 107.50 107.64 107.82 107.98 108.15 108.30 108.48 108.65 108.83 109.03 109.22 109.42 109.80 110.31 110.33 110.48 110.72 111.03 111.35 111.65 112.01 112.29 112.61 112.80 113.03 113.23 113.37 113.40 113.50 113.60 113.57 113.52 113.47 113.36 113.24 113.18 113.16 112.86 112.64 112.48 112.28 112.02 111.76 111.53 111.25
105.95 106.19 106.47 106.72 106.95 107.18 107.37 107.54 107.70 107.88 108.03 108.19 108.35 108.53 108.72 108.96 109.15 109.35 109.54 109.90 110.43 110.52 110.75 111.00 111.30 111.62 111.90 112.21 112.49 112.73 112.96 113.14 113.29 113.39 113.50 113.56 113.62 113.65 113.62 113.51 113.38 113.33 113.28 113.12 113.03 112.80 112.62 112.42 112.19 111.91 111.67 111.36
105.98 106.24 106.49 106.78 107.03 107.24 107.41 107.61 107.76 107.94 108.08 108.21 108.40 108.56 108.77 109.02 109.25 109.41 109.60 109.93 110.59 110.63 110.90 111.21 111.55 111.87 112.18 112.45 112.70 112.93 113.14 113.32 113.48 113.59 113.73 113.81 113.88 113.90 113.84 113.72 113.59 113.52 113.38 113.25 113.13 112.93 112.76 112.53 112.30 112.07 111.79 111.44
106.09 106.38 106.64 106.87 107.13 107.38 107.56 107.76 107.93 108.08 108.26 108.40 108.54 108.71 108.96 109.17 109.38 109.54 109.71 110.05 110.50 110.62 110.90 111.24 111.56 111.87 112.18 112.47 112.78 113.03 113.24 113.42 113.57 113.69 113.79 113.86 113.90 113.92 113.90 113.85 113.77 113.57 113.61 113.35 113.14 112.96 112.76 112.54 112.33 112.07 111.77 111.46
106.11 106.32 106.57 106.84 107.11 107.33 107.54 107.72 107.92 108.07 108.22 108.39 108.54 108.71 108.94 109.15 109.35 109.53 109.74 110.15 110.64 110.85 111.08 111.42 111.77 112.11 112.40 112.67 112.95 113.17 113.33 113.54 113.68 113.82 113.95 114.01 114.07 114.06 113.94 113.83 113.80 113.75 113.42 113.39 113.16 113.02 112.81 112.59 112.38 112.10 111.79 111.46
106.18 106.36 106.59 106.83 107.10 107.35 107.61 107.79 107.94 108.11 108.29 108.46 108.57 108.80 109.00 109.24 109.44 109.67 109.98 110.23 110.47 110.80 111.07 111.37 111.68 112.03 112.39 112.68 112.92 113.09 113.34 113.47 113.69 113.79 113.89 114.00 114.03 114.06 113.98 113.92 113.85 113.96 113.66 113.48 113.28 113.10 112.87 112.66 112.40 112.12 111.85 111.49
106.14 106.30 106.58 106.87 107.10 107.32 107.54 107.72 107.93 108.14 108.31 108.47 108.61 108.78 109.04 109.27 109.47 109.72 109.95 110.22 110.55 110.83 111.10 111.43 111.75 112.12 112.43 112.75 112.99 113.22 113.43 113.57 113.75 113.86 113.97 114.07 114.14 114.12 114.12 114.00 114.00 114.04 113.77 113.54 113.37 113.20 112.99 112.73 112.49 112.23 111.90 111.54
106.18 106.42 106.74 107.00 107.22 107.43 107.65 107.79 108.02 108.22 108.41 108.57 108.72 108.93 109.17 109.41 109.63 109.88 110.13 110.40 110.73 111.03 111.32 111.65 112.01 112.33 112.63 112.95 113.14 113.36 113.58 113.70 113.85 113.96 114.07 114.13 114.21 114.21 114.20 114.21 114.14 113.85 113.79 113.60 113.45 113.28 113.05 112.81 112.57 112.29 111.93 111.57
106.29 106.54 106.85 107.07 107.32 107.51 107.70 107.89 108.09 108.28 108.44 108.60 108.79 109.01 109.26 109.51 109.72 109.97 110.23 110.53 110.87 111.16 111.44 111.77 112.15 112.51 112.78 113.09 113.31 113.54 113.73 113.86 113.97 114.10 114.18 114.25 114.32 114.35 114.35 114.33 114.46 114.00 113.81 113.68 113.50 113.30 113.12 112.85 112.57 112.32 111.95 111.58
106.38 106.61 106.90 107.15 107.40 107.58 107.79 107.96 108.14 108.32 108.48 108.64 108.86 109.10 109.39 109.64 109.88 110.12 110.36 110.68 110.97 111.28 111.57 111.90 112.32 112.66 112.94 113.23 113.45 113.69 113.88 114.04 114.14 114.25 114.34 114.41 114.48 114.46 114.44 114.34 114.11 114.13 113.86 113.75 113.57 113.37 113.15 112.92 112.63 112.31 111.92 111.54
106.48 106.69 106.97 107.24 107.46 107.67 107.84 108.03 108.21 108.35 108.52 108.72 108.95 109.22 109.52 109.78 110.01 110.23 110.50 110.79 111.10 111.38 111.71 112.05 112.44 112.77 113.06 113.32 113.53 113.74 113.96 114.13 114.26 114.38 114.48 114.54 114.59 114.58 114.60 114.83 114.33 114.19 113.94 113.79 113.57 113.38 113.17 112.96 112.70 112.29 111.88 111.50
106.57 106.82 107.06 107.31 107.51 107.70 107.90 108.08 108.26 108.40 108.60 108.82 109.05 109.33 109.64 109.90 110.13 110.35 110.60 110.91 111.21 111.48 111.82 112.18 112.58 112.88 113.15 113.38 113.60 113.79 114.01 114.19 114.34 114.48 114.57 114.65 114.68 114.69 114.68 115.00 114.45 114.17 113.96 113.79 113.60 113.38 113.22 113.05 112.70 112.29 111.86 111.43
106.69 106.91 107.15 107.39 107.58 107.77 107.96 108.14 108.32 108.46 108.66 108.92 109.12 109.43 109.72 109.99 110.26 110.50 110.73 111.05 111.33 111.60 111.96 112.31 112.69 112.97 113.24 113.43 113.65 113.86 114.07 114.26 114.43 114.54 114.65 114.71 114.73 114.73 115.07 114.58 114.51 114.15 113.98 113.79 113.60 113.43 113.25 113.02 112.63 112.16 111.73 111.28
106.80 107.02 107.25 107.50 107.70 107.89 108.07 108.25 108.42 108.56 108.79 109.01 109.21 109.47 109.78 110.05 110.32 110.62 110.87 111.22 111.50 111.77 112.07 112.44 112.80 113.06 113.33 113.54 113.73 113.94 114.15 114.33 114.50 114.60 114.68 114.77 114.76 114.82 115.38 114.62 114.43 114.06 113.99 113.79 113.59 113.41 113.19 112.89 112.40 111.94 111.52 111.07
106.91 107.15 107.39 107.62 107.81 108.02 108.20 108.36 108.54 108.72 108.92 109.12 109.30 109.52 109.82 110.10 110.39 110.72 110.99 111.32 111.60 111.91 112.20 112.55 112.90 113.15 113.47 113.68 113.83 114.03 114.24 114.39 114.52 114.63 114.71 114.76 114.77 114.87 115.38 114.71 114.47 114.23 113.98 113.79 113.61 113.31 113.06 112.65 112.15 111.70 111.24 110.75
107.01 107.26 107.49 107.72 107.94 108.12 108.31 108.46 108.63 108.84 109.04 109.26 109.42 109.62 109.90 110.17 110.46 110.79 111.07 111.39 111.68 111.99 112.31 112.64 112.94 113.23 113.57 113.81 113.94 114.14 114.33 114.47 114.59 114.70 114.75 114.78 114.94 115.51 114.86 114.79 114.51 114.26 114.01 113.81 113.60 113.29 112.88 112.42 111.84 111.32 110.89 110.40
107.10 107.35 107.59 107.78 108.00 108.18 108.35 108.50 108.70 108.93 109.18 109.36 109.56 109.73 109.99 110.24 110.53 110.86 111.13 111.43 111.74 112.02 112.37 112.68 112.99 113.30 113.68 113.90 114.07 114.24 114.43 114.56 114.66 114.77 114.83 114.89 115.05 115.76 115.00 114.72 114.50 114.28 114.08 113.88 113.61 113.25 112.79 112.26 111.73 111.18 110.63 110.17
107.15 107.37 107.62 107.81 108.01 108.19 108.38 108.53 108.76 109.02 109.27 109.46 109.67 109.86 110.09 110.35 110.64 110.96 111.21 111.53 111.77 112.09 112.42 112.72 113.05 113.39 113.80 114.03 114.21 114.38 114.55 114.71 114.79 114.88 114.90 115.05 115.65 115.19 115.00 114.74 114.50 114.29 114.06 113.78 113.45 113.02 112.47 111.90 111.35 110.88 110.51 110.01
107.15 107.35 107.60 107.79 107.97 108.16 108.33 108.54 108.79 109.11 109.35 109.56 109.78 109.97 110.21 110.46 110.76 111.04 111.34 111.60 111.88 112.21 112.50 112.81 113.12 113.49 113.90 114.15 114.33 114.53 114.69 114.82 114.91 114.96 115.00 115.10 115.78 115.24 114.99 114.72 114.52 114.28 114.01 113.66 113.21 112.69 112.10 111.57 111.04 110.57 110.12 109.67
107.15 107.35 107.59 107.77 107.96 108.16 108.35 108.60 108.87 109.18 109.44 109.67 109.89 110.09 110.32 110.58 110.87 111.17 111.45 111.74 112.02 112.29 112.59 112.90 113.21 113.59 114.00 114.26 114.44 114.65 114.81 114.92 115.04 115.03 115.11 115.75 115.27 115.18 114.97 114.75 114.53 114.27 113.95 113.49 112.94 112.31 111.70 111.17 110.70 110.26 109.82 109.40
107.19 107.42 107.66 107.86 108.07 108.25 108.43 108.67 108.95 109.24 109.51 109.76 109.98 110.19 110.43 110.66 110.99 111.25 111.54 111.85 112.12 112.40 112.68 112.99 113.28 113.67 114.07 114.31 114.54 114.74 114.92 115.00 115.06 115.07 115.17 115.77 115.28 115.10 114.95 114.79 114.54 114.26 113.88 113.35 112.68 112.03 111.40 110.80 110.33 109.93 109.56 109.21
107.26 107.50 107.72 107.97 108.19 108.38 108.56 108.79 109.04 109.32 109.58 109.83 110.06 110.27 110.52 110.78 111.08 111.36 111.64 111.95 112.22 112.50 112.76 113.06 113.35 113.72 114.13 114.34 114.60 114.81 115.00 115.08 115.10 115.18 115.82 115.34 115.24 115.05 114.93 114.75 114.51 114.18 113.74 113.17 112.47 111.85 111.24 110.66 110.17 109.77 109.40 109.07
107.25 107.52 107.78 108.04 108.27 108.48 108.69 108.91 109.14 109.40 109.65 109.90 110.15 110.38 110.64 110.93 111.19 111.45 111.75 112.04 112.31 112.60 112.81 113.11 113.44 113.80 114.14 114.39 114.62 114.83 115.03 115.07 115.14 115.46 115.58 115.33 115.18 115.08 114.90 114.71 114.42 114.06 113.55 112.90 112.24 111.60 111.04 110.53 110.06 109.68 109.32 109.03
107.27 107.56 107.82 108.07 108.33 108.54 108.78 109.01 109.26 109.51 109.76 110.03 110.26 110.48 110.76 111.02 111.29 111.54 111.85 112.13 112.40 112.68 112.91 113.21 113.51 113.85 114.20 114.44 114.65 114.86 115.06 115.08 115.22 115.72 115.34 115.25 115.15 115.08 114.92 114.66 114.35 113.94 113.35 112.67 111.99 111.39 110.85 110.36 109.95 109.59 109.30 109.04
107.37 107.63 107.89 108.14 108.38 108.59 108.84 109.15 109.42 109.68 109.92 110.15 110.39 110.63 110.90 111.12 111.42 111.63 111.93 112.23 112.48 112.76 113.00 113.30 113.60 113.96 114.25 114.47 114.73 114.93 115.08 115.15 115.21 115.42 115.25 115.25 115.17 115.08 114.87 114.65 114.29 113.82 113.19 112.50 111.84 111.24 110.69 110.21 109.81 109.48 109.22 109.02
107.47 107.72 107.98 108.24 108.46 108.68 108.97 109.30 109.61 109.87 110.10 110.31 110.54 110.79 111.02 111.25 111.49 111.74 112.03 112.33 112.57 112.85 113.08 113.36 113.65 114.01 114.30 114.56 114.79 115.00 115.10 115.25 115.49 115.35 115.30 115.28 115.21 115.03 114.83 114.55 114.15 113.61 112.94 112.28 111.68 111.11 110.62 110.13 109.74 109.43 109.17 108.99
107.54 107.78 108.04 108.27 108.47 108.74 109.04 109.37 109.73 110.01 110.24 110.45 110.68 110.93 111.16 111.43 111.62 111.86 112.19 112.46 112.70 112.99 113.21 113.44 113.71 114.06 114.37 114.62 114.85 115.01 115.19 115.04 115.24 115.39 115.48 115.31 115.20 115.05 114.82 114.51 114.04 113.42 112.71 112.04 111.46 110.93 110.44 110.06 109.73 109.47 109.24 109.02
107.60 107.85 108.05 108.28 108.51 108.76 109.07 109.43 109.79 110.10 110.33 110.54 110.77 111.04 111.27 111.52 111.77 112.03 112.34 112.59 112.84 113.10 113.33 113.56 113.82 114.18 114.48 114.69 114.91 115.07 115.26 115.16 115.46 115.44 115.43 115.30 115.19 115.04 114.79 114.41 113.87 113.24 112.57 111.93 111.33 110.80 110.34 110.00 109.73 109.50 109.29 109.16
107.67 107.90 108.11 108.32 108.54 108.79 109.09 109.46 109.83 110.13 110.38 110.60 110.83 111.08 111.34 111.57 111.87 112.12 112.43 112.68 112.94 113.20 113.47 113.69 113.94 114.32 114.62 114.80 115.01 115.22 114.94 115.42 115.48 115.47 115.43 115.32 115.21 115.00 114.71 114.29 113.68 113.00 112.34 111.71 111.20 110.71 110.31 109.99 109.75 109.51 109.35 109.22
107.77 107.97 108.17 108.36 108.57 108.82 109.14 109.50 109.87 110.21 110.43 110.69 110.93 111.18 111.40 111.65 111.95 112.20 112.49 112.75 113.00 113.29 113.54 113.78 114.05 114.43 114.72 114.92 115.04 115.29 114.84 115.59 115.51 115.49 115.43 115.35 115.19 114.99 114.67 114.18 113.53 112.79 112.13 111.57 111.07 110.60 110.23 109.92 109.71 109.54 109.37 109.29
107.89 108.11 108.27 108.47 108.66 108.90 109.20 109.59 109.96 110.26 110.50 110.76 111.01 111.25 111.48 111.73 112.03 112.29 112.57 112.81 113.08 113.34 113.60 113.85 114.12 114.49 114.76 114.92 115.12 114.57 115.18 115.59 115.54 115.57 115.51 115.39 115.22 114.98 114.62 114.10 113.40 112.71 112.06 111.49 111.01 110.57 110.21 109.93 109.69 109.51 109.40 109.39
108.02 108.26 108.46 108.63 108.85 109.07 109.38 109.75 110.10 110.36 110.61 110.85 111.07 111.32 111.55 111.81 112.08 112.36 112.64 112.87 113.15 113.41 113.69 113.95 114.20 114.55 114.77 114.89 115.05 114.49 115.68 115.59 115.62 115.56 115.56 115.42 115.26 114.97 114.60 113.98 113.26 112.57 111.95 111.42 110.96 110.57 110.22 109.98 109.74 109.56 109.44 109.33
108.21 108.45 108.65 108.84 109.08 109.29 109.62 109.99 110.27 110.49 110.72 110.94 111.15 111.38 111.60 111.90 112.14 112.42 112.70 112.95 113.23 113.46 113.75 114.02 114.28 114.60 114.75 114.90 113.89 114.66 115.65 115.62 115.69 115.68 115.60 115.48 115.25 114.96 114.53 113.86 113.13 112.40 111.83 111.31 110.90 110.53 110.23 110.01 109.79 109.60 109.49 109.39
108.38 108.62 108.86 109.08 109.32 109.56 109.89 110.23 110.44 110.64 110.85 111.06 111.26 111.46 111.70 111.96 112.22 112.49 112.79 113.04 113.29 113.55 113.85 114.07 114.33 114.62 114.75 114.92 114.15 115.68 115.66 115.72 115.72 115.73 115.63 115.50 115.26 114.98 114.46 113.78 113.00 112.33 111.77 111.24 110.83 110.47 110.21 110.00 109.85 109.68 109.51 109.48
108.56 108.81 109.04 109.26 109.48 109.76 110.09 110.39 110.60 110.75 110.95 111.18 111.37 111.55 111.79 112.08 112.31 112.58 112.89 113.13 113.36 113.61 113.90 114.14 114.42 114.65 114.73 114.97 114.05 115.79 115.74 115.82 115.81 115.75 115.68 115.48 115.26 114.92 114.37 113.67 112.95 112.32 111.74 111.28 110.85 110.49 110.23 109.99 109.81 109.67 109.56 109.61
108.68 108.90 109.17 109.39 109.62 109.92 110.19 110.50 110.66 110.82 111.04 111.25 111.45 111.66 111.92 112.17 112.42 112.71 112.99 113.23 113.47 113.70 113.98 114.23 114.52 114.71 114.82 113.15 113.79 115.81 115.81 115.88 115.85 115.84 115.69 115.51 115.25 114.81 114.20 113.48 112.82 112.21 111.71 111.26 110.86 110.54 110.26 110.01 109.78 109.68 109.68 109.59
108.81 108.98 109.18 109.42 109.61 109.85 110.16 110.38 110.57 110.79 111.02 111.29 111.49 111.74 112.00 112.25 112.51 112.80 113.07 113.29 113.53 113.78 114.05 114.32 114.59 114.73 114.82 113.38 114.59 115.84 115.84 115.88 115.90 115.88 115.74 115.51 115.18 114.71 114.10 113.38 112.74 112.15 111.66 111.21 110.85 110.53 110.25 110.00 109.83 109.75 109.81 110.06
108.83 109.07 109.25 109.41 109.65 109.92 110.06 110.26 110.45 110.68 110.87 111.07 111.33 111.64 111.85 112.15 112.39 112.70 113.04 113.26 113.53 113.78 114.07 114.31 114.59 114.66 114.77 113.65 115.84 115.85 115.90 115.92 115.94 115.90 115.75 115.50 115.15 114.61 113.98 113.31 112.71 112.15 111.70 111.24 110.87 110.53 110.24 110.01 109.90 109.82 109.75 110.39
109.06 109.18 109.42 109.30 109.29 109.78 109.96 110.09 110.29 110.52 110.78 111.04 111.28 111.54 111.80 112.02 112.23 112.47 112.76 113.05 113.33 113.62 113.88 114.12 114.37 114.39 113.91 113.63 115.87 115.83 115.97 115.96 115.95 115.84 115.71 115.51 115.10 114.60 113.91 113.27 112.68 112.14 111.67 111.26 110.91 110.57 110.27 110.10 109.96 109.99 110.33 110.65
109.60 109.77 109.95 110.08 110.12 110.13 110.01 110.10 110.20 110.25 110.65 110.52 110.88 111.34 111.58 111.82 112.07 112.37 112.68 112.93 113.22 113.44 113.65 113.82 114.03 114.09 113.01 113.51 115.93 115.91 116.03 116.03 116.04 115.94 115.75 115.45 115.06 114.47 113.85 113.22 112.68 112.13 111.67 111.29 110.88 110.57 110.28 110.15 110.08 110.14 110.67 110.94
109.71 109.92 110.04 110.16 110.28 110.43 110.58 110.76 110.99 111.22 111.47 111.71 111.73 111.78 111.41 111.56 111.68 111.86 111.95 111.61 112.04 113.01 113.28 113.45 113.65 113.70 112.76 113.72 115.88 116.04 116.06 116.13 116.13 116.08 115.86 115.55 115.08 114.48 113.81 113.16 112.59 112.08 111.65 111.22 110.87 110.54 110.32 110.29 110.31 110.20 111.02 111.23
109.84 110.03 110.15 110.28 110.39 110.55 110.70 110.88 111.11 111.36 111.57 111.81 112.06 112.28 112.50 112.72 112.92 113.17 113.49 113.55 113.02 112.68 112.70 112.74 112.74 113.03 113.32 113.19 115.60 116.06 116.16 116.26 116.24 116.16 115.92 115.59 115.15 114.54 113.89 113.26 112.65 112.10 111.62 111.23 110.87 110.57 110.38 110.42 110.56 110.90 111.23 111.57
109.93 110.12 110.24 110.36 110.49 110.64 110.81 110.97 111.20 111.43 111.67 111.91 112.09 112.32 112.54 112.82 113.09 113.36 113.68 113.93 114.13 114.39 114.55 114.62 114.50 114.33 113.41 113.32 113.35 113.47 113.90 116.18 116.29 116.19 115.95 115.62 115.15 114.56 113.95 113.32 112.74 112.17 111.71 111.28 110.92 110.64 110.55 110.64 110.69 111.19 111.43 111.76
110.03 110.21 110.36 110.47 110.60 110.74 110.87 111.04 111.25 111.46 111.72 111.94 112.18 112.41 112.68 112.92 113.26 113.53 113.82 114.07 114.31 114.53 114.67 114.77 114.79 113.53 113.42 115.49 116.04 115.30 114.00 113.59 113.64 114.44 115.88 115.58 115.15 114.56 113.92 113.34 112.73 112.21 111.72 111.31 110.99 110.82 110.75 110.87 111.10 111.32 111.53 111.85
110.14 110.34 110.50 110.62 110.74 110.89 111.04 111.18 111.38 111.59 111.82 112.05 112.31 112.53 112.76 113.04 113.35 113.65 113.91 114.16 114.40 114.63 114.79 114.88 114.99 112.58 112.82 116.07 116.53 116.66 116.67 116.67 116.42 114.22 113.30 113.16 114.07 114.42 113.89 113.26 112.63 112.12 111.65 111.30 111.08 110.94 110.92 111.04 111.32 111.42 111.62 111.90
110.26 110.43 110.59 110.72 110.88 111.03 111.18 111.34 111.50 111.72 111.99 112.25 112.49 112.71 112.99 113.24 113.51 113.76 114.04 114.26 114.51 114.71 114.87 114.94 115.10 113.57 115.09 116.22 116.37 116.58 116.64 116.63 116.61 116.39 115.97 115.18 113.17 112.70 112.51 113.05 112.53 112.04 111.66 111.34 111.19 111.09 111.09 110.89 111.51 111.57 111.75 111.96
110.40 110.52 110.67 110.85 111.01 111.17 111.29 111.43 111.62 111.83 112.07 112.35 112.60 112.86 113.19 113.43 113.68 113.93 114.19 114.43 114.66 114.84 115.00 115.16 115.17 113.78 116.13 116.29 116.43 116.65 116.82 116.75 116.70 116.49 116.05 115.74 115.07 114.30 113.62 112.56 112.19 112.01 111.70 111.42 111.30 111.27 111.22 111.57 111.70 111.83 112.00 112.25
