ncols 52
nrows 52
xllcorner 441856
yllcorner 5712896
cellsize 10
NODATA_value -9999
110.45 110.60 110.70 110.87 111.02 111.19 111.31 111.46 111.61 111.87 112.12 112.40 112.60 112.88 113.22 113.42 113.72 113.96 114.20 114.46 114.70 114.90 115.01 115.18 115.08 113.81 116.14 116.33 116.52 116.65 116.78 116.73 116.61 116.51 116.24 115.63 115.13 114.37 113.67 112.98 112.30 112.09 111.78 111.38 111.31 111.29 111.23 111.58 111.74 111.86 112.08 112.35
110.58 110.75 110.85 110.99 111.16 111.31 111.44 111.57 111.75 111.95 112.21 112.46 112.75 113.03 113.31 113.57 113.82 114.06 114.31 114.58 114.81 114.99 115.12 115.25 113.79 113.87 116.35 116.48 116.69 116.85 116.93 116.92 116.88 116.68 116.38 115.88 115.31 114.73 114.00 113.54 112.98 112.51 112.28 112.01 112.12 111.78 111.25 111.74 112.02 112.14 112.34 112.62
110.76 110.94 111.10 111.14 111.32 111.46 111.57 111.69 111.85 112.09 112.33 112.62 112.89 113.16 113.42 113.69 113.93 114.21 114.43 114.68 114.93 115.09 115.25 115.39 113.53 114.34 116.50 116.79 116.94 117.05 117.18 117.10 117.04 116.86 116.58 116.17 115.53 114.92 114.26 113.69 113.29 112.77 112.51 112.30 112.07 112.15 112.11 112.49 112.43 112.62 112.77 112.96
110.92 111.11 111.27 111.42 111.56 111.69 111.77 111.86 112.00 112.20 112.45 112.72 112.98 113.24 113.50 113.76 114.04 114.30 114.57 114.83 115.06 115.21 115.30 115.50 114.16 116.40 116.64 116.83 117.07 117.21 117.29 117.26 117.19 117.05 116.80 116.36 115.84 115.23 114.71 114.12 113.56 113.12 112.71 112.44 112.24 112.15 111.85 112.47 112.80 112.99 113.40 113.48
111.13 111.30 111.44 111.61 111.75 111.84 111.92 112.00 112.17 112.40 112.60 112.86 113.11 113.41 113.68 113.93 114.20 114.46 114.71 114.97 115.21 115.35 115.51 115.34 114.40 116.64 116.82 117.12 117.30 117.44 117.43 117.47 117.46 117.23 116.97 116.56 116.02 115.42 114.81 114.34 113.79 113.30 112.88 112.53 112.39 112.21 112.08 112.49 112.89 113.30 113.61 114.02
111.29 111.49 111.66 111.83 111.96 112.02 112.14 112.20 112.36 112.54 112.74 112.98 113.23 113.49 113.73 114.00 114.27 114.54 114.81 115.10 115.35 115.49 115.62 113.86 114.52 116.85 116.89 117.22 117.42 117.58 117.66 117.59 117.53 117.43 117.18 116.84 116.32 115.77 115.18 114.57 114.05 113.54 113.07 112.66 112.39 112.24 112.37 112.71 113.09 113.63 114.06 114.24
111.48 111.74 111.93 112.10 112.19 112.27 112.32 112.45 112.57 112.74 112.93 113.19 113.41 113.64 113.88 114.15 114.42 114.67 114.94 115.21 115.40 115.57 115.69 114.06 115.18 117.10 117.21 117.43 117.63 117.69 117.81 117.78 117.69 117.57 117.33 116.90 116.42 115.91 115.43 114.83 114.24 113.76 113.29 112.86 112.58 112.32 112.64 112.99 113.67 113.89 114.27 114.56
111.70 111.93 112.10 112.27 112.40 112.49 112.52 112.61 112.76 112.93 113.14 113.36 113.59 113.84 114.07 114.33 114.60 114.84 115.12 115.39 115.56 115.73 115.79 114.78 116.96 117.10 117.29 117.57 117.82 117.93 117.89 117.96 117.88 117.74 117.58 117.10 116.66 116.16 115.61 115.06 114.45 113.91 113.46 113.04 112.68 112.40 112.90 113.43 114.10 114.25 114.47 114.76
111.88 112.10 112.31 112.50 112.64 112.69 112.75 112.84 112.95 113.15 113.29 113.50 113.74 114.01 114.28 114.51 114.77 115.06 115.35 115.61 115.74 115.86 115.76 115.05 117.15 117.33 117.57 117.79 117.94 118.04 118.11 118.05 118.05 117.89 117.64 117.31 116.84 116.41 115.83 115.31 114.79 114.21 113.74 113.18 112.74 112.46 113.26 113.77 114.56 114.82 114.82 115.15
112.01 112.29 112.53 112.73 112.84 112.88 112.94 113.04 113.15 113.32 113.49 113.71 113.96 114.21 114.46 114.70 114.97 115.25 115.54 115.76 115.92 116.06 114.19 115.11 117.31 117.43 117.72 117.99 118.14 118.18 118.24 118.24 118.21 118.13 117.85 117.56 117.12 116.69 116.17 115.61 115.04 114.52 113.90 113.38 112.98 112.64 113.51 114.21 115.01 115.24 115.21 115.42
112.29 112.53 112.75 112.94 113.05 113.08 113.14 113.21 113.32 113.47 113.67 113.91 114.16 114.38 114.65 114.90 115.20 115.47 115.72 115.93 116.12 116.29 114.57 115.88 117.58 117.72 117.96 118.13 118.25 118.36 118.39 118.42 118.38 118.21 118.03 117.74 117.35 116.96 116.45 115.92 115.32 114.72 114.13 113.61 113.13 112.78 113.78 114.47 115.45 115.65 115.63 115.75
112.53 112.78 113.01 113.17 113.29 113.29 113.35 113.42 113.54 113.72 113.90 114.07 114.30 114.56 114.82 115.08 115.34 115.62 115.90 116.13 116.27 116.49 115.46 117.47 117.64 117.92 118.15 118.36 118.46 118.51 118.60 118.55 118.55 118.43 118.24 117.98 117.60 117.24 116.72 116.22 115.60 114.94 114.37 113.69 113.33 112.96 113.98 114.76 115.85 116.06 115.96 116.11
112.71 112.94 113.19 113.38 113.50 113.59 113.65 113.70 113.83 113.97 114.13 114.31 114.53 114.76 115.01 115.28 115.57 115.87 116.13 116.25 116.45 116.04 115.69 117.61 117.88 118.07 118.31 118.53 118.67 118.71 118.74 118.70 118.59 118.55 118.37 118.13 117.89 117.51 117.03 116.49 115.87 115.22 114.57 113.99 113.57 113.12 114.15 115.09 116.24 116.42 116.48 116.47
112.75 113.10 113.34 113.52 113.67 113.74 113.84 113.96 114.07 114.13 114.31 114.52 114.74 114.99 115.29 115.53 115.82 116.10 116.33 116.54 116.66 114.58 115.84 117.72 118.06 118.35 118.60 118.75 118.88 118.83 118.83 118.85 118.90 118.74 118.57 118.37 118.10 117.78 117.36 116.79 116.14 115.50 114.74 114.15 113.72 113.23 114.29 115.22 116.43 116.77 116.82 116.88
112.90 113.20 113.48 113.66 113.81 113.90 114.00 114.07 114.19 114.32 114.48 114.62 114.86 115.11 115.38 115.69 116.03 116.33 116.52 116.78 116.74 115.28 116.73 117.96 118.36 118.68 118.90 119.04 119.07 119.15 119.14 119.06 119.04 118.98 118.77 118.65 118.44 118.06 117.58 117.01 116.43 115.76 115.13 114.40 113.94 113.31 114.47 115.40 116.76 117.22 117.13 117.20
113.06 113.35 113.60 113.80 113.93 114.10 114.22 114.35 114.44 114.54 114.65 114.81 115.03 115.24 115.51 115.81 116.11 116.40 116.65 116.91 116.96 116.03 117.96 118.44 118.67 118.94 119.08 119.16 119.24 119.26 119.26 119.22 119.16 119.22 119.11 118.92 118.72 118.38 117.94 117.48 116.74 116.05 115.32 114.68 114.24 113.46 114.76 115.71 116.97 117.55 117.48 117.39
113.32 113.54 113.79 113.96 114.12 114.27 114.45 114.60 114.68 114.78 114.92 115.05 115.22 115.46 115.70 115.96 116.28 116.56 116.83 117.15 116.47 116.28 118.20 118.47 118.82 119.09 119.22 119.29 119.37 119.42 119.44 119.49 119.46 119.45 119.31 119.13 118.90 118.66 118.29 117.71 117.02 116.33 115.56 114.87 114.35 113.59 114.82 115.92 117.12 117.64 117.74 117.62
113.53 113.79 114.02 114.20 114.35 114.54 114.69 114.79 114.85 114.97 115.09 115.24 115.44 115.65 115.90 116.18 116.47 116.78 117.06 117.35 115.37 116.28 118.39 118.65 118.97 119.20 119.35 119.42 119.51 119.55 119.58 119.61 119.55 119.52 119.45 119.26 119.06 118.85 118.54 118.00 117.36 116.77 115.84 114.99 114.43 113.41 114.76 115.57 117.25 117.82 117.85 117.92
113.74 114.01 114.21 114.40 114.58 114.75 114.89 114.99 115.08 115.16 115.29 115.46 115.65 115.85 116.11 116.36 116.67 117.00 117.27 117.52 116.36 117.39 118.57 118.85 119.15 119.35 119.53 119.62 119.72 119.78 119.79 119.79 119.75 119.71 119.65 119.49 119.27 119.08 118.74 118.21 117.51 116.85 116.03 115.18 114.57 113.53 114.78 115.79 117.44 118.10 118.19 118.06
113.99 114.24 114.47 114.66 114.82 115.00 115.17 115.24 115.30 115.38 115.47 115.61 115.78 116.01 116.27 116.55 116.86 117.18 117.44 117.71 116.76 118.53 118.72 119.03 119.34 119.55 119.73 119.87 119.96 120.06 120.06 120.07 120.04 119.96 119.90 119.71 119.53 119.29 118.97 118.40 117.69 116.97 116.17 115.34 114.78 113.67 114.88 115.96 117.69 118.07 118.38 118.21
114.19 114.42 114.66 114.89 115.09 115.28 115.41 115.50 115.57 115.65 115.74 115.86 116.03 116.21 116.49 116.76 117.02 117.32 117.65 117.79 116.97 118.67 118.90 119.22 119.52 119.76 119.96 120.14 120.29 120.38 120.38 120.36 120.35 120.29 120.20 120.01 119.82 119.53 119.18 118.57 117.81 117.12 116.30 115.55 114.98 113.77 114.99 116.08 117.79 118.34 118.49 118.42
114.38 114.62 114.89 115.12 115.30 115.46 115.60 115.70 115.78 115.85 115.94 116.06 116.22 116.45 116.70 116.96 117.25 117.53 117.86 117.23 117.05 118.79 119.08 119.40 119.68 119.96 120.17 120.35 120.56 120.65 120.62 120.63 120.59 120.55 120.47 120.26 120.02 119.76 119.30 118.65 117.84 117.16 116.36 115.64 115.06 113.92 115.07 116.05 117.65 118.54 118.65 118.61
114.51 114.81 115.06 115.28 115.49 115.64 115.78 115.86 115.97 116.05 116.14 116.29 116.45 116.64 116.88 117.14 117.43 117.70 118.03 116.36 117.07 118.92 119.21 119.54 119.82 120.10 120.33 120.50 120.73 120.80 120.75 120.75 120.75 120.72 120.62 120.46 120.19 119.88 119.32 118.60 117.81 117.15 116.25 115.50 114.97 114.43 115.10 116.03 118.21 118.67 118.75 118.81
114.78 115.06 115.29 115.48 115.67 115.84 115.96 116.07 116.13 116.19 116.31 116.49 116.61 116.80 117.03 117.27 117.56 117.80 118.15 117.32 117.56 119.08 119.35 119.68 119.98 120.26 120.46 120.68 120.88 120.90 120.85 120.86 120.85 120.81 120.72 120.59 120.34 119.95 119.38 118.53 117.73 116.89 116.12 115.42 114.87 114.61 115.11 116.75 118.45 118.85 118.89 118.94
114.94 115.21 115.48 115.71 115.88 116.04 116.17 116.29 116.40 116.50 116.60 116.69 116.84 117.01 117.20 117.43 117.71 117.94 118.26 117.51 118.90 119.19 119.50 119.82 120.11 120.40 120.61 120.85 121.02 121.02 120.98 120.97 120.92 120.93 120.82 120.71 120.43 120.02 119.36 118.52 117.68 116.84 116.07 115.42 114.83 114.44 115.58 117.18 118.70 118.96 118.99 119.06
115.13 115.44 115.70 115.92 116.09 116.25 116.38 116.51 116.60 116.68 116.79 116.93 117.07 117.25 117.44 117.65 117.91 118.15 118.43 117.69 119.24 119.31 119.60 119.95 120.27 120.54 120.77 120.97 121.17 121.18 121.12 121.08 121.05 121.06 120.99 120.87 120.56 120.10 119.35 118.50 117.65 116.78 116.04 115.44 114.47 114.85 116.03 117.71 118.92 119.15 119.13 119.19
115.30 115.61 115.85 116.08 116.25 116.40 116.54 116.67 116.77 116.86 116.99 117.10 117.26 117.44 117.64 117.85 118.10 118.35 118.55 117.83 119.28 119.43 119.75 120.07 120.39 120.67 120.89 121.12 121.33 121.33 121.27 121.22 121.22 121.19 121.12 121.00 120.67 120.13 119.33 118.43 117.65 116.74 115.97 115.43 114.38 115.36 116.38 118.34 119.14 119.35 119.27 119.35
115.55 115.81 116.03 116.27 116.45 116.58 116.72 116.82 116.91 117.03 117.14 117.26 117.41 117.58 117.78 118.02 118.25 118.49 118.38 117.91 119.33 119.54 119.87 120.22 120.55 120.83 121.02 121.26 121.46 121.48 121.42 121.37 121.36 121.33 121.24 121.10 120.76 120.13 119.29 118.33 117.62 116.71 115.93 115.38 114.69 115.65 116.88 118.88 119.34 119.50 119.41 119.51
115.73 116.00 116.21 116.43 116.64 116.78 116.90 117.01 117.13 117.21 117.30 117.45 117.59 117.78 117.97 118.18 118.40 118.68 117.50 117.79 119.51 119.73 120.03 120.38 120.67 120.98 121.13 121.37 121.57 121.60 121.54 121.49 121.50 121.45 121.37 121.17 120.79 120.08 119.16 118.24 117.58 116.61 115.79 115.00 114.98 115.87 117.46 119.15 119.48 119.62 119.60 119.69
115.93 116.16 116.36 116.60 116.81 116.97 117.09 117.18 117.27 117.38 117.50 117.64 117.80 117.99 118.18 118.40 118.61 118.90 117.57 118.16 119.76 119.97 120.28 120.58 120.85 121.11 121.30 121.53 121.69 121.68 121.61 121.62 121.61 121.53 121.43 121.18 120.79 120.00 119.03 118.10 117.28 116.56 115.74 114.56 115.33 116.15 118.01 119.36 119.63 119.72 119.77 119.91
116.11 116.34 116.58 116.78 116.98 117.14 117.26 117.37 117.47 117.56 117.67 117.81 117.97 118.16 118.38 118.59 118.84 119.09 118.30 118.64 119.34 119.96 120.43 120.69 121.00 121.28 121.47 121.70 121.84 121.83 121.79 121.75 121.76 121.62 121.47 121.15 120.63 119.82 118.89 117.96 117.22 116.47 115.68 114.88 115.58 116.54 118.54 119.53 119.71 119.86 119.92 120.07
116.31 116.54 116.76 117.00 117.19 117.33 117.44 117.56 117.68 117.77 117.88 118.01 118.16 118.35 118.54 118.80 119.02 119.21 118.49 119.47 120.02 120.34 120.60 120.88 121.17 121.46 121.73 121.89 122.11 122.14 121.97 121.83 121.85 121.73 121.45 121.04 120.44 119.68 118.87 117.97 117.17 116.23 115.30 115.35 116.03 117.06 119.08 119.74 119.92 120.04 120.13 120.23
116.54 116.78 117.00 117.21 117.40 117.55 117.68 117.75 117.80 117.91 118.04 118.16 118.35 118.51 118.68 118.92 119.15 119.37 118.62 119.87 120.04 120.33 120.66 120.95 121.17 121.40 121.62 121.86 122.06 122.19 122.26 122.25 122.21 122.06 121.72 121.15 120.39 119.59 118.83 118.06 117.12 116.36 115.10 116.09 116.34 117.82 119.49 119.99 120.22 120.30 120.36 120.41
116.72 116.97 117.18 117.39 117.60 117.75 117.85 117.93 118.05 118.13 118.24 118.38 118.54 118.71 118.90 119.12 119.28 119.57 118.71 120.06 120.26 120.49 120.79 121.08 121.33 121.57 121.78 121.96 122.13 122.27 122.32 122.29 122.18 121.94 121.50 120.96 120.37 119.42 117.72 117.18 116.82 116.60 115.25 116.26 117.06 118.97 119.88 120.42 120.67 120.66 120.55 120.54
116.88 117.11 117.35 117.56 117.76 117.92 118.04 118.12 118.21 118.30 118.42 118.56 118.73 118.92 119.08 119.31 119.53 119.62 118.75 120.24 120.45 120.65 120.95 121.21 121.46 121.69 121.89 122.08 122.22 122.33 122.38 122.37 122.27 121.99 121.56 121.00 120.43 119.58 117.82 117.25 116.92 116.71 114.89 115.90 116.43 119.67 120.23 120.59 120.78 120.86 120.93 121.03
117.02 117.29 117.52 117.74 117.92 118.11 118.21 118.28 118.37 118.47 118.58 118.73 118.90 119.07 119.28 119.48 119.67 119.42 118.65 120.38 120.57 120.81 121.08 121.36 121.58 121.80 122.00 122.19 122.31 122.37 122.43 122.43 122.30 122.01 121.56 121.00 120.42 119.66 118.23 117.59 117.02 116.72 115.60 116.00 116.43 119.04 120.45 120.68 120.99 121.14 121.20 121.26
117.17 117.45 117.69 117.90 118.10 118.28 118.40 118.50 118.55 118.64 118.76 118.90 119.06 119.23 119.43 119.64 119.83 118.62 118.79 120.55 120.73 120.97 121.27 121.52 121.75 121.95 122.13 122.26 122.38 122.45 122.48 122.48 122.32 122.01 121.58 121.08 120.51 119.82 119.16 118.07 117.34 116.89 116.39 115.83 116.54 118.58 120.49 120.81 121.08 121.21 121.32 121.37
117.35 117.61 117.85 118.06 118.24 118.41 118.57 118.67 118.74 118.83 118.93 119.06 119.22 119.41 119.60 119.83 120.02 119.43 119.13 120.65 120.91 121.17 121.45 121.68 121.90 122.10 122.26 122.40 122.51 122.53 122.55 122.54 122.40 122.11 121.69 121.20 120.71 120.10 119.56 118.53 117.68 117.10 117.06 115.77 116.58 117.93 120.61 120.93 121.11 121.33 121.44 121.49
117.44 117.72 117.98 118.20 118.40 118.57 118.69 118.79 118.90 118.98 119.08 119.22 119.34 119.53 119.77 119.93 120.16 119.16 119.71 120.94 121.12 121.29 121.55 121.79 122.01 122.20 122.35 122.43 122.50 122.63 122.68 122.63 122.45 122.19 121.85 121.43 121.04 120.57 119.81 118.96 118.03 117.38 117.14 115.38 116.64 117.05 120.02 120.97 121.23 121.45 121.54 121.64
117.55 117.84 118.10 118.33 118.53 118.68 118.83 118.92 119.00 119.12 119.24 119.36 119.49 119.66 119.82 120.00 120.30 119.22 120.07 121.04 121.17 121.40 121.67 121.87 122.08 122.29 122.47 122.60 122.68 122.74 122.74 122.67 122.50 122.28 122.01 121.73 121.35 120.74 120.01 119.38 118.43 117.62 117.26 115.25 116.57 116.85 118.79 120.98 121.35 121.47 121.65 121.77
117.72 118.01 118.26 118.52 118.72 118.89 119.00 119.08 119.17 119.29 119.40 119.49 119.63 119.79 119.95 120.14 120.41 119.21 120.36 121.14 121.25 121.50 121.72 121.99 122.20 122.35 122.54 122.67 122.75 122.82 122.81 122.69 122.53 122.39 122.18 121.94 121.56 121.04 120.46 119.79 118.82 117.94 117.38 115.32 116.74 116.99 117.78 120.30 121.37 121.57 121.79 121.95
117.88 118.19 118.46 118.69 118.89 119.06 119.17 119.26 119.35 119.44 119.54 119.66 119.80 119.95 120.11 120.29 120.54 119.28 120.66 121.25 121.39 121.60 121.83 122.07 122.29 122.44 122.61 122.71 122.81 122.90 122.90 122.83 122.65 122.50 122.34 122.10 121.76 121.25 120.71 120.08 119.20 118.33 117.61 115.77 116.71 117.22 117.48 118.94 121.37 121.73 121.87 122.17
118.02 118.35 118.62 118.86 119.06 119.22 119.35 119.44 119.53 119.64 119.72 119.85 120.00 120.14 120.29 120.45 120.69 119.44 120.88 121.38 121.52 121.76 121.94 122.18 122.36 122.54 122.70 122.81 122.90 122.98 122.99 122.91 122.79 122.65 122.50 122.28 121.95 121.49 120.92 120.39 119.65 118.78 117.88 116.81 116.90 117.27 117.50 118.08 121.08 121.77 121.99 122.26
118.18 118.48 118.77 119.01 119.21 119.35 119.49 119.62 119.71 119.82 119.94 120.07 120.21 120.35 120.51 120.66 120.88 119.46 120.85 121.45 121.64 121.88 122.06 122.28 122.43 122.61 122.77 122.89 122.98 123.05 123.02 122.98 122.90 122.81 122.68 122.45 122.18 121.79 121.19 120.68 120.06 119.21 118.21 117.63 116.79 117.10 117.42 117.76 119.40 121.72 122.07 122.28
118.30 118.60 118.88 119.14 119.33 119.51 119.65 119.76 119.89 120.03 120.14 120.22 120.35 120.51 120.67 120.80 121.03 119.47 120.91 121.53 121.73 121.95 122.15 122.39 122.52 122.68 122.85 122.98 123.08 123.15 123.12 123.09 123.04 122.96 122.82 122.65 122.43 122.08 121.56 121.01 120.43 119.64 118.58 117.81 116.49 117.00 117.25 117.68 118.36 121.67 122.02 122.23
118.41 118.66 118.95 119.21 119.45 119.65 119.79 119.92 120.07 120.18 120.31 120.42 120.54 120.67 120.81 121.00 121.17 119.57 121.01 121.65 121.81 122.07 122.27 122.46 122.61 122.77 122.94 123.06 123.20 123.26 123.22 123.20 123.19 123.11 123.01 122.87 122.69 122.37 121.90 121.33 120.78 120.03 119.08 118.15 117.78 116.92 117.19 117.61 118.02 119.52 121.90 122.23
118.53 118.75 119.02 119.28 119.52 119.74 119.91 120.07 120.19 120.33 120.47 120.58 120.69 120.81 120.96 121.10 121.29 119.71 121.14 121.81 121.92 122.15 122.37 122.55 122.70 122.85 123.03 123.18 123.30 123.36 123.35 123.35 123.35 123.26 123.24 123.11 122.96 122.70 122.26 121.71 121.16 120.49 119.57 118.57 117.98 116.76 117.23 117.47 117.95 118.65 121.76 122.24
118.65 118.85 119.10 119.38 119.64 119.88 120.06 120.23 120.39 120.51 120.63 120.77 120.88 120.96 121.08 121.23 121.42 119.82 120.98 121.92 122.04 122.24 122.44 122.61 122.75 122.92 123.11 123.27 123.37 123.44 123.43 123.46 123.49 123.44 123.46 123.33 123.22 123.01 122.60 122.11 121.56 120.94 120.10 119.10 118.27 117.97 117.29 117.45 117.94 118.42 121.10 122.21
118.83 119.00 119.19 119.46 119.74 119.99 120.22 120.41 120.54 120.68 120.81 120.93 121.07 121.17 121.28 121.43 121.59 119.93 121.00 122.04 122.15 122.35 122.51 122.72 122.82 123.02 123.23 123.36 123.44 123.49 123.51 123.59 123.65 123.62 123.65 123.57 123.49 123.29 122.95 122.52 121.99 121.37 120.62 119.54 118.60 118.10 116.96 117.48 117.85 118.45 120.50 122.27
119.18 119.27 119.41 119.60 119.89 120.16 120.39 120.56 120.69 120.80 120.97 121.10 121.25 121.36 121.49 121.65 121.67 119.99 120.96 122.17 122.27 122.45 122.60 122.80 122.91 123.10 123.31 123.45 123.50 123.57 123.60 123.74 123.82 123.83 123.88 123.83 123.75 123.59 123.28 122.89 122.42 121.77 121.07 120.03 119.02 118.31 118.03 117.51 117.80 118.36 119.65 122.41
119.36 119.46 119.57 119.73 119.99 120.28 120.55 120.77 120.96 121.08 121.22 121.37 121.47 121.57 121.66 121.78 121.78 121.28 121.04 122.30 122.38 122.56 122.68 122.89 123.01 123.19 123.40 123.54 123.59 123.65 123.71 123.88 124.00 124.06 124.09 124.06 124.01 123.87 123.58 123.21 122.74 122.14 121.43 120.47 119.48 118.62 118.15 117.36 117.79 118.35 118.82 122.32
119.57 119.67 119.71 119.87 120.12 120.42 120.70 120.93 121.10 121.24 121.40 121.54 121.63 121.75 121.84 121.92 122.11 120.25 120.94 122.48 122.53 122.68 122.79 122.99 123.10 123.28 123.49 123.58 123.66 123.76 123.84 124.01 124.17 124.24 124.30 124.27 124.23 124.11 123.85 123.49 123.06 122.47 121.76 120.90 119.86 118.96 118.35 118.18 117.81 118.29 118.67 120.77
