ncols 52
nrows 52
xllcorner 441856
yllcorner 5715968
cellsize 10
NODATA_value -9999
99.81 99.73 99.63 99.57 99.43 99.31 99.20 99.12 99.08 98.99 98.95 98.95 98.89 98.85 98.83 99.02 98.97 98.99 99.02 99.03 99.04 99.02 98.97 98.92 98.92 98.89 98.85 98.80 98.75 98.69 98.59 98.57 98.45 98.43 98.34 98.18 97.91 98.16 98.08 97.37 97.05 97.24 96.60 96.34 96.29 95.99 95.90 95.75 95.62 94.87 94.62 94.39
99.89 99.81 99.74 99.65 99.51 99.40 99.33 99.28 99.25 99.19 99.13 99.14 99.09 99.06 99.07 99.27 99.17 99.20 99.25 99.28 99.27 99.22 99.16 99.13 99.11 99.07 99.03 98.96 98.89 98.81 98.73 98.67 98.60 98.55 98.41 98.22 97.99 97.67 97.59 97.07 97.01 96.78 96.36 96.46 96.28 95.94 95.78 95.47 95.47 94.79 94.60 94.31
100.02 99.98 99.89 99.75 99.69 99.64 99.59 99.54 99.47 99.42 99.38 99.35 99.32 99.28 99.45 99.51 99.40 99.38 99.44 99.49 99.51 99.44 99.35 99.30 99.26 99.25 99.18 99.13 99.04 98.93 98.84 98.77 98.74 98.67 98.54 98.27 97.96 97.87 97.84 97.25 96.86 96.53 96.24 96.18 95.89 95.83 95.77 95.91 95.20 94.77 94.47 94.32
100.25 100.18 100.07 99.97 99.96 99.89 99.83 99.76 99.71 99.61 99.60 99.56 99.53 99.55 99.72 99.66 99.60 99.57 99.60 99.63 99.66 99.57 99.50 99.40 99.36 99.32 99.25 99.18 99.08 98.96 98.87 98.79 98.82 98.71 98.68 98.21 97.97 97.95 98.05 97.41 97.18 96.63 96.29 96.10 95.84 95.69 95.44 95.20 95.00 94.79 94.57 94.42
100.73 100.55 100.27 100.10 100.00 99.98 99.99 99.96 99.93 99.85 99.82 99.77 99.77 99.81 99.89 99.79 99.70 99.71 99.69 99.73 99.75 99.65 99.53 99.43 99.39 99.32 99.24 99.15 99.06 98.90 98.80 98.71 98.61 98.58 98.63 98.09 97.93 97.87 97.48 97.23 97.49 96.42 96.33 96.06 95.95 95.87 95.67 95.56 95.19 95.03 94.68 94.50
101.00 100.98 100.69 100.70 100.72 100.53 100.48 101.58 101.01 100.27 99.96 99.90 99.93 100.02 100.00 99.93 99.83 99.79 99.79 99.79 99.81 99.71 99.57 99.46 99.39 99.35 99.25 99.13 99.02 98.88 98.74 98.65 98.98 98.71 98.45 98.03 97.89 97.50 97.21 97.08 96.72 96.51 96.26 95.97 95.95 95.84 95.68 95.44 95.18 95.16 94.91 94.57
100.99 100.93 100.69 100.62 100.55 100.57 100.61 100.60 100.69 100.60 100.71 100.96 101.32 101.36 100.25 100.08 99.93 99.92 99.91 99.89 99.88 99.78 99.63 99.51 99.43 99.37 99.27 99.15 99.03 98.88 98.70 98.68 99.00 98.99 98.48 97.97 97.88 97.49 97.27 96.78 96.48 96.29 95.97 95.75 95.82 95.90 95.64 95.24 95.12 95.18 94.83 95.04
100.99 100.97 100.75 100.57 100.53 100.62 100.58 100.57 100.60 100.60 100.53 100.54 100.60 101.36 100.31 100.18 100.02 100.00 100.00 99.99 99.96 99.85 99.66 99.55 99.47 99.39 99.28 99.15 98.98 98.84 98.69 98.80 98.86 98.65 98.29 97.94 97.79 97.36 97.16 96.78 96.55 96.30 95.94 95.65 95.86 95.85 95.55 95.21 95.19 95.13 94.83 94.51
101.02 101.20 100.68 100.55 100.54 100.72 100.71 100.55 100.63 100.59 100.54 100.52 100.64 100.88 100.33 100.24 100.17 100.13 100.09 100.05 100.01 99.88 99.68 99.55 99.46 99.38 99.24 99.13 98.96 98.79 98.71 98.82 98.84 98.93 98.27 97.96 97.59 97.30 97.10 96.62 96.40 96.32 96.02 95.58 96.01 95.68 95.55 95.17 95.17 95.02 94.70 94.42
101.07 101.04 100.85 100.86 100.80 100.71 100.65 100.54 100.63 100.59 100.50 100.45 100.72 100.67 100.45 100.28 100.23 100.19 100.13 100.10 100.03 99.88 99.69 99.55 99.46 99.36 99.23 99.09 98.92 98.72 98.60 98.52 98.35 98.38 98.01 97.83 97.55 97.25 96.97 96.58 96.11 96.23 95.91 95.57 95.87 95.53 95.21 94.98 94.71 94.94 94.58 94.26
101.13 100.86 100.82 100.89 100.87 100.82 100.84 100.85 100.67 100.72 100.71 100.47 100.79 100.65 100.47 100.36 100.24 100.21 100.17 100.14 100.07 99.87 99.68 99.52 99.40 99.32 99.19 99.06 98.91 98.74 98.60 98.41 98.38 98.34 97.90 97.66 97.35 97.06 97.20 96.56 96.28 96.02 95.61 95.57 95.06 94.69 95.13 94.96 94.67 94.54 94.26 94.28
101.21 100.92 100.85 100.89 100.87 100.81 100.84 100.86 101.02 102.13 100.79 100.73 101.48 100.71 100.43 100.35 100.27 100.22 100.20 100.16 100.04 99.87 99.65 99.52 99.40 99.28 99.18 99.04 98.94 98.72 98.62 98.41 98.33 98.21 97.79 97.69 97.18 96.93 96.85 96.43 96.26 96.10 95.57 95.96 94.94 94.92 94.93 95.00 94.60 94.34 94.12 93.94
101.23 100.94 100.86 100.90 100.87 100.80 100.85 100.85 100.76 100.51 100.49 100.61 100.74 100.73 100.45 100.35 100.26 100.22 100.18 100.13 100.02 99.82 99.62 99.50 99.40 99.26 99.15 99.07 98.90 98.47 98.62 98.43 98.33 98.08 97.70 97.59 97.28 96.98 96.60 96.42 96.13 95.75 95.47 95.89 94.90 94.92 94.94 94.74 94.50 94.33 94.04 93.96
101.57 101.38 100.90 100.82 100.84 100.83 100.86 100.80 100.61 100.47 100.44 100.47 100.67 100.69 100.44 100.31 100.26 100.23 100.14 100.10 99.98 99.78 99.57 99.42 99.33 99.19 99.10 99.03 98.83 97.89 98.69 98.49 98.34 97.94 97.82 97.64 97.24 96.85 96.60 96.39 96.09 95.98 95.46 96.12 94.82 94.88 94.76 94.67 94.40 94.09 93.90 93.93
101.62 101.63 101.35 102.76 101.80 102.22 102.00 101.64 100.49 100.45 100.42 100.46 100.72 100.58 100.38 100.29 100.25 100.17 100.10 100.04 99.92 99.73 99.49 99.38 99.26 99.14 99.06 98.95 98.74 98.11 98.49 98.32 98.23 97.82 97.46 97.28 97.25 97.06 96.77 96.47 96.11 95.61 95.96 95.72 94.78 94.79 94.75 94.29 94.16 94.00 93.79 94.06
101.33 101.32 101.40 101.78 101.76 101.36 101.58 102.04 100.49 100.43 100.44 100.49 100.65 100.42 100.35 100.23 100.15 100.09 100.07 100.03 99.88 99.65 99.45 99.32 99.21 99.07 98.99 98.91 98.64 98.03 98.37 98.16 98.13 97.68 97.37 97.18 96.83 96.51 96.18 95.90 95.85 95.51 95.40 95.12 94.68 94.81 94.57 94.18 94.07 93.83 93.78 93.47
101.41 101.36 101.32 101.39 101.43 101.39 101.07 101.31 100.57 100.69 100.49 100.43 100.82 100.41 100.27 100.22 100.13 100.07 100.03 99.99 99.84 99.62 99.43 99.30 99.16 99.02 98.95 98.83 98.57 98.34 98.19 98.04 97.95 97.52 97.35 97.23 96.81 96.62 96.24 96.13 96.35 95.88 95.40 95.06 94.79 94.65 94.65 94.32 93.97 93.97 93.83 93.56
101.46 101.40 101.35 101.32 101.65 101.37 101.14 100.96 100.87 100.45 100.47 100.51 100.53 100.41 100.26 100.15 100.17 100.04 100.01 99.93 99.80 99.57 99.39 99.21 99.11 98.94 98.88 98.68 98.41 98.29 97.99 97.91 97.78 97.39 97.36 97.41 96.72 96.67 96.49 96.34 96.15 95.96 95.29 94.97 94.75 94.62 94.46 94.31 94.14 93.59 93.41 93.53
101.56 101.52 101.47 101.42 101.37 101.12 100.97 100.78 100.68 100.41 100.48 100.61 100.48 100.31 100.23 100.16 100.13 100.06 100.01 99.93 99.74 99.59 99.32 99.14 98.99 98.85 98.71 98.61 97.86 98.24 97.83 97.80 97.58 97.35 97.60 97.04 96.77 96.38 96.17 96.01 95.69 95.62 95.15 94.82 94.68 94.59 94.29 94.24 94.00 93.50 93.31 93.50
101.54 101.50 101.46 101.42 101.42 101.15 100.97 100.78 100.66 100.47 100.46 100.52 100.43 100.28 100.14 100.13 100.05 100.00 99.94 99.87 99.70 99.51 99.31 99.12 98.93 98.83 98.70 98.54 97.89 98.04 97.72 97.71 97.48 97.60 97.61 97.72 97.07 96.69 96.26 95.22 95.29 95.46 94.89 94.90 94.76 94.34 94.22 94.20 93.94 93.72 93.44 93.54
101.53 101.51 101.46 101.33 101.47 101.24 101.03 100.82 100.59 100.46 100.43 100.51 100.42 100.21 100.16 100.19 100.83 100.93 100.81 100.89 99.71 99.50 99.23 99.06 98.90 98.77 98.65 98.44 97.87 97.94 97.79 97.56 97.40 97.39 97.08 96.88 96.72 96.67 96.52 96.15 95.81 95.34 94.72 94.68 94.33 94.02 94.13 94.02 93.82 93.38 93.54 93.69
101.53 101.50 101.45 101.30 101.43 101.17 100.93 100.76 100.64 100.37 100.36 100.49 100.37 100.64 100.57 102.73 102.48 100.08 99.82 99.65 99.62 99.48 99.24 98.08 98.95 98.69 98.59 98.49 98.32 97.85 97.68 97.47 97.26 97.25 96.89 96.56 96.27 96.05 96.10 95.82 95.70 95.44 94.65 94.59 94.41 94.01 94.19 93.99 93.78 93.25 93.65 93.53
101.53 101.49 101.45 101.31 101.30 101.26 100.51 100.44 100.40 100.57 100.34 100.15 100.43 101.90 104.03 103.69 100.09 99.95 99.71 99.57 99.62 99.61 99.22 99.04 98.90 98.62 98.58 98.55 98.55 97.58 97.50 97.42 97.07 97.32 97.28 96.48 96.45 96.31 96.09 95.57 95.60 94.97 94.58 94.67 94.38 94.20 93.93 93.97 93.82 93.17 93.70 93.49
101.51 101.47 101.43 101.35 101.31 100.99 100.49 100.43 100.41 100.47 100.64 100.31 100.13 100.61 101.13 102.50 99.92 99.75 99.75 99.78 99.46 99.38 99.06 98.75 98.75 98.52 98.70 98.47 98.50 97.61 97.47 97.33 97.08 97.15 96.66 96.37 96.63 96.60 96.28 95.70 95.35 95.02 94.80 94.42 94.29 94.06 93.88 93.90 93.65 93.29 93.13 93.21
101.51 101.47 101.43 101.35 101.29 100.87 100.49 100.40 100.42 100.49 100.61 100.35 100.04 100.30 101.38 101.67 99.77 99.69 99.61 99.54 99.41 99.38 99.06 98.76 98.54 98.60 97.67 98.22 97.72 97.67 97.56 97.18 97.21 97.11 96.80 96.12 96.04 96.08 96.21 95.72 95.22 95.26 95.22 94.50 94.31 94.08 93.90 93.95 93.78 93.78 93.26 93.08
101.50 101.46 101.41 101.44 101.32 100.79 100.48 100.40 100.44 100.51 100.43 100.06 99.86 100.05 102.05 100.58 99.55 99.44 99.32 99.38 99.48 99.23 98.84 98.68 98.30 98.31 98.59 97.37 97.91 97.70 97.58 97.04 97.22 97.00 96.17 95.89 95.66 95.57 95.55 95.48 95.01 95.16 94.93 94.56 94.44 94.10 93.82 93.72 94.05 93.96 93.25 93.56
101.49 101.45 101.33 101.44 101.26 100.72 100.33 99.81 100.30 100.52 100.06 99.87 99.82 99.89 102.62 100.34 99.45 99.34 100.17 98.97 98.97 98.85 98.87 98.38 98.29 97.97 98.10 97.74 97.64 97.65 97.55 96.94 97.22 97.47 96.08 95.88 95.62 95.46 95.34 95.19 95.10 95.01 94.76 94.72 94.42 93.97 93.82 93.68 93.77 93.64 93.28 93.35
101.47 101.44 101.31 101.34 100.99 100.72 100.38 100.07 99.78 99.68 99.85 99.89 99.81 99.90 103.35 99.87 99.40 99.39 99.18 98.95 98.85 98.70 98.43 98.46 98.50 98.27 97.69 97.40 97.26 97.34 97.17 96.81 96.93 96.46 96.13 95.75 95.50 95.42 95.25 94.83 94.95 94.88 94.60 94.49 94.41 93.97 93.86 93.59 93.41 93.30 93.60 92.87
101.47 101.43 101.31 101.22 100.43 100.21 100.16 100.28 99.63 99.53 99.60 99.79 99.67 99.87 103.59 99.60 99.27 99.13 99.00 98.99 98.53 98.72 98.42 98.44 98.50 97.92 97.62 97.59 97.53 97.11 97.07 96.80 96.92 97.26 95.75 95.70 95.47 95.35 95.09 94.88 94.89 94.58 94.33 94.31 94.30 94.07 93.92 93.70 93.32 93.57 93.09 95.04
101.32 101.31 101.38 100.90 100.28 100.08 99.92 100.78 99.53 99.53 99.49 99.62 99.58 99.86 103.06 99.31 99.18 99.04 98.97 98.84 97.01 98.47 98.28 98.24 97.96 97.92 97.76 97.59 97.08 96.96 96.96 96.84 96.88 96.56 95.89 95.81 95.60 95.26 94.62 94.85 94.28 94.14 94.16 94.15 94.06 93.95 93.75 93.38 93.55 93.83 94.32 94.96
101.32 101.38 101.31 100.11 100.04 99.97 99.99 100.26 99.45 99.37 99.35 99.58 99.43 99.97 102.12 99.18 99.10 98.92 99.00 98.56 98.44 98.38 98.26 98.44 97.95 97.79 97.60 96.73 97.03 96.97 96.79 96.78 96.91 96.94 95.91 95.73 95.74 95.08 94.71 94.43 94.21 94.16 94.14 94.07 93.89 93.88 93.48 93.45 93.79 93.90 95.09 94.43
101.69 101.39 100.90 99.99 100.11 100.10 100.06 99.79 99.35 99.59 99.34 99.54 99.36 100.99 100.60 99.14 98.99 98.83 98.77 98.64 98.55 98.30 98.16 98.09 97.86 97.89 97.72 96.93 96.89 96.90 96.71 96.43 95.94 95.69 95.79 95.50 95.42 94.74 94.82 94.33 94.22 94.15 94.08 94.00 93.82 93.49 93.50 93.81 93.82 94.93 94.81 93.75
101.85 101.39 100.27 100.09 100.12 100.10 100.07 99.65 99.27 99.17 99.20 99.42 99.43 102.83 99.06 98.95 98.82 98.67 98.79 98.35 98.28 98.21 98.03 97.82 97.83 97.64 97.60 97.20 96.66 96.71 96.53 96.12 95.94 95.77 95.56 95.11 95.02 95.08 94.53 94.36 94.17 94.12 94.05 93.78 93.49 93.68 93.82 93.81 94.14 95.31 93.70 93.23
100.51 100.66 100.06 100.10 100.11 100.09 100.06 99.33 99.39 99.28 99.38 99.32 102.21 100.09 98.60 98.81 98.71 98.46 98.80 98.27 98.22 98.19 97.68 97.71 97.52 97.45 97.58 96.88 96.63 96.68 96.46 96.10 96.32 95.92 95.94 95.10 95.14 94.72 94.61 94.47 94.24 93.96 93.73 93.64 93.76 93.78 93.81 93.84 95.39 94.48 93.22 93.28
100.40 100.10 99.82 99.77 99.79 99.88 99.74 99.41 99.16 98.96 99.14 99.32 102.02 99.10 98.44 98.61 98.65 98.39 98.01 97.86 97.90 98.08 97.66 97.68 97.48 97.20 96.99 96.84 96.66 96.32 96.28 96.10 95.79 95.63 95.49 95.01 94.89 94.71 94.76 94.60 94.07 93.72 93.70 93.86 93.83 93.82 93.75 94.73 95.31 93.40 93.21 93.34
100.29 99.97 99.68 99.75 99.75 99.33 99.15 99.01 99.03 99.25 98.82 99.03 100.00 98.65 98.48 98.71 98.65 98.29 97.90 97.83 97.79 97.89 97.55 97.60 97.44 96.85 96.89 96.78 96.47 96.06 96.15 96.14 95.74 95.52 95.30 95.00 94.72 94.57 94.72 93.83 93.76 93.90 93.97 93.98 93.82 93.80 93.67 95.39 94.93 93.01 93.25 93.43
100.25 99.94 99.71 99.55 99.34 99.27 99.17 98.93 98.97 98.79 98.64 98.45 98.29 98.20 98.15 98.57 98.80 98.00 97.97 97.88 97.82 97.77 96.66 96.63 96.72 96.55 96.99 96.72 96.60 95.95 95.95 96.45 95.46 95.14 95.09 94.90 94.44 94.32 93.85 93.77 93.85 94.04 94.04 93.78 93.58 93.62 94.67 95.37 93.72 93.57 93.56 93.61
100.16 99.92 99.75 99.67 99.47 99.29 99.15 98.86 98.71 98.64 98.53 98.38 98.24 98.20 97.95 97.72 97.57 97.33 97.23 97.24 97.31 96.82 96.67 96.64 96.55 96.21 96.22 96.38 95.81 95.88 95.84 95.47 95.14 94.90 94.76 94.56 94.22 93.93 94.18 94.31 92.90 93.11 93.09 93.17 93.24 93.62 95.53 93.88 93.69 93.43 93.53 93.53
100.04 99.83 99.64 99.57 99.36 99.23 99.15 98.74 98.48 98.43 98.31 98.22 98.35 98.26 98.07 97.75 97.50 97.33 97.18 97.07 96.75 96.59 96.36 96.21 96.19 96.04 95.78 95.63 95.54 95.79 95.81 95.62 95.14 94.61 94.54 94.36 94.01 94.36 94.35 94.49 92.87 92.91 92.89 92.96 93.03 95.01 95.41 93.47 93.57 93.57 93.49 93.42
99.93 99.72 99.54 99.42 99.24 99.14 99.06 98.61 98.44 98.53 98.49 98.44 98.46 98.41 98.22 98.01 97.56 97.46 97.27 97.11 96.74 96.63 96.64 96.30 96.06 95.72 95.60 95.53 95.25 95.08 94.88 94.67 94.44 94.32 94.08 94.08 94.18 93.85 94.25 94.29 93.18 92.75 92.80 92.88 93.68 95.69 93.67 93.49 93.53 93.35 93.39 93.80
99.79 99.60 99.41 99.28 99.15 99.05 98.98 98.49 98.54 98.53 98.52 98.51 98.51 98.48 98.49 98.15 97.14 97.09 96.86 96.54 95.99 96.50 96.78 96.58 96.93 96.35 95.53 95.36 95.40 95.37 95.15 95.06 94.95 94.81 94.47 94.17 94.15 94.13 93.53 93.36 93.42 92.82 93.12 93.20 95.43 95.35 93.73 93.52 93.58 93.40 93.41 93.68
99.65 99.48 99.29 99.17 99.06 98.97 98.89 98.38 98.60 98.56 98.54 98.55 98.56 98.57 98.51 98.14 97.01 97.24 97.19 97.16 97.15 96.58 96.91 96.91 96.41 95.77 95.40 95.40 95.60 95.46 95.57 95.26 95.17 95.02 94.88 94.11 93.47 93.27 93.32 93.41 93.74 92.22 92.37 95.04 95.81 93.75 93.50 93.64 93.64 93.47 93.52 93.50
99.50 99.33 99.15 99.05 98.96 98.89 98.81 98.26 98.10 98.02 97.99 97.98 98.42 98.36 98.17 97.29 96.33 96.29 96.36 96.42 96.51 96.53 95.98 96.04 95.98 95.78 95.25 95.54 95.67 95.73 95.55 95.05 95.00 94.91 94.49 94.18 93.75 92.84 92.47 93.81 93.86 93.60 93.00 95.70 95.25 93.44 93.54 93.76 93.49 93.54 93.58 93.66
99.35 99.18 99.01 98.96 98.85 98.82 98.71 98.18 97.96 97.81 97.83 97.89 98.05 98.00 97.90 97.04 96.33 96.43 94.02 96.59 96.58 96.61 95.99 96.02 96.00 95.83 95.07 95.62 95.70 96.12 95.34 94.61 94.40 94.21 94.39 93.99 93.97 94.00 93.92 94.03 93.99 93.99 94.10 95.87 93.56 93.54 93.45 93.52 93.49 93.53 93.62 93.72
99.22 99.06 98.91 98.88 98.79 98.73 98.63 98.07 97.92 97.87 97.86 97.85 97.93 97.94 97.87 96.87 96.71 96.74 93.79 96.63 96.60 96.61 96.05 96.03 95.80 95.35 94.86 95.36 95.68 96.01 94.95 94.46 94.26 94.07 94.02 93.82 93.74 93.81 93.94 93.93 93.97 93.96 95.94 95.24 93.48 93.39 93.35 93.48 93.49 93.46 93.54 94.22
99.12 98.98 98.85 98.81 98.73 98.65 98.57 98.05 97.86 97.68 97.63 97.80 97.92 97.90 97.77 96.78 96.82 96.80 96.58 96.66 96.60 96.59 96.04 96.07 95.67 95.08 94.68 95.11 95.57 96.11 95.83 94.90 94.29 93.99 93.81 93.60 93.53 93.68 93.90 93.95 93.96 94.47 95.95 93.44 93.37 93.20 93.13 93.16 93.26 93.35 93.37 93.38
99.03 98.91 98.79 98.74 98.65 98.57 98.51 98.06 97.98 97.94 97.89 97.88 97.93 97.92 97.81 96.83 96.72 96.75 96.60 96.61 96.54 96.30 95.72 95.71 95.62 94.99 94.52 94.90 95.24 95.68 96.17 95.73 94.00 93.83 93.71 93.71 93.50 93.78 93.97 93.93 93.95 96.03 95.32 93.33 93.20 93.17 93.17 93.15 93.18 93.28 93.24 93.16
98.98 98.84 98.76 98.75 98.59 98.51 98.43 98.04 97.98 97.96 97.94 97.93 97.92 97.88 97.79 96.99 96.92 96.77 96.62 96.63 96.51 96.28 95.67 95.67 96.14 95.28 94.38 94.51 94.37 94.43 94.16 93.81 93.77 93.68 93.60 93.59 93.52 93.88 93.96 93.93 94.62 96.05 93.46 93.26 92.96 93.00 93.11 93.06 93.04 93.07 93.11 93.12
98.84 98.74 98.62 98.49 98.39 98.29 98.17 97.97 98.00 97.95 97.93 97.93 97.90 97.79 97.68 96.94 96.31 95.14 95.15 95.27 95.56 95.40 95.27 94.98 94.83 94.50 94.28 94.55 94.15 94.31 94.07 93.61 93.69 93.82 93.66 93.44 93.43 93.39 93.46 93.69 96.14 94.86 93.17 93.15 92.88 92.90 92.92 92.95 92.96 92.91 92.95 93.03
98.60 98.53 98.40 98.31 98.20 98.15 98.01 97.91 97.96 97.96 97.93 97.86 97.76 97.63 97.43 96.65 94.59 95.08 95.11 94.99 95.02 95.17 94.87 94.30 94.75 94.33 94.17 94.42 94.27 94.08 93.90 93.81 93.81 93.37 93.20 93.32 93.31 93.24 93.23 94.83 96.15 93.13 92.73 92.93 92.84 92.78 92.76 92.86 92.88 92.87 92.84 92.91
98.90 98.51 98.23 98.18 98.10 98.06 98.21 97.94 97.94 98.00 97.78 97.75 97.64 97.48 97.15 96.50 96.06 95.97 95.61 95.47 95.07 95.23 94.90 94.00 94.44 94.24 94.08 94.18 94.58 93.89 93.68 93.58 93.45 93.42 93.40 93.42 92.85 92.97 93.14 96.25 94.76 92.86 92.70 92.79 92.74 92.54 92.69 92.75 92.81 92.77 92.73 92.72
99.09 98.44 98.19 98.29 98.02 98.01 97.85 97.89 97.92 98.05 97.63 97.52 97.53 97.35 97.10 96.54 96.27 95.95 95.70 95.61 95.57 95.17 94.94 93.06 93.75 94.10 94.05 94.05 93.91 93.65 93.58 93.58 93.54 93.48 93.40 93.46 93.24 93.21 95.12 96.26 92.65 92.55 92.64 92.64 92.72 92.52 92.49 92.35 92.38 92.61 92.63 92.69
