ncols 52
nrows 52
xllcorner 441856
yllcorner 5716480
cellsize 10
NODATA_value -9999
95.82 95.68 95.56 95.43 95.29 95.15 94.96 94.96 94.51 94.53 94.43 94.25 94.09 93.96 93.81 93.64 93.43 93.26 93.10 93.05 92.90 92.65 92.36 92.04 91.69 91.33 90.88 90.49 90.18 89.90 89.56 89.22 88.95 88.70 88.43 88.36 87.38 86.94 87.69 87.94 88.28 88.62 88.89 89.15 89.37 89.59 89.82 89.98 90.10 90.25 90.38 90.46
95.79 95.65 95.53 95.40 95.25 95.08 94.92 94.90 94.63 94.58 94.47 94.29 94.15 93.99 93.81 93.62 93.39 93.20 93.08 92.95 92.82 92.53 92.21 91.87 91.52 91.22 90.77 90.29 89.94 89.63 89.31 89.10 88.65 88.09 87.23 87.26 88.15 87.65 87.88 88.14 88.52 88.85 89.14 89.39 89.61 89.79 90.02 90.19 90.29 90.41 90.55 90.61
95.75 95.62 95.49 95.35 95.20 95.06 94.96 94.96 94.71 94.69 94.49 94.32 94.19 94.00 93.83 93.62 93.35 93.18 92.98 92.82 92.65 92.31 92.00 91.72 91.35 90.95 90.52 90.14 89.86 89.43 88.13 88.07 88.96 89.01 88.89 88.58 88.47 86.94 88.06 88.41 88.74 89.07 89.36 89.63 89.82 90.01 90.20 90.37 90.47 90.58 90.69 90.81
95.77 95.65 95.52 95.38 95.24 95.07 95.04 94.35 94.69 94.50 94.33 94.17 94.01 93.71 93.50 93.45 93.17 92.95 92.90 92.84 92.52 92.26 91.85 91.44 91.00 90.72 90.33 89.70 88.32 88.72 89.57 89.50 89.33 89.19 88.95 88.74 88.66 86.99 88.28 88.67 88.94 89.29 89.58 89.83 90.04 90.20 90.36 90.52 90.65 90.74 90.86 90.98
95.75 95.62 95.46 95.33 95.18 94.95 95.02 94.40 94.75 94.53 94.66 94.30 94.09 93.87 93.65 93.47 93.25 92.97 92.76 92.44 92.04 91.74 91.40 91.03 90.76 90.51 89.93 88.49 90.07 89.91 89.85 89.66 89.54 89.39 89.14 88.81 88.01 88.55 88.64 88.93 89.21 89.51 89.76 90.02 90.22 90.39 90.52 90.67 90.82 90.91 91.01 91.10
95.67 95.53 95.38 95.24 95.10 94.95 95.00 94.54 94.49 94.30 93.54 93.05 93.00 93.10 92.89 92.76 92.50 92.25 92.02 91.79 91.23 91.06 90.93 90.69 90.47 89.55 88.90 90.45 90.29 90.16 90.11 90.01 89.79 89.51 89.23 88.96 87.68 88.87 88.86 89.23 89.49 89.76 90.01 90.24 90.42 90.55 90.65 90.80 90.96 91.07 91.15 91.21
95.62 95.50 95.36 95.20 95.06 94.96 94.98 94.50 94.58 94.07 92.46 92.60 92.51 92.15 92.05 92.03 92.01 91.73 91.36 91.00 90.79 90.69 90.54 90.14 89.47 89.79 90.48 90.68 90.60 90.60 90.45 90.26 90.05 89.70 89.33 89.10 87.44 88.99 89.12 89.48 89.70 89.96 90.22 90.43 90.60 90.75 90.84 90.96 91.07 91.20 91.28 91.32
95.68 95.55 95.42 95.26 95.11 94.99 94.99 94.41 94.88 94.28 92.53 92.72 92.48 92.38 92.32 92.15 91.82 91.42 90.95 90.49 90.17 90.47 90.43 90.14 89.16 90.90 90.98 90.93 90.90 90.88 90.76 90.53 90.23 89.85 89.56 89.29 87.32 89.04 89.32 89.64 89.91 90.15 90.41 90.62 90.77 90.90 91.01 91.08 91.18 91.33 91.41 91.45
95.76 95.61 95.48 95.33 95.16 95.07 95.01 94.19 94.75 94.47 92.49 92.53 92.26 92.27 92.39 92.15 91.88 91.22 91.07 90.96 90.84 90.64 90.52 90.23 91.26 91.33 91.36 91.34 91.28 91.16 90.93 90.75 90.47 90.11 89.68 89.39 87.52 89.13 89.46 89.77 90.04 90.30 90.57 90.78 90.92 91.06 91.17 91.26 91.34 91.43 91.51 91.53
95.81 95.70 95.57 95.42 95.23 95.21 94.54 93.95 94.74 94.48 92.69 92.52 92.41 92.39 92.40 92.11 91.82 91.37 91.28 91.15 90.92 90.80 90.76 89.65 91.68 91.81 91.77 91.70 91.61 91.45 91.20 90.96 90.60 90.37 89.96 89.51 88.12 89.21 89.55 89.87 90.15 90.43 90.67 90.88 91.06 91.21 91.33 91.44 91.50 91.56 91.61 91.60
95.91 95.78 95.64 95.47 95.26 95.30 94.54 94.73 94.95 94.21 93.04 92.94 92.77 92.57 92.36 92.10 91.89 91.64 91.51 91.27 91.13 91.03 90.57 91.99 92.30 92.28 92.10 92.06 91.94 91.75 91.53 91.21 90.83 90.46 90.03 89.91 88.57 89.33 89.65 89.98 90.28 90.55 90.81 91.00 91.18 91.34 91.46 91.53 91.58 91.63 91.66 91.62
96.00 95.82 95.67 95.47 95.33 95.28 94.86 94.89 94.80 94.53 94.34 93.60 93.24 92.99 92.55 92.22 92.04 91.72 91.68 91.42 91.34 91.11 91.46 92.60 92.72 92.58 92.49 92.39 92.25 92.07 91.79 91.46 91.09 90.64 90.18 90.02 89.83 89.76 89.80 90.08 90.32 90.60 90.86 91.09 91.30 91.44 91.54 91.62 91.65 91.64 91.65 91.64
96.07 95.89 95.71 95.49 95.43 95.00 94.89 94.99 94.85 94.65 94.44 94.36 94.11 94.07 93.62 92.58 92.28 91.97 91.83 91.74 91.57 90.51 92.90 93.02 93.06 92.96 92.85 92.70 92.57 92.34 92.05 91.66 91.21 90.73 90.39 90.28 90.22 90.19 90.18 90.27 90.57 90.86 91.09 91.26 91.42 91.46 91.54 91.65 91.69 91.72 91.72 91.72
96.18 95.97 95.74 95.69 95.31 95.93 95.42 95.19 94.88 94.72 94.56 94.52 94.50 94.20 93.85 92.77 92.00 92.23 92.03 92.02 91.88 93.05 93.25 93.32 93.35 93.25 93.14 93.01 92.79 92.51 92.21 91.82 91.41 90.96 90.59 90.52 90.47 90.37 90.33 90.44 90.64 90.87 91.12 91.28 91.46 91.62 91.73 91.77 91.82 91.81 91.76 91.74
96.28 96.03 95.90 95.60 96.00 96.50 96.26 95.39 94.96 94.72 94.65 94.44 94.38 93.93 93.81 91.99 92.00 92.32 92.53 92.40 92.77 93.30 93.51 93.57 93.58 93.47 93.36 93.19 92.98 92.72 92.39 91.97 91.53 91.07 90.79 90.78 90.64 90.51 90.41 90.56 90.82 91.08 91.22 91.39 91.54 91.66 91.72 91.82 91.88 91.93 91.96 91.95
96.29 96.03 96.03 95.72 96.47 96.33 96.42 95.11 94.97 94.81 94.68 94.38 93.60 93.67 92.01 92.01 92.03 92.32 92.75 92.71 93.25 93.67 93.81 93.85 93.84 93.71 93.56 93.36 93.15 92.86 92.52 92.11 91.68 91.28 90.98 90.91 90.84 90.66 90.62 90.85 91.07 91.28 91.41 91.57 91.64 91.76 91.84 91.87 91.90 91.97 92.00 91.97
96.25 96.05 96.01 95.82 96.55 96.27 96.22 95.29 95.05 94.84 94.55 94.07 92.52 91.99 92.01 92.06 92.79 93.38 92.75 93.42 93.65 93.92 94.00 94.04 94.06 93.93 93.76 93.54 93.32 93.02 92.69 92.27 91.89 91.52 91.17 91.04 90.98 90.85 90.90 91.16 91.40 91.57 91.71 91.82 91.88 91.93 91.94 91.94 91.99 91.97 92.00 92.03
96.26 96.25 95.65 96.35 96.41 96.15 96.05 95.47 94.90 93.97 93.24 92.01 92.01 92.07 92.68 93.54 93.70 93.68 93.41 93.76 93.89 94.23 94.14 94.29 94.33 94.14 93.92 93.70 93.45 93.15 92.82 92.45 92.07 91.71 91.36 91.13 91.06 91.13 91.30 91.57 91.77 91.90 91.99 92.09 92.14 92.16 92.12 92.11 92.11 92.08 92.13 92.07
96.32 96.35 96.16 96.62 96.42 96.18 95.92 95.08 92.77 92.45 93.09 92.46 94.01 94.40 94.38 94.60 94.38 93.54 93.82 94.04 94.28 94.36 94.34 94.34 94.44 94.37 94.11 93.84 93.55 93.21 92.90 92.51 92.15 91.88 91.62 91.43 91.38 91.46 91.64 91.91 92.05 92.15 92.28 92.32 92.34 92.33 92.32 92.29 92.23 92.24 92.22 92.16
96.42 96.35 96.19 96.68 96.33 96.23 95.87 92.82 92.43 93.08 94.95 94.88 95.25 94.79 94.76 94.65 93.92 94.09 94.57 94.38 94.53 94.62 94.71 94.73 94.53 94.28 94.25 93.99 93.64 93.36 93.13 92.83 92.54 92.31 92.11 91.97 91.86 91.88 91.99 92.16 92.22 92.32 92.40 92.43 92.46 92.42 92.35 92.35 92.38 92.36 92.31 92.29
96.59 95.93 96.66 96.67 96.40 96.33 93.92 92.60 94.40 95.88 95.48 95.29 95.17 95.14 94.19 94.49 94.47 94.93 94.91 94.85 94.80 94.78 94.89 94.92 94.85 94.75 94.57 94.17 93.99 93.76 93.50 93.25 93.01 92.77 92.58 92.47 92.30 92.29 92.34 92.46 92.50 92.56 92.58 92.61 92.58 92.52 92.50 92.45 92.45 92.41 92.41 92.40
96.68 96.43 96.82 96.71 96.56 94.58 92.81 94.77 95.79 96.10 95.92 95.80 94.86 94.89 94.56 95.18 95.20 95.15 95.10 95.15 95.07 95.04 95.02 95.03 94.93 94.88 94.81 94.60 94.55 94.10 93.92 93.71 93.43 93.22 93.07 92.94 92.80 92.76 92.71 92.79 92.83 92.83 92.85 92.83 92.77 92.69 92.65 92.61 92.61 92.58 92.50 92.49
96.75 96.47 96.97 96.82 94.52 93.25 94.92 96.01 96.33 96.18 95.90 95.23 95.27 95.52 95.43 95.42 95.31 95.35 95.24 95.40 95.30 95.26 95.21 95.15 95.00 94.93 94.88 94.78 94.67 94.45 94.51 94.02 93.87 93.71 93.50 93.38 93.25 93.19 93.14 93.12 93.07 93.08 93.10 93.06 92.98 92.90 92.82 92.79 92.81 92.72 92.66 92.65
96.49 96.86 97.23 94.68 93.88 95.60 96.22 96.47 96.37 96.25 95.89 95.37 95.78 95.68 95.56 95.50 95.49 95.50 95.40 95.57 95.50 95.42 95.39 95.29 95.18 95.08 94.96 94.84 94.78 94.70 94.62 94.49 94.52 93.95 93.94 93.82 93.64 93.58 93.54 93.45 93.38 93.34 93.31 93.25 93.16 93.08 93.01 92.98 92.96 92.86 92.80 92.78
96.88 97.40 95.09 94.75 96.32 96.70 96.68 96.67 96.18 96.08 96.13 96.07 95.97 95.80 95.75 95.68 95.70 95.68 95.56 95.72 95.67 95.61 95.54 95.43 95.33 95.20 95.08 95.02 94.85 94.83 94.81 94.79 94.75 94.57 94.57 94.12 94.11 94.06 93.92 93.83 93.73 93.67 93.57 93.46 93.36 93.25 93.19 93.13 93.11 93.04 92.92 92.88
97.01 95.82 95.58 96.74 96.96 96.97 96.62 96.60 96.34 96.40 96.30 96.15 96.07 95.98 95.95 95.90 95.89 95.83 95.72 95.86 95.82 95.81 95.71 95.61 95.48 95.38 95.30 95.19 95.07 94.98 94.90 94.98 94.98 94.95 94.91 94.79 94.77 94.43 94.41 94.29 94.09 93.99 93.88 93.71 93.59 93.49 93.39 93.32 93.27 93.16 93.04 93.02
96.92 96.21 97.04 97.12 97.11 97.06 96.55 96.73 96.67 96.52 96.46 96.34 96.26 96.17 96.13 96.14 96.05 96.01 95.92 96.05 95.99 95.99 95.89 95.77 95.64 95.56 95.51 95.41 95.31 95.23 95.13 95.12 95.12 95.13 95.11 95.08 94.98 94.85 94.90 94.67 94.42 94.29 94.10 93.96 93.82 93.69 93.61 93.52 93.44 93.27 93.16 93.10
97.20 97.35 97.29 97.31 97.12 97.06 97.03 96.90 96.77 96.75 96.64 96.53 96.44 96.36 96.35 96.34 96.26 96.18 96.23 96.25 96.17 96.16 96.07 95.97 95.78 95.69 95.68 95.59 95.52 95.46 95.39 95.38 95.36 95.28 95.21 95.19 95.20 95.50 94.98 94.89 94.98 94.82 94.27 94.10 93.95 93.85 93.79 93.70 93.60 93.43 93.30 93.23
97.56 97.47 97.54 97.39 97.31 97.27 97.10 96.98 96.97 96.94 96.86 96.71 96.62 96.54 96.56 96.55 96.47 96.35 96.46 96.40 96.35 96.31 96.24 96.14 95.95 95.86 95.82 95.78 95.72 95.64 95.60 95.62 95.60 95.46 95.35 95.35 95.29 95.71 95.38 96.46 95.08 94.90 94.93 94.39 94.08 94.00 93.90 93.82 93.73 93.58 93.48 93.41
97.67 97.58 97.57 97.56 97.44 97.36 97.27 97.19 97.18 97.10 96.99 96.85 96.76 96.72 96.75 96.70 96.63 96.43 96.54 96.51 96.49 96.43 96.40 96.31 96.14 96.01 95.98 95.93 95.90 95.81 95.78 95.82 95.79 95.65 95.53 95.46 95.35 95.45 95.56 95.48 95.54 95.25 94.97 94.79 94.88 94.29 94.04 93.98 93.85 93.76 93.70 93.62
97.75 97.79 97.68 97.66 97.61 97.54 97.43 97.36 97.31 97.22 97.08 96.98 96.92 96.89 96.85 96.82 96.75 96.60 96.70 96.60 96.58 96.54 96.51 96.46 96.30 96.15 96.14 96.11 96.06 96.01 95.95 95.99 95.97 95.81 95.69 95.62 95.49 95.61 95.65 95.63 95.58 95.36 95.47 95.29 94.88 94.72 94.78 94.21 94.07 94.01 93.88 93.82
97.82 97.81 97.84 97.79 97.75 97.66 97.57 97.50 97.43 97.36 97.22 97.14 97.08 97.02 96.99 96.95 96.88 96.71 96.82 96.74 96.65 96.62 96.62 96.58 96.49 96.34 96.30 96.26 96.23 96.19 96.12 96.15 96.13 96.00 95.85 95.76 95.74 95.96 95.88 95.62 95.50 95.85 95.72 95.54 95.65 95.28 94.83 94.62 94.72 94.16 94.11 94.03
97.96 97.98 97.97 97.90 97.84 97.74 97.67 97.61 97.59 97.50 97.39 97.31 97.23 97.19 97.14 97.07 97.00 96.87 96.93 96.85 96.80 96.75 96.75 96.71 96.63 96.48 96.43 96.40 96.34 96.32 96.27 96.27 96.24 96.12 95.98 95.88 95.96 96.22 96.18 96.02 95.58 95.90 95.92 95.85 95.67 95.62 95.30 95.10 94.72 94.59 94.69 94.11
98.06 98.09 98.08 98.00 97.92 97.85 97.81 97.74 97.72 97.65 97.55 97.47 97.39 97.33 97.29 97.22 97.16 97.00 97.00 96.97 96.93 96.89 96.86 96.85 96.79 96.66 96.54 96.49 96.45 96.40 96.36 96.33 96.29 96.18 96.07 96.00 95.58 96.18 96.21 96.00 95.77 95.90 95.96 95.81 95.74 95.89 95.61 95.46 95.18 94.96 94.58 94.55
98.20 98.19 98.19 98.10 98.01 97.99 97.94 97.90 97.88 97.79 97.71 97.64 97.54 97.46 97.44 97.36 97.29 97.21 97.20 97.08 97.08 97.03 96.96 96.94 96.92 96.80 96.65 96.59 96.53 96.47 96.43 96.39 96.32 96.21 96.14 96.05 96.57 96.36 96.21 96.04 96.21 95.83 95.87 95.91 95.74 95.80 95.71 95.67 95.47 95.18 94.98 94.65
98.33 98.32 98.29 98.23 98.12 98.13 98.08 98.04 98.02 97.95 97.85 97.80 97.72 97.62 97.60 97.51 97.43 97.45 97.32 97.22 97.17 97.12 97.08 97.03 97.00 96.90 96.72 96.66 96.61 96.56 96.51 96.45 96.37 96.29 96.24 96.13 96.67 96.53 96.38 96.10 95.75 95.64 95.60 95.66 95.76 95.73 95.96 95.75 95.60 95.40 95.23 95.07
98.47 98.48 98.40 98.35 98.30 98.27 98.23 98.18 98.16 98.10 98.01 97.95 97.87 97.81 97.74 97.65 97.54 97.56 97.47 97.36 97.30 97.21 97.17 97.12 97.08 96.97 96.79 96.71 96.63 96.57 96.56 96.47 96.41 96.34 96.30 96.22 96.70 96.78 96.72 96.12 96.04 95.85 95.91 95.73 95.40 95.73 95.67 95.89 95.60 95.57 95.43 95.21
98.64 98.64 98.55 98.48 98.44 98.41 98.37 98.33 98.29 98.22 98.17 98.11 98.01 97.98 97.87 97.82 97.65 97.70 97.56 97.49 97.40 97.31 97.24 97.16 97.11 97.04 96.87 96.74 96.67 96.59 96.56 96.51 96.44 96.36 96.32 96.44 96.53 96.57 96.59 96.12 95.93 96.04 96.00 95.86 95.63 95.35 95.29 95.66 95.49 95.48 95.36 95.26
98.81 98.76 98.68 98.59 98.58 98.54 98.52 98.46 98.45 98.36 98.29 98.23 98.15 98.10 98.01 97.93 97.88 97.84 97.65 97.57 97.50 97.37 97.29 97.22 97.13 97.08 96.96 96.79 96.69 96.63 96.59 96.56 96.49 96.46 96.39 96.82 96.76 96.62 96.51 96.29 96.25 96.32 96.14 96.12 95.82 95.43 95.31 95.14 95.15 95.34 95.32 95.21
98.95 98.87 98.80 98.74 98.71 98.67 98.62 98.60 98.56 98.47 98.40 98.33 98.25 98.20 98.12 98.06 97.93 97.90 97.74 97.63 97.56 97.43 97.32 97.26 97.19 97.12 97.04 96.82 96.75 96.68 96.66 96.60 96.53 96.49 96.48 97.06 97.05 96.91 96.68 96.42 96.30 96.13 96.08 95.77 95.61 95.90 95.32 95.19 95.21 94.87 95.02 95.11
99.06 98.97 98.92 98.85 98.83 98.79 98.73 98.69 98.67 98.56 98.49 98.42 98.37 98.29 98.21 98.19 98.07 97.95 97.81 97.69 97.58 97.48 97.37 97.27 97.21 97.16 97.08 96.93 96.85 96.79 96.75 96.67 96.63 96.57 96.56 97.17 97.19 97.07 96.61 96.55 96.43 96.28 96.14 96.00 95.86 95.62 95.27 95.21 95.22 95.08 94.92 94.68
99.14 99.10 99.04 98.97 98.95 98.89 98.79 98.78 98.75 98.64 98.59 98.50 98.45 98.39 98.25 98.24 98.23 98.04 97.82 97.71 97.56 97.46 97.40 97.32 97.26 97.17 97.12 97.02 96.93 96.90 96.88 96.81 96.75 96.73 96.75 97.14 97.16 97.13 96.66 96.67 96.64 96.35 96.07 96.03 96.04 95.65 95.21 95.28 95.37 95.29 95.07 94.78
99.33 99.26 99.24 99.13 99.05 98.96 98.85 98.84 98.79 98.74 98.66 98.59 98.50 98.46 98.35 98.28 98.30 98.08 97.85 97.71 97.57 97.48 97.42 97.35 97.29 97.22 97.17 97.10 97.07 97.05 97.03 96.97 96.94 96.96 96.92 97.38 97.45 97.06 96.71 96.79 96.77 96.58 96.18 96.01 95.86 95.60 95.32 95.27 95.30 95.26 95.35 94.78
99.48 99.42 99.35 99.24 99.15 99.03 98.95 98.90 98.86 98.78 98.72 98.62 98.54 98.46 98.37 98.31 98.27 98.09 97.87 97.74 97.64 97.57 97.49 97.44 97.37 97.32 97.30 97.24 97.23 97.21 97.18 97.14 97.14 97.11 97.25 97.40 97.42 97.22 96.96 97.01 96.65 96.37 96.32 96.12 96.01 95.50 95.33 95.25 95.21 95.16 94.93 94.49
99.55 99.47 99.42 99.32 99.24 99.10 99.00 98.96 98.88 98.82 98.72 98.61 98.57 98.51 98.42 98.31 98.23 98.12 97.98 97.86 97.74 97.69 97.63 97.56 97.52 97.48 97.47 97.44 97.42 97.40 97.34 97.34 97.32 97.25 97.32 97.43 97.46 97.29 97.50 97.10 96.65 96.45 96.40 95.99 95.76 95.45 95.21 95.18 95.11 95.08 94.85 94.36
99.56 99.51 99.44 99.39 99.29 99.18 99.05 99.00 98.85 98.79 98.71 98.65 98.60 98.51 98.46 98.37 98.28 98.15 98.06 97.99 97.88 97.82 97.78 97.71 97.70 97.65 97.69 97.67 97.64 97.62 97.56 97.54 97.54 97.43 97.49 97.65 97.67 97.35 97.05 96.73 96.55 96.34 96.22 95.89 95.75 95.65 95.33 95.18 95.08 94.95 94.65 94.27
99.57 99.54 99.49 99.44 99.35 99.21 99.08 99.00 98.88 98.80 98.75 98.65 98.60 98.53 98.45 98.43 98.34 98.19 98.12 98.08 98.03 97.99 97.97 97.93 97.92 97.88 97.90 97.90 97.87 97.85 97.81 97.76 97.76 97.63 97.76 97.71 97.61 97.38 97.36 97.30 96.71 96.43 96.05 95.80 95.56 95.44 95.13 95.06 95.08 94.76 94.51 94.26
99.66 99.59 99.52 99.48 99.38 99.21 99.12 99.00 98.91 98.84 98.75 98.72 98.63 98.55 98.51 98.57 98.38 98.29 98.22 98.21 98.18 98.17 98.14 98.12 98.11 98.12 98.10 98.11 98.10 98.08 98.00 97.97 97.92 97.84 97.94 97.93 97.70 97.36 97.65 97.68 97.29 96.78 96.41 96.35 95.81 95.60 95.19 94.89 94.60 94.35 94.33 94.31
99.71 99.61 99.55 99.50 99.42 99.21 99.12 99.02 98.93 98.85 98.76 98.71 98.67 98.58 98.60 98.69 98.48 98.40 98.40 98.38 98.37 98.37 98.35 98.34 98.30 98.30 98.32 98.29 98.27 98.24 98.17 98.12 98.04 98.22 97.97 97.94 97.88 97.55 97.78 97.77 97.51 97.03 96.45 96.40 95.91 95.56 95.33 95.11 94.88 94.78 94.58 94.53
99.73 99.65 99.54 99.51 99.41 99.22 99.12 99.03 98.93 98.87 98.79 98.73 98.69 98.60 98.64 98.81 98.60 98.55 98.55 98.57 98.59 98.58 98.57 98.57 98.52 98.51 98.50 98.47 98.44 98.40 98.34 98.23 98.19 98.28 98.21 97.95 97.79 97.82 98.22 98.02 97.58 97.17 96.82 96.46 96.04 95.73 95.49 95.33 94.97 94.98 94.81 94.71
99.76 99.69 99.57 99.52 99.39 99.22 99.12 99.04 98.93 98.90 98.85 98.78 98.75 98.70 98.72 98.92 98.75 98.71 98.75 98.78 98.79 98.76 98.76 98.76 98.72 98.69 98.68 98.65 98.59 98.54 98.46 98.39 98.29 98.31 98.34 98.13 97.79 97.86 97.89 97.61 97.43 97.35 97.26 96.53 96.39 96.12 95.89 95.63 95.48 94.88 94.79 94.47
99.81 99.72 99.62 99.55 99.43 99.28 99.18 99.12 99.06 98.98 98.94 98.92 98.86 98.83 98.82 99.01 98.94 98.95 98.97 98.97 98.98 98.97 98.92 98.90 98.88 98.86 98.82 98.78 98.72 98.66 98.58 98.53 98.41 98.39 98.34 98.19 97.90 98.13 98.11 97.53 97.03 97.13 96.65 96.56 96.17 96.00 95.93 95.81 95.66 94.90 94.64 94.45
