ncols 52
nrows 52
xllcorner 442368
yllcorner 5716992
cellsize 10
NODATA_value -9999
85.03 84.79 85.32 85.59 85.77 85.89 85.97 86.08 86.13 86.16 86.15 86.15 86.08 85.96 85.74 85.57 85.42 85.28 85.13 85.07 84.93 84.66 84.30 83.95 83.80 83.72 83.75 83.58 82.23 83.42 83.53 83.57 83.61 83.50 83.34 83.31 83.30 83.32 83.29 83.22 83.19 83.29 83.25 83.67 85.53 86.86 88.01 88.71 89.12 89.39 90.32 88.44
85.51 85.69 85.88 86.08 86.20 86.30 86.35 86.38 86.35 86.31 86.29 86.28 86.24 86.10 85.90 85.68 85.49 85.37 85.28 85.15 85.00 84.80 84.53 84.21 83.90 83.72 83.70 83.73 83.53 82.26 83.47 83.59 83.55 83.64 83.60 83.42 83.37 83.40 83.33 83.33 83.26 83.25 83.31 83.21 84.93 86.35 87.41 88.22 89.02 90.63 89.31 88.94
85.96 86.18 86.35 86.50 86.55 86.58 86.59 86.56 86.50 86.47 86.41 86.40 86.34 86.22 86.00 85.76 85.61 85.52 85.36 85.19 85.00 84.79 84.56 84.32 84.01 83.73 83.76 83.73 83.47 83.68 82.44 83.29 83.58 83.66 83.76 83.51 83.51 83.41 83.42 83.36 83.38 83.28 83.35 83.56 83.15 85.46 86.88 87.79 88.74 90.29 89.09 90.04
86.45 86.62 86.73 86.76 86.78 86.78 86.75 86.69 86.65 86.59 86.54 86.47 86.38 86.24 86.08 85.88 85.73 85.57 85.37 85.19 84.98 84.72 84.51 84.25 83.95 83.97 83.82 83.82 83.85 83.77 83.79 83.53 82.43 83.66 83.62 83.83 83.63 83.60 83.52 83.44 83.39 83.39 83.37 83.39 83.42 83.42 86.13 87.40 88.40 89.33 90.63 88.94
86.84 86.92 86.93 86.95 86.96 86.93 86.88 86.83 86.77 86.72 86.60 86.47 86.34 86.24 86.15 85.98 85.79 85.58 85.37 85.17 84.93 84.66 84.39 84.10 83.76 84.12 83.61 83.83 83.87 83.75 83.85 83.86 83.88 82.47 83.46 83.88 83.78 83.59 83.53 83.49 83.44 83.42 83.41 83.39 83.40 83.52 84.24 86.54 87.67 88.20 88.51 88.45
87.07 87.09 87.13 87.13 87.11 87.06 87.01 86.94 86.86 86.72 86.57 86.42 86.32 86.24 86.12 85.98 85.78 85.56 85.31 85.06 84.85 84.58 84.31 83.98 84.08 83.74 84.40 84.76 83.88 83.71 83.79 83.86 83.91 83.96 83.22 82.74 83.73 83.58 83.59 83.57 83.56 83.50 83.44 83.46 83.41 83.45 83.69 84.44 86.27 86.84 87.06 86.65
87.28 87.28 87.29 87.26 87.21 87.16 87.09 86.97 86.84 86.68 86.56 86.44 86.31 86.18 86.07 85.92 85.73 85.48 85.21 84.96 84.71 84.54 83.97 84.01 83.65 84.42 84.67 85.07 85.23 83.71 83.90 83.90 83.90 83.91 83.87 83.89 82.54 83.67 83.64 83.67 83.62 83.59 83.57 83.53 83.50 83.48 83.63 83.58 84.84 85.36 84.88 84.60
87.43 87.44 87.40 87.37 87.29 87.21 87.09 86.93 86.78 86.67 86.52 86.40 86.26 86.10 85.96 85.81 85.62 85.40 85.13 84.86 84.73 84.07 83.97 83.80 84.53 84.69 85.17 85.43 85.46 85.31 83.58 83.94 83.84 83.92 83.86 83.92 84.01 83.18 83.19 83.69 83.69 83.67 83.67 83.67 83.65 83.58 83.54 83.58 83.49 84.09 84.39 84.50
87.57 87.55 87.51 87.43 87.32 87.18 87.02 86.90 86.78 86.66 86.50 86.39 86.21 86.04 85.85 85.68 85.50 85.30 85.06 84.98 84.16 84.21 84.10 84.56 84.90 85.26 85.50 85.68 85.73 85.52 85.32 83.68 84.07 83.88 83.76 83.96 83.99 84.05 83.94 82.52 83.59 83.71 83.71 83.65 83.68 83.65 83.58 83.57 83.56 83.48 83.93 84.40
87.67 87.61 87.51 87.41 87.27 87.17 87.04 86.92 86.76 86.62 86.49 86.31 86.14 85.92 85.74 85.57 85.36 85.20 85.10 84.99 84.40 84.29 84.58 85.01 85.36 85.64 85.78 85.85 85.89 85.78 85.42 85.29 83.55 83.85 83.81 83.86 83.94 83.93 83.94 84.05 82.89 83.41 83.65 83.66 83.70 83.70 83.66 83.63 83.61 83.57 83.44 83.90
87.68 87.58 87.49 87.36 87.26 87.18 87.04 86.90 86.77 86.63 86.45 86.24 86.05 85.85 85.64 85.43 85.28 85.25 84.90 84.88 84.40 84.42 85.13 85.46 85.74 85.88 85.93 86.02 86.02 85.88 85.69 85.51 85.39 83.71 83.92 83.77 83.89 83.89 83.98 83.96 83.95 83.86 82.64 82.70 83.52 83.72 83.71 83.72 83.62 83.69 83.83 84.02
87.62 87.56 87.44 87.38 87.27 87.17 87.05 86.93 86.77 86.57 86.37 86.18 85.97 85.78 85.53 85.33 85.31 85.13 85.04 85.10 84.01 85.21 85.57 85.81 85.96 86.05 86.14 86.18 86.11 86.05 85.94 85.79 85.60 85.41 83.68 83.87 83.78 83.73 83.80 83.93 83.98 84.00 84.11 84.08 83.97 82.94 83.37 83.75 83.81 83.71 83.65 83.41
87.63 87.55 87.46 87.38 87.28 87.16 87.05 86.90 86.75 86.55 86.33 86.12 85.92 85.70 85.44 85.40 85.22 84.98 85.25 84.08 85.33 85.50 85.89 86.00 86.15 86.27 86.29 86.31 86.28 86.20 86.10 85.97 85.77 85.56 85.28 83.83 83.85 83.93 83.96 83.98 84.00 83.92 83.96 84.02 83.90 83.71 83.69 82.93 83.07 84.00 83.90 84.46
87.61 87.54 87.45 87.36 87.26 87.15 87.02 86.88 86.72 86.51 86.28 86.07 85.82 85.55 85.65 85.41 85.11 85.03 84.15 85.44 85.65 85.93 86.07 86.23 86.35 86.39 86.43 86.45 86.43 86.35 86.19 86.07 85.92 85.72 85.45 85.24 84.11 84.14 84.17 84.15 84.07 83.99 83.88 83.96 83.94 83.82 83.62 83.18 83.80 83.99 83.93 83.93
87.62 87.55 87.44 87.33 87.22 87.12 87.01 86.87 86.67 86.45 86.24 85.98 85.70 85.69 85.57 85.29 85.00 84.33 85.47 85.67 85.99 86.15 86.31 86.41 86.48 86.55 86.57 86.58 86.55 86.45 86.33 86.18 86.02 85.84 85.59 85.31 85.12 83.70 84.01 84.17 84.17 84.05 83.97 83.88 83.93 83.92 83.79 83.67 83.09 84.01 83.94 83.97
87.60 87.53 87.40 87.27 87.17 87.08 86.92 86.77 86.60 86.38 86.12 85.91 85.93 85.74 85.49 85.15 84.63 85.48 85.62 86.05 86.25 86.39 86.49 86.59 86.64 86.69 86.69 86.66 86.62 86.53 86.44 86.33 86.17 85.93 85.67 85.40 85.21 85.06 83.75 83.98 84.15 84.13 84.03 83.94 83.90 83.97 83.88 83.77 82.74 83.95 83.95 83.97
87.55 87.45 87.32 87.22 87.05 86.93 86.84 86.69 86.50 86.22 86.05 86.01 85.96 85.81 85.43 84.96 85.40 85.79 86.12 86.34 86.49 86.61 86.69 86.74 86.80 86.82 86.77 86.77 86.74 86.66 86.58 86.46 86.26 86.05 85.79 85.57 85.36 85.11 84.95 83.87 83.99 84.15 84.13 83.99 83.93 83.91 84.03 83.85 83.58 83.76 83.93 83.97
87.48 87.39 87.25 87.07 86.94 86.81 86.71 86.51 86.29 86.10 86.03 86.07 85.98 85.69 85.14 85.35 85.82 86.18 86.41 86.57 86.69 86.77 86.82 86.89 86.93 86.93 86.89 86.86 86.84 86.78 86.69 86.55 86.37 86.18 85.97 85.72 85.48 85.26 84.99 84.86 83.69 84.02 84.15 84.12 84.00 83.92 83.98 83.91 83.83 83.44 83.96 84.02
87.44 87.30 87.11 86.93 86.78 86.68 86.53 86.35 86.19 86.23 86.18 86.11 85.94 85.14 85.36 85.83 86.21 86.47 86.63 86.74 86.84 86.92 86.96 87.04 87.10 87.08 87.04 86.98 86.95 86.89 86.76 86.62 86.49 86.30 86.07 85.82 85.56 85.33 85.09 84.85 84.76 83.73 84.02 84.17 84.10 84.07 83.96 83.88 84.01 82.65 84.08 84.10
87.43 87.26 87.10 86.89 86.76 86.67 86.41 86.22 86.21 86.22 86.25 86.22 85.85 85.42 85.87 86.22 86.48 86.65 86.82 86.92 86.97 87.01 87.12 87.18 87.24 87.22 87.19 87.13 87.04 86.94 86.85 86.73 86.54 86.36 86.14 85.92 85.68 85.40 85.12 84.93 84.75 84.66 84.31 84.03 84.18 84.10 83.94 83.93 84.06 83.11 83.90 84.04
85.72 85.56 86.28 86.87 86.80 86.42 86.35 86.42 86.15 86.11 86.35 86.21 84.89 85.86 86.13 86.50 86.67 86.84 86.99 87.05 87.12 87.18 87.24 87.34 87.35 87.34 87.29 87.23 87.15 87.09 86.96 86.80 86.59 86.43 86.24 85.98 85.74 85.51 85.24 85.01 84.85 84.71 84.60 84.40 83.87 84.18 84.04 84.00 83.93 83.97 83.87 84.05
87.19 87.22 86.93 85.94 85.27 85.86 86.28 86.36 86.23 86.24 86.19 86.03 85.37 86.12 86.41 86.68 86.91 87.03 87.15 87.22 87.27 87.35 87.38 87.44 87.45 87.40 87.35 87.37 87.30 87.18 87.04 86.85 86.70 86.51 86.29 86.08 85.83 85.60 85.35 85.14 84.91 84.76 84.60 84.53 84.42 83.89 84.02 84.09 84.09 84.08 83.15 84.13
86.94 86.83 86.45 86.08 86.15 85.60 85.50 86.10 86.31 86.32 86.31 85.20 86.13 86.29 86.61 86.86 87.06 87.23 87.31 87.40 87.46 87.46 87.53 87.51 87.48 87.48 87.46 87.44 87.38 87.28 87.13 86.97 86.75 86.59 86.40 86.17 85.97 85.73 85.46 85.22 84.96 84.78 84.68 84.51 84.43 83.76 83.95 84.09 84.11 84.18 82.77 84.06
86.67 86.83 86.93 86.93 86.77 86.54 85.90 85.66 86.39 86.39 86.28 84.66 86.26 86.56 86.82 87.04 87.25 87.39 87.49 87.53 87.60 87.60 87.58 87.55 87.57 87.54 87.53 87.48 87.45 87.39 87.24 87.03 86.84 86.65 86.50 86.30 86.07 85.85 85.54 85.32 85.07 84.87 84.71 84.58 84.51 83.86 83.92 83.96 84.09 84.11 83.72 83.99
87.17 87.01 87.06 87.01 86.96 86.94 86.64 85.10 86.36 86.33 86.07 85.79 86.44 86.79 87.04 87.23 87.43 87.55 87.63 87.68 87.68 87.67 87.68 87.68 87.65 87.60 87.58 87.57 87.56 87.46 87.32 87.13 86.95 86.78 86.61 86.44 86.23 85.98 85.69 85.45 85.21 84.99 84.77 84.62 84.43 84.14 83.87 83.93 83.99 84.08 84.01 82.71
87.12 87.32 87.21 87.24 87.04 86.97 86.98 86.66 85.60 86.17 85.82 85.96 86.47 86.95 87.20 87.41 87.59 87.71 87.76 87.75 87.74 87.77 87.75 87.74 87.71 87.72 87.71 87.68 87.62 87.52 87.40 87.24 87.06 86.89 86.72 86.56 86.33 86.10 85.86 85.61 85.33 85.08 84.83 84.68 84.56 84.38 83.90 83.89 83.93 84.05 84.18 84.15
87.42 87.28 87.47 87.30 87.19 87.09 86.92 86.79 85.03 85.94 85.47 86.40 86.80 87.10 87.35 87.56 87.71 87.81 87.85 87.87 87.89 87.88 87.87 87.85 87.83 87.82 87.80 87.71 87.66 87.61 87.51 87.37 87.21 87.01 86.83 86.64 86.45 86.23 85.98 85.69 85.43 85.17 84.89 84.74 84.59 84.46 83.87 83.87 83.90 84.01 84.06 84.01
87.48 87.53 87.43 87.42 87.31 87.00 86.87 86.63 86.04 85.68 85.56 86.63 86.99 87.28 87.53 87.70 87.82 87.91 87.96 87.99 87.97 87.97 88.00 87.97 87.97 87.90 87.84 87.78 87.73 87.68 87.59 87.48 87.31 87.10 86.93 86.73 86.55 86.31 86.07 85.78 85.49 85.22 84.98 84.77 84.57 84.43 83.84 83.85 83.93 83.93 83.93 83.95
87.69 87.61 87.52 87.40 87.17 87.04 86.66 86.60 85.84 85.96 86.67 86.76 87.19 87.46 87.69 87.86 87.99 88.04 88.11 88.09 88.10 88.09 88.11 88.07 88.02 87.96 87.92 87.86 87.82 87.74 87.65 87.57 87.39 87.18 86.99 86.79 86.59 86.35 86.09 85.81 85.56 85.26 84.97 84.69 84.46 84.38 83.80 83.83 83.84 83.88 83.78 84.02
87.82 87.62 87.54 87.26 87.11 86.76 86.71 85.25 86.24 86.33 86.86 87.01 87.43 87.64 87.90 88.06 88.12 88.17 88.20 88.22 88.21 88.20 88.15 88.12 88.07 88.03 87.99 87.91 87.85 87.78 87.68 87.59 87.47 87.29 87.04 86.82 86.58 86.34 86.09 85.83 85.52 85.20 84.84 84.56 84.37 84.23 83.99 83.81 83.85 83.73 83.85 83.87
87.71 87.56 87.31 87.18 86.83 86.76 85.56 86.51 86.47 86.57 86.74 87.33 87.69 87.93 88.08 88.20 88.28 88.33 88.32 88.33 88.31 88.24 88.21 88.19 88.14 88.10 88.04 87.99 87.89 87.76 87.70 87.61 87.51 87.30 87.07 86.79 86.57 86.35 86.09 85.77 85.43 85.04 84.69 84.44 84.30 84.24 84.15 83.88 83.86 83.78 83.85 83.82
87.65 87.34 87.21 86.94 86.86 85.94 86.56 86.58 86.67 86.96 87.08 87.70 87.94 88.15 88.22 88.35 88.43 88.44 88.42 88.38 88.36 88.33 88.29 88.25 88.19 88.14 88.09 87.99 87.89 87.83 87.72 87.60 87.47 87.28 87.04 86.80 86.56 86.29 85.99 85.60 85.19 84.86 84.52 84.34 84.29 84.24 84.07 83.86 83.76 83.74 83.82 83.89
87.40 87.18 86.94 86.85 86.07 86.41 86.65 86.77 86.95 87.24 87.52 87.84 88.15 88.32 88.43 88.50 88.53 88.53 88.48 88.46 88.43 88.40 88.37 88.33 88.27 88.18 88.08 88.03 87.94 87.84 87.69 87.54 87.39 87.21 87.00 86.76 86.51 86.16 85.82 85.43 85.02 84.67 84.42 84.32 84.29 83.87 83.85 83.77 83.74 83.81 83.81 83.86
87.12 87.03 86.82 85.83 86.45 86.64 86.81 87.01 87.27 87.58 87.92 88.02 88.54 88.56 88.62 88.58 88.59 88.60 88.55 88.55 88.51 88.45 88.44 88.37 88.28 88.20 88.12 88.04 87.96 87.80 87.63 87.46 87.30 87.12 86.90 86.65 86.29 85.93 85.56 85.14 84.81 84.49 84.40 84.35 84.07 83.96 83.80 83.84 83.75 83.81 83.85 83.85
87.04 86.60 85.42 86.64 86.69 86.83 87.08 87.29 87.57 87.88 88.16 88.37 88.59 88.73 88.76 88.73 88.68 88.69 88.67 88.63 88.58 88.53 88.48 88.38 88.33 88.24 88.17 88.03 87.91 87.75 87.56 87.39 87.18 86.97 86.70 86.43 86.09 85.70 85.28 84.94 84.63 84.49 84.11 84.33 84.29 84.14 83.97 83.89 83.83 83.79 83.83 83.84
85.47 86.85 86.76 86.84 86.90 87.06 87.31 87.58 87.87 88.15 88.39 88.65 88.69 89.06 88.91 88.87 88.82 88.81 88.72 88.70 88.60 88.56 88.49 88.45 88.36 88.25 88.11 87.96 87.83 87.67 87.49 87.26 87.01 86.71 86.45 86.13 85.76 85.40 85.01 84.73 84.61 84.45 84.40 84.43 84.42 84.57 84.16 84.04 83.89 83.81 83.81 83.83
86.95 86.96 87.08 87.19 87.29 87.42 87.62 87.89 88.13 88.36 88.59 88.77 88.94 89.07 89.12 89.04 88.93 88.85 88.77 88.71 88.64 88.63 88.55 88.47 88.33 88.20 88.04 87.90 87.75 87.58 87.36 87.10 86.81 86.50 86.18 85.82 85.47 85.15 84.86 84.33 84.80 84.58 84.69 84.65 84.64 84.57 84.08 84.07 83.97 83.86 83.82 83.86
87.10 87.19 87.30 87.46 87.63 87.76 87.94 88.17 88.38 88.56 88.75 88.90 89.12 89.04 89.29 89.08 89.03 88.88 88.82 88.76 88.69 88.65 88.55 88.40 88.24 88.10 87.98 87.81 87.63 87.42 87.15 86.90 86.59 86.21 85.85 85.51 85.24 85.06 85.12 85.06 85.11 85.12 85.10 84.97 84.84 84.71 84.66 84.25 83.98 83.85 83.82 83.82
87.39 87.50 87.60 87.74 87.95 88.09 88.24 88.44 88.60 88.74 88.86 88.99 89.11 89.22 89.31 89.30 89.07 88.94 88.85 88.78 88.74 88.60 88.44 88.31 88.18 88.03 87.87 87.66 87.42 87.22 86.96 86.67 86.31 85.94 85.58 85.37 84.67 85.47 85.30 85.42 85.50 85.54 85.49 85.29 85.02 84.85 84.64 84.62 84.09 83.94 83.83 83.83
87.70 87.80 87.92 88.06 88.21 88.38 88.50 88.64 88.81 88.93 89.00 89.09 89.14 89.24 89.22 89.31 89.03 89.03 88.90 88.77 88.62 88.51 88.38 88.26 88.08 87.89 87.68 87.45 87.24 87.02 86.73 86.40 86.05 85.73 85.51 85.74 85.72 85.70 85.71 85.79 85.85 85.83 85.65 85.37 85.08 84.89 84.80 84.73 84.24 83.99 83.88 83.82
88.02 88.12 88.26 88.32 88.44 88.61 88.76 88.85 88.99 89.09 89.12 89.15 89.21 89.27 89.35 89.29 89.19 89.03 88.84 88.65 88.54 88.41 88.28 88.08 87.89 87.65 87.45 87.24 87.02 86.74 86.44 86.15 85.90 85.01 85.90 85.81 85.94 85.94 86.04 86.10 86.08 85.93 85.67 85.44 85.22 85.11 85.01 84.88 84.85 84.24 83.97 83.86
88.35 88.42 88.51 88.60 88.68 88.81 88.98 89.07 89.14 89.22 89.25 89.24 89.26 89.26 89.31 89.29 89.32 88.97 88.77 88.60 88.42 88.27 88.07 87.84 87.62 87.43 87.24 87.00 86.75 86.48 86.21 86.06 86.25 86.10 86.12 86.15 86.15 86.22 86.30 86.29 86.15 85.98 85.81 85.65 85.60 85.51 85.34 85.16 84.94 84.80 84.15 83.97
88.63 88.72 88.78 88.82 88.89 88.99 89.13 89.26 89.29 89.32 89.35 89.32 89.28 89.25 89.24 89.26 89.01 88.93 88.65 88.47 88.24 88.04 87.77 87.56 87.38 87.18 86.98 86.72 86.51 86.35 85.58 86.39 86.28 86.42 86.36 86.35 86.43 86.47 86.49 86.42 86.30 86.15 86.07 86.05 86.02 85.96 85.76 85.52 85.29 85.18 84.34 84.06
88.90 88.96 88.97 89.02 89.08 89.15 89.25 89.38 89.43 89.41 89.40 89.37 89.30 89.23 89.18 89.08 88.98 88.75 88.65 88.31 88.03 87.74 87.52 87.33 87.12 86.92 86.67 86.50 86.40 86.49 86.43 86.60 86.66 86.64 86.64 86.66 86.68 86.69 86.62 86.56 86.47 86.40 86.41 86.43 86.41 86.32 86.15 85.87 85.58 85.33 85.25 84.33
89.10 89.19 89.19 89.21 89.26 89.32 89.35 89.42 89.52 89.50 89.46 89.42 89.32 89.18 89.07 88.94 88.79 88.56 88.43 88.11 87.82 87.52 87.26 87.06 86.83 86.61 86.54 86.11 86.54 86.49 86.74 86.85 86.90 86.95 86.95 86.94 86.91 86.85 86.78 86.69 86.69 86.69 86.69 86.74 86.74 86.62 86.42 86.12 85.83 85.59 85.27 85.01
89.28 89.38 89.40 89.38 89.40 89.43 89.46 89.50 89.58 89.60 89.52 89.44 89.29 89.14 88.95 88.79 88.60 88.46 88.26 87.96 87.62 87.29 86.99 86.78 86.65 86.49 86.53 86.46 86.62 86.83 86.96 87.10 87.20 87.23 87.26 87.19 87.09 87.01 86.94 86.89 86.90 86.93 86.98 86.98 86.95 86.82 86.62 86.32 86.02 85.71 85.44 85.15
89.47 89.54 89.57 89.57 89.56 89.57 89.60 89.60 89.64 89.70 89.60 89.46 89.30 89.12 88.88 88.69 88.47 88.31 88.08 87.96 87.48 87.13 86.82 86.76 86.68 86.64 86.54 86.65 86.85 87.08 87.22 87.34 87.45 87.47 87.44 87.38 87.28 87.16 87.13 87.12 87.15 87.21 87.24 87.25 87.15 87.05 86.84 86.52 86.16 85.81 85.51 85.30
89.63 89.70 89.74 89.76 89.73 89.73 89.75 89.75 89.75 89.76 89.71 89.53 89.34 89.12 88.90 88.65 88.44 88.24 88.08 87.88 87.55 87.11 86.92 86.83 86.67 86.72 86.76 86.90 87.17 87.37 87.49 87.58 87.67 87.69 87.64 87.53 87.43 87.36 87.34 87.35 87.40 87.43 87.44 87.46 87.41 87.27 87.07 86.76 86.38 85.97 85.68 85.44
89.83 89.88 89.92 89.95 89.94 89.92 89.92 89.93 89.86 89.81 89.76 89.63 89.43 89.22 88.97 88.72 88.49 88.30 88.15 87.97 87.79 87.32 87.16 87.04 86.97 87.00 87.04 87.24 87.47 87.61 87.74 87.85 87.88 87.86 87.80 87.73 87.63 87.56 87.54 87.59 87.65 87.66 87.70 87.70 87.65 87.51 87.28 86.97 86.64 86.25 85.91 85.63
90.03 90.07 90.10 90.15 90.16 90.11 90.07 90.04 89.97 89.89 89.82 89.75 89.54 89.33 89.07 88.81 88.59 88.38 88.21 87.98 87.88 87.84 87.40 87.28 87.29 87.29 87.37 87.55 87.70 87.82 87.93 88.04 88.07 88.04 88.00 87.90 87.79 87.75 87.77 87.83 87.88 87.91 87.92 87.92 87.83 87.71 87.50 87.23 86.91 86.59 86.25 85.99
90.23 90.25 90.29 90.33 90.33 90.29 90.22 90.16 90.08 90.01 89.90 89.82 89.66 89.41 89.15 88.87 88.67 88.44 88.21 88.08 88.04 87.79 87.79 87.46 87.61 87.63 87.71 87.85 88.00 88.07 88.14 88.21 88.23 88.21 88.14 88.06 87.99 87.96 87.98 88.05 88.11 88.13 88.15 88.09 88.02 87.89 87.69 87.51 87.24 87.02 86.61 86.23
90.42 90.46 90.46 90.46 90.47 90.44 90.36 90.26 90.19 90.11 89.97 89.84 89.72 89.49 89.20 88.93 88.73 88.58 88.32 88.34 88.13 88.15 88.10 87.97 87.82 87.93 88.03 88.17 88.26 88.32 88.41 88.42 88.45 88.37 88.31 88.24 88.16 88.15 88.19 88.31 88.39 88.38 88.33 88.32 88.24 88.12 87.97 87.80 87.60 87.29 86.93 86.57
