ncols 52
nrows 52
xllcorner 442368
yllcorner 5712896
cellsize 10
NODATA_value -9999
112.37 112.64 112.94 113.15 113.37 113.61 113.91 114.20 114.37 114.53 114.72 114.96 115.18 115.28 115.36 115.47 115.53 115.58 115.63 115.66 115.66 115.73 115.76 115.74 115.79 115.85 115.90 116.00 116.09 116.22 116.32 116.42 116.56 116.69 116.76 116.89 116.94 116.98 117.04 117.08 117.15 117.18 117.17 117.18 117.18 117.31 117.36 117.30 117.25 115.90 117.32 117.48
112.65 112.97 113.31 113.60 113.84 114.01 114.26 114.40 114.40 114.57 114.75 114.94 115.12 115.29 115.41 115.56 115.63 115.71 115.77 115.79 115.81 115.88 115.90 115.89 115.93 115.97 116.04 116.14 116.25 116.39 116.51 116.64 116.76 116.91 117.00 117.12 117.19 117.23 117.29 117.35 117.38 117.43 117.40 117.38 117.38 117.49 117.55 117.48 117.44 116.01 117.70 117.74
113.03 113.30 113.61 113.92 114.16 114.31 114.46 114.60 114.63 114.71 114.83 115.02 115.23 115.33 115.46 115.58 115.70 115.85 115.92 115.89 115.95 116.01 116.02 116.02 116.04 116.15 116.20 116.31 116.39 116.56 116.69 116.81 116.97 117.11 117.21 117.36 117.43 117.47 117.53 117.57 117.61 117.68 117.64 117.61 117.59 117.68 117.73 117.68 117.69 116.27 118.04 117.99
113.46 113.65 113.88 114.14 114.41 114.54 114.66 114.77 114.86 114.88 114.95 115.08 115.29 115.39 115.51 115.61 115.76 115.88 116.02 116.00 116.07 116.11 116.12 116.16 116.19 116.29 116.35 116.45 116.55 116.72 116.86 116.98 117.15 117.29 117.41 117.55 117.65 117.72 117.78 117.83 117.86 117.93 117.90 117.86 117.83 117.88 117.93 117.89 117.92 116.47 118.28 118.19
114.03 114.09 114.37 114.22 114.47 114.71 114.92 115.05 115.11 115.13 115.22 115.31 115.42 115.50 115.57 115.68 115.79 115.97 116.09 116.10 116.15 116.22 116.25 116.30 116.33 116.42 116.49 116.61 116.71 116.89 117.04 117.16 117.31 117.46 117.60 117.76 117.84 117.94 118.01 118.08 118.11 118.16 118.16 118.10 118.08 118.11 118.13 118.11 118.15 116.64 118.48 118.38
114.25 114.52 114.63 114.78 114.77 114.90 115.02 115.23 115.35 115.38 115.44 115.53 115.60 115.65 115.71 115.83 115.92 116.05 116.17 116.16 116.19 116.29 116.40 116.47 116.50 116.57 116.69 116.80 116.93 117.03 117.18 117.35 117.50 117.66 117.79 117.94 118.09 118.18 118.28 118.36 118.40 118.39 118.40 118.34 118.32 118.33 118.34 118.33 118.38 116.49 118.65 118.57
114.49 114.60 114.71 115.00 115.29 115.44 115.60 115.29 115.26 115.48 115.61 115.74 115.84 115.85 115.87 115.93 115.99 116.15 116.22 116.31 116.27 116.40 116.52 116.61 116.68 116.72 116.82 116.96 117.09 117.21 117.36 117.55 117.71 117.87 117.99 118.11 118.26 118.44 118.53 118.65 118.64 118.66 118.68 118.62 118.61 118.56 118.54 118.54 118.60 116.15 118.84 118.82
114.80 114.83 114.95 115.10 115.30 115.50 115.71 115.90 116.04 116.21 115.71 115.69 115.89 116.00 116.08 116.13 116.22 116.28 116.43 116.45 116.45 116.57 116.69 116.78 116.87 116.96 117.08 117.21 117.32 117.45 117.58 117.70 117.85 118.00 118.13 118.28 118.43 118.55 118.70 118.82 118.86 118.88 118.91 118.85 118.83 118.81 118.82 118.75 118.83 116.92 119.10 119.06
115.15 115.07 115.21 115.36 115.58 115.69 115.81 115.91 116.11 116.39 116.56 116.62 116.61 116.62 116.20 116.25 116.35 116.42 116.56 116.54 116.65 116.77 116.86 116.94 117.06 117.18 117.41 117.58 117.74 117.89 118.09 118.27 118.45 118.65 118.77 118.94 119.09 119.24 119.25 119.13 119.12 119.16 119.17 119.16 119.11 119.09 119.04 119.07 119.11 117.89 117.79 119.27
115.45 115.34 115.43 115.67 115.78 115.87 116.01 116.15 116.29 116.50 116.63 116.73 116.78 116.92 116.99 116.97 116.86 116.91 116.94 117.04 117.09 117.06 117.15 117.21 117.27 117.43 117.63 117.84 118.01 118.15 118.32 118.47 118.63 118.75 118.83 118.95 119.06 119.20 119.31 119.65 119.62 119.34 119.16 119.05 119.00 119.29 119.51 119.56 119.51 118.10 116.46 119.23
115.83 115.61 115.71 115.92 115.98 116.13 116.26 116.38 116.52 116.70 116.80 116.90 116.94 116.96 117.09 117.24 117.15 117.16 117.18 117.26 117.34 117.35 117.37 117.39 117.46 117.63 117.77 117.92 118.07 118.18 118.32 118.50 118.62 118.75 118.87 118.96 119.10 119.25 119.44 119.71 119.69 119.79 119.76 119.69 119.63 119.65 119.17 118.59 118.36 118.11 117.90 117.93
116.15 115.92 116.05 116.18 116.23 116.35 116.48 116.59 116.73 116.91 116.99 117.06 117.14 117.20 117.30 117.43 117.40 117.38 117.33 117.37 117.42 117.43 117.45 117.43 117.54 117.71 117.83 118.07 118.22 118.30 118.46 118.65 118.73 118.87 119.06 119.15 119.29 119.39 119.56 119.80 119.81 119.77 119.79 119.82 119.79 119.83 119.85 119.75 119.44 118.91 118.40 117.56
116.53 116.25 116.36 116.43 116.45 116.59 116.76 116.85 116.97 117.12 117.21 117.33 117.38 117.45 117.54 117.67 117.62 117.65 117.59 117.60 117.62 117.59 117.64 117.64 117.69 117.85 118.01 118.23 118.39 118.50 118.65 118.81 118.90 119.06 119.25 119.34 119.48 119.54 119.70 119.94 119.93 119.90 119.89 119.90 119.88 119.85 119.84 119.79 119.56 119.10 118.65 117.19
116.93 116.58 116.65 116.67 116.73 116.90 117.03 117.11 117.23 117.37 117.44 117.57 117.60 117.69 117.75 117.88 117.82 117.86 117.81 117.82 117.82 117.81 117.82 117.83 117.92 118.04 118.21 118.42 118.55 118.68 118.85 118.99 119.10 119.25 119.41 119.49 119.64 119.70 119.86 120.04 120.10 120.03 120.02 120.04 120.02 120.05 120.03 119.95 119.81 119.44 119.00 117.16
117.21 116.89 116.95 116.93 117.01 117.15 117.33 117.41 117.52 117.68 117.72 117.81 117.82 117.89 117.95 118.06 118.03 118.09 118.04 118.03 118.03 118.04 118.03 118.03 118.15 118.24 118.42 118.63 118.75 118.85 119.03 119.16 119.29 119.43 119.59 119.66 119.79 119.85 120.01 120.22 120.24 120.17 120.18 120.19 120.18 120.21 120.20 120.13 120.03 119.73 119.37 118.61
117.41 117.23 117.26 117.28 117.33 117.49 117.63 117.71 117.82 117.94 118.00 118.05 118.06 118.09 118.12 118.24 118.23 118.31 118.25 118.25 118.26 118.25 118.25 118.25 118.34 118.48 118.63 118.82 118.93 119.04 119.21 119.35 119.44 119.62 119.76 119.84 119.96 120.00 120.15 120.34 120.35 120.28 120.32 120.34 120.36 120.39 120.37 120.30 120.23 120.01 119.63 119.34
117.66 117.61 117.63 117.65 117.72 117.82 117.96 118.04 118.12 118.21 118.25 118.29 118.28 118.28 118.32 118.42 118.46 118.53 118.48 118.48 118.47 118.47 118.47 118.49 118.62 118.72 118.86 119.04 119.15 119.25 119.42 119.53 119.64 119.82 119.96 120.02 120.12 120.17 120.29 120.49 120.45 120.40 120.43 120.46 120.50 120.55 120.51 120.49 120.44 120.28 119.96 119.65
117.97 117.99 117.98 118.00 118.06 118.14 118.29 118.32 118.39 118.46 118.51 118.54 118.53 118.51 118.56 118.64 118.69 118.77 118.72 118.72 118.73 118.71 118.71 118.74 118.88 118.99 119.11 119.28 119.36 119.46 119.62 119.72 119.83 120.04 120.17 120.19 120.31 120.33 120.43 120.62 120.55 120.49 120.53 120.55 120.63 120.67 120.66 120.62 120.60 120.49 120.25 119.91
118.09 118.28 118.25 118.29 118.38 118.43 118.52 118.57 118.62 118.70 118.73 118.77 118.74 118.79 118.78 118.92 118.92 118.97 118.95 118.96 118.93 118.93 118.94 118.98 119.13 119.25 119.35 119.51 119.59 119.67 119.82 119.92 120.01 120.23 120.37 120.39 120.49 120.51 120.58 120.75 120.69 120.62 120.65 120.68 120.75 120.78 120.79 120.75 120.74 120.68 120.52 120.18
118.21 118.45 118.44 118.44 118.50 118.58 118.70 118.77 118.84 118.91 118.93 118.95 118.94 118.99 118.96 119.09 119.12 119.15 119.13 119.14 119.12 119.12 119.14 119.21 119.38 119.47 119.59 119.74 119.82 119.89 120.02 120.14 120.24 120.43 120.56 120.60 120.67 120.68 120.74 120.87 120.80 120.75 120.77 120.80 120.88 120.92 120.92 120.90 120.92 120.88 120.78 120.44
118.43 118.62 118.67 118.61 118.68 118.72 118.83 118.92 119.03 119.08 119.11 119.15 119.14 119.16 119.17 119.28 119.31 119.36 119.32 119.34 119.34 119.32 119.33 119.44 119.60 119.73 119.85 119.96 120.07 120.14 120.24 120.36 120.47 120.65 120.76 120.79 120.87 120.85 120.92 121.01 120.95 120.86 120.88 120.90 121.00 121.04 121.04 121.06 121.10 121.08 121.06 120.78
118.69 118.86 118.68 118.71 118.73 118.83 118.93 119.03 119.14 119.21 119.29 119.33 119.39 119.42 119.37 119.38 119.50 119.59 119.55 119.56 119.57 119.56 119.58 119.70 119.83 120.00 120.12 120.25 120.35 120.40 120.50 120.61 120.75 120.89 120.99 121.03 121.08 121.07 121.12 121.22 121.13 121.02 121.04 121.04 121.12 121.15 121.17 121.18 121.20 121.22 121.22 121.04
118.82 118.85 118.85 118.82 118.90 118.97 119.05 119.17 119.32 119.43 119.51 119.53 119.58 119.55 119.55 119.65 119.68 119.79 119.77 119.75 119.79 119.76 119.79 119.91 120.07 120.23 120.39 120.52 120.62 120.70 120.76 120.85 121.00 121.14 121.21 121.30 121.32 121.31 121.35 121.40 121.36 121.22 121.18 121.19 121.26 121.29 121.28 121.28 121.25 121.24 121.25 121.17
118.95 119.01 119.04 119.02 119.06 119.17 119.25 119.38 119.53 119.61 119.68 119.68 119.65 119.65 119.65 119.73 119.82 119.96 119.94 119.88 119.96 119.93 119.98 120.06 120.19 120.38 120.54 120.66 120.81 120.88 120.95 121.03 121.17 121.29 121.35 121.41 121.50 121.50 121.51 121.53 121.52 121.38 121.33 121.33 121.37 121.38 121.37 121.32 121.26 121.22 121.24 121.21
119.07 119.45 119.42 119.37 119.40 119.46 119.54 119.67 119.84 119.97 120.01 120.01 119.95 119.94 119.85 119.90 120.03 120.13 120.12 120.05 120.12 120.11 120.14 120.22 120.29 120.43 120.60 120.74 120.92 120.99 121.06 121.12 121.25 121.35 121.43 121.49 121.57 121.61 121.60 121.61 121.62 121.47 121.42 121.42 121.45 121.46 121.44 121.39 121.28 121.25 121.27 121.29
119.19 119.51 119.65 119.72 119.83 119.94 120.07 120.26 120.41 120.56 120.62 120.57 120.53 120.43 120.39 120.45 120.28 120.32 120.29 120.23 120.28 120.26 120.29 120.33 120.40 120.53 120.64 120.85 121.02 121.08 121.15 121.21 121.31 121.40 121.47 121.55 121.63 121.66 121.64 121.68 121.68 121.56 121.47 121.49 121.53 121.51 121.51 121.44 121.30 121.27 121.31 121.33
119.34 119.60 119.76 119.84 119.98 120.19 120.34 120.48 120.69 120.86 120.91 120.96 120.95 120.90 120.89 120.86 120.49 120.58 120.50 120.44 120.47 120.42 120.48 120.49 120.56 120.68 120.75 120.90 121.14 121.21 121.26 121.33 121.40 121.50 121.57 121.61 121.71 121.73 121.68 121.75 121.73 121.58 121.54 121.57 121.59 121.57 121.57 121.51 121.35 121.32 121.32 121.35
119.47 119.83 119.85 119.99 120.23 120.47 120.64 120.80 120.88 120.96 121.02 121.05 121.01 121.00 121.00 120.96 120.74 120.84 120.75 120.76 120.74 120.69 120.77 120.74 120.79 120.92 120.98 121.08 121.27 121.35 121.40 121.49 121.53 121.62 121.69 121.74 121.79 121.82 121.80 121.85 121.87 121.72 121.67 121.65 121.69 121.66 121.66 121.56 121.41 121.37 121.36 121.41
119.62 120.02 120.07 120.23 120.43 120.69 120.92 121.10 121.14 121.18 121.21 121.18 121.15 121.12 121.13 121.10 120.93 121.07 120.96 120.96 121.00 120.92 120.93 120.95 120.95 121.07 121.15 121.25 121.42 121.48 121.53 121.65 121.68 121.75 121.82 121.86 121.89 121.93 121.90 121.96 121.95 121.82 121.86 121.86 121.87 121.85 121.82 121.73 121.56 121.51 121.52 121.48
119.85 120.21 120.30 120.44 120.60 120.82 121.11 121.31 121.37 121.39 121.40 121.37 121.31 121.26 121.31 121.26 121.07 121.19 121.12 121.10 121.16 121.08 121.03 121.05 121.10 121.15 121.28 121.34 121.54 121.61 121.67 121.79 121.82 121.88 121.94 121.99 122.00 122.02 122.03 122.08 122.08 122.00 121.95 121.92 121.92 121.88 121.82 121.77 121.64 121.57 121.54 121.62
120.05 120.34 120.49 120.60 120.72 121.00 121.30 121.49 121.56 121.58 121.57 121.56 121.47 121.43 121.49 121.43 121.15 121.38 121.31 121.32 121.30 121.21 121.21 121.22 121.28 121.32 121.44 121.52 121.68 121.75 121.82 121.93 121.96 122.02 122.06 122.13 122.11 122.14 122.17 122.21 122.24 122.10 122.05 122.00 122.00 121.96 121.92 121.84 121.76 121.68 121.65 121.64
120.24 120.50 120.64 120.72 120.89 121.18 121.44 121.61 121.69 121.76 121.72 121.71 121.65 121.58 121.59 121.55 121.34 121.57 121.44 121.49 121.46 121.38 121.40 121.45 121.50 121.53 121.61 121.72 121.81 121.91 121.95 122.06 122.07 122.16 122.20 122.26 122.24 122.25 122.28 122.34 122.40 122.24 122.15 122.11 122.10 122.07 122.04 121.96 121.87 121.75 121.71 121.71
120.40 120.62 120.76 120.88 121.07 121.32 121.57 121.71 121.84 121.88 121.83 121.78 121.75 121.72 121.74 121.74 121.49 121.74 121.55 121.63 121.64 121.58 121.58 121.60 121.69 121.71 121.77 121.81 121.94 122.07 122.10 122.20 122.20 122.28 122.33 122.38 122.37 122.40 122.42 122.50 122.58 122.33 122.29 122.23 122.21 122.18 122.13 122.06 121.96 121.89 121.83 121.80
120.59 120.80 120.94 121.04 121.22 121.46 121.69 121.81 121.90 121.92 121.89 121.86 121.85 121.85 121.86 121.93 121.59 121.88 121.72 121.81 121.80 121.76 121.80 121.78 121.83 121.84 121.87 121.93 122.06 122.18 122.25 122.34 122.30 122.40 122.45 122.51 122.52 122.54 122.58 122.65 122.77 122.48 122.43 122.41 122.39 122.35 122.26 122.19 122.12 122.04 121.97 121.92
121.04 121.14 121.12 121.25 121.39 121.61 121.82 121.93 122.01 122.03 122.00 121.98 121.97 121.98 122.00 122.08 121.87 122.04 121.90 122.00 121.98 121.95 121.97 121.94 121.94 121.93 121.96 122.05 122.19 122.30 122.33 122.43 122.40 122.51 122.57 122.66 122.67 122.73 122.76 122.85 123.02 122.67 122.57 122.59 122.55 122.50 122.45 122.41 122.32 122.25 122.18 122.17
121.28 121.30 121.40 121.47 121.59 121.78 121.95 122.07 122.15 122.22 122.20 122.23 122.24 122.21 122.22 122.25 122.04 122.19 122.06 122.19 122.21 122.15 122.12 122.11 122.10 122.08 122.06 122.19 122.33 122.43 122.41 122.52 122.49 122.62 122.71 122.80 122.87 122.96 123.03 123.11 123.20 122.87 122.88 122.86 122.81 122.75 122.66 122.62 122.60 122.54 122.46 122.47
121.38 121.41 121.54 121.66 121.79 121.93 122.03 122.15 122.28 122.39 122.42 122.47 122.49 122.50 122.52 122.48 122.19 122.44 122.28 122.38 122.44 122.36 122.32 122.31 122.32 122.25 122.22 122.32 122.44 122.57 122.51 122.59 122.57 122.72 122.83 122.94 123.04 123.20 123.30 123.38 123.40 123.01 123.06 123.13 123.08 123.01 122.92 122.88 122.83 122.79 122.74 122.69
121.51 121.57 121.69 121.85 121.99 122.07 122.15 122.27 122.38 122.49 122.54 122.61 122.67 122.69 122.71 122.68 122.44 122.68 122.54 122.52 122.60 122.54 122.51 122.50 122.49 122.41 122.39 122.44 122.56 122.68 122.58 122.67 122.68 122.79 122.94 123.08 123.19 123.34 123.48 123.55 123.57 123.39 123.42 123.39 123.34 123.22 123.15 123.09 123.06 123.02 122.93 122.87
121.63 121.71 121.90 122.08 122.24 122.30 122.33 122.42 122.51 122.62 122.69 122.78 122.81 122.84 122.85 122.86 122.65 122.84 122.75 122.68 122.74 122.70 122.68 122.67 122.62 122.53 122.54 122.60 122.68 122.77 122.71 122.74 122.77 122.87 123.02 123.18 123.28 123.42 123.55 123.66 123.74 123.49 123.49 123.52 123.46 123.41 123.36 123.23 123.24 123.29 123.23 123.12
121.77 121.90 122.08 122.32 122.49 122.53 122.49 122.57 122.67 122.71 122.82 122.92 122.95 122.99 123.03 123.01 122.81 122.91 122.83 122.80 122.88 122.85 122.79 122.81 122.72 122.65 122.65 122.72 122.81 122.89 122.85 122.83 122.88 122.95 123.08 123.24 123.33 123.46 123.58 123.68 123.79 123.64 123.63 123.67 123.62 123.56 123.47 123.43 123.43 123.37 123.32 123.26
121.94 122.09 122.27 122.49 122.65 122.67 122.64 122.66 122.81 122.85 122.95 123.01 123.02 123.08 123.13 123.14 122.93 122.93 122.88 122.87 123.00 122.99 122.91 122.93 122.84 122.77 122.76 122.83 122.93 122.97 122.97 122.93 122.98 123.03 123.11 123.25 123.37 123.49 123.59 123.73 123.95 123.76 123.71 123.81 123.76 123.70 123.66 123.58 123.60 123.58 123.53 123.47
122.16 122.33 122.46 122.58 122.74 122.80 122.82 122.82 122.91 122.96 123.06 123.06 123.08 123.21 123.27 123.29 123.04 123.00 123.02 123.08 123.13 123.12 123.10 123.07 123.03 122.98 122.93 122.96 123.09 123.14 123.15 123.11 123.14 123.22 123.30 123.38 123.49 123.60 123.67 123.77 124.07 123.87 123.84 123.96 123.94 123.83 123.81 123.81 123.80 123.75 123.70 123.69
122.31 122.52 122.64 122.73 122.81 122.90 122.97 122.95 122.96 123.07 123.15 123.16 123.21 123.38 123.46 123.44 123.22 123.11 123.13 123.13 123.14 123.15 123.09 123.12 123.11 123.08 123.04 123.09 123.22 123.22 123.21 123.25 123.29 123.40 123.45 123.54 123.61 123.71 123.78 123.91 124.26 124.00 124.02 124.08 124.06 123.98 123.99 123.96 123.97 123.97 123.89 123.88
122.36 122.61 122.75 122.85 122.90 123.01 123.02 123.05 123.05 123.17 123.25 123.29 123.35 123.52 123.59 123.54 123.32 123.69 123.70 123.69 123.80 123.80 123.76 123.79 123.75 123.81 123.79 123.80 123.78 123.71 123.64 123.64 123.70 123.80 123.88 123.69 123.81 123.90 124.01 124.07 124.36 124.16 124.15 124.22 124.21 124.14 124.18 124.18 124.17 124.15 124.09 124.07
122.28 122.61 122.79 122.94 123.02 123.07 123.12 123.15 123.13 123.24 123.38 123.48 123.52 123.64 123.73 123.68 123.46 123.90 123.90 123.77 123.83 123.80 123.78 123.82 123.84 123.82 123.82 123.85 123.79 123.86 123.86 123.88 123.86 123.94 123.99 123.79 123.79 123.88 123.96 124.10 124.39 124.31 124.29 124.37 124.40 124.34 124.33 124.35 124.40 124.38 124.31 124.29
122.26 122.58 122.80 122.98 123.07 123.17 123.22 123.27 123.25 123.31 123.46 123.53 123.65 123.75 123.82 123.78 123.47 124.09 123.99 123.90 123.83 123.83 123.83 123.80 123.76 123.78 123.77 123.80 123.83 123.94 124.06 124.08 124.15 124.18 124.17 123.96 123.95 123.99 124.06 124.20 124.45 124.43 124.40 124.51 124.52 124.47 124.51 124.56 124.56 124.57 124.52 124.53
122.26 122.57 122.82 122.99 123.15 123.25 123.33 123.40 123.37 123.40 123.53 123.58 123.68 123.79 123.86 123.86 123.55 123.94 124.10 124.01 123.92 123.97 123.88 123.81 123.84 123.86 123.87 123.88 123.87 124.06 124.24 124.25 124.36 124.39 124.34 124.12 124.10 124.13 124.23 124.32 124.52 124.52 124.55 124.65 124.69 124.64 124.65 124.71 124.72 124.74 124.70 124.69
122.29 122.60 122.85 123.01 123.21 123.33 123.40 123.49 123.49 123.47 123.60 123.64 123.71 123.78 123.88 123.90 123.63 124.05 124.13 124.10 124.05 124.00 123.96 123.95 123.95 123.91 123.86 123.99 123.97 124.19 124.33 124.33 124.46 124.54 124.50 124.28 124.26 124.29 124.37 124.45 124.63 124.68 124.73 124.79 124.80 124.82 124.81 124.88 124.91 124.90 124.86 124.88
122.34 122.64 122.92 123.06 123.24 123.36 123.45 123.54 123.58 123.58 123.67 123.73 123.74 123.81 123.90 123.91 123.74 124.13 124.22 124.19 124.11 124.10 123.99 124.02 123.98 123.99 123.99 124.08 124.05 124.17 124.42 124.46 124.54 124.63 124.64 124.38 124.38 124.44 124.49 124.59 124.69 124.85 124.87 124.97 124.96 124.93 124.99 125.01 125.03 125.08 125.05 125.06
122.45 122.77 122.99 123.16 123.29 123.46 123.54 123.60 123.68 123.69 123.71 123.81 123.81 123.85 123.92 124.00 123.83 124.20 124.25 124.22 124.11 124.12 124.08 124.17 124.12 124.12 124.09 124.18 124.10 124.26 124.46 124.56 124.60 124.77 124.76 124.49 124.53 124.57 124.61 124.71 124.84 124.97 124.96 125.08 125.11 125.08 125.09 125.12 125.18 125.21 125.17 125.24
122.58 122.86 123.00 123.24 123.37 123.56 123.65 123.68 123.76 123.80 123.78 123.85 123.86 123.92 123.99 124.08 123.91 124.22 124.33 124.31 124.21 124.16 124.15 124.28 124.26 124.32 124.32 124.35 124.24 124.39 124.57 124.68 124.68 124.80 124.86 124.60 124.61 124.70 124.74 124.84 124.94 125.12 125.10 125.18 125.21 125.15 125.19 125.20 125.29 125.33 125.31 125.38
121.62 122.94 123.11 123.34 123.51 123.68 123.79 123.81 123.88 123.93 123.93 123.89 123.97 124.00 124.07 124.22 123.97 124.30 124.42 124.46 124.27 124.28 124.23 124.38 124.41 124.52 124.54 124.54 124.40 124.54 124.70 124.83 124.85 125.02 125.01 124.72 124.74 124.81 124.87 124.96 125.04 125.24 125.17 125.29 125.26 125.26 125.38 125.38 125.40 125.44 125.43 125.44
