ncols 52
nrows 52
xllcorner 442368
yllcorner 5715968
cellsize 10
NODATA_value -9999
94.30 94.46 94.29 94.56 94.57 94.25 94.22 94.17 94.14 94.00 93.90 94.09 94.22 94.22 94.01 93.80 93.85 94.08 93.69 93.36 93.47 93.47 92.92 95.49 97.82 95.90 93.58 92.63 92.86 91.05 89.17 89.53 91.76 91.49 91.42 91.10 90.76 90.39 90.24 89.83 89.51 89.22 89.04 88.49 88.02 88.11 86.74 86.60 86.42 86.29 86.22 86.15
94.26 94.56 94.59 94.31 94.35 94.36 94.28 94.30 94.24 94.05 93.99 94.04 94.04 94.18 94.17 94.03 93.78 93.67 93.69 93.83 93.48 92.87 95.13 99.47 97.33 94.48 92.92 92.52 92.41 92.44 92.29 90.61 89.82 90.14 91.23 90.69 90.69 90.43 90.25 90.21 89.71 89.37 88.96 88.33 87.95 88.09 86.81 86.62 86.46 86.42 86.32 86.20
94.36 94.53 94.56 94.10 94.32 94.21 94.22 94.28 94.32 94.06 94.05 94.03 94.11 94.18 94.15 93.99 93.67 93.67 93.70 93.59 93.01 94.77 99.97 98.38 95.83 93.96 92.71 92.49 92.33 92.39 91.97 91.77 91.71 90.41 90.24 90.43 91.31 90.38 90.38 90.36 89.95 89.50 88.90 88.38 88.01 87.88 86.83 86.64 86.54 86.48 86.32 86.27
94.42 94.29 94.41 94.11 94.44 94.23 93.87 93.86 94.07 94.42 94.46 93.96 94.17 94.17 94.02 93.73 93.50 93.74 93.77 93.34 94.16 98.69 99.52 96.42 94.48 92.94 92.54 92.33 92.22 92.10 91.78 91.59 91.46 91.33 90.65 90.31 90.31 90.42 90.22 89.93 89.77 89.63 88.73 88.26 88.03 87.55 86.82 86.64 86.56 86.49 86.44 86.36
94.48 94.29 94.32 93.96 94.29 94.15 93.88 93.69 93.71 93.79 94.07 93.96 94.01 93.98 93.81 93.38 93.67 93.57 93.57 93.60 97.98 100.79 96.77 93.43 93.48 92.83 92.56 92.38 92.44 91.98 91.81 91.59 91.37 91.33 90.97 90.84 90.57 89.81 90.06 89.95 89.42 89.01 88.70 88.25 88.03 86.99 86.80 86.71 86.55 86.51 86.37 86.36
94.53 94.46 94.11 93.94 94.29 94.38 94.10 93.94 93.93 93.80 93.72 93.53 93.73 93.61 93.37 93.62 93.13 93.67 93.32 97.16 101.44 96.90 94.22 93.81 93.63 92.81 92.50 92.38 92.30 91.96 91.86 91.56 91.32 91.14 90.93 90.77 90.57 90.29 89.92 89.46 89.52 89.17 88.64 88.28 88.07 86.80 86.68 86.64 86.52 86.49 86.46 86.36
94.76 94.52 93.90 93.88 94.46 94.41 94.22 93.93 94.04 94.05 93.99 93.83 93.42 93.33 93.65 93.14 93.88 93.31 96.17 101.35 97.77 95.27 93.51 94.32 93.04 92.67 92.49 92.48 92.09 91.89 91.62 91.51 91.29 91.09 90.89 90.70 90.47 90.27 89.89 89.73 89.27 88.93 88.68 88.32 87.92 86.17 86.67 86.58 86.45 86.25 85.82 85.40
94.44 94.22 93.89 93.91 93.81 93.72 93.73 93.82 93.97 94.08 94.07 93.79 93.33 93.50 93.11 93.92 93.07 95.65 100.11 99.10 95.69 93.37 94.00 93.61 93.01 92.71 92.49 92.33 92.12 91.85 91.57 91.39 91.17 90.96 90.80 90.57 90.32 90.15 89.95 89.55 89.24 88.89 88.44 88.12 87.75 87.43 86.86 84.69 84.61 84.95 85.49 85.96
94.33 94.05 93.93 93.83 93.68 93.68 93.70 93.72 93.80 93.92 93.88 93.38 93.30 93.33 93.88 93.16 94.70 99.35 100.48 95.83 94.93 93.29 93.35 93.19 92.98 92.82 92.54 92.26 92.10 91.87 91.79 91.49 91.28 91.01 90.79 90.60 90.32 89.99 89.78 89.43 89.01 88.81 88.46 88.31 87.35 87.22 87.10 86.03 86.63 86.48 86.40 86.49
94.21 93.96 93.80 93.79 93.79 93.80 93.75 93.73 93.70 93.75 93.44 93.17 93.28 94.07 93.55 93.90 98.72 101.38 96.98 95.02 93.45 93.22 93.22 93.14 92.84 92.65 92.24 92.09 91.93 92.65 91.78 91.50 91.10 90.88 90.69 90.44 90.12 89.94 89.54 89.18 88.79 88.47 88.01 87.71 87.12 86.80 86.30 86.93 86.85 87.02 87.11 87.03
94.19 93.75 93.68 93.70 93.76 93.77 93.74 93.67 93.94 93.61 93.14 93.24 93.56 93.94 93.49 97.44 101.78 98.35 95.69 93.50 93.62 93.32 93.65 93.10 92.88 92.62 92.30 91.99 91.89 91.50 91.50 91.08 91.02 90.57 90.28 89.85 89.50 89.08 88.82 88.61 88.20 87.78 87.57 87.17 87.01 86.80 85.90 86.01 87.40 87.93 87.42 87.62
93.94 93.64 93.75 93.44 93.40 93.43 93.72 93.49 93.70 93.11 93.01 93.34 94.11 93.16 96.38 101.24 99.93 95.95 93.38 93.98 93.84 93.00 93.35 93.15 92.85 92.37 92.24 92.04 91.67 91.36 91.01 90.59 90.36 89.99 89.69 89.33 89.18 88.69 88.32 88.38 87.78 87.59 87.05 87.00 86.82 86.62 85.53 87.49 87.19 87.57 87.33 87.35
94.42 93.79 93.79 93.32 93.16 93.21 93.37 93.32 93.18 93.07 93.00 94.17 92.94 95.54 100.16 101.34 96.75 94.70 93.65 94.11 93.19 93.35 93.06 92.86 92.72 92.33 92.16 92.05 91.42 91.01 90.56 90.22 90.43 90.43 90.24 90.07 89.37 89.10 88.75 88.57 88.12 87.81 87.01 86.87 86.55 85.83 87.44 87.24 87.37 87.19 87.64 87.25
94.43 93.81 93.82 93.56 93.54 93.59 93.26 93.09 93.03 92.89 94.24 93.58 94.96 99.57 102.27 97.97 95.96 93.27 93.26 93.27 93.03 93.00 93.24 92.88 92.51 92.12 92.42 91.82 91.10 90.84 90.67 90.51 90.38 90.24 90.04 89.90 89.54 89.39 88.99 88.61 88.43 87.83 87.36 86.68 86.18 86.19 87.57 87.21 87.60 87.22 87.29 87.37
93.57 93.82 93.84 93.82 93.76 93.60 93.41 92.94 92.99 93.92 94.10 93.80 98.37 102.78 99.22 96.42 93.53 92.98 93.21 93.18 92.96 92.90 92.69 92.71 92.30 91.94 91.59 91.82 91.24 91.19 90.92 90.79 90.83 90.60 90.40 90.24 89.89 89.56 88.92 88.67 88.43 87.92 87.20 86.66 87.14 87.53 87.54 87.39 87.43 87.61 87.31 88.10
93.49 93.72 93.70 93.66 93.59 93.42 92.92 92.97 93.61 94.30 93.04 97.16 102.24 100.76 96.68 94.87 92.74 92.85 93.27 92.92 92.96 92.84 92.86 92.49 92.23 92.02 92.07 91.58 91.66 91.43 90.99 90.80 90.62 90.81 90.18 90.09 89.65 89.14 88.99 88.73 88.34 87.79 86.69 86.76 87.19 87.27 87.49 87.54 87.43 87.48 87.61 88.76
93.60 93.81 93.56 93.44 93.38 92.98 93.01 92.80 94.39 93.01 95.65 100.73 102.41 97.60 95.94 93.08 92.86 93.17 92.98 92.78 92.66 92.51 92.65 92.37 92.21 91.96 91.72 91.75 91.27 91.29 91.00 90.69 90.53 90.64 90.16 89.81 89.48 89.41 89.14 88.59 88.25 87.65 85.92 87.19 87.11 86.50 86.64 86.94 86.55 87.90 88.99 89.51
93.56 93.54 93.45 93.26 93.19 92.85 92.87 94.50 93.85 94.39 99.46 103.43 99.14 96.78 94.60 92.67 92.71 93.08 92.70 92.56 92.50 92.79 92.57 92.34 92.10 91.93 91.86 91.66 91.40 91.09 91.16 90.79 90.77 90.34 89.82 90.01 89.63 89.29 88.74 88.52 88.04 87.07 87.28 87.43 86.51 86.46 86.60 86.50 87.10 88.79 90.32 91.24
93.58 93.50 93.39 93.12 92.88 92.88 93.75 94.38 93.45 98.05 103.20 100.30 97.48 94.54 93.37 92.53 92.84 92.71 92.50 92.44 92.53 92.61 92.35 92.21 92.03 91.87 91.65 91.41 91.20 91.24 90.91 90.82 90.39 90.56 89.86 89.67 89.67 88.97 88.60 88.29 88.03 87.28 87.38 87.26 86.53 86.49 86.91 84.82 87.75 89.74 91.11 91.64
93.53 93.43 93.46 92.95 93.12 92.50 94.62 92.92 96.82 101.71 101.41 97.43 95.51 93.01 92.49 92.35 92.54 92.48 92.42 92.51 92.68 92.34 92.14 92.01 92.35 91.75 91.66 91.37 91.18 91.23 90.72 90.78 90.89 90.53 89.94 89.71 89.17 88.62 88.51 88.24 88.00 86.86 87.54 87.26 87.09 86.91 86.83 87.05 88.37 90.40 91.41 92.18
93.59 93.33 93.18 93.01 92.79 94.57 93.81 95.90 100.22 102.73 98.31 96.40 93.56 92.69 92.58 92.10 92.19 92.45 92.44 92.64 92.32 92.17 91.99 91.94 91.82 91.74 91.40 91.28 91.43 91.03 90.59 90.35 90.15 89.90 89.76 89.36 88.71 88.61 88.32 87.72 87.58 86.26 87.78 87.77 87.83 88.26 87.75 88.07 89.00 90.81 91.76 92.56
93.49 93.24 92.95 93.04 94.14 94.53 94.10 98.81 103.25 99.40 96.43 94.99 92.79 93.06 93.29 92.97 92.31 92.23 92.41 92.39 91.97 91.88 91.85 91.76 91.59 91.63 91.27 91.08 91.00 91.07 90.32 90.18 90.00 89.88 89.62 88.82 88.41 88.15 86.32 86.26 86.77 87.25 86.74 86.64 86.65 87.81 88.08 88.72 89.56 90.47 91.96 92.71
93.50 93.04 93.13 92.74 94.78 93.01 96.84 102.07 100.72 97.21 94.71 93.58 92.74 93.57 93.16 92.64 92.43 92.21 92.66 92.06 91.76 91.76 91.81 91.44 91.94 91.36 91.19 91.21 91.00 90.57 90.16 90.08 89.94 89.76 88.83 88.31 88.17 87.95 86.39 86.50 86.30 87.54 86.69 86.70 86.67 87.71 88.06 88.57 89.64 90.63 91.83 92.63
93.16 93.38 92.87 94.71 93.96 95.49 100.56 102.22 97.99 95.10 93.12 92.94 93.06 93.92 92.92 92.46 92.48 92.51 92.48 91.76 91.57 91.31 91.32 91.21 91.24 91.06 90.99 90.95 90.79 90.38 89.96 89.35 89.84 89.12 88.62 87.98 87.29 87.71 86.24 86.37 87.25 86.83 86.70 86.70 86.70 87.70 88.12 88.79 89.58 90.70 91.65 92.41
93.07 93.31 94.20 94.67 93.94 99.23 102.83 98.96 95.17 92.96 93.70 93.10 93.36 93.32 92.89 92.64 92.51 92.83 92.22 91.88 91.67 91.18 90.96 90.86 90.65 91.04 90.72 90.57 90.38 89.93 88.94 88.94 89.60 88.87 88.13 86.29 86.58 86.29 86.47 86.37 87.75 86.70 86.70 86.70 86.69 87.77 88.32 89.04 89.91 90.79 91.64 92.43
93.40 92.48 94.92 92.93 97.63 102.46 100.06 96.26 93.18 93.74 93.87 93.13 93.17 93.24 92.97 92.82 92.68 92.56 92.22 92.35 91.62 91.18 90.84 90.66 90.41 90.26 90.12 90.36 89.78 88.80 88.80 89.72 89.08 88.65 86.41 87.83 86.60 86.81 86.40 87.49 87.54 86.69 86.70 86.68 87.51 88.00 88.77 89.42 90.14 90.86 91.71 92.92
93.09 94.97 94.23 95.58 100.74 101.92 97.96 94.25 93.22 94.25 93.84 93.14 93.22 93.28 93.01 92.99 92.92 92.46 92.30 92.07 91.68 91.99 91.73 90.93 90.60 90.14 89.99 89.51 89.32 88.81 88.82 89.25 88.86 88.55 86.43 87.58 86.57 86.34 87.39 87.72 86.62 86.69 86.70 86.71 87.68 88.48 89.34 89.80 90.41 91.08 92.02 93.16
94.10 94.85 93.59 98.45 102.24 99.80 98.29 93.38 93.26 94.06 93.78 93.15 93.22 93.40 93.09 92.90 92.75 92.32 92.19 92.10 91.77 91.94 91.51 91.42 90.71 90.68 89.95 89.44 89.25 88.82 89.21 88.93 88.65 88.30 86.60 86.61 86.62 87.53 87.74 87.06 86.70 86.70 86.70 87.20 87.74 88.97 89.95 90.33 90.98 91.38 92.47 93.29
94.98 94.18 94.54 98.78 100.05 97.60 96.26 96.99 94.58 93.46 93.49 93.14 93.64 93.91 93.34 93.03 92.99 93.25 92.32 92.29 91.98 91.96 91.63 91.26 91.20 90.54 90.10 89.08 89.15 89.18 88.74 88.61 87.47 86.46 86.52 87.81 88.01 87.36 86.71 86.70 86.70 86.70 87.19 87.55 88.03 89.71 90.48 91.13 91.53 91.70 92.77 93.56
94.68 93.09 93.65 93.68 95.47 94.83 93.41 93.28 93.42 94.90 93.50 93.32 93.08 93.47 93.05 93.00 93.04 92.78 92.36 92.15 91.95 91.65 91.78 91.37 90.86 90.52 90.15 88.85 88.93 88.93 88.01 88.43 86.47 86.58 88.07 87.07 86.70 86.70 86.70 86.70 86.70 87.39 87.56 87.73 87.83 89.24 91.00 91.86 92.15 92.35 92.88 93.71
94.46 93.51 93.48 92.66 91.90 93.15 93.46 93.36 93.22 93.17 93.35 93.18 93.15 93.06 93.08 92.54 92.24 92.14 92.21 92.31 92.11 91.65 91.44 91.06 90.81 90.48 89.99 89.55 89.13 88.25 87.35 87.43 87.04 87.72 86.90 86.70 86.70 86.70 86.70 86.69 87.58 87.61 87.73 87.01 86.72 88.66 91.01 92.57 92.78 92.84 92.98 93.77
93.57 93.42 93.41 93.43 93.35 93.29 93.26 93.01 91.68 92.68 93.17 93.10 93.06 93.16 92.82 92.34 92.26 92.29 92.36 92.17 91.84 91.78 91.22 90.94 90.65 90.35 89.90 89.55 89.10 87.21 88.21 88.35 88.14 87.97 86.70 86.70 86.70 86.70 86.70 86.70 86.70 86.63 87.23 86.70 87.14 89.26 91.23 93.10 93.41 93.63 93.65 94.14
93.27 93.43 93.41 93.39 93.38 93.38 93.38 93.38 93.43 93.31 93.14 92.74 91.78 93.04 92.38 92.26 92.17 92.13 91.95 91.64 91.46 91.63 91.43 90.93 90.57 90.22 89.87 89.57 88.95 86.92 88.01 87.19 88.00 87.21 86.70 86.70 86.70 86.70 86.97 87.47 87.59 87.79 88.40 89.00 89.09 89.68 90.87 93.04 93.73 93.90 94.15 94.53
93.32 93.41 93.40 93.39 93.37 93.36 93.36 93.36 93.36 93.36 93.13 93.09 93.11 92.82 92.39 92.10 91.90 91.73 91.64 91.58 91.46 91.28 91.14 90.82 90.57 90.17 89.74 89.29 88.70 87.85 86.98 86.99 87.95 86.70 86.70 86.70 86.70 86.67 87.75 87.85 88.30 89.35 90.12 90.81 91.44 91.73 92.45 93.27 93.93 94.19 94.18 94.71
93.38 93.40 93.36 93.30 93.33 93.34 93.34 93.33 93.33 93.31 93.09 93.10 93.09 92.52 92.16 92.00 91.84 91.72 91.64 91.39 91.19 90.84 90.64 90.51 90.26 90.02 89.60 89.10 88.45 87.72 86.63 87.90 86.79 86.70 86.70 86.70 86.70 87.81 87.90 88.26 89.07 89.92 90.87 91.46 92.89 92.99 92.92 93.52 93.88 94.10 94.52 94.71
93.48 93.22 93.11 93.12 93.10 93.15 93.19 93.24 93.27 93.31 93.16 93.14 92.71 92.25 92.08 91.95 91.77 91.75 93.48 92.79 91.32 90.99 90.68 90.33 89.96 89.69 89.86 88.99 88.34 87.65 86.53 87.77 86.70 86.70 86.70 86.70 87.26 87.84 88.33 88.87 89.66 90.64 91.57 93.32 95.58 96.09 95.19 94.03 94.21 94.36 94.51 94.86
93.56 93.15 93.28 93.32 93.31 93.27 93.19 93.12 93.20 93.35 93.19 93.01 92.52 92.25 92.10 91.88 91.74 91.68 92.02 91.39 91.32 92.58 90.60 90.38 89.94 89.62 89.07 88.54 88.09 87.00 87.13 87.57 86.66 86.70 86.70 87.23 87.67 87.96 89.17 89.39 90.89 91.22 92.09 93.58 95.36 96.51 97.68 97.76 95.97 94.92 94.72 94.70
93.48 93.32 93.39 93.42 93.40 93.38 93.37 93.35 93.33 93.31 93.21 92.71 92.32 92.06 92.03 91.88 91.68 92.00 92.21 91.78 91.54 90.85 90.46 90.05 89.83 89.17 87.35 87.14 87.59 86.52 87.18 87.44 86.70 86.70 86.69 86.90 87.86 88.25 89.44 91.34 91.74 92.42 93.11 93.82 94.17 93.70 93.67 94.18 95.46 97.07 98.18 97.89
93.40 93.35 93.35 93.42 93.40 93.40 93.39 93.25 93.39 93.37 93.13 92.51 92.19 92.08 91.96 91.78 91.68 92.04 93.83 93.61 93.62 91.58 90.38 89.95 89.61 88.32 86.64 86.66 87.24 86.46 87.17 87.21 86.70 86.70 86.71 87.78 88.78 88.97 90.43 92.12 92.06 92.65 93.50 93.91 94.36 94.69 95.15 95.92 95.19 94.14 94.24 95.73
93.76 93.35 93.39 93.29 93.22 93.30 93.27 93.40 93.28 93.28 92.71 92.32 92.10 92.08 91.90 91.74 91.67 91.74 91.65 91.51 91.53 90.84 90.21 89.80 89.01 87.43 86.71 87.17 86.91 86.65 87.36 86.70 86.70 86.70 87.69 88.26 88.96 89.47 90.61 92.16 92.34 93.21 93.69 94.18 94.62 94.92 95.22 96.14 95.81 96.41 96.31 94.51
93.67 93.29 93.47 93.19 93.18 93.15 93.17 93.16 93.29 93.19 92.50 92.22 92.10 92.00 91.91 91.77 91.65 91.53 91.26 90.99 90.67 90.46 90.01 88.80 87.15 86.69 86.65 87.47 86.93 86.92 87.29 86.70 86.70 87.62 87.89 89.09 89.68 90.17 91.41 92.25 92.78 93.50 94.00 94.54 94.80 95.08 95.35 95.59 95.72 95.71 95.72 95.75
93.54 93.56 93.42 93.13 93.00 92.93 93.08 93.25 93.25 92.85 92.51 92.27 92.12 91.95 91.80 91.83 91.79 91.47 91.24 90.87 90.58 90.31 89.51 87.60 86.74 86.69 87.00 86.96 87.00 87.38 86.64 86.73 87.08 87.90 88.43 89.76 90.35 90.86 91.71 92.93 94.00 94.38 94.49 94.70 94.97 95.22 95.48 95.60 95.88 96.28 95.94 95.76
93.76 93.53 93.36 93.18 93.05 92.97 93.03 93.40 93.06 92.78 92.56 92.33 92.21 92.00 91.81 91.86 91.71 91.33 91.16 90.79 90.46 90.06 89.58 87.18 86.72 86.64 87.59 86.60 86.95 87.48 87.60 86.91 87.94 88.29 89.41 89.84 90.99 92.10 92.17 93.39 94.53 94.82 94.79 94.80 95.13 95.36 95.59 95.88 95.90 96.11 95.93 95.89
93.68 93.45 93.32 93.17 93.10 93.04 93.17 93.38 92.92 92.73 92.61 92.44 92.35 92.21 92.07 91.90 91.84 91.66 91.48 91.15 90.40 89.91 89.53 87.96 86.70 86.75 86.67 87.23 87.34 87.49 87.70 88.00 88.51 89.22 89.80 90.39 92.16 92.31 92.43 93.85 94.52 94.79 94.88 95.05 95.28 95.65 95.90 96.03 95.89 95.96 96.03 95.97
94.00 93.41 93.53 93.29 93.26 93.34 93.42 93.28 92.76 92.64 92.37 92.37 92.28 92.19 92.02 92.06 91.87 91.57 91.45 91.35 91.38 90.81 89.42 88.75 87.35 87.53 87.14 87.11 87.59 87.49 87.95 88.34 88.89 88.75 89.26 89.36 92.35 93.42 94.12 93.94 94.88 95.68 95.57 95.50 95.58 95.71 95.90 96.56 96.51 96.18 96.18 96.05
93.38 93.31 93.32 93.31 93.22 93.26 93.38 93.07 92.53 92.40 92.44 92.28 92.12 91.93 91.92 91.64 91.51 91.38 91.27 91.35 91.19 91.16 89.35 88.68 88.00 86.92 87.09 87.84 87.87 87.89 88.21 88.70 88.88 89.01 89.00 89.51 93.50 93.62 93.67 93.83 95.68 96.17 95.56 95.29 95.78 96.21 96.38 96.65 96.26 96.26 96.18 96.29
93.17 93.13 93.24 93.14 93.21 93.35 93.28 92.85 92.67 92.48 92.31 92.16 92.00 91.87 91.62 91.47 91.26 91.07 90.96 90.39 90.23 89.58 89.04 88.45 88.02 86.93 87.99 88.03 88.18 88.13 88.40 88.81 89.06 89.46 89.95 90.57 93.69 93.78 93.82 93.87 96.66 96.22 95.37 95.36 95.64 95.82 96.37 96.30 96.32 96.38 96.38 96.35
93.14 93.02 93.21 93.12 93.15 93.35 92.98 92.56 92.40 92.40 92.23 92.02 91.86 91.71 91.60 91.46 91.03 90.81 90.64 90.22 89.65 89.25 88.92 88.33 87.04 88.01 88.18 88.20 88.35 88.38 88.43 88.87 89.40 90.07 90.83 91.67 93.76 93.88 93.99 93.96 95.76 96.01 95.19 95.43 95.65 95.93 97.03 96.67 96.40 97.18 97.01 96.61
93.04 92.89 93.07 93.12 93.30 93.04 92.86 92.68 92.33 92.22 92.03 92.04 91.93 92.09 91.74 91.47 91.11 90.99 90.85 90.43 89.65 89.20 88.81 88.46 86.83 87.96 88.07 88.43 88.32 88.40 88.55 88.92 90.27 92.07 91.94 92.92 93.57 93.84 94.16 94.26 95.19 95.55 95.44 95.93 95.92 95.86 96.03 96.40 96.42 96.61 96.60 96.63
92.91 92.80 92.98 93.26 93.31 92.90 92.75 92.47 92.21 92.19 92.08 91.96 91.76 91.57 91.33 91.11 90.98 90.95 90.82 90.26 89.52 89.10 88.72 87.62 87.15 87.88 88.44 88.18 88.25 88.49 88.90 88.83 90.29 92.15 91.91 92.55 93.14 93.64 94.04 94.46 94.81 95.11 95.83 96.02 96.68 96.51 96.26 96.41 96.35 96.36 96.51 96.76
92.77 92.88 93.01 93.28 92.98 92.72 92.63 92.48 92.15 92.10 91.97 91.86 91.69 91.42 91.18 91.08 90.90 90.57 90.09 89.76 89.37 88.81 88.50 86.83 87.07 88.50 88.26 88.15 88.31 88.67 88.97 88.82 90.12 92.10 92.15 92.26 93.56 93.64 94.61 95.27 94.89 95.06 95.74 96.43 96.84 96.50 96.28 96.60 96.65 96.64 96.69 96.78
92.69 92.81 93.11 93.26 92.76 92.58 92.53 92.34 92.16 92.04 91.85 91.75 91.57 91.28 91.12 91.08 91.10 88.86 87.93 89.44 88.97 88.74 88.07 87.84 86.70 88.15 88.12 88.27 88.42 88.73 88.93 88.83 89.97 91.96 92.09 92.07 92.85 93.26 94.89 95.58 94.94 95.07 95.77 96.09 96.31 96.43 96.30 96.47 96.53 96.63 96.95 97.37
