ncols 52
nrows 52
xllcorner 442368
yllcorner 5715456
cellsize 10
NODATA_value -9999
92.65 92.79 93.11 93.28 92.72 92.57 92.49 92.31 92.14 92.03 91.81 91.75 91.54 91.26 91.12 91.07 91.19 88.85 87.92 89.42 88.91 88.73 87.97 88.21 86.79 87.50 88.15 88.27 88.40 88.74 88.93 88.84 89.92 91.88 92.09 92.07 92.88 93.16 95.05 95.62 94.97 95.07 95.83 96.19 96.17 96.40 96.32 96.45 96.50 96.68 96.88 97.29
92.60 92.85 93.17 92.96 92.66 92.46 92.33 92.15 92.07 91.85 91.70 91.51 91.40 91.12 91.10 90.96 90.78 89.05 88.83 89.24 88.76 88.49 87.34 88.32 88.31 86.77 88.19 88.27 88.57 88.85 88.93 88.90 89.25 90.73 91.90 92.06 92.57 93.99 95.11 95.31 95.27 95.12 95.91 96.21 97.32 96.82 96.74 97.13 97.04 96.76 96.97 97.05
92.51 93.15 93.00 92.83 92.37 92.48 92.38 92.09 92.06 91.66 91.55 91.46 91.41 91.09 91.12 90.90 89.47 89.04 89.24 88.96 88.78 87.33 88.10 88.30 88.16 86.79 88.28 88.47 88.81 89.03 89.14 89.13 89.54 91.54 92.62 93.62 93.77 94.07 94.93 95.33 94.97 95.59 95.61 95.73 96.39 96.41 96.86 97.51 97.44 96.87 96.95 97.04
92.73 92.92 92.76 92.80 92.68 92.63 92.32 91.86 91.98 91.98 91.88 91.41 91.28 91.01 90.77 89.73 89.24 89.11 89.25 88.89 88.61 87.61 88.33 87.50 86.80 87.79 88.31 88.58 89.20 89.44 90.32 90.76 91.51 92.90 93.17 93.19 93.74 94.04 94.95 95.34 94.90 95.71 96.11 96.46 96.14 96.35 96.35 96.58 96.82 96.96 97.32 97.20
92.66 92.62 92.53 92.66 92.57 92.44 92.33 92.19 92.08 92.11 91.80 91.73 91.21 90.97 90.59 89.84 89.91 89.33 89.13 88.74 88.32 87.56 88.19 86.81 88.17 88.28 88.53 88.73 89.11 89.83 90.91 91.02 91.57 92.10 93.18 93.17 93.69 93.93 94.96 95.42 94.92 95.79 96.09 97.03 96.36 96.50 96.76 96.88 97.03 97.04 96.91 96.30
92.67 92.64 92.43 92.34 92.38 92.32 92.21 92.32 92.09 91.91 91.82 91.66 91.43 90.90 90.33 90.04 89.88 89.38 89.14 88.68 88.10 87.50 87.98 87.36 88.19 87.58 87.68 87.61 89.04 89.79 90.56 91.00 91.46 92.01 92.88 93.19 93.72 93.96 94.75 94.98 94.97 95.83 96.03 96.11 96.38 96.46 96.83 96.83 97.23 97.47 96.84 96.01
92.68 92.64 92.14 92.03 91.94 91.90 91.74 91.95 91.99 91.92 91.78 91.63 91.38 90.96 90.50 90.15 89.78 89.28 88.99 88.26 88.24 87.47 87.85 87.08 88.22 88.36 87.63 87.74 89.21 89.74 90.23 90.61 91.25 91.95 92.54 93.08 93.55 94.07 94.82 94.78 95.01 95.71 96.01 96.56 96.41 96.78 96.77 96.82 97.01 96.75 95.98 96.07
92.58 92.59 91.93 91.76 91.62 91.48 91.54 91.62 91.65 91.76 91.67 91.54 91.23 90.93 90.53 90.19 89.82 89.59 89.03 88.66 87.99 87.77 87.24 87.19 87.95 88.47 88.65 88.99 90.00 89.84 90.65 90.88 91.55 92.38 93.12 93.72 93.91 94.75 95.02 94.98 95.12 95.73 96.43 96.65 96.47 96.79 96.90 96.38 96.82 96.65 95.92 96.66
92.19 91.74 91.47 91.50 91.33 91.16 91.10 91.22 91.38 91.47 91.39 91.34 91.07 90.74 90.24 89.97 89.53 89.35 89.11 88.82 87.27 87.88 86.88 87.75 88.30 88.46 88.69 89.23 89.70 90.60 90.79 91.08 91.61 93.14 93.25 93.46 94.28 95.21 95.19 95.11 95.30 95.64 95.82 95.98 96.24 96.45 96.38 96.32 96.01 95.83 96.12 96.99
92.34 91.86 91.54 91.42 91.44 90.97 90.76 90.76 90.98 91.13 91.22 91.12 90.81 90.50 90.11 89.79 89.44 89.30 89.09 88.36 88.12 87.53 87.48 88.26 88.37 88.66 88.71 89.35 89.98 90.33 90.83 91.23 91.60 92.71 92.95 93.43 93.96 94.81 95.16 95.11 95.99 96.01 96.19 96.27 96.32 96.48 96.51 96.49 96.65 95.86 97.24 97.02
91.66 92.10 92.28 91.54 91.41 90.93 90.72 90.50 90.43 90.58 90.78 90.62 90.34 90.12 89.91 89.63 89.33 89.31 89.16 87.04 87.77 86.86 87.67 88.25 88.76 88.76 88.87 89.48 89.89 90.14 90.55 91.06 91.77 92.46 93.15 93.54 94.33 94.67 94.98 95.04 95.51 95.96 96.10 96.20 96.57 96.77 97.00 96.68 95.67 96.92 97.31 97.08
91.55 91.59 92.40 92.42 91.59 91.30 90.99 90.60 90.33 90.07 89.91 89.85 89.78 89.89 89.62 89.38 89.27 89.04 88.76 87.75 86.90 87.09 88.18 88.66 88.76 88.64 89.10 89.67 90.15 90.26 90.89 91.63 92.34 92.62 93.31 93.70 94.26 94.64 94.96 95.03 95.74 95.82 95.93 95.88 97.18 97.18 97.18 96.07 95.78 97.66 96.95 97.06
91.56 91.61 91.57 92.35 91.85 91.13 91.19 90.87 90.48 89.97 89.64 89.49 89.51 89.32 89.26 89.04 89.05 88.87 87.21 86.89 86.88 88.18 88.22 88.54 88.48 88.58 89.24 89.81 90.11 90.42 90.96 91.75 92.82 91.61 93.30 93.83 94.40 94.76 94.99 94.96 95.15 95.75 95.91 95.90 96.94 97.07 97.09 95.57 96.83 96.93 96.74 97.69
91.37 91.33 91.43 91.47 91.61 91.09 91.30 90.87 90.44 89.99 89.60 89.51 89.43 88.84 89.15 88.98 88.85 88.51 87.69 88.04 87.95 88.26 88.38 88.48 88.56 88.54 89.54 89.80 90.19 90.43 91.19 91.77 92.36 92.71 93.18 93.80 94.18 94.65 94.85 95.21 95.60 95.61 95.64 95.79 95.92 96.25 95.58 95.66 96.58 96.67 96.72 97.03
91.34 91.20 91.10 91.05 91.04 91.50 90.95 90.93 90.43 89.95 89.71 89.46 88.47 88.43 88.50 88.91 88.79 87.09 87.91 88.00 88.17 88.23 88.23 88.47 88.50 88.74 89.55 89.81 90.25 90.71 91.29 91.80 92.24 92.65 93.07 93.50 93.96 94.35 94.60 95.77 95.73 95.93 96.01 96.01 95.75 95.46 95.43 96.44 96.60 96.50 96.77 96.96
91.38 91.16 91.00 90.90 90.78 90.79 90.65 90.47 90.09 89.89 89.43 88.72 88.49 88.54 88.54 88.43 88.50 87.37 88.04 88.19 88.16 88.27 88.33 88.45 88.53 89.08 89.66 89.83 90.36 90.84 91.53 92.11 92.60 93.07 93.39 93.79 94.04 94.49 94.69 95.19 95.62 95.85 96.01 96.06 96.26 95.31 95.51 96.68 97.01 96.56 96.84 97.15
91.32 91.18 91.06 90.90 90.77 90.69 90.36 90.25 89.95 89.66 89.26 88.94 88.57 88.55 88.54 88.43 87.65 88.16 88.12 88.15 88.19 88.23 88.31 88.47 88.51 89.65 89.79 90.07 90.47 90.92 91.80 92.36 92.93 93.34 93.55 93.83 94.12 94.39 94.71 94.90 95.56 95.87 96.04 96.01 95.96 95.23 96.49 96.68 96.51 96.49 96.93 97.13
91.32 91.21 91.09 90.92 90.73 90.46 90.19 90.05 89.82 89.43 89.40 88.84 88.58 88.48 88.53 88.77 87.18 88.18 88.18 88.21 88.23 88.19 88.30 88.52 88.95 89.75 89.95 90.21 90.57 91.01 92.60 92.79 93.06 93.41 93.25 91.19 94.51 94.34 94.99 95.17 95.19 95.28 95.34 96.00 95.25 95.43 96.72 97.10 96.70 96.44 96.49 96.83
91.32 91.17 91.00 90.86 90.62 90.40 90.09 89.86 89.58 89.46 89.38 88.88 88.56 88.48 88.33 87.12 88.16 88.17 88.21 88.21 88.32 88.14 88.40 88.52 89.13 89.68 90.41 90.38 90.69 91.10 91.55 92.04 93.20 93.26 93.17 93.39 94.33 94.85 95.06 95.31 95.74 95.54 95.57 95.50 95.14 96.32 96.52 96.53 96.45 96.33 96.59 96.92
91.25 91.12 90.90 90.73 90.59 90.29 89.97 89.71 89.49 89.36 89.08 88.74 88.44 88.46 87.75 88.24 88.28 88.37 88.39 88.18 88.35 88.33 88.47 88.78 89.48 89.79 90.22 90.49 90.81 91.12 91.54 92.08 92.72 93.39 93.20 93.78 94.10 94.71 95.07 95.40 95.75 95.61 95.49 95.12 95.28 96.10 96.29 96.38 96.50 96.28 96.58 96.68
91.40 90.99 90.88 90.72 90.43 90.11 89.81 89.56 89.43 89.20 88.93 88.84 88.52 88.50 87.12 88.18 88.17 88.27 88.03 87.88 87.31 88.32 88.32 88.86 89.54 89.93 90.70 90.60 90.91 91.26 91.67 92.12 92.25 92.94 93.53 94.12 94.16 94.53 95.06 95.36 95.52 95.49 95.34 95.07 96.10 96.41 96.53 96.67 96.51 96.10 96.49 96.71
91.04 90.99 90.82 90.49 90.10 89.81 89.58 89.34 89.24 89.07 88.87 88.76 88.59 88.00 88.08 88.38 88.37 88.30 88.08 88.06 87.72 87.59 87.73 89.10 89.52 90.24 90.32 90.73 91.02 91.35 91.73 92.16 92.64 93.16 93.56 93.85 94.19 94.57 94.89 95.19 95.18 95.42 94.97 95.20 96.07 96.31 96.40 96.26 96.14 96.06 96.58 96.73
91.14 90.75 90.70 90.38 90.07 89.63 89.35 89.23 89.03 88.85 88.77 88.75 88.55 88.02 88.46 88.50 88.38 88.18 88.08 88.24 88.67 88.87 89.03 89.59 89.81 90.23 90.55 91.01 91.29 91.43 91.79 92.20 92.65 93.26 93.86 94.03 94.22 94.57 94.77 94.94 95.07 95.11 94.96 95.60 95.73 95.72 95.88 96.03 96.03 96.08 96.28 96.46
90.81 90.74 91.66 90.00 89.86 89.69 89.63 89.07 88.83 88.81 88.71 88.53 88.50 87.33 88.48 88.49 88.33 88.07 88.35 89.04 89.99 90.09 89.73 89.64 89.91 90.13 90.70 90.86 91.50 91.51 92.44 92.26 92.82 93.17 93.57 94.02 94.38 94.63 94.84 94.96 95.09 94.86 95.17 95.78 95.91 96.07 96.15 96.13 96.05 96.12 96.43 96.48
90.67 90.23 90.12 90.44 89.11 88.88 89.09 88.72 88.71 88.66 88.66 88.63 88.21 87.97 88.40 88.45 88.39 88.35 89.53 89.83 90.07 90.09 89.91 90.67 90.08 90.25 90.54 90.82 91.41 91.99 92.09 92.45 93.06 93.31 93.71 94.46 94.50 94.51 94.76 94.87 95.01 94.90 95.76 95.90 96.40 96.38 95.92 96.03 95.83 96.03 96.17 96.49
90.50 90.21 89.99 90.68 88.83 88.87 88.77 88.65 88.58 88.67 88.66 88.65 87.86 88.05 88.52 88.57 88.82 88.92 88.94 89.08 89.76 89.96 90.06 90.39 90.22 90.72 91.03 91.07 91.94 91.44 92.06 92.63 93.20 93.57 93.88 94.21 93.40 94.69 94.75 94.77 94.74 95.22 95.58 95.82 95.92 95.62 95.60 95.82 95.80 96.02 96.07 96.48
90.52 90.31 90.07 89.23 88.78 88.83 88.79 88.78 88.82 88.72 88.59 88.60 87.24 88.43 88.62 88.68 88.51 90.15 90.32 89.71 89.29 89.18 89.66 90.33 90.43 90.90 91.28 91.33 91.91 90.77 89.53 91.99 93.31 93.61 93.74 93.99 94.39 94.65 94.72 94.69 94.82 95.14 95.25 95.38 95.74 95.84 95.99 96.02 95.85 95.97 96.63 96.72
90.56 90.28 90.02 89.04 88.82 88.75 88.70 88.70 88.70 88.74 88.69 88.28 87.29 88.66 88.69 88.73 88.72 89.96 90.17 89.96 89.58 89.54 89.95 90.67 90.74 91.85 92.14 91.90 91.93 91.83 91.97 92.48 93.16 93.53 93.75 93.74 93.78 94.15 94.48 94.68 94.98 95.35 95.60 95.84 96.00 96.02 96.09 96.19 95.91 96.41 96.74 96.76
90.53 90.24 89.79 89.21 89.14 88.84 88.67 88.49 88.55 88.76 88.74 87.99 87.57 88.77 88.83 88.95 89.03 89.85 90.09 90.23 90.09 89.98 90.07 90.91 91.11 91.99 92.02 92.22 92.58 92.78 93.13 93.14 93.36 93.61 93.75 93.79 93.92 94.27 94.58 94.71 95.26 95.48 95.66 95.99 95.83 95.82 95.93 95.86 95.95 96.50 96.61 96.71
90.37 90.11 89.53 89.21 89.17 89.04 88.90 88.76 88.71 88.75 88.73 88.17 88.09 88.93 89.16 89.09 89.19 89.22 89.41 89.96 90.30 90.24 90.38 91.59 91.41 91.51 91.61 91.99 92.27 92.60 93.24 93.42 93.70 93.82 93.82 93.25 93.80 94.35 94.58 95.28 95.34 95.36 95.43 95.31 95.36 95.64 95.96 96.04 96.00 96.40 96.39 96.54
90.09 88.72 89.19 89.40 89.17 88.97 88.82 88.73 88.67 88.77 88.78 87.88 88.32 89.17 90.24 89.65 89.37 89.42 89.45 90.01 90.29 90.28 91.04 91.57 91.59 91.75 92.06 92.27 92.50 93.08 93.48 93.49 93.86 93.88 94.06 94.16 94.17 94.59 94.60 94.99 95.20 95.07 95.32 95.58 95.85 95.99 96.12 96.19 96.10 96.37 96.56 96.71
90.08 88.25 88.24 88.26 88.27 88.66 88.85 88.78 88.68 88.84 88.97 87.52 88.59 89.27 89.88 89.92 89.68 89.39 89.57 90.11 90.25 90.25 91.37 91.95 91.85 92.10 92.45 92.71 93.10 93.14 93.42 93.57 93.94 93.93 94.09 94.29 94.25 94.43 94.80 95.20 95.38 95.32 95.54 95.79 95.91 96.11 96.10 96.22 96.39 96.43 96.66 96.94
89.90 88.43 89.20 89.00 88.31 88.26 88.25 88.57 88.85 88.85 89.09 87.21 88.79 89.50 89.82 90.11 90.19 90.00 89.86 90.15 90.19 90.88 91.63 92.14 92.43 92.55 93.29 93.15 93.26 93.25 93.58 93.70 94.08 94.21 94.12 94.33 94.55 94.49 95.15 95.35 95.43 95.45 95.57 95.85 96.10 96.03 96.25 96.24 96.47 96.58 96.56 96.68
88.25 89.14 89.36 89.22 89.17 88.26 88.63 88.94 88.82 88.96 89.19 87.46 89.19 90.00 90.49 90.69 90.91 90.54 90.28 90.24 90.21 92.12 92.15 92.37 92.70 92.67 93.42 93.42 93.82 93.57 93.74 94.05 95.18 95.08 94.93 95.15 94.33 94.94 95.51 95.60 95.74 95.73 95.80 95.86 96.12 96.19 96.26 96.25 96.43 96.48 96.62 96.46
88.25 89.19 89.10 89.15 89.12 88.50 89.06 89.18 88.94 89.35 88.46 88.50 89.29 90.26 90.82 91.11 91.27 91.01 90.61 90.51 92.25 92.35 92.36 92.66 93.12 93.18 93.44 93.94 93.92 93.77 93.98 94.54 94.83 94.85 94.62 94.50 94.43 95.19 95.64 95.73 95.82 95.91 95.98 96.03 96.08 96.35 96.39 96.25 96.40 96.56 96.71 97.04
88.25 89.07 88.99 89.00 88.25 88.28 89.14 89.19 88.97 89.19 87.29 88.88 89.46 90.28 91.17 91.31 91.30 91.26 91.14 91.20 92.88 93.25 93.22 92.81 93.25 93.46 93.89 94.00 94.04 94.14 94.21 94.48 94.71 94.86 94.67 94.37 94.67 95.21 95.62 95.80 95.89 96.04 96.14 95.98 96.10 96.13 96.36 96.40 96.57 96.66 97.14 97.31
88.25 88.38 88.97 88.85 88.25 88.63 89.20 88.96 88.96 89.07 87.56 89.19 89.64 90.66 91.31 91.29 91.27 91.15 91.26 91.50 92.99 93.13 93.23 92.88 93.27 93.79 94.05 94.06 93.96 94.18 94.07 94.19 94.69 94.83 94.35 94.68 95.31 95.25 95.42 95.67 95.80 95.81 95.93 96.20 96.21 96.31 96.29 96.29 96.66 96.68 97.34 97.49
89.99 88.33 88.25 88.25 88.25 89.23 89.48 88.99 89.31 88.64 88.67 89.29 89.84 91.10 91.30 91.32 91.22 91.23 91.33 91.58 93.44 93.16 93.50 92.93 94.01 93.91 93.93 93.80 93.79 93.63 93.57 93.86 94.66 94.88 94.59 95.35 95.12 95.46 95.76 95.92 95.93 96.06 96.11 96.36 96.29 96.29 96.35 96.32 96.68 96.73 97.10 97.29
90.24 89.97 89.61 89.12 89.26 89.23 89.21 89.03 89.58 87.33 88.91 89.26 89.90 90.86 91.23 91.20 91.10 91.23 91.35 92.23 93.39 93.35 93.05 92.94 93.86 93.87 93.33 93.34 93.44 93.56 93.81 94.82 94.34 94.53 94.52 94.72 94.95 95.39 95.82 96.09 96.25 96.15 96.06 96.29 96.46 96.62 96.87 97.06 97.36 97.10 97.22 97.40
90.65 89.96 89.83 89.53 89.43 89.33 89.05 89.04 89.05 88.63 89.14 89.24 89.91 88.67 90.29 90.92 90.71 90.92 91.29 92.96 93.07 92.59 92.61 92.70 92.94 93.09 93.48 93.47 94.89 94.88 94.85 94.85 94.56 95.06 94.38 94.44 94.73 95.40 95.98 96.10 96.51 96.44 96.14 96.58 96.93 97.15 97.47 97.62 97.62 96.96 96.96 97.58
90.20 90.10 89.88 89.69 89.44 89.32 89.21 89.17 88.17 89.82 89.16 87.25 89.76 89.02 90.28 90.66 90.49 90.80 91.22 91.40 91.75 92.04 92.44 93.43 94.42 93.30 94.09 94.28 95.05 95.05 94.82 94.60 94.81 93.95 94.66 94.32 94.62 96.12 96.35 96.24 96.48 96.71 96.74 97.20 97.06 96.97 97.35 97.62 97.43 97.44 98.04 98.23
89.13 89.28 88.81 89.75 89.63 89.53 89.18 89.32 87.90 89.76 89.51 89.31 89.78 90.54 90.13 90.07 90.35 90.68 91.19 92.34 92.61 92.26 93.07 93.59 94.32 94.35 93.40 94.37 94.98 94.90 94.74 94.88 95.23 95.47 95.80 95.75 96.53 96.73 96.60 96.43 96.71 96.82 96.81 97.17 97.18 97.20 97.35 97.49 97.50 97.50 98.06 98.25
88.76 88.99 88.96 89.00 89.05 89.03 89.56 89.46 89.37 89.35 89.33 89.45 89.53 89.67 90.15 90.51 91.24 91.47 92.61 93.59 94.41 93.74 94.37 94.43 94.43 94.83 95.07 95.10 94.82 94.82 94.81 94.86 95.18 95.42 95.61 95.85 96.43 96.51 96.20 96.57 96.78 96.92 96.93 97.08 97.25 97.79 97.65 97.50 97.55 97.60 97.87 98.05
88.71 88.77 88.74 88.74 88.78 88.79 88.89 88.83 89.35 89.44 89.55 89.57 89.67 90.68 90.76 90.74 91.27 92.49 93.71 94.40 94.87 94.40 94.32 94.47 95.14 95.10 94.63 94.58 94.77 94.82 95.39 94.96 92.78 94.04 95.54 95.86 96.33 96.49 96.79 96.76 97.00 97.14 97.29 97.32 95.04 97.65 97.76 97.58 97.71 97.66 97.81 97.87
88.72 88.75 88.60 88.61 88.65 88.73 88.62 89.03 89.34 89.55 89.59 89.62 89.51 90.61 90.90 90.94 91.08 93.31 94.11 94.44 94.83 94.95 94.46 94.52 95.15 95.26 95.01 95.14 94.82 95.47 95.80 95.57 95.72 95.78 95.83 95.95 96.38 96.60 96.71 96.96 97.44 97.50 97.45 97.65 97.77 97.09 97.85 97.68 97.82 97.89 97.87 97.94
88.81 88.70 88.55 88.56 88.60 88.72 88.96 89.01 89.15 89.45 89.63 89.67 89.55 90.66 91.00 91.14 91.21 94.05 94.20 94.46 94.90 95.20 94.79 95.51 95.41 95.27 95.24 95.00 95.20 95.34 95.80 95.95 96.00 96.10 96.13 96.26 96.51 96.82 96.96 97.12 97.29 97.88 97.38 97.68 97.83 96.76 97.82 98.43 98.11 98.06 97.99 98.16
88.67 88.60 88.58 88.69 88.63 88.14 89.18 89.47 89.48 89.51 89.58 89.56 89.69 90.53 91.11 91.93 93.37 94.10 94.21 94.24 94.39 95.26 95.40 95.59 95.62 95.56 95.22 95.04 95.78 95.62 95.97 96.21 96.56 96.73 96.95 97.02 97.32 97.65 97.33 97.33 97.30 97.74 97.56 97.40 97.81 97.77 97.77 97.93 98.02 98.19 98.17 98.29
88.76 88.71 88.67 88.60 88.76 89.19 91.83 90.27 89.52 89.24 89.20 89.57 89.80 90.74 92.15 92.81 92.65 94.06 94.18 94.24 94.24 95.55 95.62 95.68 95.81 95.61 95.02 95.71 96.08 96.91 96.93 97.07 97.38 97.24 97.66 97.65 97.69 97.78 97.60 97.83 97.43 97.68 97.58 97.61 97.84 97.91 97.84 97.90 97.87 98.25 98.44 98.31
88.95 88.79 88.57 88.53 88.53 90.51 92.03 90.48 89.62 89.09 89.25 89.69 89.92 91.17 92.26 92.68 92.67 93.71 94.29 94.37 95.63 95.89 95.96 95.81 95.67 95.24 95.35 96.11 96.77 97.23 97.29 97.27 97.40 97.36 97.52 97.55 97.64 97.81 97.70 97.99 97.61 97.64 97.62 97.86 98.98 97.60 97.99 98.01 98.02 98.18 98.25 98.42
88.97 88.55 88.46 88.63 89.59 91.41 92.08 90.19 89.75 89.51 89.38 89.89 90.08 90.80 92.21 92.62 92.99 93.83 94.26 94.70 95.47 95.82 95.89 95.65 95.31 95.18 95.99 96.47 96.68 96.75 96.83 97.07 97.24 97.47 97.55 97.82 97.95 98.02 98.22 98.34 97.86 97.79 97.97 97.68 97.82 97.89 98.06 98.15 98.25 98.82 98.38 98.41
89.57 88.47 88.38 89.64 90.93 91.99 92.20 90.51 89.81 89.83 89.88 90.10 90.18 90.37 91.94 92.72 93.18 93.80 94.25 94.54 94.46 95.80 95.72 95.50 95.16 95.39 95.74 96.01 96.37 96.76 96.83 96.97 97.14 97.46 97.38 97.72 98.02 98.07 98.28 98.48 98.06 97.89 97.89 97.79 97.99 98.14 98.20 98.35 98.27 98.29 98.21 97.98
90.04 89.96 88.22 89.93 91.19 91.93 92.08 90.23 90.18 90.20 90.21 90.35 90.20 90.31 92.70 92.86 93.46 94.14 94.38 94.74 94.67 95.75 95.79 95.32 95.38 96.88 96.95 96.42 96.73 96.90 97.02 97.15 97.19 97.25 97.36 97.47 98.09 98.09 98.24 98.30 98.24 97.87 97.96 97.96 98.26 98.38 98.51 98.21 98.28 98.32 98.22 97.70
