ncols 52
nrows 52
xllcorner 442368
yllcorner 5713920
cellsize 10
NODATA_value -9999
103.07 103.02 102.85 102.67 102.34 102.29 102.06 101.73 101.68 101.60 101.46 101.36 101.11 100.81 100.58 100.32 100.25 100.06 99.90 99.76 99.68 99.74 99.81 99.83 99.99 100.24 100.54 100.90 101.07 101.28 100.43 100.98 102.72 102.88 103.23 103.54 103.80 104.06 104.32 104.51 104.75 104.99 105.24 105.56 105.81 106.02 106.14 106.32 106.46 106.64 106.80 106.92
103.26 103.30 103.04 102.98 102.75 102.58 102.30 102.00 102.01 101.83 101.67 101.55 101.28 101.00 100.77 100.49 100.33 100.15 99.94 99.84 99.76 99.76 99.37 99.92 100.14 100.36 100.71 101.01 101.27 101.34 101.76 99.19 102.91 103.07 103.35 103.65 103.94 104.18 104.43 104.62 104.86 105.08 105.35 105.61 105.90 106.05 106.22 106.43 106.56 106.72 106.85 107.02
103.45 103.53 103.31 103.28 103.15 102.86 102.64 102.27 102.24 102.10 101.85 101.73 101.40 101.25 100.99 100.65 100.46 100.25 100.05 99.94 99.86 99.85 99.69 100.03 100.21 100.44 100.75 101.07 101.36 101.50 101.68 98.79 103.00 103.19 103.43 103.70 104.00 104.28 104.52 104.76 104.96 105.17 105.41 105.71 105.95 106.14 106.35 106.51 106.74 106.87 107.01 107.18
103.72 103.81 103.62 103.57 103.48 103.17 102.97 102.65 102.44 102.29 102.03 102.01 101.70 101.40 101.12 100.81 100.62 100.40 100.15 100.04 99.98 99.92 99.92 100.17 100.28 100.47 100.76 101.11 101.41 101.59 101.82 99.07 102.97 103.23 103.42 103.72 104.10 104.38 104.64 104.86 105.08 105.25 105.49 105.77 106.06 106.25 106.42 106.64 106.88 107.03 107.14 107.27
103.95 104.14 103.80 103.83 103.71 103.44 103.22 102.99 102.75 102.59 102.24 102.20 101.88 101.51 101.34 101.03 100.78 100.52 100.31 100.15 100.04 99.99 100.00 100.29 100.32 100.56 100.83 101.16 101.49 101.71 101.90 100.52 101.29 103.24 103.46 103.77 104.17 104.46 104.71 104.96 105.15 105.42 105.60 105.84 106.11 106.32 106.52 106.68 106.89 107.08 107.20 107.28
104.23 104.32 104.02 104.07 103.93 103.69 103.44 103.24 103.04 102.77 102.51 102.39 102.13 101.62 101.44 101.20 100.85 100.66 100.45 100.29 100.17 100.04 100.08 100.42 100.44 100.67 100.97 101.27 101.63 101.90 102.03 102.38 99.21 103.32 103.55 103.82 104.21 104.53 104.82 105.07 105.29 105.49 105.71 105.95 106.19 106.40 106.55 106.74 106.91 107.07 107.19 107.28
104.46 104.51 104.43 104.34 104.21 103.89 103.71 103.45 103.26 102.99 102.80 102.60 102.18 101.77 101.58 101.33 101.02 100.83 100.65 100.47 100.32 100.18 100.19 100.57 100.59 100.85 101.14 101.44 101.78 102.04 102.16 102.42 99.51 101.86 103.63 103.87 104.20 104.63 104.96 105.20 105.45 105.62 105.85 106.08 106.32 106.51 106.60 106.78 106.96 107.08 107.19 107.29
104.71 104.74 104.62 104.56 104.44 104.08 103.94 103.75 103.39 103.27 103.05 102.77 102.43 102.02 101.71 101.49 101.08 101.01 100.82 100.68 100.50 100.30 100.24 100.46 100.70 101.00 101.29 101.62 101.92 102.18 102.34 102.36 100.77 99.82 103.73 103.91 104.35 104.71 105.08 105.39 105.64 105.80 105.99 106.21 106.40 106.57 106.71 106.84 107.00 107.12 107.24 107.30
104.92 104.86 104.83 104.82 104.74 104.43 104.20 103.93 103.61 103.48 103.32 102.95 102.65 102.20 101.81 101.61 101.29 101.18 101.00 100.83 100.71 100.50 100.35 100.04 100.82 101.06 101.38 101.71 102.04 102.30 102.54 102.57 102.68 99.13 103.46 104.14 104.43 104.87 105.24 105.52 105.78 105.95 106.11 106.32 106.53 106.71 106.79 106.95 107.06 107.19 107.28 107.34
105.06 105.00 104.96 104.94 104.82 104.65 104.45 104.11 103.81 103.67 103.44 103.10 102.65 102.38 101.94 101.74 101.47 101.35 101.17 101.02 100.88 100.70 100.48 100.33 100.94 101.04 101.43 101.79 102.11 102.40 102.65 102.72 102.63 99.91 100.43 104.37 104.64 105.03 105.39 105.68 105.91 106.10 106.29 106.46 106.69 106.79 106.91 107.00 107.13 107.27 107.32 107.39
105.29 105.18 105.12 105.06 104.87 104.75 104.50 104.32 103.93 103.73 103.54 103.13 102.90 102.54 102.07 101.88 101.70 101.56 101.32 101.23 101.07 100.90 100.64 100.61 101.04 101.11 101.42 101.79 102.15 102.48 102.76 102.99 102.76 102.42 99.53 102.99 104.96 105.18 105.54 105.85 106.08 106.26 106.39 106.56 106.73 106.87 106.97 107.10 107.22 107.34 107.42 107.43
105.39 105.35 105.21 105.02 105.01 104.81 104.59 104.38 104.10 103.75 103.61 103.31 102.96 102.61 102.30 102.08 101.80 101.69 101.47 101.43 101.28 101.07 100.82 100.76 101.14 101.11 101.39 101.75 102.17 102.57 102.90 103.16 103.14 102.97 100.18 101.07 105.23 105.47 105.70 105.97 106.16 106.33 106.46 106.59 106.79 106.97 107.10 107.18 107.32 107.40 107.46 107.48
105.47 105.46 105.32 105.04 105.14 104.94 104.65 104.47 104.18 103.94 103.77 103.52 103.12 102.77 102.35 102.18 101.96 101.80 101.59 101.54 101.41 101.25 100.99 100.92 101.24 101.17 101.36 101.72 102.14 102.61 103.00 103.31 103.46 103.28 103.11 99.68 105.16 105.66 105.80 105.99 106.21 106.37 106.51 106.69 106.85 107.04 107.18 107.30 107.40 107.46 107.52 107.55
105.59 105.62 105.51 105.28 105.17 105.10 104.75 104.65 104.38 104.08 103.91 103.72 103.24 102.84 102.44 102.29 102.09 101.90 101.87 101.77 101.57 101.36 101.16 101.10 101.40 101.24 101.36 101.68 102.14 102.65 103.08 103.47 103.72 103.71 103.78 101.50 101.97 105.74 105.90 106.08 106.29 106.46 106.60 106.76 106.94 107.11 107.24 107.39 107.49 107.57 107.60 107.61
105.83 105.69 105.69 105.57 105.40 105.28 104.97 104.90 104.68 104.33 104.17 103.88 103.45 103.03 102.69 102.46 102.24 102.01 101.95 101.79 101.68 101.50 101.26 101.22 101.29 101.29 101.37 101.70 102.18 102.70 103.21 103.63 103.96 104.05 104.14 104.51 99.78 105.45 106.02 106.16 106.35 106.53 106.69 106.88 107.06 107.22 107.35 107.47 107.58 107.62 107.68 107.65
105.85 105.92 105.77 105.68 105.56 105.48 105.17 105.06 104.84 104.42 104.26 103.93 103.54 103.29 102.88 102.55 102.43 102.04 102.01 101.98 101.75 101.65 101.39 101.39 101.19 101.34 101.45 101.80 102.32 102.86 103.40 103.87 104.23 104.47 104.61 104.87 102.09 101.86 106.13 106.26 106.45 106.58 106.78 106.97 107.16 107.32 107.44 107.57 107.62 107.71 107.72 107.74
105.90 105.82 105.90 105.85 105.70 105.56 105.43 105.23 104.87 104.58 104.49 104.11 103.72 103.41 103.06 102.79 102.52 102.24 102.17 102.00 101.82 101.81 101.40 101.57 101.51 101.42 101.53 101.98 102.54 103.09 103.65 104.15 104.53 104.83 104.99 105.13 105.67 100.04 105.27 106.39 106.54 106.67 106.92 107.09 107.24 107.42 107.56 107.65 107.71 107.76 107.79 107.78
106.10 105.95 106.04 105.97 105.82 105.74 105.54 105.33 105.04 104.67 104.49 104.21 103.79 103.52 103.23 103.00 102.72 102.40 102.32 102.10 101.88 101.79 101.81 101.75 101.52 101.53 101.70 102.20 102.79 103.39 103.92 104.40 104.75 105.03 105.22 105.35 105.57 103.15 101.58 106.48 106.69 106.79 107.03 107.22 107.39 107.52 107.60 107.71 107.77 107.82 107.81 107.81
106.12 106.10 106.23 106.06 105.94 105.90 105.73 105.50 105.27 104.92 104.76 104.37 103.87 103.74 103.48 103.15 102.85 102.62 102.35 102.15 101.94 101.94 101.83 101.71 101.59 101.66 101.97 102.49 103.03 103.60 104.12 104.59 104.95 105.21 105.40 105.57 105.70 105.94 100.26 106.00 106.85 106.96 107.10 107.30 107.49 107.58 107.69 107.76 107.85 107.89 107.88 107.89
106.33 106.44 106.37 106.30 106.08 106.04 105.96 105.74 105.31 105.12 104.82 104.47 104.12 103.90 103.54 103.12 103.03 102.61 102.42 102.23 102.37 102.08 101.81 101.35 102.32 101.99 102.33 102.75 103.30 103.76 104.24 104.77 105.25 105.75 105.88 106.51 107.23 106.17 102.90 103.25 107.03 107.15 107.24 107.41 107.55 107.69 107.79 107.85 107.96 108.00 107.97 107.96
107.26 106.49 106.42 106.38 106.37 106.16 106.02 105.71 105.58 105.32 105.18 104.79 104.43 104.15 103.66 103.38 103.00 102.75 102.53 102.39 102.22 101.95 102.12 101.19 102.51 102.42 102.76 103.13 103.57 104.05 104.57 105.29 105.51 105.88 106.02 106.06 106.72 107.97 105.93 100.97 107.18 107.28 107.35 107.53 107.66 107.80 107.90 107.96 108.06 108.08 108.09 108.08
108.39 106.60 106.58 106.49 106.32 106.10 105.93 105.74 105.43 105.17 104.87 104.67 104.45 104.24 104.04 103.89 103.63 103.40 103.32 103.25 103.25 103.14 102.93 102.84 102.75 102.85 103.07 103.30 103.71 104.22 104.62 105.09 105.50 105.91 106.08 106.25 106.58 108.53 107.06 101.08 105.70 107.36 107.47 107.60 107.76 107.87 107.97 108.02 108.15 108.20 108.21 108.20
109.70 108.19 107.52 107.54 107.47 107.47 107.29 107.29 107.27 107.14 107.10 106.96 106.90 106.88 106.79 106.76 106.81 106.70 106.62 106.61 106.48 106.44 106.33 106.16 106.14 106.07 105.99 106.02 105.96 105.86 105.71 105.69 105.79 106.04 106.23 106.44 106.89 108.92 108.88 105.31 105.08 107.28 107.56 107.69 107.78 107.87 108.01 108.12 108.22 108.27 108.29 108.27
110.01 109.95 109.87 109.87 109.85 109.85 109.88 109.89 109.93 109.92 109.90 109.92 109.92 109.91 109.92 109.95 109.96 109.96 109.97 110.03 110.05 110.04 109.96 109.96 109.94 109.93 109.88 109.85 109.75 109.65 109.60 109.55 109.48 109.40 109.35 109.29 109.36 109.90 109.99 108.99 108.91 108.85 107.86 107.85 107.98 107.99 108.06 108.17 108.30 108.29 108.27 108.28
109.51 108.03 107.66 107.62 107.58 107.60 107.71 107.60 107.50 107.54 107.64 107.58 107.74 107.83 107.97 108.00 108.01 108.10 108.22 108.15 108.27 108.39 108.48 108.47 108.54 108.56 108.53 108.49 108.57 108.68 108.92 108.89 108.96 109.01 109.04 109.03 109.07 109.15 109.72 110.03 109.73 109.38 109.82 109.65 108.13 108.16 108.19 108.25 108.32 108.33 108.29 108.29
107.58 107.48 107.29 107.22 107.17 107.08 106.90 106.71 106.45 106.18 105.88 105.54 105.18 105.09 104.99 104.87 104.86 104.97 105.00 105.04 105.14 105.23 105.21 105.32 105.31 105.32 105.26 105.39 105.60 105.88 106.15 106.38 106.41 106.54 106.68 106.92 107.16 107.46 107.85 109.62 108.14 106.55 107.15 109.08 109.96 108.29 108.32 108.36 108.40 108.36 108.34 108.36
107.68 107.48 107.37 107.29 107.21 107.06 106.94 106.69 106.38 106.11 105.82 105.54 105.26 104.93 104.56 104.18 103.77 103.47 103.22 102.95 102.92 103.13 102.88 103.12 103.59 104.14 104.73 105.31 105.75 106.04 106.30 106.54 106.74 106.90 106.92 107.07 107.31 107.55 107.94 109.00 107.57 106.85 104.65 108.19 109.74 108.76 108.40 108.44 108.47 108.43 108.41 108.36
107.82 107.67 107.62 107.54 107.43 107.26 107.10 106.85 106.56 106.29 105.96 105.54 105.21 104.83 104.39 103.97 103.44 103.21 103.14 103.11 103.16 102.33 101.99 102.50 102.26 104.32 104.85 105.35 105.68 105.97 106.24 106.48 106.69 106.89 107.08 107.23 107.36 107.56 107.94 107.56 107.76 107.92 103.90 107.43 108.97 109.26 108.58 108.56 108.54 108.49 108.46 108.42
108.03 107.93 107.88 107.82 107.70 107.45 107.31 107.08 106.74 106.46 106.11 105.69 105.39 105.01 104.53 104.06 103.69 103.27 103.10 103.12 103.16 102.48 102.46 102.89 102.29 104.39 104.85 105.32 105.82 106.18 106.45 106.72 106.90 107.02 107.13 107.28 107.42 107.56 107.57 107.60 107.64 107.84 105.97 105.47 108.77 109.70 108.69 108.60 108.54 108.52 108.49 108.47
108.25 108.19 108.13 108.05 107.93 107.77 107.54 107.26 106.94 106.62 106.30 105.92 105.56 105.10 104.61 104.15 103.73 103.31 103.18 103.16 103.22 102.91 103.60 103.74 104.10 104.47 104.95 105.54 106.08 106.48 106.77 107.01 107.21 107.35 107.45 107.49 107.56 107.60 107.64 107.58 107.68 107.81 107.59 104.29 108.62 109.86 108.70 108.66 108.55 108.56 108.55 108.55
108.47 108.46 108.38 108.28 108.15 107.96 107.71 107.38 107.08 106.75 106.43 106.08 105.69 105.17 104.70 104.22 103.74 103.38 103.10 103.11 103.16 102.58 103.52 103.66 104.09 104.56 105.12 105.75 106.26 106.67 106.99 107.26 107.43 107.59 107.65 107.68 107.72 107.75 107.75 107.75 107.79 107.88 108.19 102.53 108.48 109.89 108.74 108.75 108.64 108.65 108.64 108.61
108.66 108.65 108.60 108.46 108.24 108.06 107.81 107.49 107.17 106.87 106.55 106.21 105.83 105.31 104.80 104.29 103.86 103.48 103.19 103.21 103.16 103.30 103.53 103.82 104.29 104.80 105.37 105.91 106.43 106.83 107.17 107.44 107.61 107.75 107.85 107.87 107.91 107.92 107.94 107.93 107.95 107.97 108.19 102.80 107.29 109.92 108.83 108.82 108.75 108.71 108.69 108.68
108.85 108.82 108.72 108.60 108.39 108.17 107.89 107.57 107.28 106.96 106.68 106.31 105.89 105.38 104.85 104.32 103.92 103.56 103.29 103.21 103.20 103.35 103.68 104.05 104.50 105.06 105.60 106.12 106.56 106.99 107.31 107.62 107.79 107.95 108.04 108.07 108.19 108.11 108.10 108.11 108.13 108.15 108.31 104.61 105.10 109.92 108.90 108.82 108.80 108.76 108.74 108.75
109.01 108.94 108.82 108.68 108.48 108.25 107.94 107.63 107.34 106.99 106.76 106.37 105.88 105.38 104.85 104.35 103.94 103.65 103.36 103.26 103.16 103.56 103.82 104.20 104.71 105.28 105.86 106.32 106.76 107.09 107.47 107.72 107.97 108.10 108.22 108.26 108.32 108.27 108.26 108.25 108.24 108.24 108.39 106.19 103.82 109.85 108.88 108.95 108.89 108.86 108.84 108.85
109.13 109.03 108.94 108.77 108.57 108.32 108.03 107.69 107.37 107.06 106.79 106.43 105.93 105.39 104.85 104.33 103.97 103.65 103.43 103.29 103.18 103.70 103.94 104.39 104.93 105.54 106.07 106.57 106.91 107.24 107.52 107.82 108.02 108.20 108.29 108.39 108.42 108.41 108.41 108.39 108.35 108.37 108.47 107.18 103.30 109.60 108.98 109.04 108.95 108.95 108.92 108.93
109.28 109.15 109.03 108.84 108.65 108.38 108.07 107.74 107.41 107.10 106.85 106.44 105.93 105.39 104.82 104.33 103.93 103.67 103.48 103.38 103.21 103.85 104.10 104.54 105.17 105.78 106.37 106.79 107.14 107.39 107.68 107.91 108.14 108.28 108.43 108.53 108.58 108.57 108.54 108.51 108.51 108.47 108.54 106.98 103.28 109.31 109.18 109.13 109.04 108.97 109.01 109.01
109.41 109.25 109.07 108.91 108.69 108.43 108.14 107.81 107.48 107.17 106.92 106.47 105.93 105.39 104.84 104.32 103.94 103.75 103.54 103.50 103.64 103.97 104.21 104.71 105.32 105.97 106.55 107.01 107.32 107.57 107.83 108.04 108.28 108.45 108.58 108.68 108.74 108.76 108.74 108.71 108.66 108.64 108.65 108.13 103.08 109.02 109.58 109.18 109.11 109.04 109.09 109.12
109.53 109.43 109.22 109.03 108.81 108.53 108.24 107.89 107.57 107.25 106.96 106.48 105.93 105.34 104.79 104.31 103.93 103.70 103.56 103.56 103.74 104.07 104.32 104.79 105.42 106.11 106.71 107.14 107.46 107.69 107.95 108.15 108.37 108.52 108.70 108.89 108.88 108.90 108.92 108.88 108.85 108.78 108.81 108.95 102.43 108.97 109.88 109.29 109.20 109.16 109.19 109.20
109.68 109.49 109.33 109.15 108.88 108.61 108.29 107.93 107.64 107.33 106.95 106.45 105.88 105.32 104.78 104.30 103.98 103.76 103.64 103.54 103.99 104.18 104.45 104.93 105.55 106.24 106.83 107.29 107.56 107.82 108.01 108.25 108.42 108.61 108.77 108.93 108.94 109.03 109.02 109.00 108.97 108.93 108.94 109.06 103.60 107.97 109.89 109.38 109.31 109.29 109.27 109.25
109.81 109.59 109.41 109.20 108.95 108.68 108.34 107.98 107.70 107.39 107.02 106.44 105.87 105.31 104.76 104.28 104.02 103.82 103.72 103.71 104.15 104.28 104.59 105.07 105.72 106.37 107.01 107.46 107.71 107.91 108.15 108.32 108.50 108.66 108.83 108.96 109.03 109.10 109.16 109.13 109.14 109.08 109.10 109.19 106.94 105.09 109.92 109.43 109.42 109.35 109.31 109.29
109.92 109.70 109.50 109.26 109.01 108.71 108.36 108.03 107.75 107.38 107.01 106.46 105.84 105.31 104.74 104.33 104.06 103.89 103.88 103.72 104.29 104.43 104.75 105.27 105.88 106.56 107.13 107.58 107.83 108.03 108.22 108.42 108.57 108.74 108.92 109.02 109.13 109.21 109.26 109.26 109.24 109.23 109.22 109.25 109.50 102.74 109.51 109.45 109.43 109.43 109.39 109.32
109.92 109.76 109.57 109.31 109.07 108.76 108.43 108.08 107.77 107.42 107.02 106.46 105.89 105.30 104.77 104.36 104.08 103.95 103.95 104.17 104.41 104.60 104.97 105.46 106.07 106.67 107.21 107.63 107.92 108.11 108.28 108.48 108.66 108.81 108.97 109.11 109.22 109.31 109.34 109.36 109.35 109.32 109.32 109.31 109.50 104.80 107.69 109.89 109.56 109.53 109.42 109.51
110.02 109.86 109.62 109.39 109.11 108.79 108.47 108.13 107.81 107.47 107.05 106.49 105.94 105.33 104.78 104.37 104.12 103.98 104.04 104.32 104.57 104.87 105.26 105.70 106.24 106.79 107.28 107.68 107.94 108.16 108.34 108.54 108.71 108.87 109.10 109.14 109.25 109.32 109.38 109.43 109.43 109.44 109.43 109.45 109.53 107.34 103.53 109.72 109.93 109.62 109.54 108.83
110.19 110.01 109.71 109.49 109.24 108.92 108.59 108.24 107.84 107.54 107.11 106.56 105.99 105.38 104.84 104.46 104.21 104.10 104.04 104.50 104.76 105.10 105.63 106.00 106.42 106.87 107.27 107.64 107.96 108.17 108.40 108.58 108.77 108.92 109.10 109.19 109.26 109.31 109.40 109.45 109.51 109.53 109.57 109.51 109.51 109.81 103.46 105.14 109.85 109.96 109.11 109.92
110.27 110.06 109.84 109.55 109.30 108.98 108.67 108.31 107.95 107.57 107.11 106.55 105.96 105.34 104.85 104.48 104.24 104.21 104.23 104.68 104.92 105.42 105.97 106.42 106.68 107.04 107.43 107.74 107.99 108.23 108.43 108.65 108.79 108.96 109.11 109.19 109.29 109.39 109.44 109.50 109.57 109.60 109.63 109.58 109.52 109.65 105.00 104.93 107.80 109.69 109.76 110.07
110.35 110.15 109.91 109.65 109.39 109.08 108.75 108.36 107.99 107.61 107.09 106.56 105.94 105.35 104.88 104.51 104.30 104.32 104.23 104.85 105.15 105.73 106.39 106.79 107.00 107.25 107.57 107.83 108.07 108.29 108.53 108.71 108.88 109.03 109.13 109.24 109.33 109.40 109.49 109.56 109.63 109.68 109.73 109.68 109.66 109.69 106.70 105.26 106.24 107.63 109.62 109.98
110.43 110.21 110.01 109.73 109.45 109.15 108.80 108.45 108.03 107.66 107.13 106.55 105.94 105.35 104.87 104.58 104.39 104.44 104.62 105.02 105.39 106.09 106.75 107.17 107.29 107.48 107.66 107.89 108.11 108.33 108.60 108.81 108.96 109.12 109.25 109.34 109.41 109.49 109.58 109.67 109.72 109.80 109.82 109.83 109.77 109.79 107.99 105.62 107.21 109.16 109.84 109.80
110.54 110.34 110.10 109.82 109.54 109.21 108.85 108.54 108.11 107.68 107.15 106.58 105.94 105.35 104.89 104.60 104.49 104.52 104.83 105.19 105.71 106.40 107.05 107.44 107.61 107.71 107.85 107.99 108.15 108.40 108.62 108.82 109.00 109.24 109.28 109.38 109.46 109.55 109.66 109.75 109.85 109.90 109.94 109.96 109.93 109.90 107.22 106.25 107.35 109.91 110.01 109.84
110.65 110.43 110.17 109.92 109.62 109.28 108.89 108.60 108.19 107.74 107.18 106.59 105.95 105.39 104.96 104.69 104.59 104.56 105.04 105.42 106.04 106.75 107.32 107.70 107.85 107.97 108.00 108.09 108.23 108.47 108.67 108.88 109.05 109.23 109.32 109.42 109.50 109.60 109.68 109.79 109.90 109.96 110.02 110.03 109.96 109.97 105.83 106.32 110.30 110.18 109.77 109.76
110.77 110.55 110.27 110.00 109.68 109.36 109.04 108.64 108.25 107.79 107.22 106.61 105.96 105.41 105.01 104.76 104.74 104.74 105.21 105.63 106.38 107.11 107.66 107.96 108.17 108.21 108.20 108.21 108.34 108.53 108.76 108.94 109.12 109.29 109.38 109.49 109.56 109.66 109.77 109.84 109.94 110.02 110.07 110.05 109.86 109.90 106.31 106.58 110.61 110.30 109.93 109.84
110.84 110.60 110.33 110.05 109.72 109.42 109.11 108.71 108.32 107.84 107.26 106.65 106.04 105.49 105.11 104.87 104.84 104.75 105.37 105.89 106.64 107.42 107.91 108.24 108.38 108.44 108.37 108.35 108.44 108.63 108.82 109.01 109.23 109.37 109.46 109.60 109.65 109.76 109.86 109.96 110.05 110.12 110.13 110.01 109.64 109.34 104.70 106.94 110.74 110.43 110.25 110.07
110.91 110.62 110.33 110.06 109.75 109.47 109.14 108.76 108.40 107.85 107.32 106.72 106.12 105.60 105.22 104.99 104.96 105.17 105.56 106.11 106.93 107.60 108.10 108.41 108.60 108.62 108.55 108.49 108.54 108.73 108.95 109.10 109.30 109.45 109.57 109.68 109.77 109.90 110.00 110.07 110.15 110.22 110.19 109.95 109.50 109.34 104.83 107.81 110.57 110.64 110.44 110.29
