ncols 52
nrows 52
xllcorner 442368
yllcorner 5714432
cellsize 10
NODATA_value -9999
92.76 92.83 92.91 92.41 94.60 95.12 95.32 95.57 96.21 96.73 97.01 97.24 97.48 97.21 97.03 97.11 98.60 98.63 98.71 98.79 98.86 98.93 98.96 98.65 99.12 99.25 99.53 99.46 99.37 98.93 99.72 99.75 99.36 99.34 99.51 99.63 99.63 99.92 100.46 100.46 100.51 100.89 101.32 101.54 101.29 101.60 102.06 102.24 102.46 102.37 102.52 102.66
92.70 92.83 92.90 93.04 94.30 95.00 95.40 95.47 95.70 96.13 96.30 96.34 96.59 96.86 97.22 97.13 98.19 98.57 98.58 98.64 98.12 98.01 98.00 98.03 98.18 98.30 98.46 98.60 98.74 98.82 98.95 99.17 99.46 99.81 100.03 99.97 100.00 99.78 100.42 100.79 100.72 100.83 101.41 101.76 101.31 101.82 101.81 102.35 102.64 102.35 102.56 102.76
92.76 92.94 93.25 93.62 94.21 94.93 95.30 95.53 95.68 95.81 96.31 96.85 96.93 96.96 96.99 97.26 97.49 97.91 97.68 97.53 97.65 97.81 98.09 98.21 98.86 99.09 98.74 98.80 98.74 99.00 99.62 99.73 99.77 99.86 100.11 100.07 100.03 99.79 100.25 100.61 100.70 100.66 101.62 101.77 101.49 101.82 101.97 102.17 102.53 102.58 102.65 102.72
93.03 93.26 93.36 93.42 93.58 95.30 96.04 96.99 96.58 96.74 96.86 96.86 96.82 97.00 97.01 97.02 97.04 97.29 97.53 98.32 98.36 98.40 98.32 98.73 99.07 99.26 99.03 99.07 98.99 98.85 99.39 100.00 99.83 99.96 100.23 100.01 100.18 100.21 99.91 100.63 100.81 100.71 101.45 101.74 101.76 101.90 102.02 101.99 102.39 102.84 102.61 102.77
91.90 93.23 93.24 93.24 93.08 96.76 96.79 96.81 96.73 96.61 96.76 96.81 96.93 96.81 96.86 97.04 97.07 97.25 98.31 98.39 98.39 98.37 98.20 98.72 99.34 99.30 99.00 99.08 99.22 98.85 99.31 99.58 99.99 99.94 100.46 100.42 100.26 100.40 100.17 100.04 100.83 100.96 101.16 101.93 101.93 101.93 101.97 101.95 102.06 102.27 102.58 102.61
93.32 92.50 93.31 93.39 92.95 96.82 96.92 96.78 96.79 96.68 96.77 96.83 96.93 96.91 96.76 97.02 97.17 97.13 98.30 98.34 98.40 98.28 98.37 98.46 99.35 99.04 99.30 99.67 99.52 98.99 99.20 99.69 99.90 100.09 100.24 100.26 100.32 100.41 100.26 100.06 100.83 101.16 101.15 101.76 101.74 101.79 101.86 102.03 102.15 102.21 102.44 103.08
93.46 93.04 93.12 93.46 93.12 96.90 96.89 96.92 96.87 96.72 96.83 96.90 96.97 96.93 96.92 96.87 96.98 96.90 98.27 98.32 98.28 98.32 98.35 98.45 98.69 99.21 99.36 99.60 99.33 99.12 99.24 99.65 100.13 100.11 100.22 100.25 100.44 100.39 100.24 100.10 100.41 100.71 100.94 101.04 101.27 101.64 101.98 101.95 102.20 102.15 102.61 102.57
93.55 93.16 92.94 93.39 93.70 96.96 96.96 96.90 96.91 96.89 96.87 96.85 97.00 96.90 96.88 96.71 96.91 96.93 97.18 98.03 97.73 97.94 98.25 98.32 98.87 99.26 99.38 99.53 99.47 99.42 99.01 99.44 99.72 99.97 100.00 100.26 100.20 100.29 100.29 100.35 100.35 100.65 101.06 101.11 101.42 101.67 101.96 101.93 102.10 102.07 102.24 102.71
93.33 93.35 93.06 93.40 93.79 96.82 97.01 96.98 96.98 96.85 96.77 96.90 96.88 96.82 96.83 96.84 96.76 96.82 96.71 97.28 97.90 98.16 98.37 98.28 98.64 98.84 98.69 99.56 99.65 99.57 99.04 99.38 99.76 100.10 100.00 100.31 100.23 100.12 100.31 100.32 100.35 100.58 100.98 101.24 101.34 101.88 101.80 101.81 101.92 102.12 103.63 104.54
93.85 93.54 92.15 93.44 93.86 97.00 96.97 96.97 97.00 96.93 96.73 96.79 96.82 96.76 96.83 96.74 96.77 96.90 96.82 97.43 97.97 98.15 98.32 98.25 98.36 98.33 98.31 99.29 100.01 99.83 99.28 99.24 99.60 99.97 100.14 100.12 100.07 100.09 100.15 100.40 100.68 100.68 100.98 101.43 101.48 102.20 101.83 101.90 102.99 104.85 102.35 102.24
93.92 93.82 92.12 93.60 93.72 95.77 96.94 97.07 97.10 96.90 96.83 96.72 96.75 96.77 96.75 96.71 96.76 97.65 97.07 96.87 97.86 98.17 98.33 98.32 98.35 98.41 98.39 98.33 99.64 99.59 99.35 99.17 99.71 100.14 100.16 100.25 100.06 100.38 100.37 100.48 100.61 100.56 101.08 101.33 101.54 101.79 102.09 104.59 102.49 101.86 102.04 101.98
94.01 93.82 93.52 93.71 93.87 94.93 97.05 97.03 96.98 96.94 96.86 96.51 96.70 96.62 96.80 97.64 97.60 97.72 97.30 96.91 98.24 98.20 98.31 98.37 98.39 98.38 98.32 98.31 99.12 99.27 98.96 99.25 99.60 99.87 100.08 100.39 100.51 100.50 100.55 100.61 100.68 100.88 101.10 101.43 101.67 101.85 102.55 101.93 101.95 103.61 103.54 101.98
94.17 92.27 93.60 93.75 93.88 93.75 96.99 97.00 97.04 97.04 97.24 96.22 96.56 97.38 97.78 97.76 97.86 98.00 97.99 96.97 97.29 98.35 98.33 98.38 98.36 98.33 98.45 98.42 98.79 98.82 98.99 99.27 99.74 100.11 100.46 100.35 100.55 100.67 100.60 100.75 101.18 101.19 101.28 101.77 103.29 104.45 103.26 102.13 101.32 102.33 102.65 102.85
94.28 92.16 93.94 93.88 94.13 93.64 96.80 96.91 97.04 97.28 95.92 96.87 97.67 97.73 97.76 97.96 98.14 98.17 98.14 97.13 97.12 98.32 98.22 98.22 98.30 98.29 98.37 98.57 98.79 99.32 99.17 99.29 99.48 99.93 100.07 100.19 100.57 100.67 100.65 100.95 101.70 103.35 103.90 102.40 101.28 101.06 102.04 102.30 102.47 102.65 102.63 102.55
94.39 92.35 94.09 94.00 94.14 94.30 96.92 96.89 97.08 95.65 97.24 97.44 97.65 97.72 97.81 98.06 98.09 98.26 98.21 98.12 97.24 97.65 97.69 97.81 98.06 98.44 98.53 98.81 98.93 99.28 99.23 99.38 99.44 99.93 100.00 100.16 100.66 101.71 103.40 103.19 101.50 100.77 101.09 101.72 101.93 102.11 102.23 102.18 101.83 101.96 102.13 102.29
94.51 93.01 94.23 94.07 94.14 94.45 95.82 96.64 95.46 95.77 97.39 97.34 97.60 97.71 97.83 98.03 98.20 98.32 98.26 98.18 97.42 97.53 98.04 97.93 98.48 98.46 98.83 98.93 99.21 99.39 99.51 99.52 99.54 100.12 101.39 103.21 102.25 100.75 100.29 100.97 101.40 101.58 101.75 101.84 101.79 101.04 101.43 101.51 101.67 101.84 102.05 102.22
94.68 94.68 92.35 94.33 94.20 94.74 95.35 95.41 95.65 95.75 96.91 97.28 97.44 97.68 97.79 97.98 98.18 98.32 98.51 98.18 97.96 97.81 98.38 98.07 98.28 98.58 99.21 99.07 99.29 99.55 99.86 101.24 102.65 101.53 100.16 99.69 100.75 101.02 101.18 101.38 101.32 101.33 100.50 101.11 101.09 101.15 101.23 101.37 101.57 101.90 102.15 102.44
94.75 94.75 93.66 94.58 94.54 95.01 95.35 95.70 96.19 95.81 96.52 97.36 97.36 97.60 97.90 98.12 98.33 98.40 98.48 98.31 98.45 98.05 98.44 98.91 98.52 99.56 100.15 100.71 101.74 101.28 100.28 99.53 99.58 100.44 100.66 100.84 100.91 100.91 100.81 100.43 100.88 100.87 100.89 100.88 100.92 101.01 101.19 101.45 101.74 102.04 102.32 102.57
94.90 92.34 94.32 94.28 94.38 94.61 95.20 95.78 95.07 95.65 95.86 97.42 97.38 97.69 97.93 98.22 98.39 98.42 98.72 98.43 98.42 98.45 98.44 99.49 100.23 99.61 99.36 99.25 99.31 99.76 100.04 100.27 100.39 100.45 100.49 99.95 100.28 100.36 100.46 100.54 100.64 100.65 100.70 100.79 100.94 101.09 101.31 101.54 101.84 102.11 102.39 102.66
92.19 94.26 93.80 93.49 94.83 95.10 95.28 94.46 95.63 96.59 96.07 96.85 97.59 97.51 97.91 98.14 98.32 98.39 98.52 98.53 98.58 98.74 98.77 99.12 99.18 99.27 99.38 99.68 99.88 99.98 100.02 100.01 100.14 99.90 99.93 100.03 100.11 100.19 100.29 100.42 100.54 100.64 100.74 100.86 101.01 101.18 101.39 101.62 101.88 102.19 102.49 102.74
93.32 93.19 94.85 95.04 95.38 95.26 95.79 95.68 95.69 95.86 96.16 96.85 97.45 97.49 97.90 98.08 98.34 98.40 98.68 99.03 99.04 99.21 98.99 99.20 99.34 99.49 99.58 99.63 99.60 99.73 99.70 99.67 99.92 99.85 99.85 99.93 100.06 100.20 100.33 100.47 100.57 100.67 100.77 100.90 101.08 101.26 101.49 101.72 101.97 102.23 102.54 102.80
94.40 94.82 95.03 95.15 95.42 95.61 96.31 96.04 95.22 95.87 96.07 97.36 96.97 97.62 97.96 98.24 98.33 98.57 98.56 98.61 98.71 98.88 99.00 99.07 99.17 99.28 99.51 99.48 99.44 99.64 99.51 99.54 99.83 99.85 99.92 99.92 100.11 100.24 100.35 100.48 100.56 100.71 100.84 101.00 101.17 101.37 101.60 101.82 102.03 102.29 102.59 102.87
95.18 95.04 95.12 95.46 95.53 95.64 95.74 95.77 95.63 94.95 95.95 96.40 97.06 97.34 97.70 98.16 98.13 98.26 98.46 98.58 98.62 98.72 98.69 98.76 99.35 99.62 99.60 99.59 99.57 99.68 99.68 99.64 99.88 99.82 99.93 100.07 100.19 100.24 100.38 100.53 100.66 100.79 100.93 101.10 101.26 101.47 101.68 101.92 102.16 102.39 102.67 102.94
95.48 95.51 95.27 95.67 95.75 95.80 95.89 95.70 95.71 96.52 96.06 96.74 97.70 97.94 97.97 98.15 98.21 98.25 98.43 99.16 98.61 98.83 98.88 98.22 99.35 99.59 99.79 99.56 99.65 99.68 99.71 99.73 99.77 100.11 100.24 100.22 100.25 100.36 100.46 100.59 100.75 100.89 101.01 101.18 101.36 101.60 101.82 102.02 102.24 102.48 102.75 103.01
95.86 95.71 95.44 95.86 95.96 96.07 96.15 96.32 96.35 97.37 97.49 97.63 97.81 97.85 97.90 98.03 98.23 98.69 99.11 98.85 99.00 99.02 99.00 97.95 99.10 99.57 99.93 99.87 99.75 99.75 99.75 99.58 99.36 99.97 100.18 100.36 100.38 100.46 100.57 100.67 100.83 101.00 101.14 101.32 101.47 101.69 101.90 102.13 102.35 102.57 102.85 103.11
96.20 95.98 96.14 96.11 96.21 96.09 97.01 97.03 97.23 97.38 97.44 97.63 97.82 97.46 97.57 97.65 98.09 98.71 98.73 98.88 99.23 99.00 99.14 97.11 98.69 99.58 99.98 99.95 99.81 99.79 99.48 99.26 99.47 99.90 100.27 100.42 100.41 100.56 100.67 100.83 100.98 101.13 101.27 101.41 101.60 101.78 102.01 102.25 102.46 102.69 102.96 103.21
96.31 96.53 96.83 96.80 96.72 96.91 96.95 97.00 97.24 97.27 96.65 95.43 96.45 96.68 97.17 97.46 97.74 98.69 99.04 98.94 98.92 99.14 99.00 98.22 98.10 99.40 99.67 99.72 99.82 99.79 99.05 99.35 99.85 100.18 100.43 100.55 100.56 100.67 100.82 100.97 101.12 101.28 101.38 101.55 101.71 101.91 102.16 102.38 102.58 102.81 103.07 103.32
97.08 96.98 96.98 96.84 96.81 96.94 96.90 96.82 97.00 96.95 97.00 96.76 96.21 96.57 96.93 97.33 97.79 98.42 99.36 98.93 98.95 98.91 98.78 98.96 97.93 99.75 99.85 99.86 99.63 98.85 99.11 99.73 100.16 100.40 100.75 100.81 100.68 100.82 100.97 101.09 101.25 101.39 101.51 101.66 101.82 102.05 102.28 102.50 102.71 102.94 103.19 103.47
97.17 96.99 96.93 96.83 96.74 96.86 97.06 97.04 96.99 96.89 96.83 96.68 96.75 96.56 96.78 97.19 97.41 98.28 98.54 98.84 98.99 98.95 98.82 98.90 97.91 99.58 99.60 98.74 98.69 99.00 99.79 100.17 100.42 100.91 101.03 100.99 100.91 100.96 101.13 101.26 101.40 101.54 101.67 101.80 101.97 102.15 102.40 102.62 102.85 103.11 103.36 103.60
96.89 96.96 96.97 96.71 96.88 96.90 97.15 97.06 97.07 97.07 97.14 96.94 97.08 96.64 96.86 97.28 97.48 98.10 98.29 98.78 98.92 98.85 98.83 98.88 97.36 99.41 98.88 98.48 99.21 99.62 100.27 100.71 100.68 100.76 100.80 100.96 101.07 101.16 101.29 101.39 101.56 101.70 101.83 101.96 102.11 102.34 102.57 102.77 103.04 103.27 103.46 103.69
96.73 96.98 97.09 96.86 96.89 97.02 97.29 97.22 97.22 97.21 97.21 97.28 97.21 97.29 96.87 97.04 97.04 97.88 98.31 98.76 98.61 98.80 98.88 98.82 98.88 98.34 98.60 98.89 100.11 100.21 100.35 100.53 100.65 100.85 100.97 101.12 101.25 101.32 101.43 101.57 101.71 101.87 102.01 102.12 102.28 102.49 102.72 102.90 103.15 103.43 103.71 103.96
97.07 97.16 96.90 97.12 97.10 97.26 97.33 97.41 97.42 97.40 97.37 97.32 97.36 97.41 97.64 97.21 97.35 97.36 98.29 99.05 98.68 98.72 99.06 98.80 98.88 98.50 99.28 99.65 99.93 100.14 100.38 100.62 100.85 101.01 101.15 101.27 101.41 101.51 101.62 101.73 101.91 102.02 102.16 102.27 102.40 102.62 102.86 103.13 103.39 103.69 103.97 104.24
97.27 96.76 97.27 97.32 97.32 97.50 97.50 97.54 97.62 97.63 97.59 97.55 97.58 97.59 97.70 97.42 97.49 97.66 98.13 98.49 98.60 98.78 98.98 98.97 98.61 97.97 99.45 99.78 99.99 100.28 100.58 100.81 100.97 101.15 101.31 101.45 101.58 101.72 101.79 101.90 102.02 102.17 102.33 102.43 102.61 102.78 103.04 103.28 103.57 103.93 104.18 104.49
97.02 97.51 97.49 97.57 97.62 97.69 97.71 97.71 97.80 97.76 97.80 97.78 97.75 97.77 97.82 98.02 97.27 97.77 97.93 98.32 98.67 98.75 98.85 99.18 98.91 98.94 99.60 99.98 100.12 100.45 100.74 100.95 101.14 101.29 101.44 101.60 101.72 101.80 101.90 102.05 102.18 102.35 102.48 102.60 102.77 102.94 103.19 103.43 103.75 104.04 104.32 104.60
97.73 97.75 97.80 97.93 97.90 97.93 97.95 97.92 97.97 97.96 97.94 97.96 97.93 97.96 98.06 98.28 98.37 97.83 97.94 98.25 98.71 98.94 98.84 99.10 99.14 99.22 98.90 100.21 100.38 100.60 100.89 101.05 101.20 101.38 101.50 101.66 101.83 101.98 102.07 102.20 102.32 102.51 102.62 102.71 102.84 103.10 103.34 103.60 103.86 104.14 104.39 104.64
97.99 98.00 98.11 98.21 98.24 98.19 98.22 98.18 98.16 98.17 98.12 98.18 98.12 98.12 98.25 98.30 98.43 98.29 98.13 98.27 98.57 98.73 99.02 98.93 101.98 99.33 98.82 100.23 100.56 100.66 100.94 101.14 101.32 101.46 101.60 101.76 101.94 102.09 102.21 102.35 102.46 102.64 102.79 102.90 103.03 103.24 103.50 103.75 104.00 104.21 104.48 104.76
98.39 98.45 98.39 98.52 98.46 98.42 98.42 98.41 98.38 98.38 98.37 98.42 98.38 98.32 98.34 98.38 98.42 98.50 98.06 98.46 98.64 98.96 98.99 98.93 99.33 99.56 99.57 98.78 100.68 100.74 101.01 101.20 101.36 101.54 101.68 101.87 102.04 102.22 102.35 102.51 102.65 102.80 102.96 103.06 103.19 103.40 103.60 103.91 104.17 104.42 104.64 104.87
98.63 98.75 98.67 98.81 98.77 98.60 98.65 98.60 98.62 98.68 98.61 98.67 98.60 98.47 98.46 98.45 98.52 98.52 98.74 98.85 98.77 99.04 99.04 99.31 99.42 99.53 99.55 98.27 100.74 100.82 101.00 101.25 101.42 101.58 101.78 102.00 102.15 102.32 102.50 102.65 102.82 102.96 103.12 103.19 103.35 103.54 103.82 104.06 104.32 104.60 104.83 105.07
99.04 99.03 99.07 99.02 98.94 98.85 98.85 98.86 98.86 98.88 98.85 98.77 98.70 98.63 98.57 98.60 98.61 98.56 98.71 98.85 99.10 99.12 99.19 99.35 99.40 99.49 99.54 98.26 100.73 100.86 101.03 101.29 101.53 101.71 101.89 102.09 102.30 102.46 102.60 102.76 102.94 103.13 103.27 103.38 103.54 103.71 103.97 104.25 104.53 104.74 105.01 105.22
99.20 99.28 99.33 99.27 99.28 99.07 99.12 99.07 98.93 99.00 98.95 98.84 98.80 98.77 98.77 98.77 98.73 98.75 98.75 98.84 98.75 99.08 99.18 99.26 99.37 99.53 99.51 98.72 100.82 100.93 101.10 101.38 101.58 101.79 102.00 102.18 102.35 102.58 102.75 102.93 103.10 103.26 103.44 103.56 103.71 103.88 104.13 104.43 104.67 104.98 105.22 105.43
99.50 99.63 99.62 99.54 99.46 99.38 99.21 99.13 98.97 99.00 99.01 98.97 98.97 98.99 98.95 98.95 98.91 98.89 98.85 98.80 98.46 99.07 99.11 99.21 99.43 99.63 99.68 99.82 99.73 100.97 101.12 101.40 101.66 101.84 102.04 102.26 102.48 102.68 102.88 103.05 103.23 103.43 103.56 103.74 103.87 104.08 104.35 104.64 104.92 105.18 105.45 105.62
99.59 99.72 99.71 99.70 99.62 99.48 99.37 99.20 99.02 99.15 99.20 99.18 99.24 99.17 99.13 99.09 99.08 99.01 98.92 98.90 98.93 99.04 99.09 99.24 99.44 99.71 99.81 99.95 98.44 101.06 101.21 101.42 101.67 101.89 102.12 102.33 102.54 102.77 103.01 103.18 103.38 103.58 103.81 103.93 104.07 104.28 104.54 104.85 105.15 105.49 105.74 105.93
99.75 99.93 99.92 99.76 99.74 99.57 99.50 99.32 99.32 99.43 99.50 99.41 99.43 99.32 99.28 99.24 99.18 99.08 99.03 98.96 99.02 99.10 99.12 99.26 99.49 99.73 99.85 100.01 98.48 101.16 101.27 101.40 101.71 101.94 102.21 102.43 102.68 102.96 103.17 103.39 103.57 103.78 103.99 104.12 104.28 104.47 104.75 105.10 105.43 105.74 105.99 106.22
99.83 99.97 100.02 99.85 99.97 99.78 99.71 99.71 99.69 99.75 99.83 99.67 99.59 99.46 99.36 99.35 99.28 99.18 99.10 99.02 99.14 99.17 99.18 99.29 99.50 99.74 99.98 99.98 100.26 99.33 101.37 101.46 101.73 102.09 102.33 102.61 102.87 103.14 103.35 103.57 103.79 103.97 104.17 104.31 104.44 104.67 104.98 105.28 105.58 105.88 106.17 106.31
99.71 100.04 100.14 100.01 100.19 100.06 99.97 100.08 100.10 100.09 100.18 99.99 99.83 99.68 99.54 99.49 99.39 99.31 99.18 99.06 99.26 99.26 99.18 99.33 99.50 99.75 100.03 100.11 100.26 98.43 101.41 101.65 101.88 102.18 102.46 102.73 103.02 103.27 103.47 103.74 103.88 104.13 104.34 104.50 104.64 104.85 105.14 105.42 105.65 105.95 106.19 106.39
99.85 100.19 100.40 100.44 100.46 100.52 100.34 100.35 100.34 100.39 100.43 100.23 100.04 99.88 99.69 99.62 99.51 99.33 99.29 99.21 99.27 98.92 99.24 99.35 99.54 99.81 100.08 100.18 100.36 98.45 101.58 101.76 101.99 102.30 102.59 102.83 103.09 103.34 103.58 103.75 104.00 104.25 104.52 104.75 104.91 105.09 105.35 105.58 105.79 106.04 106.31 106.50
100.37 100.63 100.88 100.92 100.91 100.87 100.64 100.70 100.57 100.55 100.59 100.55 100.30 100.08 99.86 99.78 99.61 99.47 99.38 99.32 99.34 98.90 99.32 99.39 99.58 99.83 100.15 100.29 100.45 98.62 101.85 101.90 102.07 102.39 102.69 102.93 103.16 103.40 103.66 103.84 104.10 104.36 104.72 105.06 105.25 105.40 105.56 105.75 105.96 106.18 106.39 106.57
101.08 101.21 101.38 101.36 101.20 101.11 100.98 100.83 100.82 100.64 100.76 100.71 100.52 100.28 99.99 99.87 99.75 99.58 99.48 99.41 99.40 99.42 99.42 99.42 99.62 99.88 100.19 100.39 100.51 98.69 101.89 102.04 102.22 102.52 102.78 103.04 103.24 103.47 103.71 103.99 104.24 104.53 104.93 105.29 105.50 105.64 105.78 105.91 106.09 106.29 106.51 106.67
101.77 101.76 101.85 101.69 101.52 101.35 101.25 101.08 100.97 100.84 100.98 100.87 100.58 100.42 100.19 100.02 99.90 99.75 99.57 99.49 99.44 99.51 99.54 99.52 99.68 99.92 100.24 100.49 100.64 98.90 101.76 102.09 102.29 102.61 102.87 103.13 103.36 103.58 103.83 104.11 104.37 104.67 105.01 105.37 105.61 105.75 105.87 106.06 106.21 106.39 106.57 106.74
102.22 102.24 102.19 102.10 101.75 101.63 101.46 101.28 101.19 101.11 101.14 101.00 100.73 100.58 100.31 100.14 100.06 99.86 99.69 99.59 99.50 99.58 99.64 99.60 99.72 99.98 100.26 100.62 100.68 100.60 100.60 102.20 102.35 102.68 102.97 103.24 103.50 103.74 103.96 104.23 104.47 104.78 105.05 105.42 105.67 105.85 105.96 106.13 106.28 106.44 106.64 106.81
102.66 102.67 102.53 102.34 102.00 101.89 101.73 101.61 101.36 101.35 101.23 101.14 100.84 100.68 100.46 100.22 100.14 99.96 99.77 99.67 99.57 99.65 99.75 99.72 99.83 100.06 100.33 100.74 100.89 101.18 98.71 102.33 102.50 102.76 103.10 103.37 103.63 103.87 104.10 104.34 104.59 104.86 105.18 105.46 105.74 105.92 106.05 106.22 106.38 106.56 106.72 106.90
102.95 102.95 102.77 102.60 102.32 102.26 102.00 101.72 101.63 101.53 101.47 101.29 101.03 100.84 100.54 100.32 100.21 100.04 99.88 99.74 99.69 99.74 99.80 99.82 99.95 100.21 100.52 100.87 101.04 101.26 99.82 101.46 102.68 102.85 103.22 103.52 103.77 104.05 104.27 104.50 104.71 104.97 105.28 105.53 105.80 105.99 106.12 106.30 106.46 106.60 106.80 106.92
