ncols 52
nrows 52
xllcorner 442368
yllcorner 5713408
cellsize 10
NODATA_value -9999
110.93 110.65 110.36 110.06 109.76 109.47 109.14 108.79 108.40 107.86 107.32 106.73 106.14 105.63 105.26 105.02 104.97 105.17 105.60 106.17 106.95 107.63 108.13 108.45 108.64 108.66 108.57 108.51 108.56 108.76 108.96 109.12 109.32 109.48 109.58 109.69 109.80 109.91 110.01 110.09 110.17 110.23 110.19 109.97 109.51 109.38 104.85 107.79 110.59 110.68 110.50 110.32
110.99 110.71 110.43 110.10 109.81 109.52 109.19 108.81 108.41 107.88 107.33 106.79 106.25 105.78 105.43 105.15 104.99 105.52 105.87 106.44 107.15 107.80 108.27 108.61 108.77 108.81 108.68 108.65 108.68 108.83 109.03 109.21 109.46 109.53 109.67 109.78 109.89 110.01 110.11 110.18 110.27 110.26 110.22 110.03 109.71 109.50 105.17 108.05 110.79 110.85 110.71 110.61
111.04 110.75 110.47 110.14 109.79 109.57 109.22 108.83 108.39 107.86 107.32 106.81 106.32 105.93 105.58 105.33 105.21 105.75 106.17 106.76 107.40 107.97 108.47 108.76 108.93 108.94 108.88 108.82 108.84 108.93 109.11 109.28 109.45 109.56 109.74 109.87 109.96 110.06 110.18 110.28 110.35 110.33 110.27 110.25 110.02 109.83 106.65 107.90 110.98 111.00 110.90 110.84
111.12 110.82 110.51 110.17 109.90 109.61 109.28 108.86 108.39 107.83 107.31 106.80 106.36 106.00 105.63 105.41 105.73 106.08 106.49 107.11 107.71 108.25 108.68 109.00 109.16 109.18 109.07 109.03 109.01 109.09 109.17 109.34 109.50 109.63 109.83 109.95 110.06 110.18 110.26 110.33 110.36 110.36 110.42 110.45 110.37 110.15 108.77 108.08 111.02 111.14 111.03 110.96
111.16 110.83 110.53 110.19 109.90 109.64 109.29 108.89 108.40 107.86 107.33 106.84 106.41 106.05 105.76 105.56 106.00 106.25 106.78 107.32 107.98 108.47 108.90 109.16 109.35 109.35 109.25 109.15 109.17 109.21 109.30 109.43 109.59 109.74 109.89 110.04 110.17 110.28 110.36 110.42 110.45 110.51 110.62 110.68 110.60 110.40 110.52 106.30 111.15 111.30 111.17 111.11
111.19 110.89 110.53 110.22 109.94 109.67 109.36 108.89 108.40 107.88 107.37 106.88 106.46 106.08 105.84 105.89 106.15 106.45 106.92 107.51 108.08 108.60 108.99 109.29 109.47 109.49 109.41 109.33 109.35 109.38 109.42 109.55 109.69 109.81 109.96 110.10 110.24 110.35 110.44 110.51 110.58 110.70 110.80 110.81 110.75 110.60 110.65 106.04 111.22 111.47 111.31 111.27
111.30 110.95 110.62 110.32 110.01 109.72 109.40 108.93 108.41 107.92 107.42 106.95 106.55 106.16 105.81 106.04 106.29 106.56 107.06 107.60 108.16 108.63 109.01 109.29 109.48 109.50 109.50 109.47 109.49 109.55 109.57 109.74 109.76 109.90 110.05 110.18 110.35 110.46 110.55 110.65 110.73 110.84 110.89 110.89 110.85 110.75 110.78 106.56 111.35 111.51 111.37 111.41
111.37 111.05 110.68 110.40 110.14 109.82 109.44 108.92 108.43 107.93 107.43 106.99 106.60 106.25 105.70 106.21 106.38 106.72 107.13 107.64 108.13 108.62 108.99 109.28 109.43 109.50 109.52 109.56 109.59 109.68 109.69 109.80 109.87 109.99 110.12 110.25 110.41 110.56 110.69 110.79 110.85 110.95 110.99 111.01 111.00 110.90 111.00 106.46 111.40 111.54 111.48 111.50
111.39 111.06 110.74 110.45 110.18 109.83 109.41 108.88 108.38 107.85 107.40 106.98 106.60 106.29 106.17 106.39 106.60 106.89 107.26 107.62 108.10 108.49 108.90 109.19 109.40 109.49 109.54 109.62 109.71 109.76 109.85 109.90 109.96 110.09 110.22 110.35 110.53 110.65 110.78 110.86 110.95 111.03 111.09 111.10 111.08 111.02 111.12 106.94 111.49 111.59 111.58 111.64
111.40 111.04 110.72 110.44 110.14 109.81 109.34 108.82 108.31 107.82 107.38 106.98 106.64 106.29 106.46 106.64 106.96 107.30 107.61 107.93 108.23 108.52 108.83 109.14 109.33 109.47 109.54 109.66 109.78 109.87 109.96 110.02 110.11 110.22 110.35 110.53 110.68 110.77 110.86 110.98 111.07 111.12 111.19 111.18 111.15 111.10 111.29 107.15 111.54 111.62 111.62 111.70
111.42 111.07 110.75 110.46 110.17 109.75 109.29 108.78 108.25 107.75 107.36 106.96 106.65 106.32 106.77 107.03 107.45 107.83 108.18 108.42 108.65 108.79 108.99 109.16 109.33 109.46 109.57 109.69 109.85 109.95 110.08 110.15 110.23 110.37 110.52 110.65 110.76 110.83 110.94 111.06 111.14 111.21 111.26 111.27 111.26 111.19 111.36 106.69 111.62 111.65 111.67 111.79
111.48 111.14 110.82 110.50 110.18 109.74 109.19 108.69 108.17 107.71 107.32 106.97 106.58 106.79 107.14 107.50 108.01 108.43 108.73 108.97 109.12 109.22 109.33 109.40 109.44 109.53 109.63 109.74 109.90 110.04 110.23 110.26 110.37 110.50 110.61 110.74 110.84 110.91 111.01 111.12 111.21 111.29 111.35 111.35 111.33 111.32 111.47 106.92 111.67 111.86 111.87 112.02
111.48 111.18 110.88 110.54 110.19 109.66 109.12 108.64 108.13 107.70 107.31 107.00 106.61 107.18 107.54 108.04 108.57 109.00 109.30 109.46 109.58 109.63 109.66 109.59 109.61 109.63 109.72 109.82 109.99 110.11 110.27 110.37 110.52 110.65 110.74 110.83 110.91 111.00 111.10 111.18 111.25 111.35 111.40 111.43 111.45 111.42 111.67 106.89 111.72 111.98 112.00 112.15
111.53 111.17 110.85 110.52 110.13 109.58 109.04 108.54 108.09 107.68 107.30 106.99 107.11 107.46 107.92 108.53 109.03 109.47 109.71 109.88 109.93 110.00 109.93 109.84 109.76 109.78 109.85 109.97 110.08 110.26 110.38 110.54 110.71 110.81 110.87 110.94 111.02 111.07 111.15 111.24 111.34 111.40 111.47 111.50 111.50 111.58 111.79 107.65 111.85 112.03 112.10 112.26
111.48 111.08 110.76 110.45 110.00 109.47 108.95 108.46 108.04 107.64 107.32 107.01 107.43 107.72 108.26 108.88 109.46 109.84 110.10 110.22 110.30 110.28 110.17 110.01 109.97 109.93 110.01 110.11 110.26 110.40 110.56 110.72 110.83 110.91 110.96 111.04 111.09 111.19 111.28 111.36 111.40 111.49 111.55 111.57 111.61 111.70 111.24 107.68 111.95 112.06 112.15 112.33
111.43 111.04 110.68 110.32 109.86 109.34 108.84 108.38 107.95 107.57 107.17 107.34 107.67 108.06 108.59 109.26 109.80 110.21 110.42 110.54 110.58 110.53 110.38 110.24 110.17 110.13 110.16 110.25 110.36 110.57 110.71 110.82 110.93 111.00 111.09 111.16 111.21 111.29 111.35 111.43 111.48 111.54 111.63 111.68 111.69 111.79 110.81 107.43 112.01 112.18 112.26 112.43
111.36 110.91 110.54 110.16 109.66 109.18 108.71 108.28 107.82 107.49 106.79 107.62 107.90 108.40 108.99 109.65 110.18 110.51 110.74 110.82 110.83 110.77 110.58 110.44 110.39 110.38 110.41 110.46 110.58 110.78 110.85 110.92 111.00 111.08 111.16 111.23 111.29 111.36 111.42 111.49 111.56 111.60 111.67 111.73 111.74 111.88 111.56 107.90 112.11 112.34 112.33 112.64
111.21 110.74 110.33 109.90 109.43 109.00 108.55 108.11 107.72 107.39 107.58 107.83 108.20 108.77 109.35 109.96 110.46 110.77 110.96 111.04 111.03 110.96 110.76 110.69 110.61 110.62 110.61 110.67 110.79 110.90 110.94 111.04 111.10 111.18 111.28 111.32 111.37 111.45 111.50 111.54 111.61 111.65 111.72 111.78 111.76 111.90 111.83 108.10 112.29 112.45 112.42 112.60
110.99 110.54 110.08 109.64 109.21 108.80 108.36 107.93 107.48 107.55 107.86 108.21 108.73 109.27 109.82 110.34 110.71 110.98 111.14 111.23 111.27 111.13 111.01 110.90 110.84 110.83 110.84 110.90 110.94 111.00 111.01 111.14 111.19 111.25 111.37 111.43 111.45 111.53 111.59 111.63 111.67 111.74 111.80 111.83 111.84 111.94 112.07 108.57 112.43 112.65 112.72 112.89
110.65 110.24 109.79 109.36 108.96 108.60 108.20 107.78 107.21 107.77 108.08 108.58 109.16 109.73 110.27 110.73 111.06 111.32 111.46 111.54 111.51 111.38 111.30 111.19 111.14 111.10 111.15 111.15 111.16 111.09 111.14 111.23 111.29 111.40 111.50 111.57 111.55 111.60 111.66 111.71 111.78 111.81 111.85 111.90 111.91 111.99 112.01 108.85 112.52 112.72 112.75 112.94
110.32 109.90 109.47 109.05 108.71 108.39 108.07 107.60 107.75 107.88 108.19 108.84 109.49 110.03 110.47 110.85 111.13 111.37 111.57 111.65 111.65 111.57 111.51 111.48 111.43 111.51 111.56 111.85 111.53 111.42 111.42 111.45 111.54 111.60 111.64 111.68 111.74 111.78 111.85 111.89 111.92 111.92 111.92 111.95 112.01 112.01 112.07 109.31 112.60 112.82 112.79 113.07
110.04 109.58 109.20 108.77 108.42 108.22 107.96 107.69 107.89 108.15 108.64 109.34 109.93 110.30 110.68 110.99 111.19 111.41 111.62 111.74 111.72 111.73 111.75 111.69 111.67 111.68 111.71 111.65 111.63 111.63 111.66 111.66 111.70 111.76 111.84 111.89 111.96 112.04 112.09 112.09 112.10 112.14 112.17 112.14 112.14 112.13 112.10 110.97 112.70 112.90 112.87 113.13
109.93 109.47 109.03 108.68 108.41 108.20 107.79 107.95 108.14 108.48 109.04 109.69 110.21 110.58 110.91 111.21 111.43 111.65 111.81 111.87 111.85 111.86 111.86 111.86 111.84 111.83 111.76 111.75 111.78 111.79 111.80 111.85 111.89 111.93 111.99 112.07 112.12 112.17 112.21 112.24 112.28 112.34 112.35 112.36 112.35 112.48 112.62 111.68 112.81 113.05 113.05 113.30
109.58 109.17 108.86 108.60 108.39 108.15 107.54 108.09 108.33 108.76 109.34 109.93 110.43 110.80 111.11 111.39 111.62 111.83 111.97 112.01 111.99 111.98 112.04 112.01 112.00 112.00 111.93 111.85 111.84 111.85 111.88 111.91 111.97 112.00 112.04 112.11 112.10 112.19 112.29 112.37 112.36 112.43 112.47 112.46 112.54 112.62 112.82 110.12 112.84 113.22 113.22 113.46
109.32 108.98 108.72 108.56 108.49 108.47 108.04 108.27 108.58 109.01 109.58 110.14 110.57 110.95 111.26 111.53 111.77 111.95 112.09 112.15 112.14 112.20 112.20 112.18 112.14 112.14 112.05 111.99 111.99 111.99 111.98 112.04 112.03 112.11 112.18 112.21 112.31 112.32 112.40 112.43 112.50 112.53 112.52 112.53 112.57 112.69 112.96 110.09 112.99 113.31 113.29 113.53
109.14 108.86 108.63 108.50 108.53 108.32 108.26 108.44 108.82 109.26 109.82 110.35 110.74 111.08 111.36 111.63 111.87 112.06 112.19 112.26 112.31 112.36 112.36 112.30 112.31 112.28 112.15 112.15 112.14 112.14 112.13 112.15 112.15 112.24 112.27 112.32 112.39 112.40 112.44 112.51 112.56 112.59 112.59 112.61 112.68 112.79 113.02 110.44 113.21 113.49 113.45 113.69
109.04 108.80 108.60 108.49 108.55 108.02 108.42 108.68 109.04 109.53 110.12 110.61 110.94 111.21 111.46 111.73 111.96 112.16 112.31 112.40 112.44 112.51 112.49 112.44 112.44 112.38 112.34 112.30 112.29 112.29 112.27 112.29 112.32 112.36 112.43 112.45 112.50 112.56 112.57 112.64 112.67 112.72 112.73 112.77 112.86 112.92 113.07 110.95 113.35 113.66 113.63 113.81
108.99 108.76 108.58 108.58 108.58 108.40 108.58 108.86 109.33 109.85 110.39 110.86 111.14 111.35 111.58 111.85 112.10 112.26 112.40 112.51 112.59 112.65 112.57 112.61 112.57 112.50 112.46 112.42 112.45 112.42 112.43 112.44 112.43 112.48 112.53 112.54 112.61 112.66 112.68 112.74 112.76 112.86 112.88 112.92 113.00 113.05 113.21 111.46 113.54 113.76 113.82 113.93
109.00 108.80 108.63 108.63 108.52 108.52 108.74 109.11 109.60 110.12 110.65 111.08 111.30 111.48 111.72 111.96 112.17 112.37 112.53 112.66 112.75 112.76 112.74 112.77 112.68 112.65 112.62 112.58 112.56 112.57 112.59 112.58 112.57 112.57 112.61 112.63 112.70 112.73 112.76 112.81 112.87 112.95 112.99 113.02 113.14 113.22 113.32 112.59 113.86 113.95 114.04 114.11
108.98 108.82 108.72 108.75 108.60 108.61 108.90 109.38 109.87 110.39 110.87 111.26 111.46 111.62 111.86 112.08 112.30 112.46 112.67 112.82 112.88 112.90 112.91 112.91 112.81 112.85 112.81 112.71 112.64 112.69 112.76 112.75 112.72 112.70 112.74 112.75 112.81 112.85 112.88 112.92 112.97 113.03 113.10 113.17 113.31 113.41 113.49 113.54 113.75 114.06 114.17 114.32
108.95 108.79 108.83 108.86 108.61 108.74 109.08 109.57 110.08 110.62 111.09 111.45 111.60 111.75 111.95 112.16 112.38 112.57 112.78 112.92 112.97 113.04 113.09 113.07 112.99 113.02 113.00 112.92 112.87 112.89 112.91 112.90 112.86 112.88 112.89 112.88 112.91 112.96 113.00 113.04 113.11 113.15 113.22 113.32 113.47 113.55 113.58 113.64 113.63 114.11 114.30 114.44
109.00 108.84 108.89 108.65 108.75 108.89 109.21 109.71 110.24 110.80 111.25 111.58 111.75 111.89 112.06 112.26 112.46 112.67 112.87 113.00 113.06 113.20 113.27 113.21 113.19 113.20 113.20 113.18 113.16 113.12 113.11 113.10 113.04 113.06 113.06 113.06 113.08 113.09 113.14 113.18 113.22 113.27 113.34 113.43 113.56 113.66 113.71 113.76 113.28 114.25 114.40 114.51
109.10 108.99 108.97 108.86 108.89 109.06 109.42 109.92 110.41 110.92 111.38 111.69 111.87 111.99 112.16 112.35 112.56 112.81 112.97 113.08 113.19 113.36 113.38 113.31 113.33 113.35 113.36 113.36 113.35 113.31 113.31 113.28 113.24 113.23 113.24 113.26 113.27 113.28 113.33 113.35 113.38 113.41 113.49 113.57 113.67 113.78 113.84 113.92 113.36 114.33 114.52 114.62
109.20 109.14 109.01 108.96 109.05 109.29 109.66 110.13 110.62 111.15 111.58 111.80 111.96 112.06 112.21 112.40 112.64 112.84 113.00 113.12 113.31 113.47 113.44 113.45 113.48 113.50 113.51 113.50 113.48 113.46 113.44 113.43 113.44 113.42 113.43 113.44 113.44 113.44 113.51 113.55 113.57 113.62 113.68 113.76 113.83 113.93 113.97 114.07 113.18 114.28 114.61 114.67
109.26 109.19 108.91 109.16 109.26 109.52 109.93 110.38 110.90 111.41 111.77 111.93 112.06 112.16 112.30 112.53 112.74 112.93 113.05 113.20 113.42 113.56 113.54 113.60 113.67 113.68 113.68 113.68 113.65 113.61 113.62 113.60 113.60 113.60 113.61 113.60 113.63 113.60 113.67 113.71 113.73 113.78 113.85 113.92 113.98 114.09 114.08 114.25 113.76 114.34 114.74 114.78
109.35 109.21 109.30 109.31 109.46 109.75 110.17 110.62 111.14 111.63 111.91 112.06 112.18 112.30 112.49 112.69 112.88 113.05 113.17 113.31 113.54 113.61 113.63 113.71 113.79 113.81 113.82 113.83 113.80 113.79 113.79 113.76 113.81 113.81 113.80 113.82 113.85 113.83 113.87 113.93 113.94 113.95 114.04 114.10 114.15 114.27 114.25 114.38 114.46 114.39 114.86 114.93
109.31 109.27 109.49 109.51 109.67 109.94 110.40 110.83 111.29 111.76 112.04 112.17 112.29 112.47 112.68 112.86 113.00 113.13 113.26 113.46 113.66 113.65 113.71 113.78 113.84 113.88 113.88 113.91 113.91 113.87 113.87 113.88 113.93 113.97 113.98 114.01 114.05 114.03 114.08 114.13 114.14 114.16 114.23 114.30 114.35 114.43 114.44 114.52 114.56 114.39 115.00 115.05
109.39 109.49 109.68 109.73 109.86 110.15 110.54 110.94 111.43 111.93 112.17 112.32 112.49 112.68 112.86 112.99 113.07 113.19 113.37 113.58 113.74 113.70 113.80 113.87 113.92 113.97 113.98 113.98 113.97 113.96 113.96 114.01 114.06 114.08 114.12 114.14 114.18 114.20 114.22 114.26 114.30 114.31 114.38 114.45 114.50 114.54 114.58 114.62 114.68 114.48 115.03 115.19
109.49 109.57 109.96 110.07 110.21 110.39 110.61 111.04 111.48 111.91 112.24 112.46 112.69 112.91 113.07 113.15 113.22 113.34 113.54 113.73 113.82 113.82 113.93 113.99 114.05 114.09 114.11 114.12 114.12 114.10 114.14 114.18 114.21 114.23 114.26 114.28 114.32 114.32 114.36 114.40 114.42 114.47 114.52 114.57 114.63 114.66 114.71 114.71 114.81 114.66 115.13 115.29
109.54 109.92 110.06 110.31 110.55 110.80 111.10 111.46 111.77 112.17 112.35 112.51 112.76 112.98 113.13 113.33 113.45 113.57 113.73 113.90 113.96 113.98 114.07 114.15 114.21 114.26 114.28 114.29 114.28 114.27 114.33 114.38 114.38 114.41 114.43 114.44 114.47 114.50 114.53 114.57 114.58 114.64 114.68 114.74 114.76 114.81 114.84 114.86 114.96 114.83 115.29 115.41
109.82 110.09 110.29 110.64 111.05 111.41 111.72 111.94 112.20 112.38 112.51 112.75 113.04 113.25 113.42 113.53 113.58 113.73 113.89 114.05 114.13 114.17 114.28 114.32 114.38 114.41 114.43 114.46 114.46 114.48 114.54 114.58 114.58 114.61 114.62 114.64 114.66 114.68 114.72 114.75 114.78 114.85 114.88 114.89 114.94 115.00 115.03 115.03 115.17 115.04 115.47 115.65
110.14 110.39 110.74 111.18 111.64 111.96 112.25 112.51 112.60 112.64 112.74 112.92 113.13 113.37 113.51 113.61 113.82 113.98 114.04 114.15 114.21 114.30 114.38 114.48 114.55 114.60 114.62 114.64 114.65 114.70 114.74 114.79 114.77 114.81 114.84 114.82 114.86 114.88 114.93 114.96 115.00 115.06 115.11 115.11 115.17 115.18 115.25 115.30 115.37 115.34 115.72 115.82
110.47 110.71 111.02 111.46 111.99 112.36 112.68 112.96 113.07 113.04 113.04 113.18 113.31 113.45 113.60 113.77 113.94 114.07 114.23 114.30 114.31 114.36 114.49 114.62 114.69 114.73 114.75 114.79 114.81 114.85 114.93 114.97 114.96 115.00 115.05 115.04 115.07 115.11 115.17 115.20 115.24 115.29 115.32 115.32 115.35 115.40 115.49 115.51 115.58 115.42 115.95 116.01
110.68 111.04 111.51 111.91 112.31 112.71 113.03 113.22 113.31 113.30 113.29 113.43 113.59 113.75 113.83 113.90 114.09 114.20 114.38 114.42 114.44 114.50 114.64 114.77 114.83 114.88 114.91 114.94 114.96 115.01 115.08 115.12 115.13 115.19 115.21 115.22 115.26 115.30 115.36 115.40 115.43 115.49 115.55 115.57 115.56 115.64 115.71 115.70 115.76 115.37 116.08 116.21
111.01 111.35 111.76 112.24 112.65 112.95 113.26 113.56 113.67 113.61 113.67 113.74 113.86 113.92 114.01 114.08 114.26 114.30 114.50 114.57 114.59 114.66 114.79 114.90 115.01 115.07 115.11 115.12 115.16 115.21 115.28 115.31 115.33 115.35 115.41 115.42 115.45 115.48 115.53 115.60 115.62 115.70 115.75 115.78 115.78 115.82 115.93 115.88 115.88 115.57 116.05 116.25
111.34 111.73 112.18 112.58 112.96 113.19 113.42 113.65 113.82 113.83 113.94 114.08 114.19 114.27 114.29 114.38 114.47 114.49 114.64 114.69 114.72 114.82 114.92 115.05 115.14 115.21 115.30 115.35 115.40 115.45 115.52 115.54 115.56 115.60 115.61 115.67 115.70 115.72 115.77 115.84 115.87 115.94 115.96 116.01 116.04 116.07 116.13 116.07 116.04 115.54 116.11 116.33
111.61 112.01 112.41 112.84 113.13 113.37 113.62 113.88 114.07 114.12 114.21 114.34 114.40 114.48 114.55 114.59 114.71 114.71 114.82 114.82 114.86 114.93 115.01 115.11 115.23 115.33 115.43 115.51 115.58 115.64 115.71 115.76 115.81 115.88 115.92 115.98 115.98 116.00 116.03 116.11 116.17 116.24 116.26 116.30 116.33 116.40 116.43 116.31 116.21 115.53 116.26 116.46
111.82 112.20 112.65 112.95 113.23 113.47 113.65 113.96 114.17 114.31 114.43 114.59 114.71 114.76 114.78 114.84 114.88 114.89 115.00 114.98 114.99 115.07 115.14 115.20 115.30 115.36 115.49 115.58 115.67 115.74 115.82 115.88 115.95 116.05 116.08 116.15 116.20 116.23 116.26 116.34 116.42 116.49 116.50 116.56 116.60 116.67 116.68 116.57 116.38 115.48 116.39 116.58
111.90 112.26 112.63 112.94 113.21 113.44 113.68 114.12 114.32 114.44 114.59 114.70 114.80 114.90 114.97 115.04 115.11 115.08 115.18 115.15 115.15 115.23 115.27 115.30 115.40 115.47 115.55 115.65 115.73 115.79 115.90 115.95 116.04 116.14 116.20 116.28 116.33 116.37 116.41 116.50 116.58 116.63 116.61 116.69 116.72 116.83 116.85 116.76 116.57 115.50 116.56 116.76
111.97 112.32 112.64 112.86 113.12 113.33 113.62 114.05 114.31 114.47 114.68 114.85 115.02 115.08 115.14 115.20 115.24 115.24 115.35 115.29 115.30 115.39 115.43 115.43 115.52 115.56 115.64 115.75 115.82 115.90 115.99 116.06 116.17 116.28 116.32 116.42 116.48 116.50 116.56 116.61 116.72 116.76 116.73 116.78 116.82 116.94 117.00 116.92 116.78 115.60 116.77 116.94
112.02 112.34 112.61 112.88 113.11 113.36 113.76 114.17 114.37 114.51 114.71 114.88 115.05 115.21 115.26 115.35 115.42 115.42 115.50 115.45 115.50 115.54 115.57 115.57 115.66 115.70 115.76 115.85 115.92 116.04 116.13 116.23 116.35 116.46 116.51 116.60 116.66 116.71 116.76 116.83 116.90 116.93 116.90 116.95 116.95 117.09 117.15 117.07 116.96 115.65 116.99 117.14
112.29 112.61 112.86 113.07 113.32 113.51 113.86 114.25 114.39 114.50 114.67 114.97 115.16 115.29 115.37 115.45 115.48 115.56 115.61 115.64 115.64 115.69 115.73 115.71 115.76 115.82 115.87 115.97 116.05 116.18 116.30 116.38 116.53 116.66 116.72 116.84 116.89 116.94 116.99 117.04 117.10 117.14 117.13 117.13 117.15 117.27 117.32 117.28 117.21 115.85 117.27 117.42
