ncols 52
nrows 52
xllcorner 442368
yllcorner 5716480
cellsize 10
NODATA_value -9999
90.47 90.48 90.49 90.48 90.49 90.46 90.38 90.29 90.20 90.12 89.98 89.86 89.71 89.50 89.22 88.94 88.75 88.60 88.35 88.35 88.17 88.19 88.10 88.06 87.94 88.00 88.10 88.24 88.32 88.39 88.47 88.50 88.50 88.42 88.35 88.24 88.20 88.20 88.26 88.38 88.41 88.40 88.39 88.35 88.28 88.18 88.01 87.82 87.73 87.34 86.97 86.64
90.62 90.64 90.63 90.60 90.59 90.56 90.47 90.36 90.25 90.13 89.99 89.86 89.74 89.59 89.33 89.08 88.86 88.78 88.57 88.40 88.28 88.32 88.25 88.36 88.25 88.25 88.39 88.49 88.58 88.65 88.71 88.74 88.70 88.62 88.51 88.43 88.40 88.41 88.50 88.62 88.63 88.59 88.53 88.50 88.47 88.38 88.26 88.17 87.93 87.61 87.32 86.99
90.83 90.83 90.78 90.71 90.64 90.60 90.54 90.41 90.27 90.16 90.03 89.90 89.78 89.67 89.51 89.24 89.04 88.94 88.82 88.67 88.53 88.40 88.48 88.36 88.54 88.41 88.69 88.79 88.86 88.93 88.97 88.94 88.87 88.78 88.72 88.67 88.64 88.68 88.73 88.82 88.81 88.73 88.69 88.68 88.64 88.67 88.51 88.33 88.12 87.93 87.67 87.28
90.98 91.01 90.92 90.81 90.69 90.63 90.55 90.48 90.33 90.21 90.09 89.99 89.87 89.77 89.67 89.45 89.23 89.11 89.19 88.95 88.81 88.71 88.68 88.85 88.78 88.90 88.88 89.07 89.12 89.13 89.16 89.12 89.05 88.98 88.93 88.87 88.88 88.87 88.93 88.94 88.89 88.86 88.85 88.85 88.96 88.80 88.66 88.53 88.39 88.25 87.96 87.65
91.12 91.15 91.06 90.92 90.79 90.68 90.59 90.53 90.43 90.29 90.18 90.07 89.95 89.85 89.76 89.63 89.50 89.35 89.34 89.19 89.10 88.98 88.99 89.06 89.07 89.08 89.15 89.28 89.32 89.33 89.35 89.31 89.25 89.19 89.15 89.09 89.06 89.06 89.10 89.06 89.03 89.00 89.05 89.02 89.01 88.92 88.80 88.73 88.65 88.47 88.26 87.96
91.24 91.28 91.20 91.06 90.91 90.78 90.67 90.57 90.48 90.36 90.25 90.16 90.06 89.95 89.85 89.76 89.71 89.52 89.54 89.47 89.35 89.20 89.34 89.31 89.42 89.54 89.51 89.36 89.46 89.50 89.51 89.49 89.46 89.37 89.33 89.29 89.26 89.24 89.24 89.26 89.23 89.24 89.28 89.19 89.10 89.05 89.02 88.96 88.89 88.73 88.51 88.24
91.33 91.39 91.33 91.21 91.03 90.88 90.75 90.62 90.54 90.47 90.34 90.24 90.15 90.03 89.94 89.92 89.88 89.89 89.74 89.68 89.56 89.46 89.54 89.61 89.58 89.65 89.63 89.69 89.61 89.69 89.71 89.69 89.63 89.59 89.54 89.48 89.44 89.44 89.46 89.48 89.46 89.46 89.31 89.23 89.23 89.22 89.18 89.15 89.09 88.95 88.77 88.52
91.46 91.48 91.46 91.35 91.17 90.99 90.82 90.68 90.61 90.54 90.47 90.34 90.24 90.13 90.05 90.12 90.10 90.01 89.92 89.86 89.71 89.67 89.81 89.87 89.83 89.82 89.75 89.85 89.71 89.82 89.87 89.85 89.81 89.76 89.74 89.68 89.62 89.63 89.66 89.68 89.60 89.47 89.37 89.36 89.38 89.32 89.31 89.30 89.27 89.17 89.00 88.78
91.54 91.55 91.54 91.46 91.30 91.08 90.91 90.76 90.66 90.62 90.55 90.46 90.37 90.26 90.24 90.30 90.18 90.17 90.08 90.01 89.90 89.90 89.99 90.07 90.12 89.95 89.99 89.84 90.14 89.87 90.01 89.99 89.96 89.93 89.88 89.84 89.79 89.81 89.93 89.81 89.62 89.51 89.49 89.51 89.46 89.43 89.46 89.45 89.42 89.34 89.20 89.00
91.59 91.55 91.53 91.46 91.31 91.15 91.03 90.89 90.78 90.69 90.61 90.52 90.44 90.38 90.43 90.47 90.46 90.35 90.22 90.16 90.05 90.11 90.20 90.28 90.28 90.16 90.11 90.11 90.17 90.17 90.10 90.08 90.06 90.05 90.01 90.00 90.07 89.99 89.90 89.88 89.74 89.62 89.62 89.60 89.61 89.60 89.58 89.57 89.53 89.51 89.41 89.21
91.60 91.55 91.51 91.47 91.34 91.23 91.12 91.01 90.90 90.79 90.71 90.64 90.58 90.50 90.62 90.69 90.57 90.44 90.35 90.30 90.21 90.30 90.37 90.46 90.48 90.33 90.29 90.29 90.08 90.40 90.18 90.23 90.18 90.18 90.17 90.18 90.15 90.05 90.05 90.01 89.92 89.82 89.75 89.77 89.76 89.77 89.75 89.74 89.71 89.67 89.58 89.42
91.63 91.57 91.51 91.49 91.42 91.31 91.24 91.15 91.05 90.92 90.84 90.76 90.69 90.67 90.81 90.78 90.69 90.58 90.47 90.41 90.39 90.45 90.54 90.64 90.58 90.48 90.44 90.40 90.53 90.47 90.51 90.32 90.31 90.28 90.31 90.31 90.23 90.12 90.16 90.21 90.10 89.97 89.91 89.92 89.92 89.94 89.94 89.89 89.86 89.81 89.71 89.58
91.70 91.65 91.58 91.54 91.46 91.39 91.34 91.28 91.17 91.06 90.96 90.87 90.82 90.85 90.96 90.94 90.78 90.68 90.61 90.53 90.54 90.57 90.67 90.72 90.68 90.60 90.60 90.56 90.61 90.58 90.67 90.43 90.48 90.49 90.42 90.39 90.30 90.28 90.33 90.35 90.24 90.19 90.15 90.11 90.08 90.08 90.08 90.05 90.01 89.93 89.82 89.69
91.74 91.75 91.71 91.67 91.59 91.51 91.43 91.38 91.32 91.23 91.12 91.02 90.95 91.05 91.10 90.94 90.85 90.76 90.70 90.65 90.67 90.72 90.79 90.80 90.78 90.76 90.73 90.75 90.75 90.82 90.67 90.72 90.77 90.56 90.56 90.49 90.44 90.48 90.49 90.48 90.38 90.32 90.31 90.23 90.21 90.18 90.15 90.13 90.10 90.01 89.92 89.79
91.94 91.92 91.90 91.79 91.71 91.58 91.54 91.50 91.44 91.33 91.25 91.15 91.07 91.16 91.07 90.99 90.91 90.82 90.83 90.80 90.79 90.83 90.93 90.92 90.90 90.93 90.89 90.93 90.92 90.86 90.91 90.98 90.86 90.74 90.66 90.60 90.62 90.60 90.66 90.67 90.54 90.43 90.38 90.35 90.30 90.23 90.22 90.19 90.15 90.07 89.92 89.76
91.96 92.04 92.04 92.00 91.93 91.85 91.77 91.66 91.51 91.42 91.36 91.28 91.17 91.26 91.19 91.06 90.96 90.92 90.88 90.92 90.93 91.00 91.06 91.06 91.03 91.07 91.04 91.07 91.08 91.00 91.08 90.93 90.99 90.88 90.83 90.80 90.77 90.80 90.81 90.83 90.67 90.52 90.49 90.46 90.43 90.35 90.30 90.22 90.16 90.06 89.94 89.77
92.03 92.01 92.01 92.02 91.98 92.03 92.01 91.89 91.72 91.61 91.50 91.44 91.34 91.38 91.25 91.12 91.07 91.01 90.99 91.03 91.06 91.15 91.21 91.19 91.24 91.25 91.21 91.22 91.22 91.16 91.19 91.24 91.35 91.12 91.02 90.95 90.96 90.96 91.01 90.97 90.78 90.65 90.55 90.54 90.48 90.44 90.33 90.21 90.14 90.08 89.96 89.80
92.06 92.04 92.05 92.06 92.08 92.07 92.00 91.99 91.88 91.77 91.70 91.60 91.54 91.51 91.35 91.24 91.17 91.14 91.12 91.14 91.21 91.30 91.33 91.34 91.39 91.38 91.36 91.36 91.34 91.30 91.27 91.32 91.46 91.31 91.19 91.07 91.08 91.13 91.17 91.10 90.90 90.73 90.65 90.58 90.50 90.47 90.35 90.24 90.15 90.07 89.94 89.77
92.16 92.19 92.17 92.17 92.17 92.14 92.13 92.07 91.94 91.86 91.75 91.77 91.69 91.61 91.48 91.37 91.31 91.25 91.29 91.26 91.38 91.43 91.45 91.47 91.53 91.54 91.49 91.50 91.47 91.42 91.40 91.34 91.46 91.64 91.35 91.23 91.16 91.22 91.28 91.21 90.98 90.81 90.69 90.60 90.54 90.50 90.42 90.31 90.18 90.03 89.85 89.73
92.29 92.26 92.28 92.33 92.29 92.26 92.18 92.08 92.04 91.93 91.85 91.86 91.72 91.75 91.60 91.52 91.45 91.40 91.43 91.47 91.53 91.57 91.57 91.60 91.65 91.67 91.62 91.62 91.59 91.60 91.51 91.44 91.53 91.69 91.47 91.33 91.30 91.31 91.37 91.26 91.03 90.90 90.76 90.65 90.57 90.48 90.39 90.31 90.21 90.03 89.86 89.70
92.40 92.41 92.43 92.37 92.35 92.34 92.27 92.19 92.13 92.00 91.99 91.94 91.89 91.83 91.74 91.64 91.60 91.57 91.57 91.63 91.69 91.68 91.67 91.72 91.76 91.79 91.74 91.71 91.73 91.69 91.65 91.61 91.61 91.66 91.65 91.46 91.39 91.39 91.45 91.35 91.14 90.98 90.82 90.66 90.59 90.49 90.38 90.31 90.20 90.05 89.81 89.62
92.49 92.55 92.56 92.51 92.49 92.38 92.34 92.28 92.24 92.16 92.13 92.08 92.05 91.96 91.84 91.78 91.73 91.73 91.72 91.79 91.82 91.79 91.79 91.84 91.87 91.87 91.82 91.82 91.79 91.80 91.75 91.70 91.67 91.71 91.98 91.61 91.51 91.50 91.51 91.42 91.21 91.00 90.85 90.74 90.64 90.51 90.39 90.30 90.19 90.00 89.76 89.60
92.67 92.67 92.67 92.63 92.57 92.49 92.46 92.38 92.34 92.29 92.28 92.18 92.19 92.07 91.96 91.90 91.86 91.87 91.90 91.95 91.96 91.93 91.92 91.95 91.93 91.94 91.90 91.87 91.93 91.84 91.86 91.80 91.75 91.78 91.98 91.67 91.50 91.54 91.57 91.46 91.22 91.02 90.90 90.76 90.64 90.48 90.36 90.19 90.06 89.90 89.78 89.63
92.78 92.82 92.80 92.72 92.66 92.62 92.54 92.50 92.44 92.40 92.39 92.27 92.29 92.15 92.06 92.04 92.01 92.02 92.04 92.10 92.06 92.02 92.06 92.05 92.08 92.03 91.96 91.96 91.95 91.94 91.87 91.84 91.78 91.77 92.03 91.77 91.60 91.54 91.58 91.51 91.26 91.07 90.93 90.78 90.61 90.46 90.30 90.14 90.01 89.88 89.80 89.58
92.90 92.88 92.83 92.81 92.76 92.69 92.65 92.59 92.53 92.59 92.51 92.64 92.46 92.31 92.25 92.19 92.16 92.15 92.22 92.21 92.15 92.11 92.12 92.14 92.12 92.12 92.06 92.01 92.04 92.01 91.96 91.91 91.83 91.77 91.95 91.88 91.65 91.60 91.59 91.46 91.26 91.09 90.92 90.79 90.65 90.46 90.28 90.12 90.03 90.05 90.52 91.63
92.99 92.94 92.92 92.89 92.83 92.82 92.72 92.68 92.68 92.69 92.61 92.70 92.56 92.51 92.46 92.37 92.31 92.27 92.34 92.33 92.22 92.18 92.19 92.16 92.17 92.17 92.16 92.14 92.10 92.10 92.03 91.96 91.90 91.83 91.81 91.94 91.71 91.60 91.56 91.39 91.25 91.12 90.98 90.81 90.63 90.46 90.29 90.21 90.15 91.07 91.61 89.93
93.07 93.03 93.00 92.93 92.96 92.93 92.87 92.84 92.83 92.83 92.75 92.80 92.67 92.63 92.60 92.54 92.46 92.41 92.47 92.38 92.31 92.26 92.24 92.25 92.25 92.25 92.27 92.21 92.19 92.15 92.10 92.05 91.94 91.88 91.76 91.98 91.73 91.61 91.59 91.41 91.23 91.11 90.98 90.81 90.64 90.51 90.39 90.42 91.54 91.67 89.24 87.42
93.22 93.17 93.13 93.10 93.10 93.03 93.02 92.99 93.00 92.97 93.07 92.94 92.75 92.74 92.71 92.68 92.62 92.58 92.54 92.48 92.38 92.35 92.35 92.34 92.34 92.35 92.31 92.30 92.24 92.20 92.17 92.10 91.99 91.92 91.85 91.97 91.77 91.67 91.60 91.42 91.19 91.04 90.93 90.80 90.66 90.59 90.44 91.76 91.56 90.31 92.71 90.93
93.41 93.33 93.31 93.28 93.26 93.26 93.20 93.15 93.18 93.09 93.25 93.01 92.86 92.79 92.78 92.80 92.74 92.69 92.64 92.57 92.52 92.48 92.43 92.44 92.42 92.40 92.42 92.36 92.32 92.25 92.19 92.15 92.05 91.94 91.86 91.98 91.70 91.62 91.52 91.36 91.18 91.03 90.92 90.81 90.77 90.46 91.85 91.19 91.29 93.68 96.72 94.64
93.60 93.54 93.50 93.42 93.40 93.36 93.33 93.37 93.34 93.20 93.28 93.04 92.93 92.89 92.87 92.85 92.80 92.74 92.72 92.70 92.64 92.60 92.56 92.54 92.50 92.49 92.48 92.46 92.39 92.31 92.23 92.17 92.09 92.00 91.97 91.96 91.57 91.49 91.47 91.35 91.19 91.03 90.93 90.98 90.90 91.99 91.08 92.11 94.62 98.19 99.66 94.63
93.78 93.72 93.65 93.60 93.52 93.46 93.43 93.45 93.42 93.40 93.32 93.13 93.05 92.98 92.95 92.93 92.88 92.80 92.81 92.76 92.70 92.67 92.62 92.63 92.58 92.54 92.54 92.51 92.46 92.38 92.27 92.21 92.08 92.01 92.18 91.94 91.57 91.39 91.32 91.28 91.18 91.13 91.14 91.54 91.99 90.68 93.20 95.83 99.74 101.20 96.40 92.77
94.00 93.86 93.79 93.71 93.62 93.54 93.54 93.53 93.49 93.57 93.35 93.24 93.15 93.07 93.07 93.06 92.96 92.93 92.88 92.85 92.83 92.73 92.70 92.66 92.64 92.63 92.59 92.57 92.50 92.44 92.33 92.25 92.15 92.08 92.38 92.00 91.68 91.45 91.33 91.25 91.24 91.29 92.04 92.02 91.05 93.70 96.95 101.05 101.77 97.40 93.73 90.88
94.18 94.04 93.93 93.79 93.71 93.63 93.63 93.62 93.50 93.57 93.36 93.29 93.26 93.21 93.19 93.14 93.08 93.01 92.98 92.98 92.94 92.88 92.83 92.79 92.73 92.68 92.66 92.63 92.56 92.49 92.35 92.23 92.23 92.08 92.30 92.15 91.81 91.58 91.42 91.41 91.56 92.16 91.99 91.98 94.70 97.90 101.81 101.35 97.88 94.18 91.13 89.61
94.54 94.66 93.96 93.97 93.84 93.70 93.71 93.70 93.74 93.62 93.44 93.41 93.34 93.33 93.31 93.25 93.18 93.14 93.08 93.09 93.06 92.97 92.96 92.90 92.81 92.79 92.73 92.68 92.62 92.54 92.42 92.31 92.26 92.47 92.23 92.11 91.91 91.85 91.70 91.72 92.22 91.64 92.61 95.49 99.28 101.94 101.24 97.88 94.83 92.17 90.32 88.93
94.65 94.26 94.50 94.26 93.94 93.89 93.83 93.76 93.92 93.76 93.65 93.51 93.47 93.48 93.41 93.35 93.28 93.24 93.19 93.18 93.13 93.08 93.04 92.97 92.89 92.85 92.82 92.76 92.68 92.59 92.46 92.41 92.26 92.58 92.39 92.25 91.93 91.82 91.73 92.40 91.54 93.22 96.71 100.27 101.86 101.21 98.07 95.47 93.16 91.26 89.66 88.21
95.04 94.86 94.56 94.33 94.46 93.83 93.93 94.08 94.23 94.14 93.72 93.71 93.58 93.57 93.52 93.45 93.40 93.35 93.31 93.29 93.24 93.15 93.13 93.07 93.01 93.00 92.90 92.82 92.76 92.63 92.54 92.55 92.60 92.49 92.29 92.04 91.93 91.81 92.44 91.46 93.79 97.27 100.46 101.28 100.94 99.90 96.91 94.17 92.38 90.63 89.24 87.78
95.17 95.06 94.91 94.63 94.42 94.32 94.39 94.36 94.36 94.29 93.98 93.73 93.72 93.65 93.60 93.51 93.48 93.41 93.42 93.39 93.29 93.20 93.20 93.11 93.04 92.99 92.91 92.87 92.76 92.67 92.62 92.51 92.80 92.53 92.26 92.16 92.11 92.43 91.63 94.54 98.02 100.55 100.74 99.60 99.18 98.43 95.61 93.39 91.60 90.11 89.02 87.25
95.26 95.13 95.08 94.96 94.79 94.63 94.02 94.29 93.86 94.24 94.15 93.68 93.76 93.74 93.66 93.54 93.49 93.44 93.45 93.41 93.35 93.26 93.22 93.33 93.29 93.16 92.88 92.88 92.81 92.77 92.71 92.56 92.72 92.49 92.32 92.53 92.45 92.08 95.50 98.86 99.75 99.87 98.26 97.91 97.82 97.13 94.65 92.67 91.02 89.39 88.67 86.51
95.21 95.09 95.17 95.13 95.03 94.81 94.72 94.38 94.09 94.17 94.00 94.14 93.99 93.73 93.68 93.62 93.51 93.48 93.44 93.39 93.29 93.31 93.40 93.67 93.70 93.68 93.25 93.01 92.78 92.79 92.71 92.95 92.65 92.54 92.72 92.41 92.79 96.28 99.79 98.95 98.25 97.73 96.73 96.68 96.47 96.15 93.75 92.01 90.31 89.19 87.89 85.79
95.15 95.08 95.17 95.43 95.23 94.88 94.70 94.35 94.40 94.06 93.84 93.73 94.11 94.01 93.85 93.63 93.57 93.54 93.49 93.39 93.33 93.24 93.59 93.72 93.74 93.74 93.75 93.54 93.07 92.85 92.75 92.81 92.56 92.71 92.27 93.49 96.72 100.41 100.22 97.96 96.84 96.08 95.65 95.39 95.41 95.12 92.86 91.36 89.61 89.18 87.34 86.07
94.67 95.04 95.17 95.20 94.93 94.75 94.35 94.60 94.44 94.22 94.11 93.56 93.21 92.82 93.95 93.88 93.53 93.55 93.52 93.47 93.33 93.53 93.70 93.80 93.71 93.78 93.76 93.72 93.58 93.25 93.04 92.83 92.71 92.15 93.96 97.12 100.75 100.68 98.06 96.61 95.60 94.95 94.89 94.91 94.25 93.56 91.89 90.66 89.25 88.45 86.65 86.07
94.72 94.63 94.74 94.84 94.87 94.95 94.42 94.58 94.62 94.44 94.25 94.14 93.76 92.65 92.27 92.40 93.87 93.73 93.45 93.48 93.49 93.64 93.63 93.56 93.46 93.57 93.79 93.74 93.40 93.09 93.23 92.82 92.15 94.56 97.75 100.87 99.56 97.81 96.29 95.29 94.44 94.91 94.93 94.37 92.93 92.32 91.21 90.14 89.00 87.65 86.55 86.04
94.68 94.71 94.89 94.77 94.61 94.81 94.46 94.70 94.49 94.49 94.42 94.30 94.28 93.93 93.02 91.49 91.16 91.86 93.80 93.71 93.70 93.68 93.71 93.54 93.47 93.43 93.47 93.61 93.28 93.23 92.91 92.27 94.85 98.33 100.90 99.35 98.01 96.43 94.97 93.90 93.36 93.33 93.01 91.89 91.40 91.15 90.66 89.68 88.24 87.28 86.14 86.04
94.43 94.76 95.04 94.97 94.85 94.79 94.76 94.66 94.46 94.40 94.37 94.31 94.17 94.11 94.08 93.72 91.40 90.37 90.56 93.69 93.63 93.75 93.93 93.75 93.65 93.62 93.51 93.44 93.46 93.00 92.32 95.20 98.72 100.15 98.98 97.85 96.74 95.18 93.57 92.60 92.50 91.85 91.43 91.11 90.71 90.49 90.27 89.12 86.87 86.92 86.17 85.99
94.32 94.72 94.82 95.06 94.99 94.57 94.88 94.85 94.74 94.62 94.33 94.38 94.22 94.29 94.29 93.95 93.73 93.61 89.90 89.32 93.38 93.70 93.94 93.93 93.81 93.80 93.49 93.36 93.11 92.35 95.50 99.16 97.98 96.85 96.45 96.03 95.12 93.30 92.06 91.19 91.66 90.84 90.64 90.47 90.19 89.89 89.78 88.67 87.38 86.54 86.12 86.00
94.32 94.76 94.75 94.57 94.95 94.50 94.75 94.73 95.04 94.68 94.58 94.52 94.39 94.35 94.39 94.21 94.10 94.16 93.63 93.39 88.59 88.24 93.87 93.91 93.87 93.58 93.02 93.13 92.46 95.51 98.51 97.27 93.84 92.47 92.46 92.27 92.15 91.78 91.44 91.23 90.87 90.65 90.28 90.42 90.13 89.08 88.90 88.53 87.37 86.70 86.08 86.07
94.32 94.87 94.87 94.79 94.65 94.66 94.77 94.68 94.52 94.67 95.03 94.60 94.64 94.86 94.42 94.18 94.19 94.18 94.05 93.74 93.46 90.07 87.55 93.03 93.40 92.99 93.17 93.06 96.13 97.14 95.20 92.50 92.06 91.82 91.85 91.42 91.11 91.31 91.21 90.97 90.61 90.19 89.91 90.06 89.90 88.57 87.94 87.72 87.21 86.10 86.06 86.07
94.42 94.49 94.85 94.93 94.73 94.68 94.72 94.40 94.31 94.32 94.54 94.56 94.67 94.52 94.41 94.43 94.14 94.13 94.01 93.98 93.75 93.39 93.37 87.13 87.10 93.25 92.85 93.72 93.69 92.62 92.23 92.04 91.99 91.68 91.41 91.35 91.21 91.06 90.95 90.80 90.54 89.99 89.65 89.34 88.94 88.37 88.04 87.53 86.82 86.32 86.18 86.10
94.48 94.52 94.48 94.74 94.49 94.58 94.74 94.38 94.35 94.13 94.04 94.05 94.14 94.83 94.46 94.30 94.39 94.21 93.74 93.99 93.92 93.45 92.48 92.90 89.18 86.97 90.57 92.81 92.55 92.31 92.10 92.13 91.90 91.61 91.40 91.31 90.98 90.82 90.63 90.46 90.21 89.77 89.49 89.21 88.76 88.32 87.76 86.95 86.38 86.28 86.20 86.12
94.74 94.65 94.57 94.50 94.27 94.76 94.82 94.57 94.51 94.37 94.28 94.18 94.19 93.92 94.17 94.52 94.49 94.26 94.11 93.81 93.58 93.26 93.33 93.27 92.72 91.73 87.48 87.51 91.46 92.11 91.95 91.83 91.65 91.79 91.39 91.17 90.82 90.68 90.32 90.20 89.89 89.68 89.42 88.84 88.47 88.13 86.44 86.58 86.37 86.21 86.18 86.07
94.46 94.70 94.69 94.57 94.30 94.37 94.28 94.41 94.38 94.38 94.53 94.26 94.15 94.19 93.80 94.14 94.25 94.26 94.17 93.74 93.65 93.32 93.33 92.75 93.92 93.60 93.25 90.70 87.99 88.56 91.56 92.00 91.60 91.40 91.21 91.02 90.72 90.32 90.06 89.94 89.65 89.62 89.28 88.75 88.35 88.19 86.47 86.53 86.33 86.24 86.15 86.08
94.37 94.42 94.43 94.64 94.54 94.24 94.27 94.18 94.07 93.99 93.92 94.14 94.24 94.21 93.96 93.69 94.04 94.13 93.80 93.42 93.02 93.44 92.85 94.64 97.59 95.75 93.44 92.84 92.47 89.68 89.09 89.58 91.76 91.51 91.43 91.14 90.77 90.36 90.13 89.83 89.52 89.25 89.08 88.55 88.06 88.13 86.71 86.59 86.41 86.27 86.20 86.15
