ncols 52
nrows 52
xllcorner 442368
yllcorner 5714944
cellsize 10
NODATA_value -9999
90.05 89.95 87.83 89.97 91.18 91.62 91.76 90.20 90.19 90.22 90.33 90.38 90.32 90.28 92.48 92.85 93.47 94.24 94.40 94.74 94.76 94.89 95.80 95.28 95.74 96.94 96.93 96.57 96.82 96.94 97.08 97.14 97.21 97.22 97.32 97.52 98.09 98.07 98.26 98.28 98.30 97.91 97.99 97.94 98.32 98.46 98.57 98.23 98.27 98.35 98.23 98.15
89.95 90.16 90.15 90.26 90.67 91.14 90.97 90.74 90.29 90.37 90.40 90.46 90.76 90.20 91.31 92.76 93.57 94.57 94.89 94.89 94.98 95.02 95.34 95.35 96.75 96.99 97.08 97.25 97.12 97.14 97.23 97.22 97.15 97.16 97.32 97.66 98.13 98.15 98.37 98.78 98.41 98.07 98.15 98.17 98.65 98.84 98.83 98.21 97.98 97.04 98.92 99.10
89.86 88.54 90.07 90.11 90.24 90.58 90.63 90.58 90.65 90.36 90.40 90.53 90.39 90.25 91.12 93.02 93.94 94.76 94.85 94.99 95.18 95.28 95.35 95.94 96.29 97.14 97.32 97.31 97.27 97.31 97.41 97.31 97.35 97.42 97.69 98.18 98.34 98.62 98.59 98.58 98.54 98.21 98.33 98.48 98.73 98.79 98.85 98.86 98.99 99.11 99.33 99.57
89.28 88.79 90.02 89.99 90.15 90.33 90.46 90.45 90.51 90.38 90.32 90.29 90.19 90.26 90.83 94.04 94.72 94.82 94.73 94.99 95.23 95.51 95.54 95.90 95.15 97.23 97.29 97.34 97.40 97.40 97.67 97.79 97.75 98.03 97.93 97.97 98.33 98.59 98.60 98.70 98.68 98.44 98.59 98.51 98.76 98.88 99.08 99.17 99.13 99.51 99.55 99.58
89.59 89.55 89.89 89.85 90.12 90.18 90.26 90.27 90.28 90.33 90.21 90.05 90.20 90.28 90.35 92.43 94.20 94.90 94.79 95.05 95.26 95.49 95.82 96.51 97.32 97.42 97.28 97.30 97.55 97.79 97.81 98.16 98.25 98.34 98.47 97.61 98.47 98.57 98.69 98.65 98.69 98.69 98.89 99.14 99.03 99.18 99.48 99.07 99.12 99.48 99.64 99.64
89.90 89.87 89.99 89.91 89.94 90.10 90.18 90.23 90.14 90.14 90.04 90.18 90.16 90.32 90.52 93.43 94.22 94.61 94.80 94.92 95.63 95.73 96.27 97.10 97.45 97.38 97.62 97.83 98.06 98.29 98.32 98.44 98.36 98.27 98.49 98.49 98.54 98.62 98.78 98.82 99.02 98.85 99.11 99.44 99.14 99.34 99.54 99.48 99.51 99.64 99.57 99.76
89.67 89.86 90.09 90.04 89.93 90.01 90.14 89.99 90.28 90.06 89.56 90.23 90.17 90.40 90.63 91.33 94.21 94.76 94.83 95.10 95.46 96.81 97.04 97.52 97.42 97.60 97.82 97.99 98.20 98.18 98.14 98.27 98.30 98.39 98.54 98.79 98.95 99.14 99.42 99.35 99.29 99.11 99.45 99.29 99.17 99.13 99.63 99.29 99.34 100.50 99.96 99.79
89.55 89.68 89.93 89.82 90.03 90.08 90.18 90.36 90.60 90.29 88.33 88.48 88.56 90.51 91.05 90.97 94.28 94.77 94.92 95.15 96.75 97.04 97.33 97.40 97.46 97.48 97.76 97.81 97.86 97.98 98.46 98.49 98.68 98.86 99.07 99.06 99.60 99.64 99.78 99.61 99.46 99.30 99.56 99.57 99.51 99.50 99.61 99.66 99.65 100.72 100.69 100.16
89.74 89.79 90.11 89.78 90.22 90.32 90.39 90.64 90.75 90.59 89.94 88.38 88.86 90.88 91.43 91.38 94.14 94.38 94.79 95.08 96.77 97.15 97.19 97.39 97.49 97.66 97.85 98.04 98.07 98.29 98.52 98.73 98.82 99.01 99.27 99.44 99.66 99.83 99.79 99.74 99.67 99.57 99.75 99.72 99.60 99.56 99.76 100.07 99.98 100.14 100.95 100.10
89.88 90.00 90.18 90.24 90.60 90.66 90.72 90.88 91.10 91.12 90.91 90.64 91.12 91.81 92.41 93.24 94.07 94.25 94.78 95.41 96.41 96.99 97.29 97.36 97.17 97.39 97.90 98.11 98.16 98.52 98.81 98.99 99.39 99.52 99.51 99.76 99.84 99.85 99.82 99.78 99.75 99.78 99.86 99.99 99.90 99.98 99.97 101.11 100.62 101.39 101.44 100.35
90.53 90.32 90.25 90.54 90.65 90.92 91.03 91.12 91.44 91.74 91.48 91.66 92.10 92.65 93.10 93.36 92.66 93.99 94.74 97.07 97.10 97.41 97.46 97.57 97.72 97.77 98.10 98.21 98.46 98.72 98.83 99.13 99.64 99.55 99.54 99.78 99.52 99.61 99.71 99.76 99.82 99.85 99.93 98.97 99.51 100.29 101.22 101.38 101.31 101.46 101.49 101.00
90.33 90.35 90.51 90.61 90.79 91.15 91.36 91.43 91.74 92.00 91.94 92.08 92.82 93.22 93.53 93.29 93.45 94.31 96.93 96.98 96.90 97.12 97.25 97.26 97.45 97.80 97.86 98.07 98.47 98.54 98.75 98.95 99.12 99.60 99.60 99.79 99.92 99.91 99.96 99.92 99.99 100.26 100.07 100.14 98.74 101.39 101.44 101.52 101.43 101.43 101.61 100.76
90.33 90.71 90.73 90.77 91.04 91.35 91.62 91.79 91.82 92.38 92.55 92.48 93.28 93.53 93.66 93.78 94.03 96.58 96.83 96.93 96.99 97.10 97.03 97.11 97.36 97.41 97.66 98.02 98.46 98.56 98.95 99.14 99.71 99.78 99.76 99.74 99.95 99.88 99.83 100.04 100.08 100.40 100.22 100.89 100.33 101.40 101.52 101.47 101.45 101.23 101.28 101.10
90.48 90.71 90.99 91.05 91.36 91.44 91.83 92.24 92.41 92.75 92.92 93.09 93.34 93.67 93.83 94.17 94.20 96.63 96.85 96.92 96.96 97.00 95.17 97.00 97.26 97.70 98.10 98.38 98.56 98.71 98.91 99.31 99.67 99.83 100.10 100.35 100.58 100.35 100.33 100.17 100.18 100.40 100.40 101.10 101.09 100.93 100.78 100.74 101.32 101.32 101.21 101.39
90.40 91.51 91.33 91.43 91.59 91.43 92.03 92.62 92.99 93.38 93.18 93.07 93.62 93.61 93.91 94.12 95.28 96.82 96.89 96.93 96.95 96.99 97.12 97.12 97.31 97.91 98.23 98.30 98.57 98.64 98.91 99.36 99.86 100.22 99.96 100.28 100.39 99.13 100.24 100.34 100.29 100.46 100.54 100.68 100.79 100.82 100.88 100.91 101.41 101.36 101.14 101.42
90.65 92.64 91.70 91.73 91.86 92.08 92.59 93.15 93.42 93.58 93.71 93.27 93.51 93.87 94.32 94.26 96.35 96.89 96.94 96.96 96.96 96.97 96.91 97.07 97.32 97.98 98.47 98.93 99.62 99.46 99.52 99.22 99.59 100.08 99.99 100.63 100.61 100.59 100.06 100.43 100.34 100.51 100.66 100.69 100.81 100.89 100.97 101.04 101.12 101.20 101.13 101.27
90.58 92.79 92.73 92.83 92.77 92.45 93.54 93.69 93.78 94.01 94.19 93.64 93.84 94.20 94.53 94.40 96.65 96.93 97.00 97.01 97.02 96.83 96.82 97.08 97.35 97.07 99.01 99.63 99.65 99.86 99.65 99.32 99.27 100.20 100.10 99.86 99.92 100.09 100.21 100.28 100.32 100.46 100.40 100.50 100.87 100.94 100.94 100.98 101.16 101.21 101.16 101.38
90.59 91.03 93.19 93.02 93.14 93.41 93.70 93.69 94.19 94.20 94.62 95.51 95.50 95.47 94.72 94.65 96.94 97.08 97.02 97.68 96.90 96.76 96.81 97.08 97.39 98.16 99.70 99.93 99.33 98.76 98.61 98.83 99.10 99.32 99.72 99.96 100.09 100.14 100.13 100.44 100.62 100.61 100.63 100.72 100.71 100.73 100.80 100.92 101.01 101.07 101.14 101.29
90.60 90.89 93.12 93.19 93.19 92.71 93.38 93.46 94.18 94.39 95.00 95.52 95.78 95.53 94.74 94.92 96.82 97.35 96.96 97.17 97.34 97.02 97.09 97.46 97.53 97.64 97.84 97.93 98.07 98.44 98.71 98.90 99.43 98.43 99.69 100.22 100.26 100.34 100.25 100.64 100.57 100.93 101.01 100.98 100.99 101.20 101.08 101.29 101.16 101.45 101.53 101.37
90.71 90.97 92.93 93.12 93.12 92.99 93.00 93.33 94.18 94.61 95.24 95.34 95.40 95.50 94.84 95.24 95.89 96.29 96.49 96.65 96.93 97.12 97.23 97.40 97.71 98.20 98.08 98.20 98.32 98.90 98.80 97.64 99.40 97.56 99.59 100.18 100.29 100.35 100.29 100.62 100.71 101.06 101.11 101.25 101.17 101.52 101.16 101.15 100.89 100.79 101.60 101.55
90.86 90.93 92.38 93.09 93.07 93.11 93.12 93.17 94.37 94.96 94.79 94.74 94.71 94.89 95.05 95.51 95.93 96.26 96.43 97.41 97.65 97.54 97.72 97.56 97.72 97.62 97.99 98.15 98.50 98.78 99.74 100.12 100.12 99.61 100.25 100.28 100.29 100.35 100.51 100.57 100.68 100.88 100.93 101.66 101.27 101.31 101.27 101.25 101.25 101.40 101.47 101.75
90.63 90.82 91.48 92.48 93.12 93.63 94.00 93.61 93.76 94.07 94.51 95.04 94.99 94.95 95.16 95.77 96.14 96.59 96.72 97.35 97.40 97.36 97.49 97.35 97.49 97.39 97.60 97.99 98.72 99.11 99.48 99.70 99.76 100.00 100.10 100.31 100.34 100.42 100.54 100.49 100.70 100.95 100.82 101.84 101.22 101.35 102.29 102.03 101.96 102.20 101.55 101.79
91.62 90.92 90.99 91.43 93.17 93.46 93.91 93.69 93.36 93.74 94.64 95.74 95.07 94.90 96.24 96.47 97.21 97.86 97.17 97.35 97.13 97.28 97.17 97.25 97.43 97.55 98.45 98.39 99.07 99.28 99.71 100.00 100.10 100.07 100.13 100.35 100.44 100.59 100.55 100.62 100.76 100.78 100.87 101.00 101.16 101.38 101.79 101.80 101.75 101.71 101.72 101.80
92.48 91.61 91.07 91.25 91.58 92.68 93.32 93.63 92.99 93.77 94.90 94.98 94.68 95.93 96.52 96.40 96.81 97.69 98.09 97.12 97.12 97.27 97.46 97.89 98.79 98.92 98.68 98.24 99.03 99.47 99.83 100.08 100.18 100.20 100.28 100.47 100.55 100.63 100.65 100.62 100.76 100.92 100.92 101.04 101.13 101.46 102.00 101.88 101.83 101.93 101.76 102.00
93.44 92.33 91.34 91.88 91.70 91.72 92.02 92.70 92.83 93.85 94.39 94.35 94.62 96.28 96.18 96.31 96.82 98.04 98.06 97.42 97.79 97.96 100.47 100.47 100.86 99.87 99.39 98.83 98.96 99.65 99.75 100.06 100.15 100.28 100.39 100.61 100.80 100.79 100.69 100.75 100.88 100.91 100.95 101.00 101.21 101.40 101.42 101.64 101.56 101.64 101.71 101.80
94.43 94.20 93.01 92.66 92.51 92.45 92.26 92.53 93.01 93.51 93.84 94.21 96.18 96.32 96.25 96.37 96.81 98.19 98.81 97.82 99.25 100.32 100.93 100.47 100.56 100.48 100.34 99.77 99.67 99.85 99.81 100.07 100.13 100.25 100.34 100.64 100.89 100.91 100.85 100.84 100.92 100.93 101.15 101.28 101.38 101.34 101.51 101.68 101.84 101.92 102.28 102.64
94.35 94.50 94.53 94.00 93.01 92.92 92.94 93.05 93.24 93.56 93.82 94.29 97.61 97.31 97.69 97.65 97.68 97.78 97.88 98.15 98.94 100.25 100.46 100.46 100.44 101.23 100.44 100.12 99.61 99.88 99.84 100.04 100.63 100.21 100.41 100.61 100.90 100.94 100.96 100.95 101.02 101.13 101.44 101.30 101.66 101.85 102.03 102.03 101.91 102.03 102.32 102.38
94.49 94.34 94.79 94.95 94.54 93.40 93.08 93.04 93.72 93.66 93.82 96.17 97.29 97.28 97.59 97.83 97.81 97.82 98.59 98.51 98.75 100.21 100.47 100.76 101.29 100.88 100.46 99.93 99.45 99.79 99.94 100.09 100.33 100.57 100.69 100.68 100.96 101.05 101.11 101.21 101.35 101.45 101.57 101.74 101.86 101.95 102.24 101.98 102.21 102.14 102.32 102.27
94.21 94.33 94.91 95.19 95.18 94.01 93.20 92.96 93.44 93.59 93.77 96.71 97.33 97.24 97.64 97.76 97.85 97.84 98.39 98.93 98.99 100.10 100.27 100.36 100.21 100.18 99.97 99.62 99.50 99.67 100.05 100.23 100.35 100.50 101.58 101.00 101.14 101.35 101.37 101.31 101.37 101.38 101.90 101.61 101.93 101.90 101.96 101.97 102.07 102.01 101.95 102.09
94.57 94.94 95.15 95.86 95.90 95.69 94.47 93.35 93.57 93.43 94.77 97.10 97.03 97.23 97.81 97.67 97.90 98.15 97.94 99.11 99.18 99.38 99.51 99.81 99.80 99.70 99.51 99.53 99.58 99.71 100.37 100.11 100.45 100.63 100.92 100.96 101.47 101.72 101.31 101.27 101.50 101.57 102.52 101.67 101.75 102.17 101.79 101.72 101.98 102.03 102.25 102.28
94.88 95.08 95.24 95.43 95.82 95.68 95.24 93.93 93.58 93.24 95.72 97.01 97.26 96.71 97.19 97.56 97.94 98.33 98.74 99.34 99.25 99.45 99.47 99.44 99.71 99.58 99.53 99.47 99.93 99.87 100.19 100.21 100.61 100.65 100.93 101.03 101.62 101.79 101.29 101.22 101.31 101.53 101.58 101.44 101.49 101.69 101.85 102.04 102.18 102.29 102.31 102.19
95.00 95.15 95.59 95.51 95.71 95.82 94.68 94.24 93.43 93.13 96.12 97.59 97.31 96.44 96.94 97.44 97.96 98.50 99.53 99.31 99.26 99.41 99.54 99.64 99.53 99.51 99.54 100.20 100.27 100.27 100.27 100.18 100.66 100.63 100.82 100.94 101.10 101.32 101.05 101.06 101.23 101.33 101.43 101.59 101.51 102.00 101.90 102.08 102.24 102.38 102.26 102.16
94.73 95.20 95.66 95.82 96.22 96.12 94.64 94.11 93.29 93.06 95.83 98.14 97.25 96.61 96.63 97.32 97.98 98.65 99.26 99.42 99.24 99.43 99.57 99.66 99.77 99.54 99.54 100.70 100.51 100.62 100.35 100.27 100.47 100.53 100.67 100.64 100.71 100.89 100.98 101.48 101.40 101.51 101.54 102.01 101.49 102.07 101.82 101.99 102.37 102.42 102.38 102.43
94.75 95.31 95.80 95.97 96.08 96.21 94.36 94.13 93.96 93.04 95.03 97.66 97.11 97.67 97.73 97.55 97.96 98.51 98.93 99.29 99.24 99.35 99.54 99.65 99.65 99.96 100.10 100.24 100.93 100.99 101.01 100.38 100.39 100.57 100.67 100.92 101.23 101.40 101.45 101.61 101.33 101.35 101.43 101.43 101.56 101.85 101.88 102.04 102.08 102.41 102.50 102.53
95.29 95.15 95.58 95.79 95.92 96.23 96.07 94.44 93.97 93.05 94.45 97.30 97.15 98.02 98.11 97.89 97.87 98.42 99.06 99.15 99.22 99.21 99.46 99.51 99.51 99.74 100.17 100.31 100.37 101.00 101.00 100.83 100.41 100.78 100.90 100.76 101.17 101.88 101.23 101.17 101.22 101.20 101.32 101.49 101.53 101.95 101.84 101.98 102.11 102.35 102.38 102.51
95.30 95.12 95.47 95.74 96.11 96.45 96.27 94.65 94.11 93.10 93.83 96.72 96.94 97.86 98.22 98.07 97.99 98.33 98.96 99.11 99.19 99.17 99.08 99.24 99.37 99.58 99.83 100.31 100.36 101.49 100.86 100.57 100.44 100.78 100.93 100.81 100.73 100.93 101.07 101.08 101.17 101.13 101.31 101.48 101.54 101.62 101.86 101.85 102.00 102.16 102.36 102.30
95.54 95.35 95.43 96.24 96.46 96.55 96.64 94.52 94.39 93.37 93.52 97.12 97.15 97.81 98.06 98.16 98.36 98.50 98.72 99.05 99.11 99.24 99.29 99.42 99.26 99.47 99.81 100.07 100.21 100.48 100.58 100.71 100.52 100.65 100.65 100.73 100.84 100.97 101.06 101.15 101.18 101.22 101.29 101.49 101.53 101.76 101.81 101.92 102.06 102.18 102.35 102.39
95.53 95.42 95.28 95.39 96.27 95.24 96.84 97.10 97.38 93.54 93.33 96.66 97.60 97.87 98.06 98.14 98.24 98.36 98.50 98.88 99.17 99.23 99.33 99.48 99.68 99.43 99.95 100.09 100.17 100.41 100.54 100.53 100.62 100.51 100.71 101.08 100.84 101.03 100.93 101.10 101.12 101.21 101.43 101.46 101.56 101.82 101.86 101.84 101.97 101.91 102.01 102.12
93.83 94.82 95.06 95.04 95.39 96.60 96.93 97.44 97.54 94.19 93.49 95.36 97.75 97.75 97.85 98.09 98.21 98.28 98.44 98.79 99.09 99.06 99.29 99.51 99.67 99.52 99.75 99.84 99.96 100.08 100.28 100.51 100.70 100.49 100.97 101.22 100.89 100.76 100.76 101.03 101.11 101.06 101.38 101.68 101.68 101.74 101.57 101.67 101.82 102.03 102.33 102.19
92.60 94.05 94.49 95.21 95.46 96.42 97.18 97.55 97.52 96.06 93.68 94.36 97.91 97.84 97.97 98.06 98.09 98.19 98.35 98.62 99.00 98.93 99.00 99.52 99.61 99.69 99.54 99.72 100.12 100.13 100.28 100.66 100.82 100.41 100.46 100.60 100.61 100.61 100.62 100.97 101.06 101.08 101.08 101.20 101.36 101.51 101.62 101.75 101.89 101.95 102.11 102.24
93.16 94.02 95.55 95.91 95.49 96.06 97.28 97.31 97.62 97.45 93.95 93.88 97.91 98.02 98.06 98.15 98.30 98.25 98.43 99.17 99.18 99.25 99.29 99.50 99.51 99.63 99.54 99.58 99.93 100.06 100.58 101.02 100.63 100.41 100.45 100.57 100.70 100.70 100.56 100.73 100.82 100.87 100.96 101.14 101.21 101.23 101.50 101.79 101.73 102.11 102.21 102.35
93.79 94.64 95.61 95.77 96.07 96.06 96.82 97.37 97.63 97.67 94.65 94.12 97.51 98.04 98.18 98.38 98.38 98.59 99.76 99.51 99.22 99.40 99.27 99.35 99.51 99.46 99.68 99.49 99.63 99.24 100.33 101.03 100.89 100.38 100.36 100.72 100.70 100.49 100.57 100.76 101.38 101.12 100.99 101.14 101.25 101.32 101.58 101.76 101.80 102.27 102.40 102.36
93.65 94.54 95.08 95.79 96.06 96.12 96.74 97.35 97.63 97.58 96.41 94.47 95.32 98.26 97.98 98.26 98.55 98.58 98.65 99.41 98.95 99.05 99.12 99.13 99.33 99.28 99.24 99.36 99.39 98.97 99.27 100.02 100.62 100.50 100.27 100.29 100.47 100.61 100.65 100.83 101.09 101.37 101.29 101.05 101.19 101.35 101.54 101.66 101.94 102.29 102.36 102.38
93.76 94.25 95.28 96.23 95.94 96.29 96.62 97.47 97.65 97.58 96.91 94.89 94.68 98.44 98.10 98.21 98.53 98.38 98.54 98.60 98.85 98.92 98.85 98.94 99.04 99.24 99.31 99.36 99.50 99.77 99.53 98.85 99.32 100.02 100.16 100.53 100.40 100.62 100.70 100.81 101.04 101.49 101.39 100.83 101.23 101.34 101.52 101.61 102.01 102.29 102.31 102.47
93.57 94.21 95.59 96.66 96.47 96.40 96.83 97.65 97.69 97.68 97.32 95.85 94.96 98.21 98.63 98.71 98.70 98.41 98.56 98.58 98.66 98.95 99.17 99.21 99.21 99.30 99.35 99.37 99.59 99.82 99.61 99.66 98.67 99.94 100.28 100.24 100.39 100.19 100.18 100.49 100.97 101.35 101.45 100.89 101.07 101.49 101.65 101.95 102.26 102.40 102.60 102.56
93.54 94.32 97.09 96.91 96.53 96.65 97.07 97.46 97.63 97.67 97.63 96.85 95.44 96.23 98.67 98.88 98.84 98.62 98.68 98.88 99.13 99.28 99.35 99.35 99.20 99.27 99.25 99.40 99.56 99.52 99.56 99.64 99.18 99.83 100.77 99.98 100.16 100.23 100.31 100.47 100.92 101.34 101.35 101.13 101.35 101.67 101.87 102.01 102.04 102.12 102.29 102.35
93.55 94.93 96.87 96.68 96.51 96.84 97.02 97.24 97.61 97.66 97.67 97.60 95.73 95.54 98.55 98.80 98.90 98.78 98.82 98.84 99.16 99.33 99.54 99.39 99.29 99.54 99.61 99.50 99.29 99.55 99.63 99.62 99.74 100.15 100.69 99.96 100.13 100.21 100.45 100.40 100.94 101.21 101.71 101.42 100.97 101.44 101.66 101.72 101.91 102.20 102.17 102.24
91.26 94.33 95.04 95.49 95.84 96.18 96.84 97.27 97.71 97.85 97.78 97.63 97.13 95.86 98.28 98.57 98.90 98.81 98.71 98.83 98.97 99.07 99.47 99.22 99.45 99.56 99.53 99.32 99.17 99.50 99.53 99.67 99.75 99.90 99.97 99.92 100.19 100.35 100.48 100.43 100.68 101.24 102.01 101.53 101.01 101.46 101.82 101.54 101.68 101.79 102.02 102.13
92.49 92.99 94.38 95.23 95.51 95.67 96.26 97.11 97.58 97.85 97.89 97.74 97.44 96.33 96.93 98.97 98.92 98.84 98.96 98.96 99.07 99.12 99.29 99.43 99.44 99.43 99.35 99.40 99.21 99.54 99.71 99.76 99.75 99.76 99.81 100.06 99.88 100.34 100.42 100.46 100.39 101.01 101.19 101.20 101.02 101.10 101.32 101.46 101.67 102.17 102.29 102.56
92.65 92.80 93.76 95.04 95.35 95.42 95.64 96.49 97.27 97.84 97.89 98.00 97.51 96.69 96.46 98.67 99.08 99.10 99.09 99.16 99.14 99.19 99.26 99.44 99.62 99.33 99.32 99.57 99.23 99.53 99.81 99.75 99.72 99.78 99.88 99.94 99.77 100.14 100.42 100.43 100.46 100.51 100.62 100.82 101.08 101.39 101.57 101.79 101.90 102.38 102.58 102.69
92.83 92.88 91.71 94.46 95.07 95.32 95.41 96.03 96.81 97.34 97.71 97.96 97.51 97.23 96.73 98.73 98.71 98.88 99.07 98.86 98.90 99.31 99.27 99.09 99.19 99.25 99.44 99.25 99.14 99.07 99.42 99.76 99.77 99.67 99.97 99.94 99.74 99.81 99.92 100.10 100.28 100.71 101.18 101.27 101.53 101.39 101.96 102.11 102.06 102.40 102.75 102.79
92.75 92.82 92.93 93.04 94.67 95.15 95.33 95.56 96.30 96.86 97.12 97.35 97.42 97.25 96.96 97.23 98.62 98.63 98.86 98.82 98.90 98.97 99.02 98.75 99.10 99.02 99.40 99.39 99.31 98.97 99.67 99.78 99.72 99.39 99.51 99.61 99.65 99.81 100.24 100.39 100.52 100.90 101.31 101.45 101.31 101.63 101.94 102.37 102.42 102.33 102.51 102.71
