ncols 52
nrows 52
xllcorner 442880
yllcorner 5715456
cellsize 10
NODATA_value -9999
97.44 97.01 96.00 96.60 96.45 96.47 96.31 96.26 96.19 96.14 96.09 96.04 96.02 95.96 95.92 95.89 95.85 95.82 95.84 95.85 95.76 95.65 95.58 95.55 95.55 95.51 95.44 95.34 95.22 95.18 95.18 95.18 95.18 95.33 95.05 94.91 94.82 94.59 94.40 94.17 94.04 93.87 93.74 93.53 93.36 93.15 92.93 92.76 92.62 92.51 92.48 92.42
97.07 96.68 96.17 96.62 96.55 96.46 96.40 96.36 96.30 96.24 96.20 96.14 96.12 96.05 96.00 95.94 95.91 95.90 95.94 95.97 95.90 95.75 95.66 95.62 95.59 95.54 95.47 95.41 95.35 95.28 95.24 95.23 95.21 95.19 94.99 95.17 94.96 94.69 94.43 94.25 94.08 93.95 93.80 93.61 93.38 93.13 92.96 92.77 92.61 92.51 92.48 92.31
97.04 96.09 96.72 96.69 96.64 96.56 96.53 96.47 96.43 96.33 96.29 96.22 96.18 96.08 96.02 95.96 95.93 95.93 96.03 96.09 96.04 95.89 95.77 95.71 95.68 95.64 95.55 95.50 95.43 95.36 95.25 95.26 95.18 95.29 95.35 95.34 95.17 94.79 94.52 94.32 94.17 94.06 93.89 93.67 93.44 93.20 93.00 92.86 92.72 92.60 92.64 91.86
97.36 96.20 96.82 96.79 96.72 96.68 96.64 96.57 96.50 96.40 96.32 96.25 96.17 96.12 96.06 96.02 96.00 96.02 96.09 96.17 96.14 95.98 95.87 95.78 95.77 95.75 95.66 95.63 95.54 95.44 95.35 95.26 95.24 95.27 95.27 95.37 95.18 94.86 94.61 94.45 94.33 94.17 94.00 93.76 93.53 93.29 93.07 92.91 92.78 92.65 92.51 92.12
96.16 96.46 96.88 96.82 96.78 96.71 96.69 96.60 96.52 96.44 96.35 96.32 96.26 96.18 96.14 96.09 96.07 96.06 96.11 96.19 96.20 96.05 95.93 95.90 95.88 95.85 95.79 95.73 95.63 95.54 95.44 95.37 95.27 95.32 95.33 95.29 94.93 95.01 94.68 94.53 94.38 94.18 94.00 93.79 93.55 93.35 93.16 93.00 92.88 92.79 91.81 92.15
96.07 97.00 96.88 96.81 96.73 96.71 96.67 96.66 96.60 96.54 96.49 96.42 96.33 96.25 96.18 96.13 96.10 96.09 96.15 96.22 96.27 96.15 96.04 96.00 96.00 95.93 95.87 95.80 95.73 95.63 95.54 95.48 95.43 95.42 95.35 95.28 95.26 95.21 94.89 94.60 94.42 94.20 93.96 93.75 93.52 93.31 93.13 92.98 92.89 92.86 92.08 92.15
96.17 96.66 96.86 96.79 96.71 96.74 96.73 96.72 96.70 96.65 96.56 96.47 96.39 96.30 96.22 96.18 96.17 96.13 96.19 96.28 96.29 96.21 96.14 96.10 96.07 96.05 96.02 95.92 95.83 95.74 95.62 95.57 95.51 95.42 95.42 95.25 95.11 95.21 94.95 94.62 94.46 94.21 93.97 93.75 93.52 93.31 93.13 93.00 92.96 92.20 92.19 92.03
96.92 97.00 96.83 96.73 96.68 96.74 96.75 96.80 96.80 96.75 96.64 96.54 96.45 96.35 96.26 96.21 96.16 96.13 96.19 96.31 96.42 96.37 96.26 96.20 96.17 96.12 96.06 95.99 95.88 95.75 95.68 95.61 95.59 95.50 95.36 95.21 95.15 94.99 94.86 94.82 94.40 94.22 94.00 93.79 93.58 93.38 93.18 93.03 92.98 92.15 92.24 92.04
97.04 97.03 96.79 96.67 96.67 96.72 96.81 96.89 96.89 96.82 96.67 96.53 96.42 96.34 96.30 96.24 96.22 96.21 96.28 96.39 96.48 96.44 96.29 96.21 96.17 96.12 96.09 96.03 95.96 95.86 95.78 95.69 95.64 95.54 95.38 95.23 95.10 95.07 95.15 94.89 94.49 94.24 94.00 93.78 93.57 93.35 93.17 93.01 92.98 92.33 92.19 92.06
97.00 97.03 96.76 96.67 96.71 96.69 96.76 96.85 96.88 96.81 96.66 96.57 96.49 96.43 96.38 96.33 96.35 96.29 96.33 96.41 96.51 96.46 96.35 96.25 96.24 96.21 96.15 96.08 96.00 95.89 95.79 95.70 95.60 95.53 95.40 95.25 95.13 94.99 94.94 95.02 94.62 94.15 93.94 93.71 93.44 93.29 93.15 93.01 92.36 92.43 92.12 92.03
96.97 96.96 96.76 96.65 96.68 96.65 96.74 96.85 96.88 96.85 96.74 96.65 96.59 96.52 96.44 96.40 96.36 96.37 96.41 96.49 96.61 96.60 96.44 96.33 96.26 96.22 96.15 96.09 96.00 95.92 95.83 95.76 95.68 95.60 95.49 95.32 95.20 94.97 94.93 94.82 94.67 94.33 94.18 93.87 93.58 93.32 93.28 93.04 92.54 92.42 92.14 92.05
97.08 97.01 96.73 96.67 96.68 96.65 96.72 96.83 96.91 96.90 96.78 96.71 96.65 96.59 96.56 96.51 96.49 96.46 96.48 96.57 96.69 96.70 96.56 96.36 96.28 96.27 96.21 96.19 96.12 96.03 95.96 95.86 95.78 95.65 95.52 95.35 95.15 95.02 95.05 94.79 94.53 95.13 96.89 96.99 93.54 93.27 93.11 92.76 92.82 92.44 92.36 92.27
97.63 97.12 96.75 96.66 96.66 96.58 96.67 96.81 96.95 96.96 96.88 96.79 96.74 96.67 96.62 96.58 96.57 96.54 96.55 96.61 96.78 96.81 96.67 96.46 96.37 96.38 96.33 96.28 96.18 96.09 96.00 95.90 95.79 95.68 95.54 95.40 95.21 95.01 94.82 94.61 94.51 94.42 97.63 94.07 93.63 93.35 93.20 92.68 92.65 92.58 92.50 92.27
97.06 96.95 96.70 96.65 96.65 96.60 96.68 96.85 96.97 96.99 96.91 96.83 96.78 96.75 96.71 96.68 96.64 96.66 96.67 96.72 96.84 96.88 96.74 96.52 96.41 96.41 96.37 96.26 96.20 96.12 96.04 95.95 95.85 95.72 95.53 95.34 95.19 95.06 94.88 94.75 94.67 93.99 95.25 94.67 93.63 94.05 93.22 92.81 92.76 92.65 92.53 92.34
97.02 96.82 96.61 96.57 96.62 96.57 96.67 96.82 96.95 96.98 96.94 96.89 96.84 96.86 96.83 96.82 96.77 96.74 96.71 96.71 96.79 96.84 96.73 96.57 96.47 96.45 96.40 96.31 96.23 96.13 96.05 95.99 95.92 95.83 95.69 95.51 95.32 95.14 94.93 94.76 94.75 94.26 93.87 93.85 93.68 93.57 93.25 93.10 92.83 92.71 92.59 92.38
97.16 96.93 96.52 96.45 96.54 96.50 96.62 96.78 96.95 97.02 97.02 96.98 96.95 96.98 96.95 96.92 96.85 96.79 96.77 96.77 96.82 96.82 96.74 96.61 96.51 96.41 96.39 96.37 96.35 96.30 96.25 96.15 96.03 95.91 95.77 95.60 95.41 95.20 95.00 94.81 94.66 94.55 93.48 93.68 93.45 93.44 93.28 92.89 92.68 92.58 92.40 92.24
97.07 97.00 96.47 96.38 96.44 96.46 96.60 96.75 96.91 97.01 97.02 97.04 97.08 97.10 97.12 97.07 96.99 96.93 96.88 96.84 96.81 96.76 96.75 96.73 96.64 96.57 96.46 96.40 96.38 96.36 96.31 96.21 96.09 95.94 95.79 95.64 95.43 95.22 95.00 94.74 94.58 94.52 93.54 93.49 93.29 93.14 93.02 92.75 92.57 92.10 91.89 91.58
96.86 96.79 96.46 96.37 96.47 96.41 96.58 96.74 96.89 97.00 97.05 97.10 97.17 97.24 97.27 97.18 97.06 97.01 97.00 96.97 96.93 96.87 96.80 96.72 96.62 96.56 96.48 96.44 96.41 96.39 96.36 96.28 96.14 96.00 95.85 95.68 95.50 95.28 95.07 94.80 94.60 94.44 94.16 93.12 93.21 93.14 92.73 92.71 92.57 92.43 92.21 91.82
96.93 96.76 96.44 96.36 96.36 96.51 96.66 96.82 96.96 97.04 97.05 97.06 97.19 97.36 97.47 97.39 97.25 97.11 97.04 96.99 96.95 96.91 96.83 96.73 96.67 96.61 96.56 96.51 96.50 96.49 96.46 96.38 96.26 96.11 95.94 95.75 95.53 95.32 95.07 94.80 94.57 94.31 94.24 92.94 93.26 93.14 92.75 92.44 92.74 92.57 92.36 91.82
96.71 96.83 96.39 96.43 96.37 96.50 96.62 96.78 96.95 97.08 97.17 97.21 97.29 97.43 97.54 97.48 97.32 97.21 97.11 97.06 97.03 96.97 96.90 96.82 96.75 96.68 96.64 96.62 96.62 96.63 96.56 96.45 96.32 96.16 95.97 95.76 95.53 95.27 95.00 94.74 94.47 94.29 94.22 93.77 93.03 93.07 92.71 92.45 92.68 92.54 92.65 92.07
96.72 96.74 96.43 96.35 96.43 96.57 96.73 96.85 96.99 97.11 97.19 97.26 97.32 97.46 97.58 97.55 97.42 97.27 97.19 97.13 97.07 97.02 96.99 96.91 96.86 96.79 96.75 96.75 96.74 96.72 96.65 96.51 96.32 96.12 95.93 95.70 95.46 95.21 94.97 94.71 94.45 94.29 94.19 93.97 92.79 93.08 92.49 92.44 92.63 92.34 92.27 91.74
96.71 96.69 96.48 96.34 96.47 96.62 96.75 96.89 97.00 97.12 97.23 97.28 97.36 97.48 97.60 97.58 97.45 97.33 97.26 97.21 97.15 97.09 97.07 97.01 96.97 96.93 96.86 96.84 96.80 96.76 96.68 96.52 96.32 96.10 95.88 95.65 95.38 95.14 94.90 94.68 94.46 94.27 94.17 94.01 92.61 92.99 92.27 92.48 92.46 92.18 91.85 91.54
96.49 96.71 96.53 96.36 96.48 96.64 96.80 96.90 97.03 97.15 97.25 97.32 97.40 97.50 97.62 97.65 97.51 97.40 97.32 97.27 97.23 97.18 97.13 97.08 96.99 96.94 96.90 96.87 96.84 96.82 96.71 96.51 96.33 96.10 95.88 95.65 95.42 95.19 94.99 94.75 94.56 94.33 94.16 94.01 92.63 92.64 92.24 92.21 92.37 91.68 91.44 91.26
96.49 96.66 96.56 96.41 96.51 96.64 96.78 96.93 97.07 97.20 97.32 97.41 97.49 97.57 97.71 97.77 97.64 97.47 97.38 97.29 97.22 97.18 97.15 97.10 97.04 96.97 96.92 96.90 96.92 96.89 96.83 96.65 96.43 96.21 96.00 95.75 95.51 95.28 95.03 94.82 94.60 94.60 93.52 92.54 92.45 92.57 92.47 92.19 92.18 92.35 92.34 92.06
96.50 96.64 96.58 96.43 96.57 96.69 96.83 96.98 97.14 97.30 97.44 97.53 97.55 97.62 97.73 97.77 97.64 97.50 97.37 97.30 97.26 97.23 97.20 97.18 97.13 97.08 97.04 97.01 97.02 97.04 96.97 96.80 96.61 96.29 96.08 96.09 95.39 95.43 95.23 94.55 93.67 93.08 92.90 92.80 93.37 92.49 92.52 92.48 92.50 92.77 92.79 92.55
96.50 96.75 96.62 96.51 96.62 96.79 96.94 97.10 97.25 97.39 97.49 97.54 97.55 97.60 97.70 97.79 97.72 97.57 97.46 97.39 97.35 97.32 97.29 97.27 97.24 97.19 97.15 97.17 97.19 97.20 97.19 97.56 97.65 97.58 96.23 96.15 95.78 95.45 94.46 94.05 93.68 93.40 93.25 93.35 93.39 92.39 92.38 92.37 92.46 92.44 92.63 92.25
96.73 96.86 96.71 96.62 96.75 96.86 96.98 97.15 97.30 97.40 97.48 97.51 97.52 97.60 97.74 97.86 97.84 97.66 97.52 97.47 97.44 97.43 97.40 97.50 97.40 97.33 97.80 97.77 97.75 97.73 97.68 97.71 97.63 97.61 96.37 96.19 95.79 95.38 94.77 94.56 94.49 93.57 93.52 93.51 93.61 92.31 92.43 92.48 92.43 92.46 92.32 92.35
96.80 97.10 96.81 96.68 96.78 96.92 97.03 97.16 97.30 97.42 97.51 97.56 97.61 97.65 97.78 97.93 97.95 97.82 97.76 97.65 97.63 97.98 98.06 98.06 97.94 97.57 98.07 97.91 97.76 97.61 97.64 97.63 97.63 97.40 96.53 96.17 95.83 95.50 95.07 94.54 94.54 93.72 93.49 93.49 93.72 92.27 92.53 92.44 92.83 92.34 92.29 91.57
96.75 97.18 96.92 96.75 96.86 96.97 97.12 97.22 97.35 97.43 97.53 97.60 97.68 97.75 97.90 98.04 98.15 98.41 98.49 98.47 98.37 98.33 98.21 98.06 98.02 97.78 98.11 97.88 97.70 97.56 97.49 97.38 97.39 97.11 96.98 96.12 95.62 95.50 95.17 95.22 95.28 93.74 93.47 93.48 93.44 92.25 92.75 92.73 92.75 92.24 92.00 91.43
96.50 97.22 97.03 96.85 96.92 97.07 97.21 97.31 97.42 97.52 97.60 97.77 98.12 98.32 98.44 98.48 98.75 98.68 98.70 98.66 98.46 98.43 98.36 97.90 97.95 98.04 97.93 97.75 97.60 97.62 97.61 97.61 97.37 97.27 97.19 96.08 95.58 95.34 95.20 95.28 95.22 93.60 93.25 92.91 92.43 92.24 92.71 92.69 92.42 92.12 92.04 92.16
96.85 97.24 97.09 96.96 97.02 97.18 97.32 97.46 97.47 97.61 97.71 97.77 98.08 98.45 98.52 98.37 98.76 98.71 98.66 98.58 98.40 98.32 98.26 98.17 98.11 98.17 97.83 97.76 97.71 97.69 97.58 97.65 97.38 97.40 97.44 96.06 95.82 95.61 95.26 95.28 95.32 93.28 93.32 92.86 92.36 92.24 92.83 92.89 92.56 92.31 92.23 92.10
96.89 97.25 97.11 97.16 97.11 97.28 97.43 97.51 97.63 97.77 97.91 97.75 97.78 98.49 98.54 98.65 98.66 98.62 98.54 98.63 98.65 98.48 98.35 98.28 98.24 98.10 97.98 97.86 97.91 97.73 97.60 97.54 97.43 97.44 97.46 95.99 95.78 95.75 95.32 95.43 95.26 93.34 93.17 91.97 92.37 92.24 92.77 92.66 92.34 92.18 92.01 91.51
96.74 96.94 97.36 97.18 97.30 97.50 97.47 97.53 97.65 97.72 97.80 97.81 97.90 98.22 98.40 98.78 98.89 98.77 98.75 98.59 98.66 98.46 98.45 98.40 98.29 98.24 98.28 98.22 98.18 97.71 97.64 97.60 97.46 97.59 97.57 95.79 95.88 95.54 95.44 95.46 95.32 93.39 93.18 93.03 92.49 92.32 92.65 92.52 92.26 91.93 91.75 91.10
96.08 97.08 97.44 97.21 97.32 97.29 97.44 97.57 97.68 98.02 97.81 97.86 98.10 98.25 98.82 99.05 99.00 98.77 98.76 98.60 98.61 98.51 98.57 98.49 98.46 98.40 98.31 98.22 98.17 97.71 97.69 97.59 97.49 97.62 97.65 95.81 95.77 95.52 95.54 95.59 95.43 93.38 93.31 92.54 92.44 92.34 92.93 92.95 92.87 91.88 91.69 91.13
97.13 97.36 97.52 97.36 97.32 97.46 97.50 97.58 97.71 97.98 97.79 97.88 98.12 98.01 98.81 98.90 98.98 98.86 98.76 99.28 99.06 99.09 99.05 98.61 98.50 98.43 98.34 98.35 98.18 97.69 97.76 97.62 97.50 97.56 97.33 95.83 95.80 95.53 95.55 95.60 95.33 93.23 93.07 91.11 92.39 92.92 93.47 93.61 92.74 92.13 91.98 91.76
97.32 97.29 97.56 97.31 97.40 97.47 97.61 97.75 97.85 97.73 97.80 98.14 98.07 98.12 98.39 98.52 98.99 99.41 99.24 99.22 99.26 99.05 99.07 98.68 98.49 98.47 98.40 98.34 98.19 97.71 97.61 97.33 97.50 97.43 96.29 95.80 95.88 95.56 95.62 95.56 95.37 93.35 93.26 90.95 92.35 93.05 93.10 92.79 92.75 92.20 91.85 91.35
97.48 97.73 97.86 97.47 97.45 97.54 97.63 97.74 97.82 98.03 97.99 98.14 98.25 98.22 98.38 98.72 99.05 99.28 99.46 99.25 99.29 99.08 98.96 98.84 98.59 98.57 98.40 98.23 98.23 97.53 97.67 97.13 96.94 96.69 96.35 95.79 95.80 95.65 95.76 95.62 95.30 94.31 93.86 93.65 92.32 92.40 92.60 92.64 92.69 92.36 91.99 91.50
97.32 97.34 97.96 98.04 98.22 98.47 98.62 98.41 98.51 98.14 98.15 98.09 98.16 98.30 98.47 99.53 99.25 99.21 99.51 99.49 99.24 99.11 98.97 98.94 98.74 98.73 98.38 98.27 98.26 97.54 97.58 97.12 96.95 96.64 96.51 96.13 95.88 95.74 95.82 95.57 95.07 94.50 93.90 93.75 92.31 92.37 92.57 92.61 92.67 92.35 91.97 91.63
97.41 97.61 98.30 98.46 98.59 98.70 98.62 98.42 98.53 98.18 98.22 98.13 98.37 98.47 98.47 98.85 99.26 99.38 99.51 99.47 99.28 99.19 98.94 98.90 98.82 98.74 98.48 98.33 98.19 97.52 97.50 97.11 97.00 96.79 96.23 96.10 95.74 95.00 94.71 95.42 95.38 94.21 93.99 93.64 92.36 92.44 92.65 92.58 92.35 92.21 92.12 91.97
97.76 98.10 98.42 98.48 98.50 98.62 98.52 98.49 98.46 98.29 98.39 98.31 98.47 98.56 98.67 98.83 99.08 99.49 99.48 99.50 99.35 99.25 98.94 98.93 98.81 98.79 98.52 97.93 97.96 97.42 97.33 96.87 96.94 96.57 96.29 95.96 95.57 94.79 92.92 93.09 94.37 93.88 93.73 93.31 92.49 92.39 92.82 92.78 92.63 92.46 92.19 92.10
98.22 98.23 98.42 98.40 98.49 98.49 98.48 98.55 98.58 98.60 98.46 98.50 98.72 98.76 98.82 98.99 99.31 99.37 99.66 99.53 99.38 99.32 99.24 99.17 98.92 98.81 98.51 97.93 97.88 97.57 97.44 96.93 96.89 96.35 96.32 95.93 95.20 94.37 92.84 92.79 94.13 93.84 93.76 93.48 92.56 92.27 92.68 92.63 92.59 92.41 92.27 92.35
98.24 98.22 98.22 98.25 98.34 98.39 98.65 98.74 98.57 98.60 98.61 98.76 98.73 98.92 98.95 99.23 99.35 99.69 99.64 99.57 99.57 99.36 99.10 99.04 98.88 98.74 98.60 97.96 97.92 97.45 97.10 96.73 96.38 96.00 95.63 95.55 94.92 92.81 92.81 92.71 93.89 94.12 93.32 93.51 92.70 92.26 91.93 91.82 92.04 91.85 91.71 91.39
98.07 98.11 98.15 98.15 97.98 98.28 98.73 98.78 98.54 98.70 99.18 99.21 99.14 99.02 99.04 99.21 99.65 99.79 99.84 99.87 99.55 99.49 99.07 98.42 97.90 97.84 97.92 98.21 97.72 97.27 97.11 97.03 96.21 96.19 96.11 95.14 94.68 93.60 92.74 93.39 93.78 94.48 93.62 93.27 93.12 92.35 92.19 90.90 90.81 90.75 90.50 91.92
97.91 98.04 98.13 98.07 98.00 98.32 98.61 98.73 99.18 99.36 99.21 99.24 99.23 99.21 99.32 99.36 99.64 99.80 100.03 99.88 99.64 99.47 98.74 97.43 95.57 95.99 97.24 99.38 97.59 97.71 97.09 96.99 96.14 96.08 96.11 95.00 94.46 93.13 93.67 92.76 93.83 94.14 94.14 93.87 93.03 92.46 90.92 92.87 92.74 92.56 92.35 92.18
97.94 98.13 98.09 98.16 98.21 98.41 99.15 99.31 99.18 99.54 99.63 99.52 99.45 99.64 99.66 99.55 99.62 99.95 100.06 99.90 99.69 99.62 98.63 96.96 95.47 95.32 96.90 98.32 97.78 97.56 96.99 96.12 95.92 95.76 95.62 95.06 94.54 94.30 94.18 94.01 93.82 93.47 93.10 92.82 92.75 92.47 91.24 92.74 92.70 92.48 92.30 92.14
98.15 98.22 98.24 99.29 99.28 99.43 99.51 99.65 99.69 99.42 99.60 99.67 99.81 99.89 99.87 99.81 99.77 99.90 100.05 100.04 99.88 99.79 99.22 97.94 96.36 95.34 95.65 97.39 96.88 96.96 96.73 95.89 95.83 95.74 95.62 94.97 94.57 94.40 94.26 94.16 94.28 94.06 94.10 93.87 93.73 92.57 92.65 92.91 92.73 92.54 92.37 92.19
98.31 98.38 97.72 99.24 99.27 99.63 99.66 99.65 99.67 99.72 99.73 99.76 99.82 99.81 99.88 99.84 99.82 100.06 100.13 100.31 100.02 99.89 99.75 98.71 97.51 95.75 95.45 96.99 96.87 96.96 96.44 96.03 95.69 95.46 95.25 95.04 94.85 94.79 94.73 94.71 94.51 94.10 93.88 93.81 93.77 93.18 92.85 92.51 92.84 92.65 92.44 92.29
98.40 98.35 98.46 99.18 99.20 99.49 99.54 99.56 99.62 99.65 99.77 99.76 99.83 99.84 99.96 99.85 99.96 100.18 100.35 100.43 100.18 100.03 99.80 99.05 98.30 97.73 97.43 97.19 96.93 96.81 96.65 96.53 95.64 95.40 95.43 95.27 95.12 95.07 95.04 94.48 94.47 94.25 94.12 93.87 93.74 93.74 92.78 91.58 92.82 92.74 92.54 92.36
98.41 98.46 98.74 99.27 99.33 99.42 99.52 99.56 99.62 99.67 99.87 99.81 100.05 100.07 100.12 100.15 100.19 100.35 100.41 100.23 100.21 99.95 99.50 99.08 98.83 98.37 98.00 97.88 97.72 97.21 97.15 97.12 95.55 95.60 95.43 95.52 95.49 95.06 94.86 94.93 94.83 94.37 94.29 93.97 93.64 93.71 92.80 92.66 93.06 92.87 92.64 92.39
98.50 98.68 99.04 99.33 99.50 99.53 99.56 99.57 99.60 99.65 99.81 99.83 100.15 100.30 100.14 100.29 100.31 100.29 100.32 100.31 100.22 100.19 99.83 99.41 99.21 99.11 98.64 97.99 97.98 97.51 97.34 97.29 97.22 95.62 95.68 95.67 95.63 95.01 95.06 95.04 95.00 94.37 94.35 94.00 93.63 93.05 92.82 93.11 91.69 92.86 92.70 92.51
97.57 98.35 98.97 99.42 99.52 99.49 99.60 99.68 99.61 99.77 99.81 99.96 100.08 100.23 100.66 100.69 100.90 101.25 101.10 100.54 100.26 99.72 99.46 99.38 99.28 99.19 99.01 98.10 97.83 97.62 97.34 97.36 97.29 95.71 95.70 95.68 95.66 95.20 95.00 94.89 94.48 94.25 94.02 93.86 93.69 93.47 92.87 93.34 92.69 93.00 92.78 92.56
97.72 98.77 99.12 99.44 99.48 99.40 99.43 99.63 99.83 100.26 100.98 101.29 101.34 101.27 101.21 101.14 100.72 101.23 101.12 100.89 100.35 99.80 99.58 99.45 99.35 99.24 99.15 98.10 97.67 97.77 97.35 97.34 97.36 95.82 95.51 95.35 95.01 94.88 94.71 94.69 94.70 94.53 94.35 94.06 93.86 93.69 92.93 93.33 93.21 92.81 92.84 92.66
