ncols 52
nrows 52
xllcorner 442880
yllcorner 5713408
cellsize 10
NODATA_value -9999
110.28 110.22 110.25 110.45 110.72 110.94 111.17 111.35 111.51 111.68 111.86 112.06 112.22 112.33 112.40 112.45 112.52 112.61 112.66 112.64 112.52 112.32 112.00 111.60 111.03 110.52 110.07 109.71 109.82 105.59 108.67 109.48 109.88 110.69 112.24 112.32 112.56 112.79 112.96 113.04 113.17 113.25 113.54 114.28 115.18 115.67 115.82 114.99 115.18 115.37 115.49 115.60
110.60 110.54 110.44 110.54 110.74 111.01 111.25 111.46 111.64 111.83 112.02 112.22 112.39 112.52 112.57 112.63 112.71 112.78 112.80 112.79 112.70 112.49 112.14 111.71 111.15 110.62 110.18 109.85 109.90 105.49 108.61 109.88 110.26 111.60 112.53 112.62 113.27 113.76 114.40 114.91 115.23 114.96 115.17 115.47 115.84 115.57 115.64 115.35 115.47 115.61 115.75 115.85
110.82 110.74 110.68 110.65 110.83 111.05 111.34 111.59 111.75 111.98 112.15 112.35 112.55 112.66 112.70 112.74 112.86 112.92 112.95 112.91 112.80 112.58 112.23 111.81 111.23 110.73 110.32 110.02 109.56 105.61 109.45 109.87 110.78 112.17 112.82 113.17 113.84 114.15 114.89 115.07 115.10 115.00 115.30 115.47 115.56 115.65 115.76 115.67 115.73 115.90 115.92 116.00
110.96 110.91 110.86 110.85 110.88 111.08 111.34 111.63 111.86 112.09 112.26 112.46 112.64 112.78 112.85 112.91 112.99 113.07 113.10 113.05 112.99 112.74 112.41 111.95 111.39 110.85 110.43 110.23 107.35 106.28 109.16 109.79 111.11 112.95 113.08 113.77 113.86 114.10 114.75 115.07 115.18 115.06 115.32 115.84 115.51 115.69 115.82 115.93 116.03 116.02 116.13 116.18
111.11 111.06 111.04 111.03 111.02 111.12 111.36 111.65 111.93 112.18 112.40 112.63 112.78 112.93 113.00 113.08 113.18 113.27 113.32 113.31 113.21 113.00 112.68 112.17 111.59 111.03 110.50 110.39 105.83 107.18 109.29 110.30 111.82 112.99 113.31 114.03 114.12 114.39 114.77 115.06 115.24 115.28 115.36 115.67 115.80 115.83 115.81 115.99 116.19 116.15 116.19 116.29
111.26 111.23 111.23 111.24 111.21 111.22 111.35 111.62 111.98 112.28 112.53 112.78 113.02 113.11 113.24 113.33 113.46 113.52 113.56 113.57 113.47 113.25 112.85 112.25 111.66 111.10 110.69 110.31 106.62 108.82 109.46 110.72 112.69 113.35 113.54 114.27 114.42 114.73 115.00 115.27 115.64 115.54 115.62 115.87 116.21 116.08 116.03 116.17 116.29 116.23 116.33 116.43
111.42 111.40 111.38 111.43 111.45 111.45 111.55 111.73 112.05 112.38 112.66 112.93 113.18 113.31 113.44 113.54 113.62 113.71 113.76 113.69 113.60 113.35 112.89 112.32 111.68 111.19 110.91 108.16 107.43 109.54 109.83 111.15 113.36 113.81 113.75 114.57 114.74 115.02 115.19 115.48 115.63 115.75 115.86 115.94 116.01 116.02 116.25 116.40 116.45 116.36 116.43 116.56
111.51 111.61 111.70 111.77 111.79 111.79 111.78 111.89 112.13 112.46 112.69 112.96 113.11 113.33 113.50 113.61 113.70 113.79 113.83 113.78 113.66 113.35 112.91 112.32 111.71 111.12 111.06 107.15 108.60 109.34 109.79 111.56 113.36 114.03 114.00 114.17 114.71 115.04 115.32 115.58 115.73 115.90 115.88 115.92 116.07 116.17 116.36 116.49 116.56 116.47 116.67 116.79
111.66 111.78 111.91 111.99 112.05 112.02 111.98 111.98 112.15 112.42 112.70 112.99 113.16 113.40 113.57 113.72 113.81 113.90 113.95 113.91 113.74 113.39 112.91 112.26 111.66 111.19 111.13 107.32 108.79 109.47 109.96 112.11 113.79 114.26 114.25 114.81 115.03 115.53 115.57 115.69 115.80 115.94 116.01 116.10 116.18 116.26 116.38 116.59 116.68 116.68 116.81 117.00
111.72 111.86 112.01 112.17 112.24 112.22 112.17 112.17 112.25 112.43 112.78 113.09 113.34 113.60 113.80 113.90 113.98 114.06 114.10 113.99 113.78 113.39 112.87 112.25 111.67 111.34 111.36 107.43 109.20 109.72 110.13 112.18 114.36 114.58 114.51 115.15 115.31 115.43 115.63 115.83 116.11 116.24 116.32 116.44 116.41 116.45 116.53 116.69 116.86 116.85 117.02 117.12
111.81 111.97 112.18 112.31 112.43 112.51 112.50 112.49 112.53 112.66 112.93 113.20 113.45 113.71 113.88 113.97 114.10 114.18 114.17 114.04 113.82 113.39 112.84 112.17 111.63 111.45 110.44 106.91 109.73 109.92 110.31 112.57 114.42 114.91 114.77 115.19 115.38 115.50 115.75 115.97 116.00 116.11 116.29 116.31 116.49 116.58 116.74 116.87 117.00 117.01 117.11 117.29
112.04 112.19 112.37 112.52 112.67 112.78 112.84 112.87 112.93 112.93 113.06 113.33 113.56 113.79 113.98 114.11 114.26 114.32 114.26 114.12 113.84 113.35 112.78 112.15 111.64 111.50 109.89 107.27 109.94 110.17 110.49 112.39 114.25 115.09 114.98 115.38 115.54 115.69 115.87 116.14 116.15 116.34 116.40 116.51 116.62 116.81 117.01 117.07 117.19 117.22 117.28 117.46
112.20 112.35 112.53 112.73 112.87 113.02 113.12 113.21 113.26 113.26 113.29 113.40 113.62 113.89 114.11 114.24 114.37 114.38 114.31 114.15 113.82 113.31 112.68 112.11 111.79 110.06 107.57 108.69 110.10 110.36 110.68 112.11 114.24 115.09 115.21 115.57 115.81 115.96 116.11 116.25 116.34 116.44 116.56 116.71 116.78 116.94 117.09 117.26 117.37 117.47 117.55 117.68
112.29 112.51 112.68 112.90 113.09 113.21 113.35 113.49 113.56 113.57 113.51 113.51 113.70 113.96 114.17 114.32 114.38 114.43 114.34 114.11 113.76 113.21 112.61 111.98 111.79 108.79 107.18 109.82 110.21 110.49 110.85 111.80 114.00 115.03 115.43 115.69 116.00 116.10 116.26 116.34 116.46 116.59 116.74 116.87 116.97 117.19 117.38 117.48 117.55 117.61 117.66 117.79
112.36 112.60 112.85 113.04 113.24 113.36 113.54 113.69 113.82 113.86 113.81 113.78 113.92 114.15 114.33 114.44 114.56 114.52 114.34 114.04 113.56 112.90 112.17 111.67 111.40 110.51 107.76 109.82 110.31 110.62 110.96 111.74 113.76 115.13 115.65 115.90 116.07 116.25 116.39 116.58 116.68 116.81 116.92 117.01 117.17 117.36 117.47 117.56 117.67 117.76 117.82 117.92
112.48 112.75 112.99 113.25 113.45 113.65 113.83 113.96 114.12 114.14 114.10 114.04 114.00 114.09 114.21 114.39 114.47 114.43 114.21 113.83 113.31 112.73 112.19 111.73 111.39 111.38 108.38 107.32 110.45 110.73 111.08 112.53 114.47 115.25 115.84 116.06 116.25 116.40 116.57 116.70 116.83 116.96 117.10 117.26 117.42 117.62 117.69 117.81 117.88 117.95 117.95 118.09
112.67 112.85 113.19 113.39 113.55 113.58 113.71 113.91 114.09 114.23 114.23 114.21 114.31 114.47 114.60 114.66 114.63 114.54 114.31 113.89 113.29 112.65 112.08 111.62 111.30 111.11 109.88 108.03 110.67 110.88 111.56 114.16 115.14 115.60 116.02 116.22 116.43 116.60 116.78 116.90 117.04 117.21 117.35 117.49 117.63 117.85 117.89 117.92 118.05 118.11 118.07 118.21
112.65 112.89 113.13 113.41 113.68 113.87 114.03 114.18 114.37 114.49 114.50 114.50 114.54 114.69 114.80 114.83 114.80 114.69 114.44 114.00 113.33 112.64 112.07 111.64 111.33 111.14 110.88 107.82 110.85 111.06 111.73 114.91 115.46 115.90 116.31 116.41 116.65 116.81 117.01 117.11 117.21 117.37 117.46 117.57 117.78 117.94 118.06 118.11 118.20 118.28 118.25 118.41
112.93 113.08 113.28 113.51 113.74 113.99 114.16 114.34 114.51 114.63 114.72 114.81 114.83 114.84 114.87 114.88 114.84 114.70 114.43 113.95 113.30 112.58 112.05 111.64 111.36 111.26 107.91 108.96 111.02 111.27 111.79 115.15 115.82 116.21 116.57 116.64 116.85 116.94 117.15 117.30 117.39 117.54 117.69 117.88 118.09 118.21 118.21 118.26 118.36 118.41 118.50 118.62
112.99 113.18 113.38 113.60 113.84 114.07 114.29 114.49 114.67 114.82 114.93 115.01 115.04 115.02 115.04 115.01 114.93 114.77 114.45 113.97 113.31 112.64 112.10 111.72 111.47 111.51 108.57 109.72 111.25 111.51 112.35 114.99 116.13 116.71 116.83 116.83 117.14 117.29 117.40 117.50 117.58 117.76 117.90 118.08 118.26 118.37 118.41 118.39 118.51 118.58 118.60 118.78
113.13 113.32 113.53 113.76 113.97 114.22 114.42 114.62 114.81 114.95 115.03 115.10 115.11 115.12 115.09 115.09 115.02 114.85 114.52 113.99 113.34 112.70 112.17 111.79 111.58 111.69 108.49 110.50 111.51 111.79 113.26 115.36 116.46 117.00 117.02 117.05 117.31 117.48 117.59 117.71 117.79 117.89 118.00 118.16 118.43 118.47 118.50 118.50 118.65 118.77 118.79 118.91
113.20 113.36 113.57 113.80 114.03 114.24 114.46 114.68 114.82 114.93 115.01 115.07 115.14 115.17 115.23 115.24 115.14 114.95 114.64 114.14 113.43 112.68 112.21 111.88 111.68 111.83 108.52 111.63 111.78 112.12 113.84 115.30 116.62 117.11 117.26 117.19 117.47 117.57 117.69 117.76 117.92 117.99 118.16 118.31 118.60 118.65 118.70 118.75 118.83 118.95 118.99 119.04
113.35 113.54 113.72 113.91 114.12 114.32 114.55 114.73 114.90 114.98 115.05 115.13 115.15 115.21 115.28 115.27 115.18 114.98 114.68 114.15 113.40 112.71 112.24 111.97 111.78 111.85 108.59 111.90 112.02 112.36 113.93 115.42 116.78 117.41 117.50 117.35 117.58 117.72 117.85 117.91 118.07 118.12 118.28 118.51 118.75 118.83 118.85 118.93 118.99 119.11 119.15 119.21
113.50 113.68 113.84 114.05 114.24 114.43 114.64 114.80 114.96 115.07 115.15 115.20 115.23 115.22 115.31 115.35 115.28 115.07 114.73 114.17 113.43 112.81 112.40 112.14 111.95 111.93 109.32 112.09 112.28 112.66 114.15 115.67 116.79 117.62 117.67 117.51 117.79 117.81 117.98 118.04 118.20 118.26 118.44 118.65 118.88 118.96 118.99 119.08 119.11 119.24 119.29 119.35
113.56 113.73 113.92 114.11 114.30 114.47 114.67 114.83 114.98 115.09 115.18 115.24 115.26 115.32 115.45 115.52 115.41 115.15 114.72 114.12 113.43 112.86 112.55 112.33 112.15 111.97 110.51 112.05 112.57 113.07 114.50 115.79 116.91 117.68 117.85 117.66 117.91 117.96 118.07 118.18 118.33 118.42 118.59 118.77 118.99 119.05 119.10 119.16 119.25 119.35 119.45 119.45
113.73 113.90 114.07 114.22 114.40 114.60 114.76 114.92 115.06 115.14 115.23 115.33 115.41 115.49 115.60 115.59 115.46 115.22 114.78 114.11 113.42 112.88 112.64 112.43 112.20 112.15 111.38 111.43 112.95 113.43 114.90 116.22 117.22 117.89 117.98 117.76 118.00 118.08 118.19 118.31 118.48 118.58 118.71 118.96 119.10 119.19 119.22 119.29 119.38 119.48 119.59 119.54
113.84 113.99 114.16 114.30 114.46 114.67 114.83 114.98 115.12 115.24 115.35 115.46 115.52 115.65 115.72 115.64 115.54 115.31 114.83 114.00 113.31 112.80 112.63 112.52 112.32 112.28 111.96 111.40 113.39 114.05 115.68 116.36 117.25 117.68 118.25 117.88 118.15 118.28 118.42 118.54 118.68 118.80 118.90 119.06 119.19 119.29 119.37 119.43 119.51 119.65 119.75 119.70
113.96 114.09 114.26 114.44 114.60 114.76 114.92 115.07 115.18 115.33 115.40 115.49 115.58 115.72 115.76 115.68 115.59 115.36 114.77 113.99 113.28 112.80 112.61 112.51 112.39 112.35 111.96 112.15 113.69 114.38 115.93 116.64 117.21 117.96 118.40 118.03 118.36 118.51 118.61 118.72 118.82 118.92 119.01 119.13 119.26 119.39 119.49 119.54 119.63 119.75 119.87 119.82
114.14 114.29 114.45 114.60 114.78 114.90 115.03 115.18 115.29 115.38 115.46 115.53 115.67 115.82 115.86 115.71 115.56 115.28 114.67 113.89 113.22 112.79 112.64 112.58 112.50 112.43 112.17 111.26 113.51 114.63 116.26 116.79 117.41 118.25 118.59 118.23 118.56 118.72 118.76 118.88 118.97 119.10 119.17 119.30 119.43 119.54 119.65 119.72 119.81 119.85 119.96 120.00
114.35 114.52 114.61 114.73 114.88 115.05 115.18 115.31 115.40 115.49 115.61 115.65 115.75 115.89 115.93 115.77 115.53 115.19 114.58 113.83 113.21 112.83 112.71 112.66 112.54 112.48 112.24 110.85 113.33 115.50 116.46 117.00 117.53 118.12 118.73 118.49 118.82 118.87 118.95 119.12 119.21 119.33 119.46 119.57 119.64 119.72 119.77 120.01 120.49 120.69 120.68 120.61
114.46 114.62 114.75 114.86 115.01 115.18 115.32 115.47 115.59 115.67 115.74 115.81 115.87 115.96 116.00 115.84 115.58 115.13 114.47 113.81 113.26 112.93 112.81 112.73 112.60 112.54 112.31 110.43 114.04 115.69 116.57 117.09 117.59 118.29 118.81 118.66 118.96 119.04 119.13 119.28 119.34 119.50 120.02 120.18 120.26 120.32 120.36 120.24 120.43 120.64 120.99 120.93
114.54 114.69 114.85 114.99 115.16 115.29 115.47 115.60 115.77 115.84 115.87 115.92 116.00 116.07 116.06 115.93 115.63 115.15 114.46 113.83 113.33 113.04 112.87 112.78 112.64 112.54 112.34 111.42 113.38 115.67 116.29 117.25 117.75 118.10 118.84 118.73 118.96 119.00 119.25 119.59 119.92 120.12 120.07 119.98 119.89 120.04 119.94 119.97 120.36 120.60 120.77 120.93
114.65 114.77 114.92 115.08 115.29 115.45 115.60 115.78 115.92 115.95 116.01 116.03 116.09 116.14 116.12 116.04 115.75 115.21 114.53 113.89 113.41 113.08 112.95 112.88 112.75 112.60 112.37 112.13 114.26 115.53 116.40 117.14 117.75 118.06 118.82 118.85 119.01 119.28 119.59 119.79 119.82 120.04 120.06 120.11 120.14 120.13 119.87 119.93 120.32 120.66 120.76 120.72
114.70 114.86 115.03 115.18 115.36 115.53 115.71 115.89 116.01 116.08 116.14 116.18 116.21 116.24 116.26 116.11 115.81 115.28 114.64 114.02 113.52 113.22 113.09 113.01 112.86 112.75 112.24 112.94 115.00 116.23 116.75 117.71 118.18 118.36 118.89 118.98 119.12 119.46 119.68 119.98 120.13 120.24 120.16 120.12 120.10 120.16 119.97 120.07 120.12 120.76 120.92 120.74
114.82 114.94 115.12 115.29 115.46 115.64 115.82 115.96 116.07 116.18 116.27 116.35 116.35 116.39 116.40 116.26 115.93 115.43 114.87 114.31 113.84 113.50 113.33 113.14 112.93 112.74 112.50 113.10 114.46 116.31 117.90 118.25 118.55 118.74 118.93 119.14 119.32 117.61 119.73 119.96 120.11 120.15 120.05 120.04 120.01 120.18 119.98 120.21 120.28 120.90 121.05 120.82
114.96 115.11 115.27 115.43 115.57 115.73 115.92 116.07 116.21 116.35 116.47 116.62 116.65 116.67 116.62 116.43 116.09 115.61 115.05 114.47 113.97 113.61 113.36 113.15 112.91 112.76 112.59 112.65 114.39 116.47 117.68 118.41 118.81 119.04 118.96 119.29 119.51 117.63 119.83 119.93 120.08 120.04 119.99 120.02 119.97 119.96 119.99 120.49 120.62 121.03 121.15 121.18
115.08 115.25 115.40 115.54 115.73 115.89 116.06 116.20 116.33 116.47 116.64 116.69 116.78 116.77 116.68 116.48 116.19 115.76 115.23 114.68 114.15 113.74 113.46 113.24 113.01 112.84 112.73 111.35 116.62 116.82 117.35 118.47 119.37 119.97 119.06 119.44 119.57 118.80 119.80 119.82 119.75 119.88 120.41 120.62 120.80 120.90 120.59 120.73 120.81 121.17 121.05 121.31
115.21 115.34 115.46 115.61 115.79 115.95 116.13 116.31 116.46 116.58 116.68 116.79 116.90 116.88 116.83 116.68 116.40 116.05 115.56 115.01 114.47 114.01 113.66 113.38 113.13 112.89 112.90 112.22 114.81 118.43 118.99 119.07 119.61 120.44 119.29 119.59 119.66 118.76 119.63 119.96 120.36 120.63 120.75 120.91 121.02 121.12 121.09 120.76 120.96 121.25 121.32 121.44
115.34 115.47 115.59 115.72 115.87 116.04 116.21 116.40 116.57 116.71 116.87 116.95 117.11 117.06 117.03 116.89 116.65 116.34 115.93 115.41 114.85 114.33 113.92 113.57 113.29 113.03 113.01 113.17 113.79 118.67 118.93 119.21 119.72 120.37 120.51 119.76 119.73 118.96 119.32 119.90 120.38 120.74 120.91 120.93 121.15 121.28 121.26 121.15 121.09 121.32 121.46 121.43
115.41 115.58 115.68 115.83 115.96 116.15 116.32 116.50 116.68 116.89 117.03 117.11 117.28 117.27 117.25 117.14 116.92 116.63 116.26 115.80 115.26 114.74 114.26 113.87 113.50 113.18 113.11 113.17 113.42 117.40 119.07 119.46 119.84 120.15 120.54 119.88 119.83 119.33 118.97 119.96 120.25 120.63 120.93 121.06 121.25 121.38 121.42 121.34 121.17 121.42 121.46 121.56
115.62 115.73 115.79 115.93 116.08 116.26 116.43 116.61 116.76 116.93 117.10 117.22 117.37 117.42 117.49 117.40 117.21 116.93 116.59 116.17 115.67 115.15 114.69 114.24 113.82 113.55 113.30 113.31 113.99 118.72 119.04 119.55 119.80 120.18 120.72 120.01 119.89 119.65 119.09 120.07 120.20 120.50 120.87 121.15 121.37 121.45 121.46 121.51 121.57 121.85 121.66 121.86
115.78 115.87 115.99 116.11 116.23 116.36 116.54 116.72 116.88 117.06 117.23 117.35 117.51 117.57 117.68 117.65 117.49 117.20 116.88 116.48 116.05 115.60 115.17 114.72 114.29 114.01 113.78 113.19 115.15 118.13 118.99 119.63 119.87 120.28 120.98 120.00 119.81 120.04 119.96 120.21 120.40 120.58 120.81 121.02 121.22 121.44 121.51 121.53 121.88 121.93 121.93 122.21
116.00 116.10 116.19 116.29 116.42 116.52 116.66 116.82 116.98 117.14 117.28 117.50 117.64 117.66 117.79 117.82 117.71 117.47 117.15 116.81 116.47 116.08 115.65 115.20 114.82 114.48 113.40 114.08 115.58 116.51 118.92 119.33 119.96 120.26 120.77 120.20 119.88 120.28 120.41 120.51 120.60 120.75 120.96 121.08 121.21 121.23 121.35 121.64 121.80 122.91 122.10 122.51
116.18 116.28 116.36 116.43 116.52 116.63 116.75 116.90 117.09 117.22 117.37 117.55 117.71 117.82 117.93 117.99 117.91 117.71 117.43 117.08 116.74 116.43 116.08 115.68 115.43 115.19 113.72 115.65 115.11 116.31 117.47 119.44 120.07 120.11 120.86 120.51 120.08 120.34 120.49 120.58 120.67 120.84 120.97 121.08 121.15 121.27 121.36 121.53 121.60 121.91 122.13 122.31
116.25 116.39 116.49 116.56 116.64 116.75 116.87 117.01 117.16 117.31 117.48 117.65 117.83 117.93 118.07 118.15 118.12 117.93 117.67 117.32 116.97 116.64 116.33 116.01 115.78 115.66 113.38 115.53 116.01 116.25 116.80 119.09 119.22 119.49 120.03 120.10 120.25 120.24 120.44 120.58 120.62 120.56 120.75 121.15 121.35 121.28 121.12 121.31 121.62 121.89 122.14 122.33
116.36 116.54 116.66 116.75 116.84 116.94 117.03 117.16 117.29 117.43 117.57 117.72 117.90 118.04 118.15 118.25 118.26 118.13 117.92 117.62 117.26 116.86 116.53 116.21 115.95 115.83 114.10 113.30 115.74 116.30 116.51 116.81 117.37 119.21 120.04 119.97 120.32 120.35 120.35 120.64 120.67 120.54 120.76 121.05 121.14 121.22 121.12 121.32 121.68 121.91 122.07 122.19
116.49 116.68 116.85 116.93 117.00 117.07 117.15 117.25 117.37 117.50 117.64 117.81 117.96 118.13 118.26 118.41 118.41 118.34 118.21 117.97 117.61 117.16 116.71 116.32 116.04 115.90 115.79 113.57 115.76 116.42 116.45 116.65 117.03 118.99 119.86 119.96 120.39 120.33 120.28 120.58 120.67 120.57 120.75 120.93 121.04 121.13 121.15 121.33 121.79 121.79 121.95 121.96
116.64 116.87 117.00 117.10 117.17 117.24 117.33 117.41 117.51 117.61 117.75 117.90 118.05 118.21 118.35 118.50 118.57 118.54 118.46 118.31 117.97 117.51 116.99 116.50 116.12 115.87 115.76 113.85 115.75 116.20 116.77 116.43 115.46 118.40 119.82 120.08 120.42 120.36 120.18 120.50 120.81 120.57 120.77 120.94 121.05 121.15 121.17 121.33 121.61 121.79 121.90 121.85
116.81 117.06 117.21 117.28 117.35 117.42 117.47 117.55 117.63 117.71 117.82 117.99 118.16 118.31 118.44 118.62 118.72 118.74 118.69 118.57 118.30 117.86 117.34 116.75 116.27 115.91 115.83 113.97 115.72 115.98 116.15 116.33 116.25 117.98 119.81 120.06 120.39 120.14 120.19 120.37 120.56 120.58 120.78 120.98 121.07 121.17 121.17 121.33 121.46 121.80 121.87 121.88
117.00 117.23 117.38 117.43 117.51 117.58 117.64 117.70 117.76 117.86 117.95 118.10 118.25 118.42 118.57 118.73 118.87 118.92 118.90 118.79 118.57 118.17 117.69 117.12 116.55 116.06 115.88 114.68 115.69 115.86 116.26 116.20 116.58 119.42 119.85 120.01 120.33 120.17 120.32 120.36 120.55 120.58 120.79 120.99 121.10 121.19 121.19 121.35 121.40 121.83 121.85 121.88
117.20 117.44 117.57 117.63 117.67 117.75 117.79 117.83 117.92 117.96 118.06 118.18 118.34 118.49 118.64 118.84 118.99 119.07 119.03 118.92 118.75 118.47 118.06 117.51 116.87 116.27 115.97 114.06 115.57 115.87 116.24 116.25 116.60 119.65 120.07 120.20 120.35 120.43 120.26 120.35 120.58 120.60 120.79 120.99 121.10 121.19 121.21 121.35 121.42 121.85 121.82 121.93
117.47 117.62 117.73 117.78 117.82 117.89 117.94 117.97 118.03 118.08 118.16 118.27 118.42 118.56 118.72 118.91 119.08 119.15 119.10 119.01 118.90 118.69 118.35 117.81 117.18 116.56 116.21 113.93 115.47 115.90 116.11 116.27 116.75 119.42 119.82 120.18 120.40 120.54 120.35 120.42 120.57 120.60 120.82 121.01 121.10 121.21 121.23 121.36 121.41 121.87 121.83 121.95
