ncols 52
nrows 52
xllcorner 442880
yllcorner 5716992
cellsize 10
NODATA_value -9999
88.25 87.06 86.70 86.72 86.45 86.57 86.64 86.75 87.18 87.58 88.02 88.47 88.93 89.31 89.68 90.03 90.33 90.63 90.79 91.12 91.31 91.42 91.61 91.85 91.79 91.85 91.89 91.82 91.89 91.88 91.79 91.81 91.71 91.54 91.52 91.43 91.34 91.00 90.84 90.75 90.66 90.57 90.47 90.38 90.29 90.20 90.06 89.93 89.81 89.67 89.56 89.43
88.78 87.75 86.60 86.59 86.59 86.25 86.59 86.73 86.98 87.38 87.85 88.29 88.68 89.15 89.56 89.91 90.20 90.51 90.69 90.98 91.16 91.27 91.56 91.66 91.74 91.76 91.75 91.74 91.78 91.75 91.75 91.67 91.55 91.49 91.40 91.31 91.34 90.92 90.80 90.72 90.62 90.55 90.46 90.35 90.28 90.18 90.06 89.92 89.79 89.66 89.57 89.45
89.71 88.32 87.12 86.85 86.65 86.20 86.55 86.62 86.87 87.28 87.69 88.14 88.50 88.99 89.38 89.75 90.07 90.39 90.57 90.83 90.79 91.16 91.40 91.48 91.65 91.71 91.57 91.68 91.69 91.61 91.69 91.57 91.45 91.45 91.33 91.22 91.29 90.89 90.76 90.68 90.57 90.51 90.43 90.32 90.25 90.19 90.04 89.93 89.77 89.65 89.56 89.46
88.88 88.40 87.52 86.83 86.75 86.31 86.21 86.60 86.82 87.14 87.52 87.92 88.35 88.82 89.22 89.60 89.93 90.24 90.53 90.67 90.86 91.06 91.22 91.40 91.57 91.50 91.55 91.59 91.54 91.56 91.58 91.44 91.43 91.36 91.19 91.22 91.15 90.97 90.73 90.66 90.55 90.49 90.41 90.32 90.24 90.18 90.07 89.93 89.79 89.65 89.54 89.46
88.40 87.78 87.15 86.77 86.73 86.10 86.11 86.59 86.76 87.02 87.38 87.77 88.15 88.65 89.01 89.47 89.82 90.13 90.41 90.59 90.76 90.87 91.01 91.29 91.46 91.37 91.46 91.44 91.46 91.50 91.45 91.42 91.37 91.22 91.19 91.15 91.04 91.15 90.71 90.62 90.56 90.46 90.41 90.31 90.21 90.18 90.07 89.94 89.77 89.61 89.53 89.54
86.58 86.00 85.26 85.41 85.75 86.01 86.22 86.03 86.71 86.92 87.22 87.59 87.92 88.46 88.92 89.34 89.72 90.04 90.31 90.49 90.63 90.68 90.91 91.18 91.25 91.32 91.35 91.30 91.41 91.41 91.34 91.37 91.29 91.16 91.16 91.10 90.96 91.06 90.71 90.61 90.52 90.44 90.39 90.29 90.21 90.17 90.07 89.90 89.74 89.60 89.53 89.54
84.57 84.71 85.03 85.43 85.69 85.89 85.98 85.99 86.65 86.80 87.04 87.45 87.89 88.36 88.79 89.23 89.60 89.92 90.18 90.35 90.47 90.63 90.86 91.01 91.15 91.26 91.25 91.23 91.32 91.29 91.29 91.31 91.18 91.14 91.09 90.99 90.98 91.00 90.69 90.62 90.51 90.42 90.37 90.26 90.18 90.14 90.05 89.86 89.68 89.56 89.52 89.54
84.55 84.69 85.06 85.26 85.48 85.65 85.92 86.03 85.87 86.72 87.00 87.36 87.78 88.24 88.68 89.09 89.43 89.73 89.98 90.18 90.30 90.52 90.72 90.85 91.09 91.16 91.07 91.19 91.20 91.14 91.23 91.19 91.10 91.12 91.01 90.95 90.97 90.94 90.78 90.61 90.49 90.40 90.32 90.26 90.17 90.09 90.01 89.82 89.61 89.44 89.43 89.38
84.46 84.68 84.95 85.17 85.38 85.44 85.35 85.20 85.90 86.61 86.88 87.23 87.63 88.09 88.50 88.91 89.26 89.57 89.84 90.02 90.21 90.35 90.68 90.76 90.98 91.01 91.06 91.08 91.05 91.11 91.14 91.07 91.10 91.04 90.93 90.97 90.89 90.81 90.81 90.56 90.43 90.36 90.29 90.23 90.11 90.03 89.94 89.72 89.47 89.29 89.34 89.32
84.01 84.21 84.62 84.47 84.33 84.20 84.69 85.25 85.40 85.55 86.79 87.08 87.43 87.90 88.33 88.75 89.12 89.40 89.71 89.92 90.11 90.21 90.37 90.68 90.81 90.84 90.95 90.94 90.91 91.06 91.04 91.00 91.04 90.95 90.93 90.93 90.81 90.77 90.81 90.54 90.39 90.30 90.21 90.18 90.06 89.95 89.81 89.59 89.33 89.24 89.21 89.17
84.07 84.03 83.98 84.28 85.03 85.02 84.71 84.76 85.46 85.96 86.71 86.91 87.23 87.67 88.16 88.61 88.98 89.30 89.56 89.79 89.98 90.07 90.25 90.38 90.69 90.78 90.85 90.78 90.87 90.95 90.90 90.99 90.96 90.85 90.87 90.87 90.73 90.71 90.68 90.61 90.32 90.20 90.12 90.04 89.95 89.83 89.71 89.46 89.28 89.20 88.96 89.29
83.94 85.06 84.90 84.76 84.66 84.69 84.71 84.72 84.81 85.76 86.60 86.75 86.98 87.47 87.96 88.44 88.85 89.15 89.41 89.65 89.82 89.97 90.08 90.29 90.60 90.66 90.70 90.69 90.81 90.80 90.81 90.92 90.85 90.83 90.81 90.70 90.69 90.62 90.51 90.47 90.27 90.08 89.98 89.90 89.80 89.67 89.51 89.32 89.18 89.10 89.12 88.85
84.75 84.71 84.72 84.69 84.71 84.72 84.73 84.70 84.73 85.57 86.42 86.59 86.81 87.32 87.81 88.25 88.66 89.00 89.26 89.53 89.72 89.85 89.95 90.16 90.46 90.57 90.53 90.63 90.70 90.65 90.77 90.84 90.72 90.78 90.69 90.63 90.62 90.50 90.36 90.45 90.11 89.94 89.79 89.69 89.62 89.47 89.35 89.22 89.11 88.57 89.23 88.74
84.00 84.95 84.72 84.71 84.72 84.68 84.71 84.69 84.76 85.35 86.36 86.45 86.69 87.16 87.63 88.08 88.47 88.82 89.11 89.35 89.58 89.74 89.85 90.13 90.16 90.45 90.43 90.51 90.56 90.59 90.69 90.68 90.69 90.69 90.59 90.56 90.54 90.35 90.26 90.11 90.00 89.75 89.55 89.45 89.38 89.31 89.23 89.12 88.92 89.12 88.71 88.69
84.00 84.64 84.86 84.73 84.72 84.70 84.70 84.69 84.87 85.34 86.08 86.37 86.56 87.00 87.46 87.90 88.33 88.68 89.00 89.17 89.39 89.60 89.85 90.02 90.02 90.37 90.36 90.40 90.41 90.54 90.59 90.54 90.61 90.57 90.47 90.49 90.27 90.13 90.01 89.83 89.79 89.47 89.22 89.15 89.14 89.20 89.15 89.00 88.96 88.65 88.74 88.69
83.96 84.05 85.02 84.72 84.71 84.71 84.70 84.73 84.72 85.52 85.45 86.31 86.54 86.89 87.35 87.76 88.16 88.53 88.78 89.12 89.35 89.53 89.65 90.02 90.37 90.18 90.21 90.25 90.30 90.50 90.38 90.39 90.44 90.31 90.31 90.22 89.94 89.90 89.73 89.49 89.47 89.15 88.99 88.93 89.01 89.09 89.04 88.84 89.03 88.75 88.75 88.71
84.02 84.04 84.41 85.02 84.71 84.71 84.71 84.71 84.70 85.44 85.49 86.23 86.42 86.82 87.22 87.61 87.93 88.46 88.79 89.04 89.28 89.74 90.95 91.67 91.64 89.99 90.01 89.98 90.12 90.18 90.14 90.15 90.07 90.09 89.97 89.85 89.70 89.54 89.34 89.23 89.06 88.92 88.89 88.81 88.86 88.92 88.71 89.03 88.73 88.70 88.75 88.75
83.74 84.00 84.12 84.94 84.74 84.70 84.67 84.69 84.72 85.58 85.62 86.24 86.41 86.76 87.12 87.60 88.00 88.38 88.70 89.37 90.79 91.37 91.54 91.64 91.68 90.11 89.72 89.73 89.79 89.76 89.85 89.80 89.69 89.72 89.60 89.43 89.35 89.20 88.98 88.84 88.69 88.81 88.71 88.69 88.50 88.71 88.95 88.82 88.75 88.69 88.74 88.81
84.07 84.10 84.07 84.46 84.99 84.71 84.72 84.71 84.71 85.51 85.60 86.25 86.48 86.76 87.17 87.46 87.99 88.77 90.32 90.86 90.23 89.86 90.46 91.43 91.51 90.68 89.41 89.37 89.36 89.37 89.46 89.36 89.32 89.28 89.15 89.04 88.96 88.72 88.63 88.63 88.50 88.48 87.95 88.53 88.69 88.59 88.65 88.69 88.65 88.76 88.68 88.78
83.99 84.02 84.15 84.25 85.03 84.72 84.71 84.67 84.68 85.35 85.58 86.19 86.37 86.59 87.18 88.29 90.08 90.30 89.15 88.05 86.88 86.82 87.29 89.62 91.31 91.35 89.54 88.98 88.88 88.98 88.96 88.89 88.90 88.82 88.68 88.64 88.60 88.53 88.40 88.25 88.19 88.31 88.34 88.36 88.58 88.57 88.63 88.67 88.80 88.87 88.80 88.77
84.15 84.02 84.14 84.35 84.50 84.71 84.69 84.67 84.69 85.40 85.56 86.00 86.52 87.75 89.36 89.89 88.82 87.47 87.67 86.30 86.43 86.39 86.36 87.35 91.13 91.42 89.49 88.59 88.53 88.50 88.52 88.48 88.47 88.42 88.44 88.35 88.24 87.86 88.09 88.09 87.87 88.22 88.32 88.43 88.52 88.64 88.72 88.80 89.04 88.92 88.89 88.85
84.10 84.04 84.10 84.35 84.30 84.99 84.71 84.71 84.81 85.29 85.47 86.36 87.81 86.75 87.90 87.98 87.57 87.07 86.66 86.40 86.45 86.46 86.31 87.26 90.51 91.24 90.21 88.24 88.11 88.13 88.13 88.18 88.14 88.04 87.40 87.87 87.87 87.49 87.86 88.05 88.22 88.29 88.43 88.48 88.60 88.76 88.91 89.10 89.10 89.08 89.04 89.09
84.13 84.25 84.27 84.32 84.40 84.52 85.00 84.73 84.75 85.31 85.27 86.03 86.23 81.69 86.26 86.14 86.02 86.17 86.17 86.42 86.44 86.43 86.44 87.37 89.72 90.90 90.92 88.46 87.75 87.85 87.85 87.61 87.63 87.60 87.66 87.63 87.77 87.94 88.07 88.26 88.38 88.51 88.69 88.81 88.90 88.98 89.07 89.19 89.28 89.31 89.38 89.33
84.06 84.30 84.26 84.40 84.50 84.28 84.96 84.83 84.78 85.40 85.20 85.52 87.47 85.90 86.14 86.05 86.20 86.12 86.13 85.85 86.39 86.33 86.38 86.25 87.24 90.50 90.90 88.18 87.47 87.36 87.50 87.45 87.35 87.52 87.68 87.91 88.03 88.29 88.50 88.66 88.77 88.95 89.00 89.04 89.15 89.17 89.24 89.41 89.51 89.59 89.71 89.62
82.84 84.14 84.27 84.24 84.46 84.36 84.47 85.20 84.76 84.72 85.43 85.05 86.01 86.06 86.02 86.10 86.35 85.99 85.83 85.85 86.37 86.46 86.46 86.40 86.42 90.19 89.15 87.46 87.38 87.36 87.19 87.28 87.43 87.71 87.96 88.29 88.53 88.79 89.07 89.12 89.20 89.33 89.40 89.31 89.22 89.25 89.40 89.63 89.69 89.79 89.79 89.86
84.05 82.81 83.63 84.41 84.52 84.49 84.43 84.14 85.09 84.87 85.39 85.32 85.59 85.93 86.16 85.96 86.28 85.78 85.82 85.85 86.40 86.46 86.47 86.35 87.05 88.65 87.23 87.27 86.96 87.15 87.23 87.48 87.75 88.23 88.52 88.81 89.05 89.32 89.47 89.58 89.59 89.62 89.61 89.59 89.48 89.47 89.65 89.79 89.89 89.95 89.99 89.94
83.99 84.19 84.19 83.68 82.90 83.14 84.39 84.52 84.60 84.81 85.17 85.48 85.53 86.26 86.16 86.26 86.17 86.40 86.35 86.35 86.53 86.29 86.27 86.39 88.58 87.26 87.16 87.08 87.10 87.23 87.50 87.93 88.38 88.75 89.05 89.37 89.51 89.74 89.81 89.87 89.92 89.86 89.83 89.66 89.55 89.67 89.89 90.01 90.01 90.13 90.08 90.03
83.64 83.90 84.07 83.93 83.82 84.02 84.04 83.52 83.04 83.54 84.52 84.82 85.32 86.04 86.15 86.29 86.17 86.32 86.55 86.57 89.06 88.53 87.83 88.88 87.27 87.10 87.01 87.14 87.28 87.57 87.99 88.43 88.91 89.19 89.52 89.75 89.99 90.03 90.10 90.20 90.15 90.08 89.96 89.77 89.72 89.83 90.05 90.20 90.15 90.22 90.17 90.21
83.99 84.27 84.01 84.01 84.03 84.01 83.94 83.92 83.89 84.15 83.87 83.17 84.98 85.16 86.30 86.33 86.30 86.40 86.60 86.57 88.83 89.57 89.54 87.56 87.11 86.53 87.19 87.48 87.72 88.10 88.49 88.96 89.37 89.69 89.91 90.17 90.24 90.29 90.31 90.34 90.29 90.25 90.10 89.87 89.89 89.89 90.25 90.28 90.27 90.26 90.35 90.31
83.85 83.98 84.30 84.01 84.00 84.02 84.06 84.07 84.12 84.11 83.94 84.19 83.08 85.18 84.71 86.25 87.17 86.78 86.46 86.82 87.40 89.41 88.53 86.60 86.85 87.43 87.51 87.88 88.30 88.63 89.00 89.46 89.77 90.02 90.24 90.39 90.49 90.49 90.44 90.43 90.40 90.36 90.23 90.08 89.91 90.00 90.20 90.41 90.41 90.40 90.43 90.38
83.84 83.90 83.94 84.25 83.97 84.03 84.07 84.09 84.13 84.19 84.21 84.06 84.21 83.30 85.31 84.92 86.66 87.37 87.35 86.42 85.91 89.08 87.18 86.94 87.96 87.91 88.08 88.39 88.81 89.21 89.54 89.79 90.14 90.28 90.45 90.59 90.67 90.64 90.66 90.65 90.57 90.54 90.40 90.15 90.17 90.22 90.40 90.49 90.54 90.51 90.46 90.45
83.89 83.91 83.91 83.94 84.20 83.99 84.04 84.09 84.10 84.13 84.18 84.23 84.10 84.08 83.46 85.22 85.15 86.55 88.33 88.61 88.74 88.17 86.45 86.42 88.39 88.48 88.67 88.95 89.27 89.62 89.88 90.19 90.30 90.46 90.64 90.70 90.81 90.79 90.76 90.80 90.76 90.65 90.40 90.35 90.36 90.41 90.44 90.56 90.58 90.59 90.65 90.74
83.87 83.90 83.92 83.94 83.85 84.13 84.00 84.04 84.09 84.11 84.14 84.18 84.19 83.93 84.15 83.71 85.19 85.25 86.66 88.40 88.30 86.96 86.79 88.02 88.57 88.77 89.15 89.41 89.65 89.91 90.16 90.35 90.52 90.66 90.79 90.82 90.90 90.87 90.87 90.94 90.85 90.75 90.58 90.46 90.52 90.61 90.53 90.58 90.54 90.70 90.84 90.28
83.88 83.86 83.89 83.91 83.95 83.99 84.08 84.04 84.04 84.12 84.11 84.16 84.17 84.15 83.91 84.12 83.68 85.35 85.27 86.06 86.36 86.68 86.58 88.53 88.66 89.02 89.39 89.66 89.89 90.13 90.36 90.50 90.63 90.81 90.81 90.89 90.94 90.95 90.98 90.92 90.97 90.87 90.68 90.65 90.65 90.68 90.62 90.57 90.75 90.85 90.64 90.71
83.84 83.88 83.88 83.93 83.94 83.99 84.17 84.08 84.05 84.06 84.11 84.12 84.14 84.18 84.18 83.98 84.08 83.58 85.65 85.98 86.04 86.56 86.35 88.25 88.54 89.02 89.41 89.74 89.99 90.28 90.36 90.56 90.75 90.80 90.81 90.94 90.97 91.09 90.96 91.07 90.88 90.97 90.84 90.83 90.72 90.69 90.65 90.77 90.85 90.71 90.49 90.46
83.84 83.86 83.98 83.90 83.91 83.96 84.06 84.40 84.09 84.08 84.09 84.14 84.18 84.26 84.28 84.30 84.03 84.06 83.93 85.97 86.26 86.45 85.94 87.79 88.27 88.84 89.35 89.68 89.96 90.19 90.39 90.68 90.68 90.85 90.94 91.01 90.99 91.03 91.10 91.06 91.06 91.09 91.07 91.03 90.77 90.72 90.78 90.75 90.79 90.02 90.53 90.44
83.85 83.84 83.97 83.90 83.91 83.90 83.90 83.98 84.36 84.10 84.12 84.19 84.24 84.28 84.30 84.26 84.27 83.98 83.49 85.46 86.14 86.32 86.44 87.50 87.92 88.64 89.14 89.57 89.88 90.13 90.32 90.55 90.70 90.83 90.97 91.03 90.99 91.19 91.15 91.15 91.21 91.15 91.12 91.07 91.02 90.96 90.42 90.82 89.75 90.67 90.57 90.45
83.83 84.00 83.85 83.86 83.89 83.89 83.89 83.92 84.00 84.41 84.16 84.25 84.27 84.32 84.29 84.29 84.27 84.20 84.11 83.48 85.94 86.22 86.63 87.07 87.62 88.27 88.85 89.32 89.72 90.01 90.28 90.55 90.68 90.90 91.04 91.17 91.01 91.22 91.19 91.30 91.33 91.18 91.18 91.22 91.25 90.36 90.75 89.89 90.81 90.65 90.49 90.34
83.86 83.96 83.98 83.84 83.86 83.87 83.88 83.90 83.87 83.91 84.40 84.24 84.28 84.38 84.36 84.33 84.33 84.25 84.04 84.09 85.09 86.10 86.49 86.82 87.30 87.99 88.59 89.07 89.62 89.84 90.24 90.46 90.76 90.91 91.10 91.24 91.26 91.27 91.38 91.35 91.33 91.29 91.43 91.41 90.77 90.82 90.69 90.79 90.62 90.38 90.25 90.08
83.82 83.87 83.95 83.87 83.86 83.86 83.87 83.87 83.91 83.94 83.92 84.43 84.31 84.41 84.46 84.44 84.44 84.33 84.16 83.83 83.45 86.14 86.27 86.68 87.06 87.68 88.31 88.88 89.36 89.78 90.14 90.57 90.75 91.03 91.08 91.27 91.34 91.44 91.42 91.31 91.43 91.46 91.46 90.82 90.52 90.94 90.66 90.56 90.31 90.21 90.07 89.91
83.84 83.96 83.94 83.89 83.86 83.86 83.85 83.88 83.85 83.91 84.10 84.26 84.63 84.57 84.64 84.63 84.61 84.49 84.27 84.13 83.56 86.12 85.99 86.53 86.87 87.51 88.14 88.61 89.23 89.75 90.08 90.40 90.74 90.97 91.10 91.17 91.28 91.31 91.30 91.32 91.51 91.08 90.89 90.22 91.62 90.84 90.55 90.40 90.28 90.10 89.91 89.71
83.97 83.96 83.88 83.86 83.85 83.86 83.85 83.84 83.85 83.88 84.04 84.10 84.57 84.79 84.76 84.74 84.68 84.56 84.29 84.16 84.04 86.07 85.54 86.48 86.76 87.38 87.89 88.45 88.97 89.51 89.84 90.22 90.64 90.79 90.98 91.11 91.19 91.24 91.31 91.53 90.47 90.88 90.53 91.36 90.92 90.81 90.61 90.54 90.29 90.20 89.84 89.69
84.04 83.96 83.87 83.85 83.85 83.85 83.83 83.82 83.84 83.90 83.96 83.97 84.16 85.14 84.82 84.75 84.65 84.51 84.25 84.18 84.15 85.51 85.52 86.58 86.81 87.27 87.71 88.19 88.64 89.12 89.63 90.11 90.43 90.75 90.96 91.00 91.15 91.31 91.54 90.46 90.85 91.05 90.21 90.99 90.82 90.51 90.34 90.15 89.96 89.81 89.60 89.64
84.29 84.02 83.87 83.86 83.88 83.79 83.83 83.90 83.82 83.86 83.99 83.86 84.15 84.33 84.99 84.72 84.53 84.36 84.22 84.22 84.23 84.79 85.70 86.72 86.99 87.26 87.76 87.97 88.36 88.96 89.49 89.91 90.37 90.59 90.84 90.99 91.24 91.39 90.89 90.92 90.31 90.00 90.28 90.93 90.52 90.29 90.10 89.92 89.74 89.65 89.54 89.33
84.39 84.12 83.86 83.85 83.80 83.89 83.90 83.84 83.85 83.83 83.97 83.94 84.01 84.13 84.67 84.65 84.65 84.22 84.20 84.75 84.47 84.34 85.69 87.02 87.26 87.59 87.69 88.10 88.40 88.84 89.36 89.91 90.25 90.51 90.76 91.01 91.30 90.90 90.60 91.13 90.19 90.04 90.77 90.60 90.31 90.14 89.96 89.83 89.65 89.48 89.35 89.17
85.15 84.28 83.97 83.83 83.89 83.91 83.89 83.86 83.84 83.86 83.83 83.94 84.07 84.14 84.24 84.43 84.44 84.17 84.34 84.50 84.42 83.90 85.74 87.35 87.64 87.64 87.93 88.13 88.52 88.91 89.36 89.82 90.15 90.55 90.86 90.93 90.99 90.28 90.58 90.75 91.10 90.96 90.97 90.48 90.18 90.00 89.85 89.70 89.56 89.42 89.29 89.15
85.25 84.95 84.31 83.99 83.89 83.92 83.86 83.85 83.81 83.89 83.85 83.89 84.05 84.05 84.22 84.41 84.27 84.27 84.31 84.71 84.46 83.54 85.77 87.35 87.89 87.96 88.24 88.32 88.75 89.16 89.46 89.88 90.31 90.68 90.35 91.01 89.88 90.73 90.64 90.52 90.72 91.30 90.99 90.36 90.05 89.89 89.75 89.61 89.50 89.35 89.23 89.18
85.38 85.12 84.96 84.65 84.00 83.86 83.85 83.87 83.85 83.85 83.86 83.94 83.94 84.18 84.28 84.49 84.24 84.37 84.15 84.68 84.51 83.53 85.87 85.70 88.31 88.40 88.42 88.53 88.81 89.18 89.52 90.10 90.50 90.62 90.96 89.97 90.77 90.75 90.65 90.61 90.71 90.85 90.77 90.25 89.99 89.83 89.68 89.56 89.43 89.33 89.22 89.21
85.61 85.35 85.11 84.92 84.30 83.96 84.00 83.85 83.85 83.85 83.88 83.93 83.91 84.10 84.29 84.42 84.52 84.42 84.17 84.36 84.80 83.97 85.17 85.44 88.47 88.59 88.51 88.60 88.87 89.14 89.74 90.21 91.01 90.97 90.80 90.78 90.68 90.64 90.60 90.55 90.65 90.88 90.41 90.11 89.91 89.75 89.62 89.50 89.42 89.34 89.28 89.23
85.93 85.60 85.33 85.10 85.03 84.54 84.06 83.85 83.93 84.00 83.93 83.94 83.97 84.30 84.38 84.40 84.63 84.36 84.14 84.40 84.67 84.60 83.46 85.58 87.58 88.68 88.67 88.71 88.96 89.35 89.76 91.00 90.66 90.89 90.75 90.70 90.68 90.61 90.58 90.56 90.66 91.03 90.38 90.07 89.86 89.70 89.58 89.47 89.43 89.37 89.32 89.27
86.16 85.87 85.54 85.44 85.21 85.11 84.60 84.18 84.03 84.03 83.97 84.14 84.06 84.22 84.32 84.28 84.47 84.25 84.31 84.50 84.68 84.81 83.84 85.82 85.13 88.67 88.70 88.86 89.20 89.80 91.05 90.26 90.61 90.68 90.75 90.72 90.70 90.66 90.63 90.61 90.75 90.97 90.38 90.03 89.89 89.76 89.66 89.57 89.50 89.43 89.39 89.35
86.50 86.20 85.85 85.63 85.44 85.22 85.13 84.49 84.24 84.07 83.92 83.94 83.97 84.22 84.28 84.22 84.58 84.59 84.44 84.79 84.80 84.86 84.92 83.64 85.47 87.01 88.64 88.94 90.26 91.04 89.69 90.24 90.47 90.66 90.76 90.77 90.73 90.72 90.65 90.67 91.03 90.55 90.31 90.08 89.95 89.87 89.79 89.73 89.64 89.54 89.50 89.45
