ncols 52
nrows 52
xllcorner 442880
yllcorner 5714432
cellsize 10
NODATA_value -9999
102.68 103.00 103.14 103.33 103.34 103.43 103.35 103.35 103.32 103.17 104.20 105.06 105.03 104.50 104.11 104.18 104.40 104.43 104.35 104.35 104.41 104.43 104.46 104.45 104.43 104.39 104.31 104.30 104.57 104.36 104.39 105.48 106.34 106.56 104.91 103.11 101.90 101.11 101.62 101.39 101.17 100.91 100.65 100.34 99.99 99.98 99.74 100.20 100.60 100.82 101.04 101.08
102.70 103.11 103.30 103.41 103.43 103.35 103.30 103.37 103.35 103.25 103.36 104.38 102.92 104.04 104.47 104.40 104.42 104.64 104.82 104.74 104.68 104.70 104.65 104.62 104.60 104.49 104.49 105.54 106.89 107.50 106.51 104.82 103.64 102.92 102.38 102.60 102.39 102.14 101.76 101.38 100.99 99.81 98.87 96.98 99.27 99.76 99.46 100.39 100.86 101.11 101.23 101.43
102.75 103.16 103.33 103.60 103.32 103.27 103.29 103.40 103.30 103.32 103.58 102.21 102.24 104.61 104.69 104.57 104.69 104.91 104.90 104.91 104.94 104.77 104.69 105.06 106.26 107.54 107.97 106.66 105.26 104.58 103.16 103.46 103.51 103.33 103.06 102.73 102.36 101.79 100.58 99.83 99.42 99.09 99.09 96.53 99.22 99.59 99.29 100.56 101.24 101.18 101.54 101.70
102.78 103.15 103.23 103.26 103.17 103.03 103.19 103.26 103.13 103.41 102.25 102.36 104.66 104.85 104.83 104.80 105.06 105.07 104.99 104.93 105.31 106.97 108.06 107.80 106.41 105.27 104.74 103.50 104.24 104.20 104.08 103.90 103.54 103.21 102.04 102.41 101.61 100.92 100.16 99.69 99.35 99.08 99.18 95.85 99.40 99.57 99.97 100.57 101.10 101.40 101.68 102.19
102.65 102.83 102.82 102.90 102.97 102.99 103.14 103.24 103.12 102.36 102.54 104.91 104.97 104.89 104.88 104.93 105.07 106.32 107.53 108.00 107.29 106.20 105.25 104.52 104.36 104.70 104.68 104.63 104.54 104.20 103.57 103.23 104.08 103.50 102.85 102.10 101.43 100.72 100.09 99.63 99.29 99.20 98.68 97.35 99.33 99.46 99.97 100.51 101.04 101.42 101.71 101.90
102.99 102.93 102.81 102.87 103.04 103.24 103.06 102.46 102.35 102.44 104.57 104.91 108.15 106.43 107.11 108.23 108.19 106.87 105.77 105.17 104.00 104.74 104.94 104.98 104.98 104.80 104.59 103.71 104.53 104.88 104.60 104.24 103.76 103.18 102.53 101.89 101.21 100.52 99.95 99.57 99.29 99.31 97.48 98.65 99.18 100.00 100.27 100.83 101.35 101.71 101.95 102.11
102.66 102.72 102.71 102.94 103.21 102.95 102.85 102.31 103.53 104.66 104.52 104.91 106.57 107.33 106.48 105.62 104.99 104.01 104.85 105.00 105.09 105.14 104.99 104.83 103.89 105.44 105.44 105.34 105.24 105.02 104.40 104.06 103.50 102.89 102.24 101.60 100.99 100.40 99.96 99.57 99.27 99.38 97.05 99.02 99.58 100.13 100.58 101.17 101.61 101.93 102.15 102.29
102.69 102.67 102.71 102.86 102.90 102.69 102.94 104.43 104.13 104.57 104.72 104.78 105.08 104.15 104.15 104.67 104.83 104.97 105.03 104.90 104.71 104.27 105.42 105.44 105.43 105.42 105.38 105.31 105.18 104.92 104.25 103.88 103.23 102.58 101.92 101.32 100.70 100.17 99.71 99.41 99.18 99.19 96.17 99.11 100.14 100.41 100.97 101.47 101.87 102.14 102.35 102.46
103.83 102.58 102.92 102.70 102.68 102.49 104.10 104.22 104.33 104.40 104.39 104.10 104.34 104.51 104.69 104.68 104.65 104.06 104.92 105.47 105.45 105.43 105.44 105.42 105.46 105.48 105.50 105.50 105.20 104.83 104.17 103.57 102.84 102.14 101.56 100.96 100.43 99.93 99.53 99.37 99.24 99.36 97.50 99.15 100.33 100.75 101.35 101.82 102.17 102.42 102.53 102.64
102.24 102.30 102.41 102.63 102.79 102.74 103.82 103.99 103.69 103.97 104.14 104.34 104.21 104.25 103.50 105.32 105.54 105.51 105.44 105.40 105.45 105.56 105.62 105.59 105.54 105.52 105.51 105.44 105.20 104.69 104.03 103.33 102.52 101.92 101.30 100.72 100.22 99.81 99.51 99.32 99.28 98.85 98.90 99.63 100.73 101.16 101.69 102.12 102.41 102.61 102.74 102.80
101.92 102.08 102.69 102.81 103.07 103.35 103.59 103.77 103.92 103.83 103.66 103.43 105.05 105.19 105.31 105.41 105.50 105.47 105.49 105.49 105.56 105.68 105.67 105.67 105.63 105.60 105.59 105.47 105.15 104.53 103.76 103.02 102.36 101.71 101.15 100.62 100.15 99.81 99.54 99.35 99.46 97.57 99.38 100.65 101.08 101.50 101.99 102.34 102.56 102.81 102.93 103.03
101.85 102.65 103.04 103.22 103.40 103.51 103.46 102.85 104.06 104.63 104.74 104.83 104.92 105.09 105.30 105.47 105.60 105.60 105.54 105.56 105.68 105.78 105.80 105.82 105.75 105.68 105.62 105.47 105.07 104.38 103.57 102.87 102.21 101.58 101.06 100.57 100.13 99.80 99.54 99.40 99.57 96.79 99.53 100.96 101.32 101.86 102.26 102.62 102.83 102.99 103.09 103.13
102.88 103.07 102.98 102.99 102.49 103.47 103.88 104.18 104.38 104.54 104.63 104.81 105.03 105.22 105.38 105.54 105.68 105.68 105.65 105.71 105.83 105.92 105.93 105.93 105.86 105.74 105.65 105.43 104.98 104.27 103.47 102.79 102.12 101.54 101.02 100.56 100.15 99.81 99.57 99.45 99.22 98.38 99.65 101.40 101.57 102.13 102.51 102.82 103.02 103.18 103.26 103.26
102.63 102.25 102.96 103.09 103.20 103.69 103.99 104.24 104.47 104.62 104.79 104.92 105.06 105.25 105.46 105.67 105.81 105.80 105.79 105.87 105.94 106.05 106.04 106.04 105.92 105.79 105.65 105.40 104.91 104.21 103.43 102.75 102.13 101.54 101.01 100.54 100.13 99.84 99.62 99.57 97.20 99.80 100.80 101.68 101.99 102.37 102.80 103.06 103.20 103.32 103.39 103.48
102.35 102.56 102.85 103.10 103.40 103.75 104.08 104.33 104.56 104.70 104.85 104.99 105.16 105.37 105.57 105.78 105.93 105.94 105.93 106.01 106.06 106.12 106.12 106.10 106.01 105.86 105.73 105.43 104.90 104.18 103.46 102.76 102.18 101.53 100.99 100.53 100.13 99.87 99.71 99.68 97.21 100.13 101.77 102.14 102.52 102.84 103.15 103.29 103.41 103.51 103.67 103.64
102.25 102.53 102.87 103.19 103.49 103.91 104.21 104.43 104.67 104.82 104.96 105.10 105.25 105.48 105.68 105.87 106.03 106.07 106.06 106.10 106.15 106.21 106.22 106.18 106.09 105.94 105.80 105.52 104.99 104.26 103.55 102.87 102.27 101.62 101.04 100.62 100.18 99.90 99.78 99.83 97.90 100.32 102.23 102.41 102.88 103.25 103.57 103.73 103.84 103.86 103.82 103.80
102.48 102.72 103.03 103.28 103.59 103.97 104.31 104.50 104.74 104.90 105.04 105.15 105.32 105.53 105.74 105.96 106.14 106.16 106.15 106.19 106.24 106.29 106.31 106.28 106.16 106.03 105.92 105.68 105.18 104.44 103.71 103.06 102.37 101.73 101.12 100.67 100.22 99.94 99.82 99.64 98.55 100.51 102.58 102.74 103.26 103.58 103.81 104.04 104.13 104.08 104.09 104.07
102.63 102.86 103.10 103.37 103.68 104.15 104.35 104.52 104.77 104.94 105.10 105.22 105.39 105.59 105.83 106.03 106.22 106.22 106.20 106.25 106.31 106.35 106.38 106.35 106.27 106.15 106.06 105.90 105.44 104.70 103.97 103.26 102.54 101.86 101.21 100.73 100.27 99.99 99.90 99.18 99.04 100.72 102.68 102.77 103.32 103.57 103.88 104.02 104.12 104.35 104.28 104.27
102.71 102.99 103.21 103.43 103.77 104.15 104.40 104.54 104.78 104.96 105.13 105.31 105.48 105.68 105.92 106.13 106.28 106.24 106.22 106.30 106.38 106.45 106.47 106.45 106.39 106.29 106.23 106.11 105.74 105.02 104.23 103.52 102.74 102.04 101.36 100.84 100.40 100.09 100.02 97.91 99.79 101.00 102.79 103.02 103.47 103.85 103.97 104.14 104.14 104.26 104.32 104.51
102.81 103.04 103.31 103.61 103.89 104.24 104.45 104.56 104.81 104.99 105.18 105.39 105.56 105.76 105.99 106.21 106.31 106.30 106.29 106.37 106.47 106.54 106.57 106.57 106.56 106.46 106.39 106.32 106.11 105.43 104.53 103.75 102.94 102.22 101.53 100.95 100.53 100.23 100.18 98.13 99.93 101.35 102.96 103.24 103.52 103.81 104.05 104.17 104.26 104.32 104.43 104.54
102.85 103.11 103.39 103.69 104.01 104.35 104.50 104.62 104.83 105.04 105.24 105.43 105.63 105.83 106.06 106.28 106.41 106.40 106.44 106.53 106.61 106.67 106.69 106.71 106.74 106.65 106.58 106.48 106.21 105.61 104.84 103.97 103.21 102.46 101.71 101.11 100.62 100.30 99.52 99.29 100.08 101.69 103.07 103.30 103.72 104.04 104.19 104.31 104.42 104.47 104.57 104.68
102.94 103.20 103.50 103.76 104.05 104.43 104.59 104.66 104.89 105.10 105.31 105.51 105.70 105.89 106.18 106.38 106.59 106.64 106.60 106.70 106.79 106.82 106.86 106.85 106.83 106.78 106.71 106.64 106.42 105.92 105.10 104.32 103.57 102.77 101.97 101.33 100.73 100.28 98.60 99.85 100.34 102.04 103.52 103.71 103.99 104.25 104.39 104.49 104.62 104.67 104.72 104.77
103.00 103.30 103.55 103.85 104.11 104.50 104.65 104.76 104.95 105.15 105.41 105.60 105.77 106.00 106.25 106.58 106.70 106.79 106.85 106.93 107.04 107.11 107.10 107.07 107.05 106.99 106.90 106.76 106.54 106.10 105.44 104.65 103.74 102.87 102.14 101.45 100.85 100.42 99.15 100.03 100.76 102.35 103.80 104.08 104.30 104.46 104.60 104.74 104.77 104.82 104.88 104.93
103.07 103.36 103.65 103.95 104.21 104.60 104.76 104.89 105.08 105.30 105.51 105.73 105.89 106.12 106.34 106.64 106.86 107.00 107.06 107.10 107.15 107.18 107.15 107.09 107.03 106.98 106.91 106.82 106.67 106.36 105.78 104.99 104.05 103.15 102.36 101.68 101.07 100.71 99.65 100.00 101.09 102.65 103.98 104.34 104.55 104.74 104.90 104.94 105.00 105.07 105.09 105.12
103.18 103.46 103.75 104.04 104.32 104.73 104.92 104.97 105.19 105.39 105.58 105.79 106.04 106.18 106.39 106.64 106.92 107.07 107.06 107.07 107.13 107.19 107.20 107.16 107.10 107.10 107.06 106.98 106.91 106.63 106.12 105.39 104.50 103.56 102.76 102.02 101.28 100.96 100.53 99.57 101.03 103.07 103.49 104.75 104.80 105.01 105.18 105.21 105.26 105.34 105.33 105.26
103.28 103.56 103.84 104.10 104.38 104.80 105.06 105.06 105.31 105.48 105.72 105.90 106.10 106.26 106.41 106.76 107.02 107.01 107.04 107.10 107.20 107.28 107.33 107.32 107.29 107.28 107.25 107.23 107.18 106.97 106.51 105.82 104.99 104.09 103.20 102.40 101.62 101.22 100.92 98.98 100.99 102.82 103.08 104.98 105.00 105.10 105.29 105.40 105.43 105.48 105.49 105.49
103.39 103.66 103.94 104.21 104.49 104.94 105.12 105.35 105.42 105.65 105.88 106.06 106.20 106.38 106.60 106.81 107.06 107.08 107.16 107.22 107.29 107.42 107.54 107.55 107.54 107.53 107.51 107.47 107.44 107.31 106.90 106.28 105.47 104.58 103.67 102.82 101.98 101.54 100.94 98.69 100.96 102.51 103.44 105.03 105.25 105.35 105.51 105.60 105.58 105.65 105.67 105.61
103.53 103.82 104.07 104.34 104.61 105.04 105.25 105.39 105.54 105.75 105.93 106.14 106.25 106.56 106.80 107.04 107.21 107.18 107.30 107.38 107.46 107.61 107.80 107.85 107.81 107.77 107.78 107.77 107.75 107.60 107.30 106.74 106.00 105.08 104.15 103.29 102.40 101.89 101.33 98.14 101.00 102.11 103.77 105.28 105.54 105.52 105.74 105.82 105.85 105.82 105.81 105.80
103.66 103.91 104.15 104.45 104.71 105.10 105.59 105.59 105.76 105.94 106.17 106.53 106.55 106.77 106.95 107.21 107.29 107.33 107.46 107.53 107.65 107.83 107.99 108.08 108.05 107.96 107.90 107.90 107.92 107.90 107.66 107.15 106.47 105.62 104.68 103.76 102.86 102.23 101.58 99.10 100.96 101.69 103.40 104.21 105.67 105.70 105.89 106.03 106.12 106.08 106.03 105.90
103.75 104.06 104.35 104.61 104.87 105.26 105.64 105.83 106.04 106.09 106.28 106.48 106.62 106.74 106.89 107.13 107.42 107.50 107.57 107.63 107.77 107.95 108.14 108.21 108.15 108.09 108.04 108.04 108.06 108.12 107.97 107.54 106.89 106.12 105.23 104.28 103.31 102.55 102.20 100.53 98.97 101.47 102.44 104.21 105.73 105.88 105.92 106.16 106.25 106.22 106.16 106.13
104.00 104.24 104.50 104.78 105.06 105.41 105.90 105.90 106.03 106.26 106.45 106.64 106.79 106.92 107.04 107.26 107.55 107.66 107.66 107.73 107.83 107.97 108.18 108.33 108.29 108.21 108.19 108.22 108.29 108.33 108.22 107.88 107.32 106.55 105.68 104.77 103.79 102.97 102.45 101.89 101.47 101.22 101.70 104.48 105.68 106.03 106.07 106.25 106.31 106.34 106.29 106.26
104.26 104.51 104.69 104.95 105.19 105.54 106.09 106.07 106.25 106.42 106.57 106.70 106.86 106.97 107.07 107.32 107.72 107.74 107.77 107.82 107.94 108.07 108.23 108.40 108.45 108.39 108.32 108.39 108.48 108.54 108.40 108.06 107.59 106.92 106.10 105.17 104.21 103.33 102.64 102.08 101.20 98.70 102.21 102.96 104.63 106.03 106.01 106.22 106.44 106.42 106.33 106.28
104.54 104.74 104.94 105.14 105.37 105.65 106.35 106.21 106.28 106.50 106.68 106.87 107.00 107.10 107.20 107.35 107.71 107.81 107.83 107.88 108.01 108.16 108.32 108.47 108.55 108.57 108.54 108.56 108.58 108.60 108.53 108.29 107.86 107.20 106.31 105.41 104.50 103.50 102.62 102.08 101.61 100.34 99.53 102.46 104.77 105.82 106.13 106.18 106.52 106.58 106.51 106.39
104.65 104.90 105.08 105.26 105.52 105.84 106.21 106.42 106.57 106.73 106.88 106.98 107.05 107.10 107.15 107.35 107.77 107.88 107.87 107.97 108.09 108.23 108.40 108.60 108.72 108.76 108.68 108.60 108.63 108.65 108.57 108.38 108.06 107.38 106.43 105.49 104.59 103.71 102.99 102.49 101.90 101.40 99.60 101.35 103.47 104.95 106.07 106.21 106.57 106.52 106.48 106.50
104.70 104.89 105.14 105.37 105.61 105.97 106.22 106.35 106.51 106.65 106.79 106.93 107.00 107.08 107.18 107.42 107.80 107.90 107.97 108.04 108.13 108.32 108.51 108.70 108.92 108.93 108.86 108.82 108.83 108.82 108.72 108.47 108.09 107.38 106.56 105.64 104.73 103.93 103.34 102.95 102.26 101.73 101.25 99.00 102.67 105.00 106.04 106.60 106.33 106.46 106.53 106.56
104.81 105.04 105.26 105.51 105.75 106.10 106.36 106.48 106.61 106.76 106.88 107.03 107.09 107.19 107.32 107.50 108.16 108.16 108.17 108.20 108.30 108.44 108.60 108.72 108.85 108.92 108.89 108.87 108.90 108.88 108.76 108.54 108.18 107.53 106.76 105.92 105.00 104.28 103.82 103.44 102.79 102.09 101.64 99.07 102.05 103.85 105.35 106.33 106.37 106.49 106.57 106.59
104.92 105.16 105.42 105.70 105.90 106.26 106.62 106.63 106.77 106.88 106.99 107.10 107.16 107.27 107.41 107.55 107.90 108.12 108.01 108.25 108.36 108.48 108.63 108.74 108.94 109.06 109.05 109.04 109.01 108.98 108.85 108.64 108.24 107.64 106.89 106.07 105.31 104.76 104.41 103.92 103.30 102.60 102.24 99.43 102.35 103.35 105.35 106.40 106.46 106.63 106.65 106.72
105.12 105.29 105.56 105.79 106.01 106.42 106.67 106.78 106.90 107.00 107.09 107.17 107.24 107.35 107.48 107.60 107.87 108.14 108.17 108.36 108.49 108.65 108.75 108.90 109.08 109.18 109.16 109.13 109.10 109.05 108.88 108.65 108.29 107.70 106.98 106.31 105.79 105.40 104.98 104.43 103.81 103.18 102.79 99.01 102.32 102.93 105.38 106.44 106.67 106.76 106.79 106.88
105.26 105.49 105.72 105.94 106.18 106.57 106.87 106.93 107.04 107.13 107.21 107.28 107.35 107.45 107.53 107.66 107.90 108.22 108.25 108.47 108.62 108.77 108.90 109.01 109.12 109.19 109.19 109.20 109.19 109.09 108.93 108.71 108.32 107.74 107.17 106.74 106.38 105.97 105.44 104.89 104.29 103.81 103.40 99.01 102.43 102.88 104.49 105.92 106.83 106.88 106.99 107.07
105.47 105.64 105.89 106.10 106.34 106.74 107.01 107.07 107.17 107.23 107.31 107.38 107.45 107.52 107.62 107.75 107.94 108.28 108.32 108.53 108.71 108.88 108.99 109.06 109.15 109.21 109.22 109.23 109.19 109.06 108.88 108.63 108.29 107.83 107.45 107.17 106.86 106.40 105.85 105.26 104.70 104.29 103.97 99.36 102.46 103.39 104.32 105.73 106.93 106.99 107.03 107.08
105.64 105.85 106.04 106.25 106.46 106.88 107.17 107.17 107.25 107.32 107.39 107.43 107.49 107.57 107.67 107.76 107.94 108.28 108.29 108.53 108.74 108.91 108.96 109.03 109.14 109.22 109.25 109.27 109.19 109.06 108.85 108.62 108.43 108.18 107.92 107.57 107.19 106.74 106.13 105.53 104.99 104.67 103.95 99.81 102.73 103.53 103.89 105.73 106.79 107.02 107.08 107.26
105.97 106.12 106.23 106.38 106.56 106.99 107.23 107.23 107.29 107.35 107.40 107.45 107.52 107.60 107.68 107.78 107.95 108.23 108.22 108.51 108.72 108.95 109.06 109.12 109.20 109.26 109.30 109.27 109.19 108.99 108.81 108.65 108.62 108.55 108.32 107.93 107.50 106.98 106.33 105.70 105.09 104.83 103.18 100.12 102.79 103.63 104.04 105.72 106.75 107.02 107.03 107.25
106.25 106.35 106.43 106.53 106.75 107.11 107.41 107.27 107.32 107.37 107.40 107.47 107.55 107.61 107.67 107.78 107.95 108.18 108.26 108.49 108.73 108.97 109.12 109.20 109.22 109.27 109.31 109.28 109.19 109.05 108.84 108.78 108.85 108.88 108.64 108.29 107.76 107.17 106.46 105.78 105.24 104.92 102.15 100.07 102.91 103.68 104.30 105.70 106.62 106.94 107.09 107.28
106.35 106.48 106.56 106.68 106.84 107.20 107.52 107.32 107.39 107.40 107.42 107.50 107.55 107.60 107.67 107.73 107.92 108.20 108.28 108.49 108.70 108.96 109.15 109.24 109.31 109.37 109.42 109.40 109.27 109.15 109.06 109.03 109.04 109.07 108.77 108.27 107.75 107.14 106.49 105.83 105.43 105.04 102.53 99.70 102.99 103.94 104.65 105.71 106.69 107.08 107.44 108.05
106.42 106.57 106.67 106.83 106.97 107.28 107.65 107.41 107.42 107.40 107.44 107.52 107.60 107.62 107.72 107.78 107.89 108.24 108.26 108.56 108.74 108.99 109.16 109.24 109.28 109.33 109.42 109.28 109.19 109.13 109.15 109.14 109.18 109.10 108.84 108.37 107.81 107.19 106.55 105.93 105.50 105.13 103.51 100.23 102.58 103.77 104.57 105.80 107.12 107.35 107.55 108.21
106.53 106.68 106.78 106.93 107.10 107.34 107.69 107.48 107.54 107.57 107.63 107.68 107.78 107.79 107.85 107.93 107.93 108.13 108.26 108.43 108.54 108.83 109.01 109.13 109.21 109.32 109.38 109.43 109.41 109.37 109.36 109.36 109.34 109.23 108.94 108.48 107.93 107.34 106.74 106.12 105.58 105.25 105.00 101.55 100.55 103.65 104.64 105.92 107.28 107.46 108.07 108.25
106.62 106.76 106.89 107.01 107.14 107.39 107.77 107.53 107.62 107.70 107.75 107.75 107.76 107.81 107.86 107.93 108.02 108.12 108.26 108.43 108.61 108.86 109.05 109.15 109.21 109.29 109.35 109.43 109.49 109.55 109.59 109.58 109.55 109.44 109.17 108.72 108.16 107.58 106.95 106.31 105.74 105.36 105.08 103.05 99.93 103.54 104.46 105.99 107.60 108.12 108.29 108.44
106.71 106.85 106.93 107.06 107.19 107.40 107.79 107.77 107.71 107.69 107.69 107.71 107.75 107.81 107.88 107.94 108.02 108.12 108.25 108.40 108.60 108.82 109.02 109.16 109.23 109.32 109.42 109.49 109.59 109.73 109.81 109.84 109.82 109.70 109.47 109.04 108.44 107.81 107.15 106.47 105.85 105.47 105.14 103.90 100.18 101.96 102.30 106.07 107.69 108.32 108.50 108.62
106.77 106.88 106.98 107.09 107.21 107.43 107.76 107.69 107.72 107.64 107.65 107.70 107.73 107.81 107.89 107.97 108.06 108.15 108.28 108.44 108.65 108.86 109.06 109.20 109.31 109.42 109.52 109.63 109.77 109.92 110.00 109.97 109.94 109.84 109.62 109.22 108.67 108.00 107.30 106.62 105.98 105.58 105.22 103.45 100.53 102.36 102.59 106.10 107.88 108.47 108.72 108.82
106.82 106.98 107.07 107.15 107.24 107.39 107.71 107.60 107.69 107.59 107.63 107.67 107.72 107.83 107.92 108.03 108.15 108.29 108.44 108.58 108.74 108.88 108.99 109.13 109.28 109.43 109.57 109.72 109.87 109.98 109.99 109.96 109.94 109.87 109.68 109.32 108.82 108.17 107.48 106.76 106.11 105.66 105.30 102.46 101.62 103.26 103.43 106.20 108.00 108.88 108.94 109.00
106.90 107.02 107.14 107.18 107.25 107.36 107.70 107.52 107.61 107.50 107.55 107.61 107.69 107.82 107.94 108.09 108.25 108.38 108.49 108.60 108.67 108.77 108.91 109.07 109.23 109.41 109.58 109.73 109.89 109.98 109.97 109.93 109.91 109.89 109.71 109.40 108.94 108.33 107.63 106.90 106.18 105.77 105.42 100.83 103.07 103.70 104.24 106.32 108.12 108.76 109.08 109.03
106.95 107.06 107.16 107.19 107.26 107.36 107.67 107.49 107.54 107.43 107.49 107.51 107.61 107.74 107.91 108.07 108.24 108.39 108.48 108.55 108.65 108.74 108.88 109.05 109.25 109.43 109.60 109.75 109.90 109.99 110.01 109.97 109.92 109.85 109.70 109.42 108.99 108.39 107.69 106.96 106.29 105.79 105.09 100.10 104.17 104.19 104.67 106.40 107.94 108.74 109.08 108.97
