ncols 52
nrows 52
xllcorner 442880
yllcorner 5716480
cellsize 10
NODATA_value -9999
86.56 86.29 85.90 85.67 85.49 85.27 85.13 84.57 84.34 84.10 83.97 84.05 84.05 84.13 84.17 84.20 84.54 84.74 84.51 84.82 84.82 84.90 84.89 84.85 85.48 86.24 88.69 88.88 90.82 90.98 89.60 90.25 90.42 90.68 90.76 90.78 90.74 90.71 90.66 90.68 91.02 90.53 90.31 90.07 89.96 89.90 89.82 89.75 89.67 89.56 89.53 89.46
86.93 86.53 86.18 85.93 85.70 85.45 85.25 85.19 84.49 84.27 84.16 84.19 83.93 84.09 84.22 84.39 84.46 84.74 84.78 84.81 84.88 84.93 85.09 85.17 85.38 85.30 88.87 91.02 90.96 89.90 89.81 90.01 90.42 90.71 90.81 90.80 90.77 90.72 90.69 90.78 91.04 90.52 90.33 90.17 90.09 90.02 89.95 89.88 89.80 89.72 89.65 89.58
87.21 86.86 86.51 86.17 85.89 85.61 85.47 85.27 85.16 84.45 84.27 84.20 84.10 84.06 84.19 84.41 84.61 84.79 84.91 84.93 84.95 85.03 85.06 85.10 85.21 85.37 85.46 89.96 89.41 89.41 89.55 89.82 90.31 90.72 90.88 90.88 90.83 90.81 90.76 90.94 91.07 90.61 90.40 90.29 90.24 90.19 90.13 90.05 89.98 89.90 89.84 89.77
87.59 87.22 86.80 86.43 86.09 85.82 85.52 85.39 85.24 84.31 84.54 84.01 84.05 84.07 84.25 84.52 84.74 84.86 85.07 85.01 84.99 85.06 85.09 85.64 90.10 88.09 85.42 85.54 89.02 89.26 89.32 89.61 90.17 90.67 90.93 90.94 90.90 90.85 90.86 91.19 91.04 90.73 90.56 90.50 90.45 90.40 90.35 90.27 90.20 90.11 90.01 89.92
87.89 87.52 87.12 86.72 86.35 86.04 85.76 85.48 85.38 84.65 84.53 84.36 84.10 84.24 84.50 84.70 84.83 84.92 84.99 84.99 85.07 85.07 86.32 90.29 90.90 89.80 85.46 85.68 86.22 89.10 89.21 89.44 90.03 90.57 90.91 91.00 90.95 90.93 90.99 91.24 90.94 90.79 90.68 90.65 90.63 90.60 90.54 90.46 90.35 90.27 90.16 90.07
88.18 87.84 87.43 87.05 86.64 86.25 85.93 85.71 85.57 85.12 84.71 84.47 84.48 84.56 84.70 84.81 84.85 84.81 85.04 85.09 85.20 87.08 90.67 90.88 88.76 85.06 85.06 84.97 86.07 87.60 89.26 89.38 89.88 90.51 90.96 91.05 91.03 91.04 91.16 91.26 91.08 90.90 90.82 90.80 90.77 90.74 90.68 90.58 90.48 90.40 90.28 90.20
88.46 88.14 87.75 87.36 86.93 86.51 86.16 85.85 85.71 85.61 84.74 84.72 84.94 84.74 84.74 84.80 84.81 84.99 85.18 85.34 87.97 90.93 90.83 87.13 84.91 84.87 85.02 84.94 86.69 86.43 88.75 89.40 89.81 90.43 90.94 91.12 91.15 91.17 91.36 91.35 91.23 91.01 90.98 90.97 90.93 90.84 90.78 90.71 90.60 90.50 90.36 90.26
88.69 88.40 88.06 87.64 87.19 86.75 86.33 85.99 85.82 85.83 84.77 84.90 84.94 84.76 84.77 84.79 84.97 85.19 85.53 88.74 90.88 90.38 86.16 84.76 84.76 84.62 84.40 86.38 87.59 86.55 86.96 89.52 89.87 90.35 90.93 91.18 91.22 91.28 91.55 91.42 91.35 91.18 91.15 91.11 91.07 91.01 90.90 90.83 90.71 90.57 90.44 90.36
88.97 88.65 88.33 87.96 87.48 86.97 86.50 86.11 85.94 85.84 84.85 85.00 84.99 84.78 84.80 85.00 85.07 85.62 89.74 90.98 89.81 85.51 84.57 84.58 84.64 84.73 83.70 87.04 87.92 88.41 87.27 87.56 90.04 90.43 90.91 91.25 91.31 91.42 91.33 91.51 91.36 91.32 91.28 91.23 91.18 91.11 91.02 90.91 90.79 90.66 90.52 90.46
89.18 88.92 88.62 88.24 87.74 87.19 86.72 86.28 86.00 85.92 84.87 85.08 85.07 84.99 84.99 85.06 86.04 90.27 90.89 89.08 85.00 84.64 84.51 84.71 84.66 84.32 84.77 87.42 88.19 88.89 89.15 88.02 88.52 90.65 91.01 91.36 91.46 91.59 91.35 91.64 91.44 91.38 91.35 91.30 91.23 91.14 91.03 90.90 90.80 90.66 90.51 90.37
89.40 89.18 88.86 88.44 87.93 87.43 86.86 86.34 86.10 86.02 84.96 85.16 85.32 85.28 85.15 87.13 90.76 90.89 88.01 84.94 84.71 84.69 84.62 84.75 84.68 83.70 87.12 87.97 88.71 89.33 89.89 89.15 88.68 90.93 91.26 91.40 91.56 91.81 91.58 91.72 91.49 91.46 91.40 91.34 91.24 91.12 91.01 90.87 90.76 90.61 90.46 90.37
89.54 89.33 89.03 88.61 88.13 87.57 86.99 86.46 86.19 86.15 85.13 85.39 85.45 85.68 88.22 91.00 90.86 87.18 84.61 84.85 84.88 84.78 84.70 84.94 84.16 85.21 87.69 88.60 89.42 89.94 90.44 90.72 88.90 88.99 91.45 91.51 91.76 91.38 91.78 91.67 91.55 91.50 91.46 91.41 91.25 91.13 91.00 90.89 90.77 90.62 90.48 90.35
89.67 89.49 89.22 88.76 88.25 87.68 87.07 86.57 86.26 86.22 85.36 85.62 85.82 88.99 91.00 90.42 86.44 84.58 84.73 84.96 84.92 84.79 84.71 84.70 83.99 87.00 88.06 89.29 90.05 90.56 91.00 91.34 90.21 89.57 91.69 91.66 91.99 91.38 91.79 91.69 91.62 91.56 91.47 91.37 91.25 91.12 90.97 90.84 90.73 90.57 90.47 90.26
89.74 89.53 89.25 88.85 88.37 87.79 87.21 86.67 86.33 86.46 85.68 86.12 90.09 91.12 89.98 85.54 84.60 84.57 84.74 84.88 84.89 84.86 84.86 84.29 85.54 87.38 88.62 89.60 90.31 90.88 91.32 91.67 91.69 89.76 91.24 91.72 91.43 91.89 91.74 91.65 91.60 91.52 91.43 91.33 91.18 91.04 90.88 90.72 90.59 90.42 90.29 90.08
89.73 89.52 89.24 88.87 88.36 87.80 87.24 86.71 86.31 85.49 86.75 90.53 91.12 89.16 85.07 84.70 84.64 84.51 84.62 84.76 84.87 84.84 84.55 84.12 86.24 87.56 89.12 89.82 90.53 91.09 91.47 91.85 92.01 89.89 89.99 91.78 91.40 91.83 91.67 91.59 91.51 91.43 91.32 91.21 91.05 90.91 90.74 90.60 90.44 90.29 90.12 89.91
89.76 89.55 89.25 88.88 88.37 87.83 87.25 86.88 86.03 87.54 91.00 91.10 88.33 84.82 84.58 84.53 84.53 84.58 84.77 85.06 85.03 84.71 84.08 85.40 86.55 87.89 89.20 90.06 90.72 91.17 91.55 91.89 92.16 90.18 90.50 91.40 91.79 91.83 91.64 91.52 91.46 91.34 91.22 91.06 90.90 90.75 90.59 90.44 90.30 90.14 90.07 89.84
89.76 89.54 89.25 88.86 88.35 87.83 87.43 87.05 88.38 91.22 91.14 87.43 84.84 84.74 84.48 84.51 84.58 84.64 84.76 84.92 84.95 84.59 84.32 85.09 86.81 88.12 89.30 90.11 90.77 91.23 91.56 91.85 92.09 91.28 90.72 91.24 91.90 91.73 91.57 91.45 91.36 91.22 91.10 90.96 90.80 90.65 90.49 90.33 90.19 90.06 89.92 89.72
89.72 89.54 89.22 88.83 88.36 88.00 87.77 89.71 91.23 90.65 86.54 85.15 84.89 84.56 84.54 84.60 84.61 84.64 84.75 84.99 84.78 84.03 84.51 85.85 86.76 88.29 89.35 90.17 90.79 91.21 91.53 91.78 91.98 91.83 90.94 91.07 91.76 91.62 91.46 91.32 91.21 91.10 90.96 90.83 90.69 90.54 90.35 90.24 90.09 89.99 89.77 89.63
89.73 89.51 89.20 88.81 88.48 88.16 90.29 91.39 90.21 86.07 85.26 85.08 84.68 84.56 84.56 84.62 84.62 84.69 84.82 85.04 84.49 84.71 84.86 86.10 86.83 88.56 89.39 90.17 90.80 91.21 91.52 91.79 92.00 91.85 91.13 91.75 91.61 91.46 91.35 91.23 91.11 90.97 90.86 90.71 90.56 90.38 90.23 90.09 89.97 89.87 89.68 89.54
89.65 89.43 89.17 88.87 88.67 90.78 91.32 89.47 85.86 85.49 85.36 84.94 84.58 84.64 84.71 84.58 84.69 84.75 84.99 84.87 84.06 85.15 84.94 86.20 86.97 88.73 89.44 90.26 90.85 91.24 91.50 91.79 92.07 91.64 91.27 91.53 91.62 91.49 91.33 91.16 91.03 90.87 90.76 90.64 90.49 90.33 90.17 90.01 89.88 89.81 89.66 89.62
89.59 89.40 89.22 88.88 91.27 91.34 88.55 85.67 85.11 85.36 85.01 84.76 84.63 84.65 84.61 84.61 84.79 84.85 85.04 84.61 84.67 85.13 85.60 86.41 87.37 88.74 89.55 90.32 90.90 91.33 91.59 91.79 92.04 90.82 91.37 91.51 91.49 91.31 91.30 91.18 91.01 90.95 90.82 90.66 90.51 90.32 90.15 90.01 89.88 89.86 89.72 89.64
89.58 89.43 89.11 91.42 91.30 87.88 85.69 85.50 85.49 85.33 84.89 84.69 84.60 84.74 84.62 84.65 84.85 84.94 85.06 84.45 84.96 85.06 85.52 86.58 87.87 88.91 89.74 90.49 90.97 91.35 91.62 91.77 92.06 91.06 90.73 91.57 91.47 91.37 91.26 91.14 91.03 90.94 90.73 90.66 90.51 90.38 90.29 90.14 89.97 89.83 89.76 89.72
89.61 89.46 91.46 90.81 87.11 85.68 85.57 85.41 85.38 85.18 84.85 84.68 84.65 84.68 84.74 84.85 84.91 84.98 84.91 83.89 84.99 85.16 85.56 86.99 88.58 89.12 89.92 90.62 91.07 91.40 91.67 91.81 91.88 91.33 91.48 91.60 91.47 91.36 91.26 91.13 91.02 90.91 90.81 90.68 90.57 90.47 90.31 90.13 90.02 89.91 89.90 89.86
90.37 91.61 90.26 86.65 85.91 85.79 85.39 85.33 85.47 85.06 84.82 84.74 84.66 84.67 84.78 84.83 84.93 85.04 84.77 84.61 85.05 85.23 85.68 87.37 88.57 89.36 90.15 90.77 91.16 91.49 91.72 91.82 91.85 91.39 91.78 91.66 91.51 91.42 91.27 91.16 91.07 90.99 90.88 90.79 90.65 90.51 90.37 90.22 90.07 89.95 89.93 89.94
91.55 89.96 86.55 86.12 85.90 85.73 85.56 85.37 85.34 84.97 84.85 84.77 84.70 84.76 84.80 84.91 84.98 85.06 84.54 84.94 85.10 85.24 85.92 87.69 88.76 89.60 90.35 90.94 91.29 91.56 91.72 91.94 91.84 91.39 91.77 91.70 91.60 91.49 91.33 91.19 91.10 91.02 90.95 90.86 90.76 90.63 90.48 90.34 90.19 90.01 89.97 89.96
89.06 86.54 86.29 86.06 85.80 85.45 85.61 85.35 85.25 84.92 84.89 84.84 84.75 84.86 84.97 85.12 85.04 85.03 84.03 84.95 85.09 85.22 86.63 88.08 88.98 89.81 90.56 91.07 91.39 91.68 91.79 92.13 91.54 91.32 91.81 91.81 91.75 91.61 91.44 91.29 91.19 91.09 91.03 90.93 90.79 90.66 90.54 90.40 90.24 90.09 90.08 90.03
87.10 86.61 86.32 86.06 85.76 85.54 85.62 85.54 84.92 84.98 84.95 84.98 85.01 84.98 85.07 85.06 85.31 84.77 84.73 85.01 85.18 85.30 87.45 88.45 89.17 90.01 90.74 91.20 91.52 91.74 91.85 92.10 90.79 90.85 91.90 91.86 91.76 91.65 91.51 91.39 91.33 91.25 91.16 91.02 90.89 90.75 90.61 90.43 90.27 90.17 90.14 90.01
90.33 88.50 86.93 86.12 85.88 85.89 85.67 85.29 84.99 85.15 84.90 85.12 85.09 85.08 85.12 85.26 85.14 84.01 84.85 85.15 85.20 85.37 87.81 88.68 89.45 90.24 90.90 91.31 91.62 91.81 91.93 92.21 91.31 91.99 91.96 91.90 91.80 91.70 91.54 91.43 91.36 91.28 91.20 91.09 90.98 90.87 90.70 90.55 90.35 90.25 90.23 89.62
94.10 91.79 89.42 87.34 86.79 85.73 85.34 85.10 85.10 85.18 85.02 85.05 85.21 85.30 85.24 85.29 84.65 84.81 85.02 85.17 85.28 85.92 88.10 88.92 89.70 90.46 91.06 91.44 91.70 91.90 92.03 92.15 91.46 92.00 92.06 91.94 91.84 91.73 91.60 91.49 91.41 91.33 91.21 91.10 90.99 90.86 90.71 90.57 90.43 90.34 90.31 89.97
94.02 92.10 90.39 88.06 86.26 85.53 85.26 85.07 85.00 85.00 85.02 85.15 85.22 85.24 85.03 84.15 84.42 85.07 85.24 85.28 85.38 86.79 88.43 89.17 89.96 90.66 91.19 91.55 91.80 91.99 92.16 92.21 91.52 92.03 92.06 91.99 91.93 91.79 91.66 91.56 91.47 91.36 91.25 91.13 91.03 90.90 90.74 90.56 90.43 90.41 90.27 90.04
92.25 90.54 89.03 87.21 85.62 85.36 85.17 85.07 85.00 85.03 85.08 85.25 85.23 84.98 84.18 84.99 85.21 85.27 85.27 85.29 85.35 87.74 88.81 89.44 90.18 90.86 91.33 91.61 91.89 92.07 92.31 92.21 91.49 92.13 92.11 92.11 92.00 91.84 91.71 91.59 91.50 91.42 91.29 91.18 91.07 90.93 90.74 90.59 90.49 90.50 90.33 90.11
90.30 89.00 88.00 85.75 85.57 85.25 85.11 85.08 85.06 85.12 85.29 85.28 84.96 84.03 85.03 85.25 85.33 85.32 85.36 85.43 86.25 88.47 89.18 89.77 90.45 91.04 91.46 91.74 91.97 92.15 92.42 91.73 91.31 92.19 92.24 92.16 92.07 91.90 91.74 91.64 91.57 91.48 91.33 91.21 91.08 90.93 90.76 90.63 90.54 90.53 89.72 90.14
89.38 88.17 87.05 85.77 85.44 85.19 85.12 85.11 85.17 85.25 85.32 85.05 84.19 85.10 85.29 85.34 85.34 85.39 85.40 85.55 86.68 88.89 89.49 90.12 90.69 91.23 91.56 91.84 92.06 92.26 92.52 91.47 91.76 92.27 92.27 92.22 92.11 91.96 91.81 91.70 91.60 91.50 91.37 91.23 91.08 90.93 90.79 90.62 90.58 90.57 90.21 90.14
88.67 87.04 85.77 85.68 85.35 85.21 85.18 85.17 85.24 85.33 85.15 84.60 84.81 85.26 85.38 85.39 85.41 85.39 85.46 86.20 87.72 89.26 89.86 90.36 90.90 91.35 91.66 91.93 92.15 92.42 92.54 91.69 92.10 92.27 92.24 92.25 92.16 91.98 91.83 91.74 91.65 91.51 91.42 91.27 91.12 90.96 90.81 90.62 90.62 90.58 90.25 90.10
87.79 86.91 85.84 85.54 85.31 85.25 85.21 85.26 85.38 85.26 84.82 84.25 85.20 85.40 85.41 85.48 85.46 85.47 85.93 87.15 88.78 89.61 90.06 90.53 91.00 91.39 91.72 92.05 92.24 92.58 92.52 91.71 92.05 92.26 92.28 92.27 92.16 92.04 91.92 91.80 91.69 91.60 91.45 91.30 91.18 91.04 90.88 90.68 90.73 90.53 90.28 90.10
87.50 86.00 85.77 85.49 85.33 85.29 85.31 85.40 85.40 84.97 83.99 85.17 85.42 85.46 85.50 85.49 85.42 85.43 87.01 88.21 89.13 89.88 90.37 90.77 91.12 91.46 91.81 92.09 92.30 92.60 91.75 91.64 92.15 92.30 92.35 92.32 92.21 92.05 91.96 91.85 91.74 91.63 91.46 91.32 91.18 91.04 90.87 90.78 90.73 90.54 90.32 90.09
87.20 85.85 85.64 85.40 85.34 85.35 85.40 85.45 85.19 84.50 85.03 85.35 85.46 85.56 85.51 85.47 85.43 85.89 88.30 88.89 89.65 90.26 90.74 91.11 91.43 91.64 91.90 92.16 92.37 92.64 91.71 91.56 92.26 92.38 92.43 92.40 92.27 92.11 91.96 91.86 91.77 91.63 91.49 91.34 91.18 91.03 90.89 90.82 90.76 89.99 90.30 90.11
86.20 85.81 85.52 85.42 85.39 85.43 85.49 85.41 84.87 84.49 85.30 85.47 85.53 85.55 85.53 85.53 85.63 87.76 88.42 89.40 90.26 90.72 91.10 91.45 91.68 91.83 92.05 92.23 92.48 92.58 91.92 92.21 92.35 92.32 92.41 92.38 92.28 92.10 91.97 91.85 91.73 91.61 91.46 91.33 91.16 91.01 90.86 90.77 90.77 90.38 90.27 90.11
86.00 85.70 85.45 85.45 85.47 85.50 85.50 85.10 83.99 85.15 85.47 85.54 85.57 85.56 85.57 85.76 85.97 88.07 88.70 89.67 90.49 90.99 91.36 91.74 91.90 92.01 92.20 92.33 92.67 92.36 91.93 92.41 92.30 92.40 92.45 92.33 92.21 92.07 91.93 91.83 91.69 91.58 91.43 91.26 91.10 90.94 90.80 90.84 90.68 90.34 90.18 90.06
85.96 85.79 85.55 85.56 85.51 85.55 85.30 84.57 84.93 85.35 85.51 85.56 85.58 85.60 85.85 86.24 87.52 88.16 89.07 89.96 90.68 91.17 91.57 91.88 92.02 92.17 92.25 92.43 92.76 91.30 91.67 92.58 92.52 92.48 92.42 92.34 92.24 92.01 91.94 91.82 91.67 91.52 91.34 91.23 91.07 90.88 90.75 90.72 90.58 90.31 90.11 89.98
86.02 85.75 85.66 85.68 85.68 85.50 84.96 84.24 85.27 85.47 85.57 85.58 85.58 85.68 86.00 86.75 87.76 88.61 89.46 90.42 90.93 91.35 91.75 92.00 92.11 92.19 92.32 92.55 92.77 92.10 92.62 92.60 92.53 92.49 92.44 92.37 92.17 92.03 91.92 91.74 91.63 91.48 91.33 91.18 91.01 90.83 90.73 90.75 90.13 90.25 90.05 89.93
86.00 85.85 85.76 85.71 85.71 85.33 84.12 85.24 85.42 85.58 85.65 85.67 85.67 85.81 86.21 88.02 88.94 89.43 89.92 90.53 91.02 91.47 91.80 92.04 92.15 92.26 92.34 92.64 92.78 92.21 93.64 93.98 92.89 92.57 92.37 92.25 92.08 91.94 91.79 91.70 91.58 91.43 91.32 91.13 90.93 90.89 90.70 90.68 90.30 90.21 90.02 89.90
86.03 85.89 85.81 85.71 85.75 84.67 84.59 85.32 85.60 85.60 85.66 85.73 85.79 86.15 86.93 89.07 89.81 90.00 90.58 91.01 91.51 91.71 92.00 92.13 92.21 92.38 92.40 92.87 92.62 92.17 94.38 92.81 92.63 92.59 93.29 93.21 92.13 91.85 91.74 91.55 91.41 91.31 91.18 91.02 90.91 90.76 90.63 90.61 90.37 90.19 90.04 89.96
85.98 85.93 85.83 85.78 85.52 84.33 85.55 85.55 85.53 85.62 85.72 85.85 86.15 86.48 88.97 89.98 90.24 90.57 91.09 91.57 92.04 92.28 92.55 92.40 92.36 92.40 92.50 92.93 91.69 92.01 93.12 92.85 92.76 92.71 92.48 92.44 92.29 91.73 91.61 91.45 91.32 91.18 91.03 90.91 90.81 90.67 90.64 90.79 90.33 90.21 90.13 90.05
85.99 85.94 85.83 85.80 84.93 84.09 84.93 86.00 86.51 85.81 85.83 85.85 86.37 86.99 89.78 90.43 90.71 91.22 91.73 92.16 92.38 92.43 92.45 92.56 92.72 92.73 92.55 92.79 92.25 93.28 92.81 92.79 92.74 92.55 92.48 92.47 92.69 91.67 91.55 91.38 91.23 91.11 90.98 90.85 90.79 90.69 90.61 90.81 90.36 90.21 90.18 90.10
86.06 85.95 85.88 85.81 84.62 85.73 84.88 86.93 87.64 87.61 87.71 87.78 87.87 89.49 90.34 90.72 91.26 91.72 92.20 92.53 92.49 92.40 92.36 92.49 92.72 92.88 93.08 92.90 92.39 94.53 92.76 92.76 92.69 92.53 92.57 92.49 91.98 91.68 91.51 91.35 91.19 91.06 90.94 90.85 90.79 90.69 90.68 90.23 90.38 90.26 90.19 90.15
86.07 85.97 85.92 85.28 84.01 85.29 85.85 87.84 88.02 88.11 88.34 88.83 89.47 90.18 90.61 91.00 91.60 92.04 92.46 92.64 92.60 92.53 92.50 92.56 92.68 92.93 93.06 92.83 92.42 94.26 92.96 92.80 92.69 92.49 92.58 92.49 91.81 91.64 91.47 91.37 91.23 91.12 91.02 90.94 90.85 90.75 90.78 90.48 90.47 90.40 90.28 90.25
86.07 85.96 85.93 84.85 84.68 86.80 87.74 88.26 88.45 88.53 88.72 89.21 89.75 90.38 90.68 91.20 91.73 92.15 92.57 92.70 92.70 92.67 92.68 92.74 92.82 93.02 93.11 92.15 92.25 92.89 92.91 92.71 92.77 92.57 92.67 92.42 91.78 91.57 91.46 91.35 91.24 91.16 91.07 91.00 90.91 90.81 90.93 90.62 90.65 90.52 90.48 90.39
86.09 85.98 85.87 84.71 85.65 87.69 88.29 88.50 88.65 88.86 88.97 89.26 89.96 90.52 90.79 91.43 91.81 92.23 92.55 92.74 92.79 92.85 92.87 92.92 93.04 93.16 93.16 92.42 93.89 92.90 92.79 92.73 92.65 92.70 92.66 92.62 91.67 91.60 91.48 91.37 91.30 91.22 91.14 91.06 90.95 90.87 91.12 90.78 90.75 90.65 90.64 90.53
86.04 86.01 85.77 84.24 86.11 87.94 88.52 88.76 88.87 88.99 89.09 89.41 89.80 90.35 90.99 91.69 91.95 92.31 92.54 92.73 92.82 92.91 93.03 93.08 93.19 93.33 92.72 92.24 94.42 92.78 92.72 92.75 92.60 92.63 92.56 92.33 91.67 91.60 91.49 91.44 91.36 91.29 91.24 91.16 91.06 91.00 90.98 90.86 90.75 90.68 90.64 90.56
86.09 86.02 85.55 84.24 86.51 88.17 88.47 89.03 89.05 89.18 89.43 89.50 89.70 90.49 91.72 91.89 92.11 92.31 92.48 92.63 92.76 92.91 93.09 93.18 93.32 93.31 92.41 92.56 92.93 92.72 92.70 92.62 92.62 92.54 92.55 91.95 91.81 91.67 91.58 91.53 91.46 91.39 91.35 91.27 91.14 91.14 90.97 90.87 90.73 90.74 90.72 90.62
86.14 86.12 85.21 84.43 86.98 88.14 88.75 89.12 89.30 89.60 89.67 89.74 89.79 91.89 91.95 92.10 92.28 92.33 92.42 92.54 92.68 92.93 93.11 93.27 93.39 92.82 92.37 94.28 92.68 92.71 92.66 92.80 92.52 92.49 92.32 91.92 91.86 91.76 91.72 91.63 91.59 91.54 91.50 91.40 91.26 91.28 91.15 90.96 90.83 90.76 90.76 90.65
