ncols 52
nrows 52
xllcorner 442880
yllcorner 5714944
cellsize 10
NODATA_value -9999
98.18 98.99 99.25 99.42 99.46 99.40 99.56 99.75 100.16 100.44 101.27 101.31 101.32 101.25 101.21 101.16 100.75 101.39 101.15 100.90 100.40 99.83 99.62 99.47 99.37 99.28 99.15 98.12 97.65 97.85 97.36 97.36 97.32 96.05 95.59 95.22 95.03 94.93 94.76 94.74 94.71 94.57 94.35 94.06 93.89 93.62 92.95 93.36 93.28 92.71 92.85 92.64
99.06 99.55 99.43 99.49 99.85 100.07 100.20 100.24 101.14 101.35 101.34 101.32 101.33 101.30 101.35 101.14 101.16 101.48 101.46 101.18 100.65 99.96 99.72 99.50 99.43 99.35 99.18 98.21 97.69 97.49 96.86 96.51 96.15 96.00 95.60 95.38 95.30 95.30 94.79 94.79 94.85 94.53 94.46 94.11 93.94 93.64 93.03 93.36 93.23 92.82 92.82 92.74
99.63 99.85 99.92 99.68 100.31 100.51 100.58 100.65 101.31 99.83 100.75 101.26 101.30 101.31 101.18 101.18 101.24 101.60 101.58 101.38 100.87 100.05 99.72 99.58 99.47 99.33 99.17 97.98 97.68 97.43 96.83 96.46 96.31 96.24 95.86 95.64 95.28 95.14 94.86 94.66 94.60 94.60 94.44 94.15 93.90 93.47 93.15 93.48 93.54 93.35 92.89 92.90
99.62 100.35 99.99 99.89 100.33 100.66 100.68 100.71 101.14 100.58 100.98 101.34 101.31 101.18 100.94 101.07 101.33 101.61 101.71 101.64 101.04 101.01 100.76 99.67 99.76 99.41 98.81 98.32 97.68 97.58 96.91 96.57 96.38 96.22 95.92 95.65 95.38 95.28 94.95 94.89 94.80 94.76 94.63 94.31 93.93 93.50 93.31 93.55 93.51 93.47 91.71 92.85
99.70 99.93 100.35 100.10 100.46 100.72 100.57 100.64 101.84 101.18 101.12 101.17 101.07 101.25 101.14 101.24 101.50 102.08 102.03 101.86 101.38 101.06 100.82 100.00 99.66 99.10 98.40 98.32 97.69 97.32 96.97 96.84 96.78 96.68 95.93 95.70 95.53 95.18 95.04 94.83 94.83 94.59 94.39 94.80 94.31 93.77 93.56 93.55 93.43 93.29 93.06 93.05
99.80 99.93 100.64 100.32 100.46 100.60 100.66 100.79 100.95 100.96 101.01 100.93 101.05 101.20 101.44 101.62 101.85 102.13 102.18 101.90 101.55 101.11 100.80 100.23 99.71 99.23 98.44 98.28 97.39 97.13 97.03 96.88 96.90 96.85 95.99 95.56 95.21 95.17 95.13 95.11 95.07 94.89 94.46 94.43 94.38 93.42 93.77 93.79 93.53 93.96 93.46 92.12
99.87 100.24 100.49 100.49 100.88 100.67 100.65 100.57 100.73 100.90 101.23 101.27 101.38 101.64 101.80 101.59 101.99 102.24 102.25 102.07 101.63 101.26 101.07 100.99 99.92 99.33 98.47 98.33 97.73 97.07 96.93 96.96 96.99 96.60 96.14 95.46 95.62 95.46 95.05 95.41 95.25 94.86 94.82 94.96 94.54 93.52 93.97 93.96 93.61 93.62 93.51 93.31
100.02 100.32 100.35 100.71 100.59 100.76 100.93 101.04 100.82 101.06 101.45 101.57 101.66 101.71 101.95 100.42 102.16 102.26 102.48 102.69 101.67 101.77 103.64 102.21 99.83 99.23 98.43 98.43 98.01 97.46 96.90 96.89 97.23 96.70 96.26 95.56 95.57 95.45 95.09 95.23 95.13 94.73 94.88 94.67 94.38 93.71 94.06 93.92 93.76 93.43 93.35 93.19
99.91 100.31 100.23 100.90 100.83 101.08 101.17 101.16 101.10 101.33 101.78 101.67 101.62 101.76 102.42 102.16 102.10 102.42 102.60 102.40 101.71 101.97 103.36 100.54 99.58 99.02 98.30 98.17 98.17 97.35 96.78 96.65 96.89 96.65 96.26 95.69 95.60 95.34 95.33 94.97 94.72 94.54 94.29 94.14 93.90 93.90 93.79 93.54 93.50 93.49 93.50 93.05
100.11 100.71 100.71 100.91 100.81 101.20 101.15 101.25 101.36 101.19 101.58 101.65 101.78 102.25 102.44 102.35 101.92 102.38 102.46 102.21 101.78 101.39 100.75 100.08 99.44 99.22 98.39 98.18 97.98 97.43 96.82 96.50 97.07 96.69 96.14 95.67 95.49 95.22 95.05 94.84 94.95 94.73 94.68 94.71 93.96 94.07 93.85 93.68 93.54 93.42 92.25 93.04
100.60 100.87 100.96 101.20 100.96 101.11 101.19 101.52 101.50 101.35 101.45 101.73 101.85 102.19 102.24 102.17 101.97 102.04 101.67 102.57 101.79 101.37 100.61 99.92 99.41 98.91 98.54 98.08 97.92 97.39 96.89 96.50 96.30 96.03 95.83 95.78 95.42 95.61 95.49 95.43 95.07 94.99 94.89 94.75 94.08 93.93 93.75 93.61 93.47 93.22 93.12 93.19
100.57 100.59 100.78 101.00 100.97 101.34 101.39 101.54 101.61 101.62 101.46 101.76 102.15 102.21 102.24 102.30 102.00 102.44 102.62 102.53 101.89 101.72 100.67 99.99 99.52 99.12 98.36 98.12 97.71 97.34 96.99 96.74 96.65 96.57 96.38 96.10 95.46 95.75 95.68 95.50 95.06 95.05 95.13 94.66 94.12 93.90 93.73 93.51 93.34 92.86 93.24 93.24
101.11 101.09 101.38 101.29 101.08 101.35 101.42 101.46 102.02 101.86 101.70 101.95 102.13 102.25 102.38 102.35 102.06 102.37 102.57 102.62 101.92 101.40 100.75 100.09 99.59 99.07 98.67 98.27 97.96 97.60 97.41 97.04 96.83 96.78 96.47 96.44 95.53 95.72 95.76 95.57 95.07 95.26 95.23 94.79 94.33 94.00 93.79 93.85 93.53 92.88 93.31 93.54
101.41 101.22 101.41 101.30 101.18 101.57 101.67 101.51 101.76 102.07 102.03 101.79 102.07 102.53 102.54 102.34 102.13 102.43 102.91 102.54 101.99 101.66 100.74 100.23 99.71 99.21 98.77 98.33 98.10 97.90 97.45 96.96 96.82 96.67 96.44 96.07 95.62 95.83 95.88 95.64 95.13 95.35 95.24 94.54 94.36 94.01 93.79 93.97 93.41 93.40 93.61 93.68
101.45 101.30 101.25 101.32 101.24 101.93 101.92 101.68 101.79 102.15 102.19 102.07 101.96 102.34 102.40 102.35 102.20 102.33 102.43 102.69 102.36 101.70 100.86 100.25 99.74 99.30 98.87 98.42 98.14 97.91 97.72 97.23 96.90 96.76 96.43 96.20 95.69 95.83 95.84 95.64 95.14 95.08 94.99 94.56 94.35 93.97 93.83 93.78 92.80 93.57 93.70 93.85
101.26 101.11 101.56 101.53 101.34 101.71 101.73 101.72 101.93 102.18 102.23 102.31 102.37 102.21 102.18 102.20 102.24 102.26 102.79 102.79 102.30 101.79 100.99 100.38 99.85 99.42 98.96 98.48 98.18 97.85 97.51 97.22 96.93 96.76 96.49 96.25 95.73 95.93 95.95 95.99 95.17 95.10 94.95 94.62 94.60 94.74 94.22 93.61 93.53 93.79 93.89 94.16
101.40 101.36 101.58 101.57 101.42 101.70 101.71 101.84 102.07 102.58 102.21 102.60 102.28 102.47 102.57 102.53 102.42 102.37 102.58 102.76 102.28 101.81 101.08 100.49 99.99 99.48 99.00 98.61 98.29 97.77 97.44 97.26 97.12 96.76 96.52 96.32 95.81 96.07 95.96 95.65 95.23 95.08 95.07 94.72 94.64 94.82 94.08 93.55 93.75 93.97 94.19 94.47
101.33 101.40 101.43 101.44 101.53 101.84 102.04 102.24 103.22 102.42 102.57 102.40 102.31 102.57 102.63 102.65 102.93 102.83 102.72 102.75 102.52 101.71 101.15 100.58 100.09 99.57 99.11 98.76 98.36 98.00 97.56 97.15 97.04 96.71 96.52 96.38 95.93 96.07 95.94 95.57 95.56 95.37 95.26 94.80 94.63 94.34 92.71 93.88 94.04 94.14 94.42 94.87
101.48 101.69 101.71 101.65 101.71 101.81 101.94 102.06 102.48 102.29 102.38 102.59 102.62 102.66 102.72 102.74 103.04 102.86 102.78 102.65 102.52 101.67 101.18 100.65 100.15 99.65 99.21 98.85 98.46 98.10 97.86 97.12 96.95 96.65 96.43 96.40 96.04 96.21 96.12 95.92 95.69 95.41 95.11 95.11 94.84 94.62 94.40 94.34 94.21 94.35 94.49 95.10
101.74 101.94 102.05 101.90 101.79 100.54 101.72 102.06 102.39 102.42 102.45 102.51 102.54 102.59 102.73 103.19 102.95 103.01 103.17 103.04 102.48 101.58 101.17 100.65 100.14 99.69 99.23 98.88 98.46 98.29 97.96 97.44 96.93 96.77 96.54 96.34 96.17 96.27 96.21 95.99 95.40 95.43 95.04 95.11 95.28 93.03 94.44 94.66 94.47 94.54 94.74 95.12
101.79 101.88 101.64 102.13 101.84 101.47 101.92 102.08 102.21 102.29 102.83 102.82 103.06 102.82 102.71 102.44 102.28 102.26 102.99 103.03 102.07 101.60 101.12 100.64 100.13 99.66 99.24 98.87 98.78 98.40 98.04 97.67 97.35 97.13 96.92 96.61 96.45 96.29 96.18 95.96 95.54 95.54 95.06 94.93 94.76 93.17 94.38 94.72 94.61 94.69 95.15 95.29
101.80 101.74 101.42 102.14 101.94 102.00 102.16 102.15 102.24 102.30 102.98 102.97 103.09 102.96 102.83 102.82 102.71 102.25 101.76 101.43 101.07 101.06 101.15 100.69 100.22 99.73 99.33 99.01 98.84 98.43 98.16 98.04 97.38 97.31 97.01 96.19 96.69 96.49 96.29 96.06 95.59 95.61 95.09 95.18 94.91 93.50 94.90 95.35 95.57 95.11 95.24 95.51
101.79 101.87 101.89 102.18 102.04 102.15 102.26 102.26 102.16 102.28 102.90 102.89 103.03 103.00 102.83 102.91 102.65 102.77 102.57 102.40 102.10 101.02 100.42 100.07 99.82 99.50 99.37 99.17 98.92 98.48 98.19 97.90 97.64 97.44 97.15 96.60 96.88 96.51 96.40 96.03 95.73 95.56 95.12 95.44 95.78 93.88 95.22 95.82 95.83 95.77 95.64 95.79
101.84 101.87 102.12 102.13 102.19 102.31 102.27 102.28 102.23 102.17 102.88 102.87 102.97 102.83 102.79 102.81 102.69 102.82 102.45 102.33 102.23 101.59 101.35 100.24 100.18 99.88 99.47 99.05 98.67 98.47 98.20 98.01 97.92 97.74 97.49 97.14 96.88 96.68 96.49 96.03 95.79 95.82 95.15 95.40 95.36 94.47 95.32 95.90 95.88 95.49 95.59 95.71
101.92 102.26 102.04 102.18 102.76 102.18 102.46 102.46 102.33 102.25 102.93 103.01 103.00 102.71 102.98 103.07 102.99 102.77 102.56 102.44 102.08 101.69 101.38 100.54 100.79 100.18 99.71 99.64 99.42 99.14 98.65 98.20 97.84 97.43 97.20 97.00 96.71 96.51 96.40 96.22 95.85 95.76 95.22 95.21 94.77 94.12 95.22 95.60 95.99 95.07 95.06 94.90
102.52 100.96 101.92 102.03 102.74 102.28 102.43 102.58 102.50 102.36 102.91 103.09 103.00 102.84 102.87 102.92 102.83 102.71 102.50 102.34 101.74 101.46 101.16 100.97 101.08 100.76 99.89 99.72 99.54 99.31 99.21 98.40 97.84 97.58 97.35 97.29 96.96 96.52 96.25 96.01 95.78 95.55 95.29 95.09 94.98 93.82 94.91 95.24 95.77 94.92 94.75 94.93
102.33 101.84 101.03 102.10 102.68 102.42 102.34 102.32 102.41 102.40 102.78 102.96 102.97 102.80 102.76 102.57 102.48 102.49 102.39 102.24 102.00 101.85 101.45 101.30 101.12 100.71 100.17 99.75 99.48 99.56 99.06 98.46 98.09 97.71 97.64 97.41 97.18 96.95 96.90 96.82 96.96 96.14 95.43 95.11 94.85 94.83 94.85 95.12 94.62 94.60 95.63 95.56
102.25 102.11 102.06 102.18 102.34 102.36 102.46 102.36 102.36 102.39 102.55 102.79 102.64 102.97 102.90 102.75 102.68 102.61 102.55 102.42 102.08 101.93 101.69 101.65 101.39 100.28 99.77 99.78 99.54 99.31 99.24 99.06 98.42 98.09 97.95 97.57 97.30 97.18 97.06 97.52 96.87 96.52 95.86 95.70 95.22 94.89 94.81 94.78 94.77 97.02 96.92 96.52
102.10 102.16 102.32 102.43 102.45 102.46 102.54 102.60 102.52 102.53 102.99 103.07 102.79 102.94 102.97 102.79 102.72 102.66 102.55 102.33 102.12 102.04 101.96 102.03 101.59 100.87 99.80 99.87 99.74 99.94 99.26 99.02 98.60 98.53 98.21 97.67 97.43 97.30 97.12 97.04 97.03 96.50 96.01 95.87 95.55 94.97 94.82 94.75 96.74 96.80 96.91 96.58
102.20 102.23 102.23 102.44 102.57 102.51 102.61 102.70 102.54 102.44 102.95 103.06 102.87 102.91 102.89 102.86 103.01 103.19 102.98 102.75 102.52 102.43 102.26 101.95 101.86 101.43 100.65 99.99 99.83 99.40 99.31 99.06 98.74 98.75 98.32 97.82 97.58 97.48 97.35 97.19 96.99 96.67 95.93 95.77 95.14 95.18 93.57 94.96 96.50 96.18 96.99 96.81
102.22 102.23 102.14 102.31 102.34 102.60 102.84 102.76 102.82 102.92 103.16 103.15 103.04 102.88 102.89 103.20 103.42 103.43 103.08 102.76 102.72 102.74 102.46 102.08 102.12 101.47 100.46 100.13 100.01 99.73 99.49 99.30 98.79 98.85 98.61 98.00 97.67 97.55 97.26 97.17 96.96 96.28 95.58 95.37 95.37 95.44 94.26 95.86 96.76 96.89 97.04 97.07
102.14 102.34 102.27 102.28 102.82 102.65 102.89 102.97 102.84 103.03 103.38 103.23 103.20 103.16 102.99 103.31 103.21 102.81 102.77 102.75 102.69 102.69 102.54 102.57 102.04 101.65 100.40 100.07 100.16 99.89 99.50 99.32 98.71 98.78 98.55 98.24 97.72 97.48 97.03 96.68 96.35 95.67 95.60 95.53 95.52 95.41 94.40 96.42 96.92 97.04 97.28 97.38
102.40 102.45 102.50 102.50 102.92 102.72 102.89 102.96 102.93 102.93 103.11 103.13 103.09 103.07 102.98 103.01 103.08 103.18 102.94 103.02 103.05 102.77 102.56 102.44 102.29 102.27 100.52 100.47 100.29 100.13 99.62 99.30 98.79 99.02 98.43 98.15 97.40 97.04 96.75 96.36 95.90 96.02 95.92 95.81 95.65 95.64 94.86 96.73 96.94 97.07 97.52 97.63
102.53 102.52 102.62 102.66 103.33 102.80 102.84 102.81 102.97 103.07 103.13 103.23 103.18 102.93 103.21 103.33 103.26 103.20 102.86 103.15 103.11 102.88 102.82 102.63 102.29 102.29 101.58 101.19 100.50 99.88 99.50 99.15 98.94 98.71 98.49 98.04 97.31 96.89 95.74 96.13 96.79 96.31 96.22 95.99 95.80 95.65 94.93 96.89 96.91 97.15 97.87 97.96
102.47 102.46 102.49 102.61 102.74 102.87 102.93 103.60 102.97 103.22 103.24 103.15 103.13 103.05 103.32 103.44 103.64 103.64 103.24 103.14 103.27 103.22 102.96 102.75 102.67 102.19 101.51 101.32 100.63 99.90 99.59 99.39 98.99 98.29 98.21 97.49 96.50 95.72 97.33 97.31 97.30 96.77 96.44 96.12 96.07 95.81 95.04 97.17 97.89 97.93 98.09 98.33
102.26 102.21 102.17 102.71 103.15 102.91 103.09 103.09 103.04 103.22 103.31 103.31 103.09 103.06 103.22 103.32 103.71 103.74 103.57 103.54 103.34 103.13 103.12 102.93 102.53 102.21 101.74 101.33 100.93 100.18 99.64 99.49 99.22 98.83 97.75 96.26 96.50 98.41 97.90 97.72 97.50 96.87 96.71 96.49 96.88 95.48 95.21 97.44 97.88 98.22 98.65 98.65
102.32 102.18 102.15 102.52 102.76 102.98 103.15 103.15 103.29 103.18 103.47 103.50 103.52 103.40 103.35 103.48 103.54 103.58 103.45 103.62 103.32 103.15 103.15 102.98 102.58 102.37 101.92 101.20 100.73 100.29 99.31 99.57 99.27 98.21 95.83 98.23 98.76 98.43 97.94 97.92 97.77 97.69 97.67 97.66 97.42 95.44 95.40 97.75 97.96 99.02 98.97 98.92
102.13 102.24 102.36 102.47 102.40 103.04 103.13 103.10 103.00 103.25 103.61 103.40 103.53 103.74 103.33 103.50 103.57 103.58 103.56 103.45 103.29 103.17 103.04 102.96 102.77 102.23 101.97 101.38 101.03 100.60 100.11 99.07 96.61 96.51 99.34 98.68 99.02 99.28 99.00 98.93 98.56 97.67 97.76 97.78 97.68 95.37 95.61 97.82 98.28 98.92 99.23 99.12
102.15 102.23 102.48 102.64 102.50 103.06 103.22 103.14 103.00 103.16 103.47 103.53 103.55 103.64 103.49 103.55 103.74 103.70 103.68 103.65 103.60 103.54 103.47 103.04 102.94 102.28 101.71 101.30 101.15 100.33 97.22 96.14 98.12 99.04 98.95 99.14 99.04 99.35 99.36 99.25 97.99 97.20 97.81 97.78 97.75 95.22 95.85 98.08 98.29 98.87 99.11 99.25
102.18 102.42 102.54 102.40 102.56 103.14 103.34 103.48 103.19 103.35 103.69 103.68 103.73 104.00 103.76 103.82 103.66 103.68 103.78 103.86 103.79 103.75 103.87 103.15 103.05 102.52 102.01 101.49 99.76 96.57 96.45 99.74 100.04 99.86 99.29 99.16 98.80 99.00 98.89 99.23 98.40 98.18 97.43 98.53 98.09 95.26 96.15 98.01 98.28 98.73 99.00 99.20
102.36 102.23 102.46 102.48 102.55 103.22 103.54 103.57 103.35 103.36 103.78 103.75 103.70 103.78 103.77 103.83 103.83 103.77 103.60 103.49 103.53 103.65 103.23 103.12 103.08 102.62 101.80 98.22 96.52 97.48 100.46 100.63 100.50 100.43 100.14 99.40 99.35 99.22 99.26 99.01 99.46 99.54 99.37 98.93 98.15 95.86 96.48 97.16 97.85 98.47 99.09 99.59
102.39 102.27 102.63 102.52 102.57 103.25 103.58 103.55 103.49 103.34 103.62 103.82 103.79 103.88 103.78 103.58 103.86 103.73 103.56 103.45 103.41 103.30 103.29 103.01 102.63 100.06 97.02 96.69 99.10 101.12 100.90 101.04 100.95 100.59 100.56 100.25 99.57 99.48 99.47 98.99 98.51 99.41 97.92 97.64 97.75 95.86 96.82 98.04 98.50 99.18 99.23 99.32
102.39 102.15 102.37 102.79 102.95 103.22 103.44 103.55 103.39 103.43 103.44 103.28 103.83 103.94 103.79 103.68 103.62 103.62 103.52 103.52 103.48 103.42 103.23 102.70 99.25 97.01 98.21 101.06 101.49 101.40 101.31 101.24 101.01 100.71 100.97 101.07 100.49 99.57 99.26 99.10 98.79 98.43 98.29 98.05 98.46 94.78 97.22 98.17 98.40 99.31 99.43 99.57
102.47 102.25 102.67 103.00 102.95 103.09 103.82 103.54 103.46 103.50 102.87 103.49 104.21 103.95 103.79 103.75 103.55 103.57 103.58 103.62 103.53 103.42 102.54 98.17 97.99 101.44 102.47 102.33 102.41 101.66 101.50 101.38 101.24 100.80 101.01 101.13 100.52 100.08 99.56 99.39 98.81 98.76 98.39 98.32 98.84 95.96 97.70 98.42 98.50 99.06 99.75 99.93
102.54 102.30 102.60 102.85 102.84 103.01 103.94 103.69 103.54 103.32 103.54 103.76 103.91 103.90 104.10 103.84 103.56 103.40 103.47 103.64 103.56 101.52 97.86 99.75 102.86 102.85 102.90 103.06 102.89 102.70 101.83 101.38 101.29 101.11 100.65 100.71 100.43 100.10 99.84 99.51 99.21 99.01 98.58 98.64 98.29 97.60 98.13 98.68 98.65 99.08 99.70 99.84
102.33 102.34 102.50 102.74 102.83 102.95 103.00 102.94 102.93 102.94 103.68 104.00 104.37 103.87 103.99 103.91 103.55 103.52 103.39 103.54 100.45 98.64 102.28 103.32 103.53 103.66 103.04 103.21 103.13 102.71 102.36 101.60 101.25 101.06 100.90 100.48 100.29 100.00 99.74 99.66 99.51 99.32 99.05 100.47 97.05 98.35 98.54 98.75 98.81 99.10 99.89 100.03
102.25 102.33 102.49 102.64 102.86 102.98 103.38 103.36 103.05 103.96 103.19 102.46 102.27 102.57 103.13 103.47 103.63 103.50 102.17 99.18 100.12 103.69 103.85 103.58 103.75 103.50 103.32 103.21 103.04 102.83 102.59 102.29 101.76 101.44 101.08 100.82 100.60 100.39 100.35 100.39 99.71 99.37 99.28 101.43 95.86 98.76 98.90 99.00 99.14 99.28 99.94 100.07
102.18 102.20 102.80 103.27 102.96 102.99 103.34 103.29 103.10 103.06 104.46 102.95 103.46 103.44 103.14 102.72 101.50 101.15 101.08 101.18 104.19 104.18 104.06 104.03 103.82 103.68 103.69 103.58 103.32 103.01 102.82 102.60 102.08 101.76 101.54 101.10 100.86 100.64 100.43 100.36 99.56 99.46 100.53 100.39 95.25 99.25 98.88 99.16 99.43 99.60 99.99 100.31
102.73 102.74 102.63 103.12 103.06 103.09 103.35 103.31 103.17 103.09 104.73 103.79 103.52 103.62 103.20 103.29 103.10 101.67 101.28 104.06 104.25 104.30 104.19 104.17 104.01 104.01 103.82 103.72 103.62 103.37 103.08 102.97 102.85 102.17 101.73 101.34 100.93 100.76 100.54 100.45 100.05 100.89 102.80 99.34 96.67 99.68 98.93 99.10 99.83 100.21 100.36 100.48
102.74 102.88 102.79 103.18 103.35 103.24 103.36 103.32 103.26 103.13 104.57 104.90 103.68 103.46 103.57 103.30 103.32 102.29 104.33 104.43 104.31 104.32 104.17 104.17 103.92 103.82 103.73 103.74 103.77 103.75 103.43 103.32 103.09 102.36 102.04 101.60 100.91 100.67 100.86 102.57 103.78 103.54 101.35 98.73 99.85 100.10 100.15 100.21 100.23 100.20 100.21 100.17
102.96 102.97 102.88 103.43 103.52 103.47 103.40 103.34 103.30 103.16 104.42 105.04 104.35 103.81 103.66 103.24 103.75 104.43 104.51 104.46 104.31 104.15 104.10 104.12 104.06 104.12 104.10 104.11 104.06 103.92 103.65 103.22 103.36 102.76 102.51 103.19 104.33 105.22 103.76 101.81 100.32 99.73 100.55 100.46 100.39 100.26 100.14 100.00 100.10 100.86 100.86 100.97
102.76 103.04 103.07 103.36 103.43 103.44 103.35 103.35 103.32 103.18 104.27 105.06 105.03 104.36 103.98 103.99 104.39 104.54 104.46 104.32 104.34 104.36 104.42 104.40 104.39 104.35 104.32 104.27 104.74 104.12 103.99 104.13 105.41 106.57 106.12 104.09 102.42 101.43 101.23 101.33 101.12 100.93 100.68 100.43 100.13 100.03 99.78 100.15 100.57 100.75 100.99 101.00
