ncols 52
nrows 52
xllcorner 442880
yllcorner 5715968
cellsize 10
NODATA_value -9999
86.15 86.14 85.16 84.58 87.03 88.33 88.79 89.13 89.37 89.57 89.65 89.75 89.93 91.35 92.01 92.18 92.34 92.35 92.43 92.52 92.69 92.94 93.10 93.28 93.40 92.37 92.20 94.54 92.71 92.74 92.68 92.81 92.48 92.48 92.32 91.92 91.88 91.78 91.73 91.65 91.62 91.60 91.51 91.43 91.28 91.30 91.15 90.99 90.85 90.81 90.75 90.64
86.21 86.17 85.01 85.01 86.78 88.75 89.37 89.24 89.53 89.58 89.65 89.82 89.99 92.26 92.24 92.44 92.51 92.52 92.52 92.55 92.69 92.92 93.11 93.30 93.42 92.48 92.78 93.39 92.90 92.74 92.61 92.64 92.50 92.50 92.43 91.99 91.94 91.85 91.78 91.75 91.69 91.65 91.61 91.49 91.35 91.45 91.19 91.07 90.90 90.89 90.79 90.66
86.25 86.19 85.17 84.87 86.10 86.90 89.10 88.85 89.29 89.18 89.49 89.79 90.94 92.35 92.55 92.72 92.71 92.73 92.69 92.71 92.83 93.00 93.19 93.40 92.68 92.42 94.19 93.11 93.02 92.90 92.85 92.74 92.66 92.67 93.06 92.11 92.00 91.93 91.85 91.81 91.73 91.71 91.65 91.51 91.43 91.57 91.20 91.02 90.94 90.92 90.89 90.75
86.34 86.21 85.38 84.69 85.97 86.11 87.26 88.43 88.78 88.61 89.17 90.49 92.32 92.54 92.80 92.93 92.97 92.98 92.94 92.93 93.02 93.16 93.33 93.38 92.53 92.76 93.29 93.19 93.08 93.04 92.99 92.92 92.72 92.62 92.50 92.15 92.07 92.00 91.93 91.84 91.79 91.76 91.69 91.57 91.47 91.33 91.23 91.05 91.02 91.00 90.92 90.78
86.35 86.28 85.67 84.60 86.12 86.14 86.58 87.64 88.23 88.35 90.09 92.20 92.39 92.72 93.02 93.14 93.20 93.19 93.12 93.15 93.20 93.34 93.45 93.14 92.53 94.19 93.20 93.21 93.15 93.02 93.02 92.97 92.79 92.65 92.25 92.18 92.10 92.06 91.97 91.90 91.85 91.82 91.72 91.57 91.54 91.39 91.32 91.20 91.12 91.06 90.98 90.82
86.32 86.33 85.71 84.68 86.44 86.38 86.82 87.36 87.77 88.51 90.88 92.26 92.59 92.80 93.06 93.25 93.30 93.31 93.26 93.25 93.29 93.45 93.47 92.61 92.83 93.65 93.34 93.24 93.18 93.05 92.96 92.90 92.85 92.65 92.29 92.22 92.18 92.10 92.03 91.94 91.89 91.85 91.72 91.57 91.55 91.40 91.26 91.15 91.06 90.99 90.88 90.75
85.28 85.01 84.34 86.06 86.60 86.77 86.83 87.92 87.58 88.17 89.66 92.49 92.61 92.82 92.97 93.24 93.29 93.28 93.31 93.29 93.38 93.52 93.41 92.68 94.19 93.48 93.55 93.29 93.22 93.13 93.02 92.98 92.89 92.97 92.36 92.32 92.24 92.14 92.07 91.97 91.91 91.84 91.68 91.54 91.62 91.32 91.13 91.04 90.97 90.90 90.82 90.67
86.09 86.25 86.36 86.46 86.93 88.95 89.77 90.38 90.44 89.85 88.68 89.12 92.75 92.81 92.94 93.14 93.23 93.23 93.24 93.23 93.36 93.45 92.60 92.69 94.29 93.54 93.53 93.36 93.23 93.11 93.15 93.02 92.84 93.06 92.47 92.42 92.33 92.24 92.15 92.04 91.98 91.89 91.68 91.58 91.57 91.29 91.08 90.96 90.92 90.85 90.75 90.62
86.49 86.56 86.66 87.71 88.81 89.24 89.88 90.53 91.06 91.43 91.23 89.22 89.52 92.86 92.93 92.96 93.05 93.10 93.10 93.16 93.31 93.32 92.80 93.49 93.43 93.51 93.54 93.55 93.33 93.26 93.17 93.11 92.85 92.58 92.53 92.46 92.39 92.30 92.19 92.11 92.04 91.89 91.71 91.63 91.62 91.29 91.12 90.96 90.90 90.82 90.76 90.59
87.06 87.41 87.49 88.00 88.56 89.23 90.06 91.24 91.21 91.35 91.69 91.86 89.56 89.82 92.81 92.95 92.93 92.96 92.95 93.05 93.22 92.66 92.90 93.63 93.67 93.65 94.09 93.82 93.52 93.31 93.25 93.03 92.99 92.65 92.60 92.53 92.45 92.34 92.24 92.17 92.09 91.90 91.74 91.70 91.49 91.27 91.11 91.03 90.94 90.89 90.82 90.71
87.59 87.35 87.43 87.97 89.03 89.80 91.23 91.32 91.38 91.61 91.85 91.99 92.14 90.19 91.64 92.80 92.87 92.82 92.90 93.06 93.14 92.90 93.38 93.55 93.79 93.82 93.51 93.71 93.34 93.32 93.14 93.14 93.13 92.73 92.65 92.58 92.47 92.39 92.31 92.22 92.13 91.96 91.80 91.81 91.59 91.30 91.17 91.12 91.06 91.01 90.90 90.79
87.32 88.07 88.68 88.76 89.83 90.32 90.76 91.13 91.51 91.76 92.08 92.20 91.51 92.35 90.73 92.92 92.87 92.81 92.92 93.05 92.90 93.00 93.38 93.50 93.69 93.76 93.58 93.42 93.27 93.39 93.68 92.99 92.98 92.76 92.69 92.57 92.47 92.39 92.32 92.27 92.17 92.01 91.89 92.00 91.55 91.28 91.17 91.09 91.04 90.96 90.87 90.76
87.31 88.65 89.28 89.84 90.35 91.09 91.20 91.54 91.83 91.92 93.16 92.36 92.44 92.88 92.05 91.10 92.85 92.96 92.90 93.01 93.00 93.01 93.42 93.51 93.55 93.72 93.67 93.55 93.32 93.29 93.44 93.07 92.87 92.82 92.70 92.60 92.50 92.38 92.33 92.26 92.20 92.00 91.91 91.68 91.61 91.44 91.35 91.29 91.21 91.13 91.00 90.80
87.69 89.25 89.84 91.08 91.17 91.18 91.18 91.92 92.18 92.37 92.51 92.60 92.64 88.91 92.95 91.66 91.52 92.88 92.90 92.99 93.11 93.33 93.32 93.51 93.59 93.72 93.69 93.54 93.31 93.21 93.29 93.32 92.85 92.85 92.74 92.64 92.51 92.42 92.32 92.29 92.21 92.04 91.97 91.72 91.67 91.44 91.35 91.29 91.23 91.12 91.00 90.82
88.44 89.92 91.01 91.25 91.15 91.15 91.19 92.27 92.49 92.65 92.75 92.80 92.80 88.49 88.69 93.19 91.63 91.92 92.94 93.15 93.42 93.63 93.60 93.64 93.74 93.85 93.72 93.78 93.78 93.39 93.90 93.33 92.90 92.86 92.77 92.68 92.58 92.46 92.38 92.34 92.23 92.08 92.07 91.83 91.60 91.50 91.43 91.37 91.30 91.24 91.13 90.93
89.02 90.02 91.35 91.38 91.71 92.06 92.35 92.58 92.76 92.89 92.95 92.96 92.93 88.48 88.86 93.22 93.04 92.76 93.17 93.28 93.55 93.88 93.75 93.75 93.86 93.92 93.69 93.73 93.95 93.36 93.24 93.24 92.97 92.86 92.77 92.67 92.60 92.50 92.41 92.38 92.26 92.14 92.24 91.89 91.72 91.64 91.58 91.51 91.46 91.37 91.26 91.05
89.65 91.17 92.22 91.87 92.10 92.41 92.67 92.82 93.01 93.09 93.12 93.09 93.02 90.91 93.45 93.29 93.15 93.28 93.30 93.35 94.01 93.97 93.85 93.75 93.77 93.86 93.82 94.01 93.48 93.34 93.17 93.08 92.99 92.84 92.79 92.72 92.63 92.53 92.47 92.42 92.30 92.23 92.25 91.93 91.74 91.65 91.62 91.52 91.46 91.36 91.19 91.00
91.40 92.02 92.71 93.08 93.30 93.32 93.42 93.42 93.21 93.26 93.25 93.19 93.08 93.82 93.39 93.19 93.19 93.39 93.32 93.50 93.77 93.89 93.98 93.90 93.84 93.89 93.59 93.44 93.43 93.32 93.33 93.10 93.04 92.90 92.81 92.74 92.64 92.56 92.51 92.47 92.33 92.26 92.18 92.03 91.81 91.75 91.66 91.57 91.46 91.33 91.16 90.99
91.79 92.61 92.91 93.24 93.43 93.33 93.36 93.38 93.49 93.40 93.35 93.26 93.11 93.06 93.29 93.27 93.73 93.53 93.63 93.83 93.80 93.74 94.29 93.87 93.86 93.82 93.62 93.53 93.49 93.41 93.40 93.15 93.14 92.96 92.87 92.79 92.70 92.61 92.57 92.52 92.42 92.34 92.19 92.03 91.88 91.81 91.69 91.60 91.48 91.36 91.20 91.00
92.34 92.99 93.04 93.34 93.44 93.54 93.40 93.49 93.52 93.50 93.35 93.11 92.97 93.15 93.11 93.59 93.94 93.79 93.85 94.28 93.95 93.95 93.94 93.77 93.82 93.69 93.66 93.59 93.53 93.45 93.54 93.24 93.15 92.99 92.89 92.86 92.79 92.68 92.62 92.58 92.48 92.45 92.27 92.04 91.91 91.83 91.70 91.59 91.47 91.33 91.18 90.99
92.66 93.18 93.18 93.63 93.35 93.47 93.58 93.63 93.62 93.53 93.69 92.87 92.75 93.03 93.11 93.78 94.07 94.25 94.17 94.06 94.03 94.06 94.60 93.58 93.85 93.98 94.12 93.73 93.47 93.34 93.38 93.29 93.13 93.01 92.95 92.88 92.81 92.74 92.69 92.64 92.54 92.59 92.29 92.02 91.94 91.85 91.75 91.62 91.47 91.31 91.14 90.99
92.81 93.18 93.26 93.42 93.53 93.65 93.63 93.89 93.70 93.60 93.50 92.89 92.81 93.04 93.54 94.12 94.26 94.35 94.37 94.24 94.15 94.14 93.95 93.78 93.74 93.71 93.67 93.56 93.50 93.44 93.28 93.31 93.17 93.05 93.00 92.92 92.85 92.79 92.77 92.69 92.59 92.57 92.27 92.08 91.98 91.85 91.74 91.61 91.47 91.35 91.19 91.03
92.75 93.09 93.32 93.51 93.53 93.55 93.57 93.60 93.56 93.60 93.42 93.50 93.32 93.35 93.95 94.02 94.15 94.51 94.52 94.14 94.23 94.04 93.85 93.81 93.77 93.75 93.71 93.63 93.55 93.51 93.42 93.33 93.22 93.13 93.07 93.01 92.93 92.90 92.84 92.75 92.65 92.46 92.37 92.15 92.03 91.88 91.78 91.65 91.51 91.37 91.25 91.07
92.56 93.04 93.33 93.46 93.55 93.62 93.57 93.66 93.74 93.57 93.49 93.58 93.57 93.74 93.90 93.89 94.09 94.20 94.19 94.23 94.11 94.07 93.87 93.81 93.79 93.76 93.70 93.65 93.59 93.55 93.49 93.41 93.32 93.24 93.19 93.12 93.03 93.02 92.98 92.86 92.79 92.60 92.33 92.19 92.06 91.97 91.85 91.74 91.60 91.47 91.32 91.16
92.64 93.28 93.66 93.86 93.86 93.72 93.56 93.60 93.52 93.50 93.62 93.62 93.62 93.86 93.74 93.92 94.02 94.21 94.20 94.10 94.09 94.15 93.93 93.84 93.82 93.79 93.79 93.68 93.61 93.76 93.59 93.52 93.42 93.35 93.29 93.25 93.15 93.11 93.08 92.96 92.90 92.63 92.40 92.31 92.16 92.04 91.92 91.78 91.65 91.51 91.38 91.24
93.27 93.67 95.99 94.18 93.82 93.90 94.01 93.99 93.98 94.12 94.00 93.80 93.88 93.60 94.28 94.26 94.26 94.27 94.12 94.17 94.16 94.27 94.04 93.90 93.88 93.87 93.85 93.79 93.72 93.61 93.68 93.58 93.50 93.44 93.38 93.29 93.22 93.19 93.15 93.01 92.96 92.61 92.43 92.33 92.21 92.10 92.00 91.85 91.74 91.62 91.45 91.26
93.36 93.72 96.32 94.05 93.79 93.82 93.97 94.05 94.15 94.21 94.33 94.13 93.79 94.13 94.19 94.27 94.33 94.30 94.27 94.30 94.35 94.39 94.10 93.98 93.95 93.96 93.92 93.89 93.80 93.76 93.71 93.63 93.53 93.50 93.44 93.31 93.21 93.14 93.09 92.98 92.95 92.64 92.43 92.37 92.26 92.17 92.05 91.93 91.83 91.71 91.56 91.38
93.46 94.72 96.00 95.33 93.86 93.85 94.02 94.08 94.14 94.25 94.30 94.12 93.89 94.29 94.32 94.27 94.21 94.18 94.22 94.24 94.35 94.80 94.26 94.01 93.96 93.94 93.92 93.83 93.81 93.76 93.71 93.65 93.63 93.62 93.60 93.50 93.42 93.37 93.29 93.10 92.94 92.76 92.56 92.47 92.36 92.23 92.12 92.00 91.89 91.79 91.61 91.36
93.60 94.74 95.25 94.14 94.15 94.10 94.24 94.39 94.43 94.36 94.40 94.07 94.42 94.35 94.33 94.27 94.23 94.24 94.23 94.28 94.38 94.65 94.13 94.02 94.05 94.02 93.97 93.91 93.97 94.01 93.93 93.91 93.90 93.93 93.89 93.76 93.62 93.46 93.30 93.22 93.07 92.84 92.65 92.49 92.40 92.32 92.17 92.04 91.92 91.76 91.58 91.36
93.87 94.73 95.19 94.47 94.55 94.61 94.52 94.58 94.60 94.49 94.32 94.10 94.36 94.44 94.38 94.31 94.35 94.33 94.32 94.29 94.42 94.61 94.50 94.29 94.29 94.23 94.19 94.15 94.04 93.94 93.83 93.86 93.82 93.79 93.73 93.60 93.43 93.29 93.13 93.03 92.91 92.78 92.68 92.56 92.42 92.31 92.18 92.04 91.88 91.73 91.55 91.33
93.85 95.04 95.21 94.85 94.93 94.79 94.72 94.70 94.71 94.98 94.28 94.38 94.53 94.47 94.51 94.44 94.40 94.38 94.42 94.32 94.50 94.56 94.35 94.22 94.08 94.01 93.96 93.93 93.92 93.88 93.83 93.81 93.79 93.76 93.67 93.51 93.37 93.21 93.09 92.98 92.91 92.88 92.81 92.68 92.54 92.44 92.28 92.09 91.91 91.72 91.54 91.35
94.24 95.06 95.17 94.92 94.90 94.74 95.00 94.58 94.57 94.58 94.24 94.60 94.64 94.64 94.65 94.58 94.43 94.43 94.42 94.38 94.54 94.58 94.43 94.18 94.04 93.93 93.94 93.92 93.92 93.91 93.86 93.83 93.83 93.81 93.71 93.59 93.43 93.27 93.17 93.08 93.00 92.95 92.88 92.76 92.61 92.50 92.33 92.09 91.88 91.68 91.47 91.29
94.56 95.13 95.17 95.04 94.92 94.75 94.57 94.47 94.46 94.52 94.42 94.76 94.70 94.71 94.68 94.63 94.46 94.49 94.52 94.43 94.46 94.62 94.72 94.40 94.13 94.02 94.00 94.00 93.98 93.94 93.91 93.88 93.87 93.83 93.75 93.63 93.45 93.29 93.19 93.11 93.02 92.99 92.93 92.80 92.67 92.51 92.37 92.14 91.90 91.72 91.51 91.30
94.64 94.90 95.18 94.93 94.94 95.08 94.96 94.73 94.28 94.32 94.87 94.81 94.76 94.81 94.75 94.68 94.49 94.55 94.59 94.52 94.45 94.66 94.74 94.54 94.31 94.09 94.04 94.02 94.02 93.96 93.93 93.94 93.89 93.86 93.80 93.64 93.49 93.36 93.27 93.18 93.11 93.06 93.00 92.88 92.71 92.54 92.35 92.15 91.92 91.70 91.51 91.33
94.85 94.93 95.14 94.96 94.99 95.04 95.02 95.11 94.79 94.47 94.86 94.87 94.84 94.83 94.79 94.71 94.62 94.61 94.62 94.57 94.54 94.72 94.75 94.50 94.40 94.22 94.10 94.12 94.10 94.07 94.04 94.01 93.97 93.92 93.86 93.75 93.57 93.43 93.33 93.23 93.14 93.08 92.99 92.82 92.65 92.47 92.31 92.08 91.88 91.67 91.50 91.35
94.93 94.58 95.07 95.10 95.21 95.21 95.35 95.25 94.63 94.70 94.96 94.88 94.99 94.82 94.84 94.76 94.68 94.64 94.67 94.69 94.63 94.71 94.79 94.95 94.57 94.34 94.19 94.20 94.17 94.11 94.05 94.01 93.99 93.94 93.85 93.74 93.60 93.45 93.35 93.26 93.12 93.05 92.98 92.83 92.66 92.50 92.32 92.11 91.92 91.71 91.50 91.34
94.71 95.47 94.08 94.06 94.17 94.28 94.37 94.50 94.58 95.04 95.03 94.97 95.00 94.89 94.91 94.85 94.75 94.69 94.72 94.75 94.75 94.66 94.84 94.84 94.81 94.45 94.28 94.25 94.21 94.15 94.12 94.07 94.01 93.94 93.85 93.73 93.58 93.45 93.34 93.26 93.18 93.09 92.97 92.82 92.60 92.43 92.25 92.05 91.82 91.64 91.43 91.25
97.90 94.79 94.09 94.50 94.37 94.55 94.59 94.83 94.86 95.07 95.04 95.06 95.11 94.96 94.94 94.89 94.82 94.77 94.81 94.78 94.81 94.74 94.81 94.89 94.97 94.54 94.41 94.26 94.21 94.15 94.11 94.06 94.00 93.97 93.87 93.73 93.61 93.50 93.41 93.33 93.24 93.14 93.01 92.86 92.66 92.44 92.25 92.06 91.84 91.64 91.46 91.29
95.78 94.14 94.20 94.46 94.54 94.50 95.24 94.74 95.18 95.20 95.06 95.15 95.10 95.00 94.90 94.92 94.88 94.84 94.81 94.85 94.87 94.79 94.78 94.93 94.99 94.78 94.50 94.34 94.29 94.24 94.18 94.14 94.08 93.98 93.93 93.81 93.69 93.59 93.51 93.41 93.33 93.24 93.07 92.89 92.71 92.51 92.33 92.15 91.98 91.78 91.57 91.41
94.35 94.19 94.16 94.38 94.92 94.60 95.25 94.93 95.31 95.22 95.17 95.16 95.14 95.04 94.98 94.96 94.94 94.94 94.88 94.93 94.91 94.90 94.83 94.97 94.98 95.13 94.72 94.52 94.34 94.34 94.26 94.18 94.10 94.02 93.96 93.90 93.81 93.68 93.61 93.51 93.38 93.28 93.14 92.96 92.76 92.58 92.42 92.27 92.11 91.90 91.67 91.46
96.04 95.81 94.60 94.40 94.47 94.97 94.96 95.16 95.36 95.21 95.22 95.14 95.11 95.08 95.01 95.02 95.02 95.04 95.04 94.98 94.99 95.04 94.93 94.86 95.01 95.01 94.67 94.66 94.57 94.44 94.37 94.25 94.17 94.12 94.02 93.94 93.85 93.73 93.64 93.54 93.46 93.31 93.18 93.00 92.82 92.64 92.47 92.32 92.15 91.94 91.70 91.45
95.78 95.79 96.04 96.64 95.49 94.99 95.11 95.42 95.39 95.28 95.29 95.20 95.22 95.16 95.12 95.08 95.13 95.13 95.13 95.04 95.06 95.06 95.06 94.93 95.01 95.04 95.16 94.91 94.76 94.61 94.47 94.35 94.21 94.12 94.02 93.94 93.86 93.78 93.68 93.60 93.49 93.34 93.18 93.03 92.82 92.63 92.48 92.32 92.13 91.93 91.72 91.50
95.95 96.07 96.56 96.65 96.15 95.74 95.40 95.51 95.39 95.36 95.36 95.30 95.27 95.25 95.30 95.23 95.24 95.25 95.22 95.21 95.11 95.11 95.07 95.03 94.94 95.01 95.07 95.18 94.98 94.77 94.51 94.40 94.25 94.14 94.08 94.01 93.93 93.85 93.78 93.67 93.55 93.43 93.25 93.07 92.90 92.71 92.51 92.35 92.16 91.95 91.75 91.59
96.06 96.24 96.68 97.15 96.24 95.36 95.59 95.65 95.43 95.46 95.44 95.44 95.38 95.37 95.36 95.34 95.31 95.32 95.28 95.25 95.19 95.14 95.04 94.99 95.00 95.03 95.06 95.03 94.86 94.90 94.68 94.46 94.31 94.21 94.15 94.08 94.00 93.92 93.84 93.71 93.62 93.51 93.34 93.15 92.96 92.74 92.55 92.34 92.15 91.96 91.75 91.63
96.05 96.25 96.43 96.46 97.23 95.43 95.85 95.72 95.56 95.56 95.57 95.50 95.49 95.44 95.42 95.40 95.35 95.32 95.26 95.26 95.23 95.23 95.21 95.17 95.06 95.00 95.01 94.90 95.31 94.99 94.79 94.49 94.36 94.31 94.19 94.14 94.07 93.99 93.89 93.80 93.67 93.51 93.34 93.13 92.91 92.72 92.49 92.29 92.10 91.93 91.79 91.64
96.32 96.50 96.35 96.46 95.88 95.65 95.97 95.76 95.71 95.67 95.63 95.58 95.53 95.44 95.43 95.46 95.54 95.48 95.46 95.43 95.34 95.31 95.25 95.18 95.12 95.07 94.97 95.17 95.13 95.26 94.86 94.60 94.42 94.29 94.22 94.15 94.08 94.00 93.90 93.79 93.71 93.56 93.40 93.18 93.00 92.78 92.57 92.38 92.15 91.98 91.86 91.76
96.43 96.79 96.42 96.78 95.56 95.96 95.96 95.75 95.68 95.68 95.71 95.65 95.61 95.64 95.63 95.60 95.56 95.49 95.47 95.42 95.38 95.32 95.29 95.24 95.19 95.10 95.06 94.96 95.05 95.10 94.68 94.73 94.53 94.41 94.32 94.22 94.14 94.10 94.01 93.90 93.75 93.58 93.38 93.26 93.09 92.90 92.71 92.50 92.31 92.12 92.02 91.90
96.61 96.87 96.55 96.38 95.74 95.97 96.00 95.94 95.86 95.84 95.85 95.78 95.73 95.70 95.68 95.63 95.61 95.56 95.52 95.47 95.41 95.36 95.33 95.27 95.25 95.18 95.08 95.10 95.00 95.11 95.31 94.79 94.71 94.60 94.43 94.38 94.26 94.20 94.12 94.03 93.91 93.79 93.60 93.40 93.15 92.94 92.72 92.53 92.35 92.20 92.07 92.00
96.62 96.62 96.58 95.83 96.03 96.13 96.16 96.14 95.97 95.96 95.92 95.86 95.82 95.77 95.71 95.66 95.62 95.58 95.54 95.48 95.43 95.39 95.38 95.36 95.34 95.31 95.21 95.10 95.09 95.10 95.10 95.22 94.91 94.68 94.52 94.45 94.39 94.27 94.18 94.07 93.94 93.79 93.61 93.39 93.18 92.99 92.77 92.62 92.44 92.32 92.21 92.14
96.90 96.95 97.00 95.87 96.20 96.36 96.25 96.14 96.07 96.00 95.96 95.89 95.84 95.81 95.76 95.70 95.67 95.60 95.57 95.52 95.49 95.47 95.48 95.48 95.50 95.44 95.35 95.18 95.18 95.06 95.17 95.20 94.64 94.90 94.71 94.57 94.49 94.41 94.32 94.21 94.07 93.91 93.74 93.54 93.33 93.10 92.92 92.71 92.55 92.41 92.32 92.23
96.80 96.89 96.18 96.08 96.53 96.37 96.29 96.19 96.12 96.07 96.01 95.94 95.89 95.87 95.81 95.76 95.71 95.66 95.66 95.68 95.60 95.54 95.54 95.55 95.56 95.49 95.39 95.24 95.11 95.20 95.11 95.19 95.35 95.02 94.95 94.77 94.63 94.47 94.34 94.19 94.08 93.92 93.71 93.51 93.32 93.12 92.91 92.71 92.58 92.46 92.40 92.38
97.67 96.96 95.97 96.58 96.48 96.48 96.30 96.24 96.18 96.11 96.07 96.02 96.01 95.93 95.89 95.88 95.83 95.81 95.82 95.83 95.76 95.64 95.57 95.54 95.54 95.50 95.43 95.31 95.24 95.12 95.18 95.16 95.16 95.28 95.11 94.89 94.77 94.55 94.38 94.21 94.06 93.89 93.70 93.52 93.32 93.14 92.93 92.77 92.62 92.48 92.46 92.43
