ncols 52
nrows 52
xllcorner 442880
yllcorner 5713920
cellsize 10
NODATA_value -9999
106.96 107.07 107.16 107.21 107.24 107.35 107.65 107.48 107.52 107.42 107.44 107.48 107.58 107.72 107.91 108.07 108.23 108.36 108.47 108.56 108.64 108.73 108.88 109.07 109.26 109.43 109.60 109.75 109.88 109.99 110.01 109.95 109.90 109.85 109.71 109.41 109.00 108.40 107.69 106.99 106.31 105.78 104.67 100.17 104.21 104.24 104.63 106.42 107.96 108.59 109.13 108.82
107.04 107.15 107.23 107.26 107.24 107.35 107.63 107.39 107.40 107.31 107.30 107.37 107.48 107.68 107.87 108.04 108.21 108.34 108.50 108.59 108.68 108.80 108.93 109.09 109.27 109.44 109.57 109.69 109.86 109.97 110.04 109.99 109.91 109.84 109.71 109.43 109.00 108.42 107.70 106.98 106.34 105.83 103.38 101.23 104.08 104.28 104.53 106.46 107.88 108.56 108.69 108.86
107.22 107.29 107.36 107.33 107.27 107.33 107.57 107.38 107.37 107.27 107.27 107.34 107.45 107.61 107.82 108.00 108.15 108.32 108.48 108.62 108.70 108.77 108.93 109.10 109.29 109.43 109.57 109.70 109.82 109.99 110.06 110.03 109.95 109.87 109.72 109.45 109.02 108.43 107.71 106.96 106.36 105.92 101.25 102.58 104.04 104.28 104.64 106.49 107.95 109.36 108.77 109.01
107.30 107.40 107.43 107.40 107.35 107.39 107.60 107.40 107.28 107.17 107.20 107.27 107.38 107.55 107.77 107.95 108.08 108.25 108.43 108.60 108.70 108.79 108.93 109.11 109.30 109.47 109.59 109.69 109.85 109.98 110.07 110.06 110.00 109.91 109.74 109.46 109.02 108.42 107.71 106.93 106.41 106.12 100.20 104.08 104.23 104.40 105.49 106.25 108.56 108.86 109.01 109.18
107.31 107.38 107.42 107.40 107.38 107.42 107.61 107.32 107.30 107.15 107.19 107.26 107.34 107.53 107.75 107.93 108.08 108.25 108.44 108.60 108.71 108.79 108.92 109.08 109.27 109.43 109.56 109.69 109.83 109.96 110.11 110.13 110.06 109.97 109.81 109.51 109.04 108.39 107.59 106.89 106.43 104.67 100.40 104.38 104.50 104.62 106.27 107.25 109.49 109.05 109.16 109.12
107.31 107.38 107.40 107.41 107.40 107.35 107.58 107.38 107.38 107.25 107.24 107.27 107.32 107.47 107.68 107.90 108.07 108.25 108.47 108.63 108.74 108.83 108.94 109.11 109.31 109.46 109.58 109.70 109.82 109.98 110.15 110.20 110.14 110.00 109.79 109.43 108.88 108.18 107.44 106.89 106.40 103.16 100.93 104.60 104.83 105.73 106.43 107.27 109.67 109.00 109.53 109.22
107.30 107.37 107.43 107.39 107.46 107.42 107.62 107.43 107.43 107.35 107.30 107.33 107.42 107.55 107.72 107.93 108.07 108.24 108.47 108.66 108.78 108.87 109.00 109.16 109.33 109.50 109.63 109.78 109.89 110.00 110.12 110.15 110.08 109.89 109.60 109.17 108.58 107.83 107.14 106.71 106.42 101.65 103.49 105.07 105.67 106.49 106.68 107.12 107.48 107.86 108.13 108.39
107.33 107.37 107.41 107.40 107.45 107.47 107.62 107.55 107.58 107.41 107.40 107.41 107.50 107.60 107.75 107.95 108.11 108.29 108.48 108.68 108.82 108.90 109.05 109.21 109.36 109.52 109.69 109.80 109.87 109.95 110.05 110.05 109.95 109.74 109.38 108.87 108.17 107.49 107.01 106.69 103.24 100.99 105.05 105.40 106.62 106.53 108.70 108.68 108.45 108.38 108.47 108.70
107.34 107.42 107.43 107.43 107.43 107.44 107.69 107.67 107.68 107.50 107.50 107.54 107.57 107.69 107.79 107.97 108.14 108.31 108.50 108.70 108.81 108.93 109.06 109.20 109.34 109.51 109.66 109.76 109.82 109.87 109.95 109.93 109.79 109.52 109.11 108.53 107.98 107.47 107.09 102.27 101.24 103.98 105.30 106.66 106.59 107.04 109.07 108.79 108.80 108.92 108.87 109.04
107.41 107.45 107.49 107.50 107.46 107.49 107.70 107.75 107.64 107.53 107.60 107.64 107.70 107.77 107.89 108.01 108.14 108.32 108.51 108.70 108.85 108.96 109.08 109.22 109.36 109.53 109.68 109.78 109.82 109.86 109.91 109.90 109.70 109.34 108.86 108.29 107.91 107.22 103.01 101.47 103.74 104.84 105.51 106.67 107.30 109.26 109.08 108.89 108.94 108.91 108.94 109.05
107.44 107.47 107.49 107.51 107.49 107.51 107.76 107.83 107.74 107.68 107.71 107.75 107.79 107.84 107.93 108.02 108.17 108.32 108.49 108.70 108.88 109.01 109.14 109.27 109.42 109.55 109.68 109.75 109.77 109.79 109.82 109.77 109.52 109.07 108.53 108.08 107.74 104.60 101.26 103.75 104.76 105.36 106.79 107.37 107.56 109.40 109.15 109.00 108.91 108.91 108.99 109.62
107.53 107.51 107.53 107.52 107.52 107.55 107.81 107.92 107.78 107.68 107.75 107.79 107.87 107.92 107.98 108.09 108.21 108.38 108.57 108.77 108.93 109.04 109.13 109.25 109.38 109.53 109.63 109.69 109.71 109.71 109.68 109.57 109.26 108.75 108.17 107.80 107.52 103.20 101.60 104.96 105.14 105.56 106.74 107.68 108.77 109.53 109.26 108.94 108.95 108.98 108.99 110.01
107.57 107.58 107.62 107.59 107.63 107.60 107.83 107.94 107.85 107.72 107.81 107.87 107.94 107.99 108.05 108.13 108.23 108.40 108.57 108.76 108.92 109.04 109.14 109.24 109.36 109.49 109.58 109.64 109.65 109.60 109.51 109.32 108.93 108.37 107.79 107.43 106.22 102.19 103.21 105.16 105.29 106.90 107.58 108.02 109.64 109.68 109.39 108.94 108.83 109.10 109.14 110.00
107.62 107.62 107.64 107.62 107.62 107.68 107.89 107.99 107.88 107.75 107.82 107.91 107.94 108.01 108.07 108.16 108.26 108.41 108.60 108.79 108.94 109.03 109.12 109.22 109.35 109.46 109.55 109.57 109.53 109.45 109.31 109.07 108.61 108.00 107.45 107.14 105.42 101.99 105.06 105.23 105.64 106.96 107.76 109.67 109.80 109.80 109.90 109.92 109.00 109.88 110.09 110.34
107.65 107.68 107.67 107.68 107.71 107.72 107.89 108.09 107.88 107.78 107.87 107.94 108.03 108.06 108.14 108.19 108.29 108.45 108.64 108.85 108.97 109.04 109.11 109.21 109.32 109.43 109.51 109.51 109.43 109.31 109.09 108.78 108.27 107.62 107.24 106.74 103.14 102.56 105.26 105.31 106.42 107.04 108.12 109.81 110.01 109.91 109.98 110.04 110.25 110.42 110.51 110.60
107.74 107.72 107.71 107.72 107.73 107.72 107.91 108.10 107.94 107.83 107.89 107.96 108.05 108.11 108.19 108.29 108.39 108.55 108.74 108.89 109.00 109.08 109.16 109.25 109.34 109.43 109.46 109.41 109.31 109.12 108.85 108.44 107.87 107.43 107.07 104.32 102.10 104.99 105.35 105.59 107.35 107.71 109.96 110.04 110.38 110.47 110.44 110.21 110.47 110.80 111.07 110.92
107.77 107.77 107.75 107.72 107.74 107.75 107.98 108.10 107.95 107.85 107.90 108.00 108.07 108.18 108.28 108.41 108.55 108.68 108.82 108.93 109.05 109.11 109.21 109.29 109.35 109.40 109.39 109.30 109.13 108.89 108.54 108.09 107.65 107.31 105.30 102.22 104.32 105.21 105.47 105.86 107.41 108.00 108.22 110.35 110.60 110.56 110.56 110.46 110.54 110.72 110.93 111.02
107.80 107.82 107.79 107.82 107.79 107.83 107.97 108.13 107.93 107.87 107.96 108.07 108.16 108.27 108.39 108.54 108.66 108.75 108.83 108.91 109.00 109.08 109.18 109.26 109.32 109.34 109.29 109.15 108.93 108.60 108.21 107.83 107.51 106.62 102.07 104.58 107.45 107.07 106.72 107.61 107.41 108.02 110.39 110.38 110.36 110.64 110.68 110.62 110.51 110.85 111.00 111.04
107.90 107.89 107.86 107.85 107.86 107.89 107.99 108.15 108.00 107.90 108.00 108.10 108.19 108.30 108.45 108.62 108.73 108.81 108.85 108.90 108.97 109.07 109.16 109.23 109.28 109.27 109.20 109.03 108.74 108.37 107.92 107.60 107.35 102.60 104.44 105.32 106.95 107.33 107.61 107.74 107.91 108.34 110.29 110.37 110.43 110.67 110.75 110.73 110.57 110.99 111.15 111.18
107.95 107.96 107.93 107.93 107.90 107.91 108.01 108.21 108.03 107.94 108.07 108.16 108.26 108.40 108.54 108.68 108.77 108.82 108.86 108.90 108.98 109.08 109.15 109.21 109.24 109.21 109.12 108.90 108.55 108.06 107.62 107.33 105.20 102.66 104.95 105.39 105.57 105.79 106.51 107.79 108.10 109.79 110.33 110.43 110.53 110.64 110.76 110.79 110.69 111.02 111.03 111.03
108.07 108.05 108.07 108.01 107.98 107.98 108.07 108.28 108.05 108.06 108.09 108.22 108.34 108.48 108.65 108.79 108.87 108.85 108.88 108.92 109.00 109.07 109.13 109.18 109.18 109.10 108.96 108.69 108.28 107.80 107.48 107.13 103.48 104.26 105.13 105.41 105.67 106.05 107.10 107.84 108.31 110.29 110.44 110.60 110.63 110.69 110.78 110.87 110.88 110.94 111.10 111.22
108.20 108.21 108.21 108.17 108.15 108.06 108.11 108.32 108.11 108.18 108.21 108.30 108.46 108.57 108.75 108.90 108.98 108.97 108.94 108.99 109.04 109.12 109.14 109.17 109.14 109.03 108.85 108.54 108.09 107.65 107.29 107.15 102.40 105.21 105.47 105.58 105.82 106.28 107.76 107.82 108.55 110.81 110.88 110.83 110.89 110.98 110.99 111.27 111.48 111.18 111.21 111.38
108.29 108.28 108.28 108.29 108.24 108.17 108.18 108.40 108.16 108.19 108.26 108.39 108.52 108.66 108.84 108.99 109.04 109.01 109.00 109.03 109.11 109.14 109.13 109.11 109.04 108.90 108.68 108.32 107.93 107.57 107.26 106.58 102.83 105.44 105.71 105.77 106.03 106.49 108.10 108.05 108.72 110.74 110.82 110.99 111.08 111.17 111.29 111.49 111.58 111.29 111.38 111.61
108.28 108.29 108.28 108.27 108.27 108.19 108.29 108.49 108.21 108.32 108.40 108.47 108.64 108.81 108.95 109.08 109.10 109.07 109.04 109.10 109.14 109.17 109.12 109.07 108.94 108.74 108.47 108.07 107.68 107.33 107.03 105.28 103.82 105.67 105.85 105.94 106.18 106.65 108.13 108.16 108.54 110.78 110.88 110.99 111.08 111.27 111.39 111.56 111.65 111.60 111.51 111.66
108.30 108.28 108.28 108.29 108.25 108.22 108.32 108.55 108.44 108.49 108.42 108.60 108.72 108.86 109.03 109.14 109.18 109.11 109.10 109.11 109.15 109.17 109.11 109.03 108.85 108.60 108.31 107.90 107.50 107.19 107.02 104.26 105.06 105.82 105.96 106.05 106.27 106.76 108.20 107.86 108.60 110.97 110.98 111.09 111.01 111.32 111.40 111.62 111.62 111.57 111.86 111.89
108.33 108.31 108.30 108.28 108.32 108.30 108.34 108.64 108.50 108.51 108.49 108.65 108.78 108.93 109.07 109.18 109.19 109.13 109.13 109.17 109.18 109.17 109.10 108.97 108.75 108.49 108.15 107.74 107.30 107.10 106.93 103.36 105.59 105.88 106.08 106.21 106.36 106.81 108.24 107.88 108.67 110.95 110.96 111.08 111.15 111.31 111.36 111.52 111.59 111.58 111.82 111.98
108.37 108.37 108.36 108.38 108.36 108.34 108.42 108.74 108.52 108.61 108.57 108.76 108.89 109.02 109.16 109.27 109.27 109.18 109.19 109.23 109.21 109.18 109.08 108.92 108.68 108.35 107.98 107.57 107.21 107.06 106.83 103.27 105.81 106.01 106.24 106.40 106.54 106.96 108.21 107.79 108.72 110.96 110.98 111.10 111.12 111.45 111.47 111.53 111.70 111.79 111.79 111.95
108.45 108.45 108.41 108.43 108.42 108.42 108.49 108.76 108.59 108.71 108.74 108.88 108.97 109.10 109.25 109.36 109.35 109.32 109.30 109.31 109.28 109.25 109.12 108.93 108.65 108.29 107.91 107.50 107.18 107.04 106.85 103.45 106.02 106.21 106.39 106.54 106.64 107.12 108.24 107.92 108.86 111.19 110.99 111.10 111.12 111.55 111.62 111.76 111.86 111.90 111.81 111.91
108.46 108.48 108.50 108.49 108.49 108.50 108.53 108.77 108.72 108.84 108.85 108.98 109.11 109.24 109.41 109.50 109.49 109.44 109.42 109.43 109.38 109.32 109.15 108.93 108.61 108.22 107.86 107.48 107.21 107.04 106.93 103.12 106.17 106.29 106.40 106.54 106.68 107.13 108.20 108.12 108.90 110.93 110.98 111.09 111.11 111.29 111.68 111.72 111.75 111.90 111.78 111.61
108.55 108.56 108.56 108.55 108.52 108.51 108.59 108.81 108.81 108.90 108.88 109.08 109.23 109.34 109.48 109.56 109.55 109.52 109.53 109.55 109.53 109.40 109.21 108.90 108.55 108.16 107.78 107.42 107.19 107.05 106.97 103.06 106.18 106.29 106.38 106.53 106.70 107.13 108.25 108.58 108.88 110.65 110.79 111.01 110.60 110.15 110.56 110.68 111.01 111.38 111.41 111.47
108.62 108.62 108.63 108.62 108.60 108.57 108.62 108.83 108.90 109.01 109.01 109.17 109.31 109.46 109.61 109.68 109.62 109.60 109.62 109.61 109.55 109.41 109.17 108.85 108.49 108.08 107.70 107.37 107.13 107.05 106.56 103.72 106.26 106.33 106.40 106.56 106.79 107.25 108.33 108.69 108.77 109.26 109.39 109.42 109.71 110.02 110.32 110.61 110.95 111.21 111.34 111.49
108.68 108.66 108.68 108.68 108.67 108.60 108.72 108.95 109.01 109.13 109.10 109.24 109.39 109.54 109.69 109.78 109.74 109.72 109.72 109.74 109.64 109.47 109.21 108.86 108.46 108.09 107.71 107.38 107.18 107.08 103.97 104.53 106.33 106.43 106.46 106.63 106.87 107.30 108.51 108.63 108.90 108.95 109.14 109.41 109.72 110.03 110.33 110.65 110.98 111.27 111.45 111.60
108.75 108.74 108.75 108.73 108.69 108.71 108.74 109.09 109.13 109.26 109.17 109.31 109.46 109.65 109.82 109.91 109.90 109.87 109.87 109.85 109.71 109.54 109.26 108.88 108.48 108.09 107.76 107.40 107.26 107.11 103.60 105.74 106.33 106.50 106.57 106.75 107.05 107.43 108.67 108.53 108.88 109.00 109.25 109.56 109.83 110.13 110.46 110.81 111.12 111.38 111.60 111.78
108.85 108.86 108.87 108.86 108.86 108.75 108.90 109.20 109.21 109.29 109.32 109.50 109.64 109.82 109.99 110.06 110.03 109.98 109.99 109.93 109.77 109.55 109.23 108.84 108.46 108.10 107.79 107.48 107.33 106.99 104.04 106.13 106.57 106.59 106.67 106.86 107.23 107.61 108.82 108.54 109.01 109.18 109.48 109.78 110.04 110.31 110.62 110.97 111.29 111.55 111.78 111.98
108.93 108.96 108.96 108.97 108.85 108.88 109.25 109.21 109.30 109.33 109.44 109.60 109.75 109.96 110.12 110.16 110.11 110.08 110.07 110.00 109.83 109.57 109.25 108.87 108.51 108.13 107.85 107.58 107.33 106.91 105.10 105.17 106.65 106.74 106.81 107.01 107.38 107.79 108.99 108.98 109.22 109.40 109.64 109.92 110.14 110.40 110.71 111.06 111.38 111.66 111.91 112.12
109.01 109.02 109.00 108.98 108.90 109.09 109.27 109.22 109.31 109.38 109.55 109.72 109.86 110.07 110.24 110.27 110.24 110.20 110.12 110.04 109.86 109.57 109.23 108.85 108.50 108.19 107.89 107.61 107.33 107.03 106.56 104.20 106.79 106.93 107.02 107.18 107.60 108.09 109.21 109.15 109.39 109.54 109.77 110.06 110.32 110.57 110.87 111.25 111.60 111.83 112.06 112.29
109.12 109.11 109.10 108.96 109.10 109.50 109.22 109.31 109.29 109.48 109.64 109.77 109.91 110.09 110.25 110.32 110.30 110.28 110.24 110.12 109.90 109.60 109.25 108.89 108.53 108.21 107.94 107.70 107.48 107.27 106.99 103.79 106.93 107.15 107.28 107.44 107.83 108.46 109.43 109.32 109.44 109.66 109.93 110.15 110.42 110.78 111.13 111.45 111.78 112.04 112.30 112.52
109.18 109.16 109.07 109.22 109.49 109.40 109.38 109.31 109.43 109.57 109.69 109.85 109.97 110.15 110.32 110.39 110.39 110.39 110.35 110.25 110.02 109.73 109.38 109.00 108.67 108.37 108.09 107.85 107.62 107.44 107.22 104.25 107.18 107.39 107.52 107.72 108.25 109.26 109.40 109.52 109.61 109.85 110.09 110.38 110.71 111.04 111.35 111.68 111.96 112.13 112.36 112.68
109.24 109.17 109.20 109.55 109.58 109.45 109.49 109.44 109.56 109.67 109.80 109.89 110.08 110.27 110.43 110.49 110.49 110.51 110.46 110.36 110.14 109.85 109.49 109.15 108.78 108.50 108.23 107.97 107.78 107.65 106.88 104.68 107.41 107.62 107.74 108.03 108.51 109.74 109.54 109.71 109.80 109.98 110.21 110.51 110.94 111.26 111.57 111.89 112.16 112.43 112.68 112.88
109.29 109.26 109.53 109.66 109.55 109.66 109.62 109.67 109.72 109.83 109.92 110.01 110.17 110.38 110.54 110.60 110.61 110.60 110.58 110.45 110.22 109.92 109.57 109.25 108.90 108.63 108.35 108.10 108.00 107.84 104.72 105.56 107.59 107.82 107.98 108.33 108.99 109.80 109.75 109.89 110.05 110.30 110.58 110.85 111.18 111.48 111.76 112.06 112.39 112.61 112.86 113.07
109.32 109.47 109.86 109.75 109.68 109.70 109.72 109.82 109.91 109.97 110.06 110.15 110.32 110.51 110.66 110.72 110.74 110.75 110.72 110.60 110.35 110.06 109.72 109.35 109.00 108.69 108.42 108.21 108.14 108.02 104.11 106.72 107.80 108.07 108.29 108.80 110.03 109.84 109.93 110.06 110.28 110.57 110.86 111.15 111.44 111.73 112.00 112.27 112.57 112.82 113.04 113.28
109.51 109.66 109.86 109.66 109.74 109.69 109.75 109.83 109.94 110.06 110.19 110.29 110.45 110.64 110.78 110.85 110.85 110.86 110.85 110.72 110.51 110.19 109.82 109.48 109.13 108.78 108.51 108.23 108.24 108.24 104.80 107.69 107.95 108.23 108.54 109.09 110.14 110.04 110.13 110.28 110.57 110.83 111.10 111.38 111.67 111.97 112.26 112.52 112.77 113.05 113.29 113.53
109.25 109.84 109.77 109.79 109.69 109.79 109.86 109.95 110.07 110.17 110.29 110.40 110.55 110.75 110.89 110.93 110.94 110.93 110.90 110.78 110.57 110.32 109.97 109.62 109.29 108.93 108.65 108.41 108.41 107.19 105.03 107.73 107.97 108.31 108.74 109.73 110.17 110.20 110.30 110.55 110.83 111.11 111.39 111.65 111.92 112.22 112.50 112.76 113.01 113.25 113.48 113.74
110.10 109.91 109.78 109.79 109.80 109.88 109.95 110.04 110.13 110.24 110.36 110.49 110.64 110.86 110.99 111.01 111.05 111.06 111.04 110.95 110.77 110.52 110.18 109.85 109.49 109.12 108.83 108.57 108.61 107.20 105.08 107.83 108.08 108.38 108.89 110.47 110.47 110.45 110.57 110.86 111.12 111.40 111.68 111.94 112.22 112.48 112.74 113.01 113.26 113.47 113.76 113.97
110.04 109.74 109.85 109.79 109.89 109.93 110.03 110.14 110.27 110.40 110.54 110.65 110.80 111.00 111.12 111.16 111.18 111.19 111.16 111.10 110.89 110.61 110.32 109.94 109.57 109.21 108.90 108.73 108.64 107.21 105.48 107.83 108.21 108.57 109.16 110.68 110.60 110.64 110.84 111.14 111.41 111.67 111.95 112.23 112.49 112.75 113.02 113.28 113.47 113.73 113.92 114.15
109.94 109.93 109.99 109.97 110.03 110.08 110.17 110.29 110.42 110.55 110.68 110.81 110.97 111.14 111.24 111.30 111.33 111.35 111.33 111.26 111.08 110.85 110.53 110.13 109.75 109.34 109.10 108.91 108.72 107.71 105.22 108.14 108.49 108.89 109.48 110.82 110.74 110.85 111.09 111.39 111.68 111.92 112.19 112.42 112.72 112.97 113.23 113.47 113.70 113.93 114.15 114.33
109.83 109.95 110.00 110.08 110.17 110.23 110.32 110.43 110.54 110.67 110.78 110.90 111.11 111.26 111.39 111.43 111.45 111.48 111.46 111.51 111.38 111.21 110.87 110.51 110.12 109.72 109.37 109.00 108.81 108.51 105.16 108.40 108.78 109.21 110.46 110.90 110.88 111.02 111.29 111.58 111.85 112.15 112.43 112.70 112.94 113.19 113.48 113.73 113.94 114.14 114.33 114.51
109.84 109.88 110.06 110.16 110.24 110.35 110.46 110.57 110.71 110.81 110.94 111.03 111.38 111.53 111.64 111.69 111.76 111.79 111.83 111.80 111.67 111.45 111.08 110.68 110.27 109.82 109.43 109.09 108.88 108.32 105.32 108.62 109.00 109.48 111.35 110.90 111.08 111.21 111.42 111.70 111.98 112.31 112.61 112.90 113.17 113.44 113.68 113.96 114.18 114.40 114.56 114.74
109.78 109.90 110.09 110.26 110.36 110.58 110.70 110.83 110.99 111.12 111.26 111.43 111.61 111.78 111.84 111.87 111.89 111.91 111.96 111.88 111.81 111.58 111.29 110.90 110.46 110.00 109.63 109.30 109.12 106.82 105.77 108.74 109.12 109.68 111.56 111.29 111.32 111.43 111.62 111.86 112.18 112.46 112.75 113.04 113.36 113.65 113.90 114.14 114.34 114.53 114.72 114.88
109.84 109.93 110.24 110.46 110.60 110.76 110.91 111.00 111.13 111.31 111.43 111.61 111.75 111.93 111.99 112.00 112.07 112.15 112.19 112.13 112.07 111.88 111.56 111.17 110.72 110.21 109.79 109.44 109.43 106.08 107.00 108.88 109.33 109.96 111.74 111.50 111.57 111.74 111.97 112.21 112.43 112.66 112.94 113.24 113.55 113.86 114.10 114.35 114.61 114.74 114.92 115.07
110.04 110.04 110.23 110.46 110.68 110.78 110.96 111.11 111.29 111.47 111.66 111.85 112.03 112.18 112.21 112.23 112.31 112.38 112.38 112.36 112.26 112.07 111.77 111.34 110.87 110.35 109.95 109.66 109.64 105.58 108.21 109.11 109.63 110.36 111.96 111.80 111.98 112.16 112.38 112.54 112.74 112.91 113.14 113.42 113.75 114.08 114.35 114.60 114.82 115.00 115.20 115.33
110.24 110.15 110.23 110.45 110.71 110.93 111.12 111.29 111.49 111.68 111.84 112.03 112.21 112.35 112.39 112.41 112.52 112.58 112.60 112.61 112.50 112.26 111.93 111.54 111.00 110.47 110.08 109.69 109.80 105.55 108.62 109.41 109.88 110.65 112.21 112.17 112.46 112.66 112.88 113.01 113.12 113.22 113.41 113.65 114.26 115.12 115.43 114.90 115.12 115.29 115.45 115.55
