ncols 52
nrows 52
xllcorner 442880
yllcorner 5712896
cellsize 10
NODATA_value -9999
117.51 117.67 117.77 117.83 117.86 117.91 117.95 117.99 118.05 118.12 118.19 118.29 118.45 118.58 118.72 118.93 119.10 119.20 119.13 119.04 118.93 118.72 118.37 117.85 117.24 116.63 116.27 114.19 115.45 115.92 116.13 116.26 116.78 119.49 119.83 120.15 120.39 120.54 120.40 120.45 120.59 120.59 120.81 121.02 121.11 121.21 121.24 121.36 121.43 121.88 121.84 121.94
117.78 117.86 117.96 117.98 118.01 118.06 118.11 118.14 118.17 118.23 118.31 118.38 118.51 118.64 118.79 118.98 119.18 119.27 119.23 119.14 119.03 118.88 118.58 118.11 117.52 116.92 116.60 115.51 114.60 116.36 116.47 116.39 119.12 119.89 120.23 120.29 120.42 120.61 120.47 120.48 120.60 120.60 120.83 121.00 121.12 121.24 121.27 121.39 121.42 121.92 121.86 121.96
118.00 118.05 118.11 118.15 118.18 118.22 118.26 118.30 118.34 118.37 118.43 118.47 118.59 118.72 118.86 119.03 119.24 119.33 119.29 119.22 119.16 119.04 118.76 118.33 117.78 117.19 116.86 116.43 114.75 116.35 116.64 116.49 119.64 119.90 120.11 120.34 120.41 120.60 120.56 120.61 120.69 120.62 120.83 121.01 121.16 121.24 121.31 121.38 121.50 121.65 121.89 121.99
118.20 118.24 118.31 118.35 118.35 118.40 118.43 118.46 118.49 118.51 118.54 118.58 118.69 118.81 118.92 119.07 119.28 119.42 119.40 119.35 119.29 119.17 118.93 118.52 117.94 117.35 117.03 116.57 114.69 115.64 116.76 116.56 119.85 120.04 120.21 120.35 120.46 120.44 120.37 120.84 120.97 120.58 120.85 121.01 121.15 121.26 121.29 121.41 121.68 121.94 121.90 122.07
118.38 118.42 118.48 118.52 118.52 118.54 118.59 118.61 118.63 118.65 118.67 118.70 118.81 118.91 119.02 119.13 119.32 119.50 119.49 119.42 119.35 119.29 119.10 118.73 118.18 117.58 117.21 116.46 115.17 115.19 116.91 116.60 119.70 120.29 120.84 120.54 120.70 120.48 120.60 120.97 120.80 120.61 120.85 121.05 121.13 121.24 121.33 121.40 121.60 121.78 121.91 122.08
118.57 118.62 118.65 118.69 118.70 118.72 118.75 118.76 118.77 118.75 118.80 118.83 118.90 119.00 119.10 119.19 119.42 119.57 119.57 119.51 119.46 119.38 119.22 118.92 118.39 117.80 117.48 116.67 115.26 115.78 116.94 116.68 119.94 120.26 120.57 120.59 120.75 120.76 120.82 120.96 120.71 120.63 120.85 121.02 121.14 121.25 121.32 121.40 121.49 121.54 121.93 122.09
118.78 118.79 118.82 118.85 118.87 118.86 118.89 118.90 118.92 118.92 118.93 118.95 118.99 119.07 119.15 119.26 119.46 119.62 119.65 119.61 119.56 119.49 119.36 119.09 118.67 118.12 117.82 116.85 115.46 116.64 116.98 116.77 120.00 120.36 120.68 120.69 120.78 120.87 120.85 120.86 120.80 120.60 120.87 121.06 121.18 121.31 121.35 121.42 121.56 121.72 121.97 122.08
119.03 118.97 118.97 118.98 118.99 118.99 118.99 119.03 119.04 119.04 119.06 119.05 119.11 119.17 119.25 119.37 119.57 119.74 119.75 119.74 119.73 119.66 119.50 119.21 118.86 118.28 117.03 116.44 115.81 116.90 117.06 117.04 120.25 120.56 120.67 120.79 120.82 120.96 120.87 120.74 120.82 120.60 120.85 121.08 121.17 121.26 121.34 121.44 121.57 121.71 122.00 122.10
119.28 119.12 119.07 119.07 119.07 119.10 119.15 119.18 119.20 119.21 119.23 119.22 119.22 119.25 119.34 119.40 119.59 119.43 118.96 118.86 118.70 118.53 118.36 118.19 118.08 117.46 116.79 116.93 116.51 116.92 117.02 117.17 117.59 120.32 120.76 120.80 120.87 121.01 120.93 120.76 120.84 120.64 120.86 121.11 121.21 121.31 121.37 121.42 121.56 121.71 122.01 122.12
119.18 119.20 119.20 119.17 119.13 119.11 119.08 119.00 119.04 119.18 119.19 119.21 119.30 119.24 119.21 119.16 119.25 119.56 119.95 120.05 120.07 120.07 119.90 119.59 119.21 118.69 118.04 116.77 115.60 116.57 117.37 117.93 117.77 118.05 118.63 120.56 120.76 120.72 120.95 120.72 120.86 120.64 120.87 121.11 121.19 121.30 121.37 121.43 121.57 121.72 122.05 122.29
117.97 118.13 118.34 118.44 118.54 118.75 119.23 119.57 119.59 119.56 119.62 119.61 119.57 119.60 119.67 119.81 119.96 120.16 120.29 120.31 120.30 120.21 119.97 119.69 119.30 118.93 118.63 117.46 116.18 116.55 116.08 117.93 115.61 117.70 118.79 119.54 119.47 120.11 120.90 120.61 120.90 120.65 120.86 121.12 121.23 121.31 121.37 121.42 121.55 121.72 122.07 122.20
118.03 119.60 119.85 119.83 119.75 119.71 119.73 119.76 119.76 119.68 119.64 119.63 119.56 119.63 119.71 119.77 119.88 120.07 120.19 120.31 120.36 120.32 120.15 119.85 119.48 119.06 119.15 115.25 117.18 117.63 118.21 117.60 116.77 117.68 119.43 119.79 120.26 120.61 120.79 120.37 120.91 120.67 120.85 121.14 121.22 121.29 121.38 121.42 121.64 121.87 122.06 122.43
117.60 119.76 119.78 119.76 119.77 119.71 119.72 119.70 119.64 119.67 119.62 119.61 119.60 119.67 119.71 119.79 119.94 120.14 120.27 120.36 120.45 120.45 120.33 120.04 119.65 119.22 119.20 115.76 117.69 117.62 117.79 118.71 119.32 116.78 118.81 119.24 120.40 120.71 120.79 120.71 121.07 120.72 120.84 121.03 121.08 121.35 121.37 121.43 121.79 122.19 121.97 122.10
117.36 120.53 119.82 119.83 119.84 119.77 119.76 119.74 119.67 119.67 119.68 119.67 119.72 119.73 119.78 119.88 120.04 120.22 120.42 120.50 120.59 120.62 120.50 120.21 119.82 119.40 119.32 115.52 117.58 117.93 118.14 119.17 119.71 119.93 118.57 119.01 120.60 120.81 120.85 120.83 121.21 120.86 120.93 121.00 121.12 121.25 121.54 121.60 121.74 121.88 122.03 122.27
117.60 120.01 119.92 119.94 119.96 119.90 119.85 119.82 119.80 119.77 119.76 119.76 119.81 119.81 119.86 119.97 120.17 120.34 120.55 120.64 120.72 120.75 120.64 120.37 119.94 119.53 119.32 116.38 117.57 118.07 118.05 119.54 119.83 120.31 120.60 120.81 120.86 120.92 120.91 120.87 121.03 121.27 121.35 121.42 121.64 121.45 121.60 121.80 122.00 121.86 122.06 122.13
119.12 118.44 120.00 120.02 120.04 119.99 119.95 119.92 119.90 119.86 119.86 119.85 119.93 119.92 119.96 120.10 120.27 120.46 120.66 120.75 120.86 120.86 120.75 120.44 120.01 119.58 119.47 116.56 117.53 118.13 118.21 119.98 120.71 120.41 120.68 121.11 121.16 121.28 121.23 121.03 121.07 121.66 121.53 121.29 121.46 121.57 121.90 122.01 122.05 121.68 121.18 122.38
119.56 118.22 119.83 120.03 120.11 120.08 120.01 120.01 119.99 119.95 119.97 119.95 120.00 120.03 120.06 120.21 120.35 120.56 120.77 120.86 120.96 120.99 120.83 120.51 120.05 119.65 119.59 116.71 117.58 118.05 118.33 119.75 120.49 120.60 120.89 121.04 121.26 121.38 121.13 121.11 121.04 121.17 121.35 121.35 121.39 121.76 121.96 121.99 122.04 121.90 121.59 122.23
119.82 117.54 120.53 120.05 120.18 120.19 120.11 120.10 120.08 120.02 120.03 120.04 120.12 120.12 120.17 120.29 120.47 120.68 120.89 121.02 121.09 121.07 120.93 120.55 120.09 119.72 119.70 116.02 116.60 117.83 118.14 119.29 120.46 120.86 121.07 121.24 121.49 121.74 121.26 121.25 121.19 121.51 121.49 121.46 121.33 121.72 121.96 122.04 122.07 122.06 122.18 122.58
120.13 119.13 120.36 120.13 120.21 120.26 120.17 120.17 120.14 120.09 120.11 120.13 120.20 120.23 120.28 120.42 120.59 120.78 121.00 121.12 121.22 121.20 121.02 120.67 120.21 119.86 119.82 116.64 116.91 117.13 117.59 117.47 119.19 121.07 121.33 121.47 121.56 121.69 121.31 121.41 121.36 121.50 121.52 121.55 121.61 121.95 121.93 122.06 122.21 122.32 122.32 122.46
120.39 120.16 118.17 120.08 120.27 120.34 120.27 120.24 120.21 120.20 120.19 120.21 120.27 120.32 120.36 120.51 120.72 120.90 121.12 121.26 121.34 121.31 121.18 120.84 120.41 120.07 119.92 116.54 117.08 117.14 117.37 117.43 119.82 121.05 121.35 121.56 121.72 121.76 121.67 121.85 121.49 121.40 121.52 121.85 121.78 122.16 122.49 122.65 122.10 122.26 122.41 122.54
120.72 120.52 117.77 120.82 120.36 120.40 120.35 120.32 120.29 120.26 120.25 120.31 120.34 120.40 120.51 120.63 120.83 121.03 121.25 121.41 121.50 121.46 121.35 121.05 120.66 120.25 120.04 116.41 117.16 117.23 117.50 120.08 120.50 121.06 121.35 121.58 121.47 121.62 121.47 121.50 121.50 121.60 121.63 121.81 122.69 122.70 122.84 122.82 122.51 122.46 122.50 122.78
121.00 120.80 118.70 120.02 120.48 120.47 120.46 120.40 120.38 120.35 120.35 120.39 120.43 120.53 120.62 120.78 120.98 121.18 121.41 121.55 121.63 121.60 121.50 121.26 120.85 120.45 120.27 116.76 117.24 117.82 119.26 120.07 120.65 121.03 121.41 121.51 121.54 121.43 121.49 121.60 121.62 121.67 121.69 123.44 122.78 122.78 122.81 122.62 122.57 122.54 122.96 123.32
121.13 120.97 120.57 118.72 120.55 120.55 120.55 120.51 120.50 120.44 120.48 120.51 120.55 120.68 120.74 120.92 121.14 121.32 121.54 121.70 121.74 121.75 121.66 121.40 121.02 120.60 120.39 117.91 117.20 118.07 119.71 120.59 120.77 121.18 121.43 121.52 121.58 121.38 121.53 121.48 121.52 121.69 121.89 121.96 122.92 122.88 122.74 122.81 122.79 122.61 123.60 123.58
121.19 121.06 120.85 118.13 120.48 120.67 120.69 120.62 120.60 120.54 120.58 120.61 120.63 120.79 120.89 121.08 121.29 121.49 121.67 121.83 121.88 121.89 121.78 121.56 121.16 120.73 120.51 117.89 117.46 118.61 120.32 120.63 120.93 121.35 121.67 121.58 121.53 121.57 121.43 121.61 121.49 121.67 121.96 121.95 123.74 122.82 122.90 122.82 122.82 122.91 122.90 123.60
121.28 121.20 121.13 118.12 120.49 120.78 120.76 120.72 120.70 120.70 120.71 120.71 120.77 120.92 121.04 121.18 121.43 121.64 121.82 121.96 122.00 122.00 121.89 121.68 121.33 120.94 120.69 119.35 117.45 118.79 120.19 120.47 121.10 121.33 122.00 121.37 121.46 121.50 121.49 121.55 121.47 121.65 121.96 122.24 122.15 122.76 122.82 122.90 123.75 123.44 123.22 123.40
121.33 121.33 121.27 120.24 120.01 120.81 120.85 120.83 120.82 120.82 120.82 120.84 120.90 121.04 121.18 121.32 121.55 121.77 121.94 122.10 122.14 122.15 122.08 121.85 121.54 121.14 120.85 119.68 116.85 118.63 119.54 120.21 122.96 121.63 121.60 121.62 121.49 121.50 121.51 121.54 121.54 121.65 121.88 122.16 122.37 122.72 123.40 124.12 124.04 124.04 123.56 123.33
121.36 121.40 121.41 121.31 118.79 120.79 120.88 120.93 120.93 120.93 120.94 120.97 121.05 121.18 121.33 121.49 121.69 121.92 122.09 122.24 122.31 122.32 122.26 122.06 121.75 121.37 121.04 120.43 116.73 117.74 118.34 120.16 123.29 121.45 121.52 121.57 121.55 121.58 121.58 121.57 121.61 121.68 121.89 122.19 122.48 122.44 123.55 124.13 124.15 123.84 123.70 123.60
121.42 121.49 121.53 121.54 118.03 120.81 120.95 120.99 121.04 121.06 121.05 121.09 121.19 121.35 121.50 121.65 121.87 122.07 122.24 122.41 122.49 122.49 122.42 122.28 121.95 121.56 121.18 121.03 118.51 117.76 118.09 119.83 123.88 121.66 121.46 121.52 121.65 121.62 121.60 121.64 121.58 121.67 121.86 122.17 122.47 122.80 122.77 123.81 124.04 123.60 123.79 123.93
121.47 121.54 121.58 121.70 119.82 120.92 121.06 121.09 121.16 121.19 121.21 121.22 121.34 121.53 121.67 121.81 121.99 122.20 122.37 122.55 122.65 122.66 122.59 122.42 122.15 121.75 121.30 121.07 120.76 117.42 118.30 118.30 121.51 123.70 121.57 121.46 121.60 121.63 121.62 121.62 121.61 121.71 121.79 122.04 122.29 122.74 122.97 123.15 123.15 123.68 123.86 124.04
121.63 121.68 121.74 121.80 121.57 120.71 121.16 121.27 121.31 121.31 121.34 121.38 121.49 121.64 121.82 121.98 122.15 122.37 122.52 122.71 122.80 122.80 122.73 122.60 122.30 121.94 121.45 121.13 120.77 119.56 116.90 118.44 118.60 123.79 123.24 121.80 121.53 121.62 121.60 121.59 121.58 121.66 121.69 121.83 122.35 122.60 122.90 123.17 123.30 123.58 124.01 124.04
121.65 121.67 121.72 121.74 121.82 118.52 121.31 121.36 121.42 121.46 121.47 121.55 121.63 121.81 121.98 122.16 122.34 122.55 122.70 122.88 122.96 122.92 122.88 122.73 122.44 122.07 121.61 121.17 120.93 120.57 117.28 118.55 118.51 120.07 124.20 122.27 121.87 121.57 121.62 121.63 121.63 121.44 121.65 122.22 122.62 122.55 122.56 123.07 123.31 123.43 123.93 124.19
121.72 121.73 121.79 121.84 122.01 118.88 121.33 121.51 121.55 121.61 121.64 121.70 121.82 121.98 122.17 122.32 122.53 122.72 122.85 123.05 123.12 123.05 123.01 122.83 122.59 122.22 121.78 121.32 121.00 120.80 117.35 118.68 118.62 118.93 122.35 124.09 121.55 121.48 121.57 121.46 121.48 121.87 122.46 122.59 122.71 122.82 122.76 122.83 123.42 123.50 123.98 124.16
121.79 121.79 121.84 121.92 122.06 121.51 121.51 121.67 121.71 121.76 121.82 121.89 121.97 122.12 122.33 122.49 122.68 122.88 123.08 123.18 123.27 123.21 123.15 123.00 122.72 122.36 121.93 121.50 121.24 121.04 117.41 119.10 118.88 118.92 120.37 123.36 122.79 122.39 121.56 121.54 121.68 122.76 122.67 122.65 122.74 122.92 122.99 122.96 123.66 123.64 123.71 124.06
121.91 121.92 121.92 122.00 122.16 122.35 119.11 121.80 121.83 121.90 121.98 122.04 122.15 122.27 122.49 122.66 122.85 123.03 123.23 123.34 123.41 123.38 123.31 123.16 122.89 122.54 122.11 121.69 121.51 120.93 117.50 119.19 118.94 119.04 119.40 120.14 124.00 122.11 121.68 122.97 124.51 125.19 122.71 122.77 122.83 122.97 123.07 123.64 123.75 123.89 123.86 123.92
122.16 122.16 122.18 122.21 122.28 122.50 119.49 121.85 122.02 122.07 122.12 122.20 122.30 122.45 122.65 122.82 123.02 123.21 123.37 123.51 123.59 123.55 123.49 123.32 123.08 122.72 122.29 121.89 121.90 117.87 118.76 119.15 119.02 119.15 119.48 119.66 123.29 122.83 122.82 123.35 123.32 124.50 123.72 122.84 122.97 123.01 123.68 123.81 123.88 124.00 124.10 124.06
122.47 122.44 122.45 122.49 122.51 122.63 122.02 121.84 122.14 122.19 122.30 122.38 122.52 122.63 122.85 123.01 123.19 123.40 123.54 123.66 123.77 123.73 123.65 123.51 123.25 122.89 122.47 122.07 121.95 117.88 119.69 119.33 119.02 119.17 119.63 119.68 123.76 122.38 122.99 123.30 124.08 124.72 125.18 123.15 123.01 123.68 123.82 123.98 123.94 124.19 124.20 124.30
122.70 122.69 122.67 122.67 122.68 122.68 122.77 119.94 122.21 122.32 122.48 122.58 122.68 122.82 123.04 123.18 123.37 123.56 123.71 123.82 123.90 123.88 123.78 123.65 123.42 123.05 122.63 122.23 122.15 118.14 119.69 119.50 119.18 119.36 119.90 119.87 122.34 122.71 123.25 123.60 124.28 124.68 125.23 125.33 123.18 123.62 123.93 124.01 124.03 123.94 124.21 124.35
122.85 122.82 122.81 122.78 122.79 122.82 122.81 118.79 122.31 122.46 122.65 122.77 122.87 123.01 123.22 123.37 123.53 123.71 123.84 123.94 124.01 123.99 123.94 123.79 123.57 123.22 122.76 122.31 122.22 119.83 119.09 119.60 119.18 119.42 119.93 121.63 122.57 123.04 123.38 123.76 124.01 124.89 125.32 125.50 124.99 123.42 123.82 124.14 124.15 124.21 124.35 124.40
123.09 123.03 123.01 122.98 122.93 122.92 122.92 120.19 122.26 122.65 122.80 122.94 123.05 123.20 123.39 123.54 123.69 123.84 123.98 124.05 124.13 124.12 124.08 123.93 123.72 123.35 122.89 122.39 122.27 121.17 118.31 119.71 119.30 119.50 120.00 122.03 122.47 123.14 123.58 123.78 124.11 125.16 125.40 125.52 125.75 123.71 123.71 124.04 124.25 124.32 124.40 124.52
123.24 123.19 123.18 123.19 123.12 123.10 123.13 121.48 122.51 122.79 122.93 123.07 123.24 123.37 123.55 123.71 123.86 123.99 124.11 124.18 124.25 124.29 124.20 124.06 123.86 123.48 123.01 122.50 122.63 121.97 118.57 119.74 119.44 119.73 119.86 122.25 122.42 122.91 123.42 123.68 124.02 124.92 125.51 125.68 125.99 125.18 123.75 123.93 124.28 124.37 124.50 124.57
123.50 123.43 123.40 123.35 123.32 123.23 123.24 122.76 120.69 122.95 123.07 123.25 123.42 123.55 123.71 123.89 124.00 124.13 124.24 124.35 124.40 124.41 124.32 124.21 123.95 123.57 123.10 122.53 122.35 122.37 118.60 119.79 119.56 119.66 119.99 122.23 122.12 122.35 123.27 123.57 123.83 124.36 125.61 125.84 125.90 125.62 125.19 124.00 124.14 124.46 124.31 124.63
123.69 123.62 123.60 123.55 123.49 123.47 123.34 123.24 119.47 123.07 123.28 123.46 123.62 123.74 123.90 124.08 124.17 124.28 124.39 124.47 124.52 124.53 124.42 124.31 124.04 123.65 123.15 122.57 122.26 121.47 119.64 120.35 119.96 119.96 120.47 121.97 121.66 122.29 122.47 123.53 123.82 124.16 125.35 125.84 126.06 125.95 125.76 124.28 124.20 124.21 124.56 124.65
123.90 123.82 123.81 123.76 123.69 123.62 123.50 123.39 119.65 123.09 123.44 123.66 123.77 123.92 124.07 124.25 124.33 124.44 124.54 124.61 124.62 124.63 124.49 124.35 124.10 123.69 123.18 122.60 122.18 121.99 119.68 120.79 120.64 120.62 120.90 122.10 121.88 122.32 122.75 123.54 123.88 124.16 125.00 125.68 125.88 125.56 124.62 124.46 124.17 124.48 125.24 125.15
124.07 124.02 124.00 123.96 123.90 123.83 123.70 123.58 121.10 122.99 123.58 123.81 123.97 124.10 124.23 124.40 124.49 124.57 124.68 124.71 124.71 124.71 124.58 124.42 124.15 123.72 123.19 122.62 122.22 122.02 118.99 121.02 120.90 120.93 121.18 122.07 122.27 122.53 122.90 123.74 123.73 124.44 124.51 125.30 124.89 124.67 124.67 124.15 124.50 125.32 125.85 125.91
124.28 124.26 124.25 124.18 124.11 124.04 123.90 123.72 122.18 121.65 123.74 123.96 124.16 124.28 124.39 124.56 124.65 124.69 124.81 124.82 124.81 124.78 124.65 124.46 124.16 123.72 123.16 122.61 122.24 122.01 119.26 121.11 121.04 120.97 121.15 121.65 122.82 122.82 123.21 123.52 123.58 124.27 124.54 125.42 124.72 124.75 124.54 124.63 125.11 125.97 125.92 126.07
124.52 124.43 124.42 124.39 124.33 124.27 124.19 123.97 123.46 121.58 123.91 124.16 124.34 124.43 124.53 124.70 124.77 124.83 124.88 124.91 124.90 124.85 124.72 124.50 124.19 123.71 123.15 122.60 122.26 121.48 120.88 121.15 121.12 121.15 121.51 122.25 123.20 123.07 123.27 123.61 123.95 124.25 124.41 124.71 123.97 125.15 124.77 125.25 125.98 125.92 126.04 126.13
124.68 124.64 124.60 124.59 124.53 124.51 124.43 124.18 123.99 120.85 123.98 124.26 124.47 124.57 124.68 124.82 124.91 124.94 125.01 125.02 124.98 124.93 124.76 124.55 124.18 123.72 123.10 122.58 122.25 119.67 121.20 121.24 121.17 121.22 121.28 122.95 123.44 123.37 123.35 124.11 124.16 124.68 124.53 124.62 125.04 124.92 125.28 125.96 125.98 126.05 126.17 126.26
124.87 124.83 124.79 124.78 124.73 124.71 124.64 124.35 123.93 120.76 124.13 124.49 124.63 124.73 124.84 124.95 125.03 125.09 125.10 125.10 125.04 124.98 124.82 124.57 124.16 123.65 123.07 122.56 122.26 119.40 121.31 121.25 121.32 121.22 121.54 123.16 123.67 123.83 124.00 124.50 124.51 124.92 124.79 125.06 125.07 125.23 125.92 125.98 126.10 126.19 126.25 126.36
125.05 125.02 124.98 124.99 124.96 124.93 124.85 124.53 124.03 121.07 124.19 124.68 124.81 124.90 125.00 125.09 125.16 125.17 125.19 125.19 125.08 125.03 124.87 124.54 124.12 123.60 123.01 122.54 122.33 119.68 121.31 121.40 121.39 121.44 121.73 123.53 124.05 124.45 124.78 124.83 124.95 125.02 125.10 125.19 125.25 125.96 125.94 126.11 126.19 126.24 126.26 126.40
125.22 125.19 125.22 125.20 125.16 125.14 125.08 124.76 124.27 122.00 123.28 124.95 124.99 125.07 125.15 125.24 125.28 125.29 125.29 125.26 125.18 125.07 124.88 124.50 124.10 123.58 123.08 122.68 122.47 122.01 121.27 121.61 121.63 121.60 121.90 123.79 124.56 124.83 124.99 125.11 125.28 125.31 125.21 125.33 126.02 125.96 126.01 126.19 126.27 126.36 126.36 126.42
125.36 125.35 125.35 125.35 125.32 125.32 125.26 125.01 124.63 122.75 123.14 125.08 125.15 125.19 125.29 125.35 125.42 125.41 125.39 125.36 125.29 125.18 124.99 124.60 124.21 123.71 123.31 123.04 122.77 122.25 120.89 121.68 121.73 121.81 122.09 123.79 124.50 124.88 125.16 125.28 125.37 125.21 125.35 125.89 125.95 126.03 126.09 126.28 126.31 126.42 126.43 126.50
125.51 125.50 125.49 125.51 125.48 125.49 125.44 125.21 124.99 123.48 123.04 125.24 125.35 125.40 125.46 125.53 125.61 125.58 125.57 125.56 125.48 125.40 125.18 124.94 124.60 124.09 123.72 123.41 123.06 122.59 120.22 121.90 122.00 121.96 122.18 123.89 124.49 124.90 125.11 125.29 125.21 125.54 125.60 125.85 126.00 126.21 126.26 126.33 126.43 126.42 126.53 126.60
