ncols 52
nrows 52
xllcorner 443392
yllcorner 5713408
cellsize 10
NODATA_value -9999
115.61 115.71 115.82 115.93 116.04 116.22 116.39 116.55 116.73 116.91 117.06 117.21 117.34 117.43 117.53 117.58 117.65 117.63 117.56 117.45 117.33 117.17 117.16 117.27 116.79 116.61 116.54 116.51 116.54 116.61 116.65 116.73 116.78 116.83 116.94 117.08 117.26 117.47 117.65 117.79 117.94 118.14 118.36 118.49 118.51 118.57 118.69 118.86 119.04 119.22 119.36 119.45
115.87 115.92 116.06 116.15 116.27 116.38 116.54 116.71 116.88 117.07 117.23 117.38 117.50 117.60 117.68 117.74 117.83 117.87 117.76 117.65 117.48 117.30 117.27 117.39 116.89 116.80 116.70 116.69 116.70 116.76 116.84 116.89 116.94 117.04 117.15 117.32 117.48 117.66 117.83 118.01 118.18 118.36 118.60 118.69 118.71 118.75 118.86 118.99 119.17 119.32 119.43 119.57
116.02 116.11 116.21 116.31 116.43 116.58 116.78 116.94 117.11 117.25 117.45 117.60 117.72 117.82 117.92 117.95 117.96 117.91 117.81 117.69 117.57 117.37 117.33 117.46 117.05 116.97 116.82 116.82 116.83 116.88 116.92 117.02 117.10 117.24 117.38 117.54 117.69 117.84 118.00 118.18 118.34 118.56 118.75 118.84 118.88 118.95 119.07 119.19 119.31 119.44 119.57 119.68
116.20 116.29 116.35 116.54 116.65 116.81 116.93 117.12 117.25 117.39 117.54 117.71 117.80 117.92 118.04 118.12 118.16 118.04 117.90 117.72 117.54 117.43 117.43 117.53 117.12 117.10 116.92 116.96 116.98 117.00 117.07 117.17 117.29 117.44 117.58 117.73 117.89 118.04 118.21 118.36 118.56 118.75 118.95 119.02 119.06 119.14 119.25 119.36 119.47 119.60 119.73 119.82
116.29 116.38 116.47 116.60 116.75 116.98 117.16 117.30 117.46 117.59 117.72 117.86 117.93 118.04 118.12 118.25 118.29 118.24 118.03 117.85 117.69 117.59 117.49 117.53 117.23 117.18 117.06 117.08 117.10 117.15 117.25 117.40 117.54 117.70 117.86 117.99 118.15 118.30 118.43 118.58 118.71 118.93 119.11 119.19 119.21 119.29 119.40 119.53 119.64 119.73 119.83 119.92
116.47 116.57 116.68 116.84 116.96 117.06 117.24 117.43 117.62 117.77 117.96 118.02 118.15 118.23 118.30 118.39 118.38 118.27 118.04 117.87 117.75 117.61 117.55 117.64 117.40 117.36 117.20 117.22 117.24 117.32 117.47 117.61 117.78 117.94 118.08 118.21 118.34 118.48 118.60 118.71 118.87 119.06 119.23 119.28 119.32 119.44 119.57 119.68 119.79 119.86 119.98 120.09
116.57 116.75 116.85 117.07 117.17 117.32 117.50 117.68 117.82 117.92 118.04 118.11 118.16 118.24 118.36 118.43 118.44 118.35 118.20 118.02 117.91 117.70 117.60 117.71 117.52 117.43 117.30 117.33 117.40 117.48 117.61 117.76 117.96 118.10 118.21 118.32 118.45 118.60 118.75 118.89 119.03 119.21 119.32 119.41 119.46 119.57 119.70 119.81 119.90 120.01 120.13 120.22
116.80 116.93 117.06 117.18 117.32 117.43 117.61 117.78 117.92 118.06 118.16 118.25 118.32 118.40 118.46 118.54 118.57 118.42 118.26 118.10 117.97 117.80 117.69 117.75 117.74 117.53 117.41 117.43 117.51 117.61 117.74 117.94 118.16 118.31 118.40 118.47 118.63 118.80 118.94 119.09 119.23 119.38 119.47 119.49 119.58 119.68 119.81 119.96 120.08 120.19 120.31 120.38
117.00 117.16 117.30 117.44 117.52 117.62 117.81 117.97 118.07 118.22 118.33 118.43 118.49 118.51 118.64 118.64 118.53 118.34 118.20 118.08 117.99 117.82 117.71 117.81 117.94 117.65 117.54 117.55 117.65 117.77 117.94 118.14 118.32 118.46 118.57 118.68 118.83 118.97 119.09 119.22 119.38 119.55 119.62 119.67 119.75 119.85 119.99 120.16 120.28 120.39 120.50 120.62
117.17 117.26 117.42 117.54 117.68 117.82 117.97 118.13 118.26 118.34 118.40 118.48 118.52 118.63 118.67 118.65 118.54 118.37 118.23 118.14 118.01 117.92 117.77 117.85 118.09 117.76 117.63 117.64 117.74 117.88 118.06 118.22 118.41 118.56 118.73 118.89 118.99 119.11 119.24 119.40 119.56 119.75 119.84 119.87 119.94 120.05 120.19 120.33 120.44 120.56 120.66 120.76
117.31 117.43 117.56 117.66 117.79 117.97 118.12 118.26 118.41 118.54 118.59 118.65 118.63 118.69 118.75 118.63 118.53 118.39 118.22 118.17 118.02 117.92 117.83 117.87 118.23 117.85 117.77 117.75 117.85 118.00 118.18 118.37 118.56 118.72 118.83 118.97 119.11 119.28 119.43 119.60 119.77 119.92 120.00 120.02 120.10 120.21 120.32 120.45 120.57 120.68 120.78 120.85
117.51 117.66 117.80 117.94 118.09 118.19 118.35 118.48 118.60 118.65 118.68 118.67 118.72 118.74 118.72 118.56 118.42 118.30 118.21 118.10 118.01 117.92 117.92 117.95 118.31 117.96 117.92 117.88 118.02 118.13 118.31 118.50 118.67 118.77 118.89 119.03 119.18 119.35 119.52 119.70 119.92 120.13 120.17 120.21 120.27 120.38 120.49 120.61 120.71 120.81 120.89 120.97
117.72 117.83 117.99 118.11 118.23 118.35 118.46 118.55 118.60 118.66 118.73 118.72 118.77 118.79 118.70 118.56 118.41 118.29 118.20 118.14 118.07 118.05 118.00 118.12 118.36 118.07 118.10 118.04 118.20 118.27 118.35 118.52 118.68 118.79 118.91 119.08 119.25 119.43 119.61 119.79 120.06 120.31 120.35 120.37 120.43 120.51 120.62 120.70 120.82 120.93 121.02 121.10
117.82 117.92 118.04 118.19 118.35 118.43 118.56 118.63 118.74 118.76 118.74 118.78 118.77 118.81 118.75 118.55 118.46 118.34 118.29 118.21 118.15 118.12 118.15 118.22 118.41 118.36 118.34 118.18 118.19 118.26 118.38 118.52 118.68 118.85 119.03 119.22 119.40 119.61 119.78 119.96 120.19 120.44 120.47 120.52 120.60 120.67 120.78 120.90 120.99 121.10 121.18 121.23
117.93 118.06 118.17 118.29 118.46 118.59 118.69 118.81 118.86 118.89 118.88 118.89 118.87 118.86 118.74 118.64 118.51 118.44 118.38 118.33 118.28 118.27 118.25 118.28 118.38 118.25 118.25 118.25 118.29 118.34 118.45 118.60 118.75 118.90 119.08 119.31 119.55 119.75 119.93 120.10 120.37 120.60 120.67 120.71 120.75 120.83 120.93 121.01 121.08 121.19 121.28 121.33
118.12 118.23 118.36 118.48 118.64 118.76 118.83 118.93 118.97 118.98 118.99 119.01 118.99 118.95 118.78 118.63 118.56 118.51 118.47 118.48 118.42 118.42 118.39 118.41 118.51 118.43 118.36 118.29 118.41 118.50 118.64 118.74 118.87 119.03 119.22 119.45 119.68 119.88 120.07 120.26 120.53 120.73 120.79 120.82 120.86 120.91 120.99 121.10 121.19 121.29 121.40 121.48
118.26 118.42 118.56 118.71 118.81 119.00 119.06 119.17 119.13 119.12 119.16 119.14 119.12 119.02 118.87 118.80 118.69 118.65 118.55 118.56 118.55 118.53 118.51 118.51 118.68 118.71 118.53 118.46 118.57 118.69 118.80 118.92 119.02 119.16 119.34 119.52 119.77 119.99 120.19 120.40 120.64 120.81 120.89 120.93 120.98 121.03 121.10 121.18 121.26 121.36 121.52 121.63
118.44 118.58 118.72 118.88 119.03 119.15 119.24 119.33 119.36 119.32 119.32 119.27 119.20 119.07 118.95 118.87 118.77 118.74 118.68 118.65 118.65 118.64 118.61 118.61 118.79 118.90 118.74 118.65 118.75 118.81 118.90 119.04 119.16 119.28 119.45 119.62 119.87 120.13 120.37 120.57 120.72 120.86 120.94 121.00 121.04 121.10 121.15 121.23 121.33 121.44 121.62 121.80
118.62 118.80 118.90 119.06 119.21 119.31 119.40 119.49 119.57 119.50 119.44 119.34 119.25 119.15 119.01 118.96 118.87 118.83 118.78 118.72 118.74 118.74 118.72 118.72 118.88 119.06 118.85 118.75 118.85 118.94 119.08 119.24 119.35 119.40 119.49 119.63 119.88 120.21 120.49 120.69 120.82 120.93 121.02 121.07 121.11 121.15 121.24 121.31 121.42 121.53 121.74 121.92
118.78 118.96 119.08 119.25 119.39 119.47 119.57 119.63 119.64 119.65 119.55 119.43 119.30 119.21 119.10 119.08 118.97 118.97 118.90 118.85 118.84 118.82 118.84 118.84 118.96 119.21 118.99 118.88 119.00 119.12 119.26 119.37 119.42 119.46 119.54 119.67 119.89 120.20 120.53 120.76 120.89 121.02 121.10 121.16 121.20 121.26 121.33 121.40 121.51 121.65 121.85 122.05
118.89 119.11 119.24 119.39 119.53 119.61 119.70 119.73 119.75 119.72 119.63 119.51 119.39 119.29 119.19 119.12 119.13 119.05 119.00 118.95 118.93 118.90 118.91 118.94 119.09 119.38 119.12 119.04 119.20 119.32 119.43 119.56 119.58 119.60 119.65 119.74 119.91 120.24 120.57 120.82 120.96 121.08 121.15 121.22 121.26 121.31 121.39 121.50 121.61 121.76 121.98 122.21
119.08 119.24 119.41 119.54 119.69 119.75 119.81 119.82 119.81 119.78 119.66 119.58 119.43 119.35 119.29 119.21 119.20 119.13 119.11 119.07 119.10 119.06 119.07 119.08 119.23 119.51 119.22 119.22 119.40 119.52 119.63 119.76 119.82 119.76 119.75 119.83 119.96 120.24 120.59 120.85 121.02 121.11 121.20 121.29 121.36 121.44 121.55 121.69 121.82 121.98 122.16 122.35
119.23 119.39 119.52 119.67 119.77 119.83 119.88 119.89 119.85 119.81 119.73 119.66 119.57 119.51 119.46 119.43 119.40 119.33 119.32 119.28 119.27 119.26 119.20 119.23 119.37 119.65 119.38 119.41 119.54 119.69 119.82 119.96 120.01 119.95 119.93 119.94 120.03 120.26 120.62 120.94 121.14 121.24 121.34 121.42 121.49 121.54 121.64 121.77 121.92 122.05 122.23 122.41
119.37 119.49 119.67 119.73 119.83 119.92 119.98 119.98 119.93 119.90 119.85 119.75 119.69 119.64 119.61 119.57 119.57 119.52 119.51 119.47 119.43 119.42 119.38 119.38 119.50 119.72 119.53 119.55 119.68 119.85 119.98 120.14 120.21 120.18 120.16 120.17 120.24 120.35 120.67 121.02 121.21 121.31 121.39 121.46 121.52 121.59 121.69 121.87 122.01 122.17 122.33 122.50
119.47 119.58 119.71 119.84 119.93 120.00 120.02 120.06 120.00 119.99 119.93 119.85 119.83 119.79 119.77 119.74 119.75 119.69 119.69 119.63 119.63 119.60 119.54 119.54 119.67 119.74 119.71 119.78 119.88 120.01 120.15 120.29 120.42 120.39 120.32 120.35 120.39 120.47 120.68 121.03 121.24 121.35 121.43 121.52 121.61 121.71 121.83 121.99 122.14 122.27 122.43 122.61
119.57 119.68 119.76 119.91 119.99 120.09 120.12 120.14 120.11 120.15 120.04 120.00 119.95 119.92 119.91 119.91 119.90 119.93 119.89 119.84 119.80 119.79 119.72 119.65 119.79 119.90 119.90 120.00 120.01 120.15 120.26 120.43 120.56 120.53 120.45 120.48 120.57 120.62 120.76 121.05 121.29 121.43 121.49 121.59 121.69 121.80 121.96 122.10 122.24 122.35 122.51 122.68
119.71 119.79 119.90 120.01 120.10 120.18 120.20 120.19 120.22 120.23 120.25 120.13 120.14 120.08 120.11 120.07 120.06 120.73 121.39 121.43 121.50 120.66 119.98 120.22 122.10 120.76 120.08 120.10 120.17 120.29 120.42 120.54 120.69 120.68 120.62 120.65 120.76 120.80 120.86 121.06 121.32 121.47 121.57 121.66 121.76 121.92 122.07 122.23 122.32 122.39 122.52 122.70
119.82 119.93 120.01 120.14 120.20 120.23 120.28 120.30 120.32 120.31 120.37 120.68 120.84 120.95 121.03 121.12 121.19 121.35 121.64 121.64 121.53 120.97 120.26 119.98 121.11 121.04 120.36 120.28 120.32 120.46 120.56 120.68 120.82 120.85 120.80 120.84 120.95 121.01 121.03 121.13 121.36 121.52 121.62 121.71 121.85 122.00 122.14 122.28 122.35 122.46 122.58 122.73
119.99 120.07 120.09 120.25 120.38 120.53 120.60 120.69 120.76 120.84 120.92 121.20 121.83 121.03 120.79 120.71 121.43 121.47 121.57 121.54 121.52 120.77 120.36 119.76 121.20 121.20 120.57 120.45 120.48 120.65 120.75 120.89 121.07 121.11 121.01 121.01 121.13 121.23 121.24 121.32 121.46 121.57 121.71 121.85 121.99 122.17 122.31 122.42 122.49 122.52 122.64 122.71
120.61 120.59 120.59 120.57 120.78 120.84 120.87 120.82 120.76 121.06 120.77 120.74 120.76 120.75 120.72 121.35 121.46 121.50 121.55 121.53 121.49 120.95 121.18 120.77 121.26 121.26 120.82 120.66 120.65 120.83 120.95 121.08 121.24 121.30 121.21 121.18 121.35 121.46 121.51 121.56 121.62 121.69 121.82 121.96 122.11 122.25 122.35 122.42 122.47 122.52 122.61 122.74
120.89 120.82 120.64 120.61 120.58 120.63 120.71 120.84 123.12 121.10 120.81 120.81 120.83 120.84 120.85 120.95 121.44 121.45 121.49 121.46 121.43 121.27 121.34 121.29 121.27 121.37 121.01 120.88 120.83 120.97 121.10 121.23 121.41 121.54 121.51 121.46 121.50 121.57 121.59 121.62 121.67 121.73 121.88 122.05 122.20 122.32 122.42 122.47 122.51 122.56 122.65 122.78
120.93 120.83 120.69 120.71 120.74 120.77 120.82 120.87 123.61 121.04 120.79 120.74 120.80 120.81 120.85 120.85 121.48 121.49 121.49 121.46 121.47 121.32 121.48 121.34 121.37 121.42 121.21 121.05 120.98 121.11 121.21 121.33 121.52 121.65 121.71 121.68 121.69 121.72 121.74 121.74 121.77 121.86 121.97 122.11 122.26 122.39 122.43 122.48 122.53 122.58 122.69 122.85
120.75 120.91 120.86 120.81 120.79 120.82 120.79 120.75 123.80 120.95 120.91 120.89 121.01 121.03 121.01 120.96 121.49 121.52 121.48 121.51 121.46 121.36 121.55 121.44 121.57 121.65 121.31 121.17 121.13 121.26 121.35 121.43 121.61 121.82 121.90 121.88 121.87 121.89 121.88 121.87 121.85 121.90 122.01 122.20 122.37 122.48 122.55 122.58 122.64 122.69 122.79 122.93
120.79 120.97 120.93 120.76 120.74 120.79 120.79 120.88 123.59 120.92 120.97 120.96 121.04 121.13 121.06 120.99 121.43 121.46 121.54 121.42 121.46 121.46 121.49 121.52 121.73 122.01 121.47 121.35 121.25 121.36 121.47 121.55 121.71 121.92 122.01 122.03 122.05 122.08 122.06 121.99 121.96 122.01 122.10 122.23 122.41 122.50 122.54 122.57 122.64 122.75 122.83 122.95
120.84 121.03 121.08 120.90 121.14 121.38 121.20 121.11 121.02 120.93 121.06 121.01 121.09 121.16 121.10 121.20 121.32 121.48 121.44 121.42 121.47 121.52 121.72 122.33 121.56 122.53 121.77 121.62 121.47 121.46 121.54 121.67 121.82 122.00 122.10 122.11 122.15 122.19 122.15 122.11 122.07 122.08 122.13 122.25 122.39 122.49 122.56 122.64 122.70 122.81 122.90 123.00
121.19 121.20 121.28 121.07 120.98 120.92 121.06 121.20 121.12 121.24 121.21 121.07 121.15 121.24 121.31 121.29 121.38 121.42 121.42 121.59 121.52 121.52 121.48 122.56 121.58 121.67 121.82 121.83 121.84 121.57 121.69 121.84 121.96 122.07 122.08 122.15 122.21 122.28 122.24 122.23 122.20 122.17 122.18 122.27 122.38 122.53 122.63 122.74 122.79 122.88 122.97 123.08
121.32 121.33 121.32 121.21 121.03 121.22 121.26 121.29 121.20 121.12 121.27 121.16 121.30 121.35 121.38 121.47 121.59 121.46 121.39 121.56 121.52 121.56 121.57 121.65 121.61 121.69 122.03 122.37 122.28 122.20 121.99 122.00 122.05 122.08 122.11 122.17 122.27 122.35 122.34 122.31 122.31 122.27 122.29 122.35 122.47 122.58 122.69 122.82 122.87 122.93 123.04 123.14
121.39 121.40 121.33 121.27 121.13 121.38 121.40 121.46 121.37 121.38 121.50 121.52 121.56 121.56 121.61 121.74 121.74 121.45 121.88 122.17 122.11 122.29 122.07 121.92 123.14 122.41 122.60 123.25 122.94 122.59 122.46 122.17 122.12 122.10 122.15 122.22 122.38 122.49 122.46 122.43 122.40 122.39 122.39 122.40 122.49 122.63 122.78 122.87 122.94 123.02 123.14 123.22
121.42 121.40 121.46 121.53 121.32 121.43 121.63 121.56 121.54 121.53 121.48 121.56 121.73 122.12 122.07 122.00 122.04 123.49 126.04 123.64 122.02 122.19 122.28 122.21 125.51 125.46 122.30 122.20 122.25 122.29 122.51 122.34 122.26 122.21 122.22 122.32 122.43 122.54 122.54 122.52 122.50 122.49 122.51 122.58 122.61 122.68 122.82 122.94 123.04 123.10 123.24 123.39
121.56 121.79 122.33 123.50 124.04 122.60 122.29 122.35 122.34 122.36 122.31 122.23 122.15 122.06 122.10 122.14 122.18 124.04 123.14 122.20 122.10 122.19 122.34 122.32 122.32 123.46 122.41 122.30 122.27 122.28 122.48 122.71 122.39 122.37 122.36 122.41 122.55 122.62 122.64 122.61 122.61 122.63 122.67 122.71 122.77 122.81 122.90 123.01 123.11 123.21 123.38 123.53
121.98 122.30 122.40 122.39 122.41 122.43 122.42 122.41 122.33 122.21 122.12 122.04 122.12 122.20 122.28 122.28 122.21 122.20 122.18 122.33 122.34 122.35 122.41 122.54 122.68 122.87 124.81 122.35 122.35 122.44 122.43 122.72 122.61 122.51 122.48 122.55 122.67 122.76 122.78 122.70 122.70 122.71 122.79 122.84 122.89 122.96 123.03 123.10 123.26 123.38 123.56 123.71
122.23 122.39 122.34 122.45 122.44 122.34 122.28 122.21 122.11 122.05 122.13 122.21 122.37 122.36 122.35 122.31 122.25 122.27 124.38 122.51 122.42 122.54 122.52 122.63 122.76 122.97 122.78 122.54 122.54 122.61 122.72 122.91 122.85 122.62 122.69 122.65 122.79 122.87 122.93 122.87 122.81 122.84 122.88 122.97 123.08 123.11 123.20 123.27 123.39 123.52 123.67 123.82
122.37 122.44 122.49 122.34 122.26 122.17 122.10 122.06 122.14 122.25 122.35 122.30 122.33 122.29 122.35 122.34 122.32 122.45 122.63 122.76 122.85 122.76 122.79 122.80 122.82 122.89 122.96 122.81 122.80 122.88 122.90 122.94 122.89 122.96 122.84 122.82 122.87 123.00 123.05 123.00 123.00 122.99 123.02 123.08 123.19 123.29 123.28 123.35 123.46 123.56 123.71 123.85
122.35 122.29 122.24 122.18 122.07 122.08 122.17 122.22 122.32 122.26 122.23 122.24 122.29 122.34 122.26 122.32 122.38 122.50 122.59 122.64 122.86 123.04 123.12 122.95 123.02 123.11 123.10 123.09 123.04 123.12 123.10 123.29 123.21 123.22 122.90 123.00 122.99 123.06 123.14 123.15 123.10 123.09 123.13 123.16 123.29 123.39 123.38 123.38 123.46 123.60 123.77 123.88
122.36 122.24 122.07 122.11 122.19 122.26 122.33 122.24 122.16 122.08 122.10 122.25 122.15 122.15 122.32 122.37 122.48 122.68 122.70 122.76 122.95 123.09 123.21 123.07 123.18 123.17 123.24 123.23 123.26 123.38 123.44 123.57 123.51 123.42 123.25 123.18 123.14 123.19 123.24 123.27 123.23 123.19 123.21 123.29 123.38 123.45 123.44 123.46 123.47 123.63 123.82 123.97
122.18 122.22 122.15 122.40 122.28 122.24 122.21 122.08 122.04 122.10 122.18 122.23 122.34 122.27 122.35 122.50 122.62 122.69 122.78 123.02 123.09 123.18 123.14 123.17 123.18 123.23 123.21 123.32 123.32 123.32 123.51 123.60 123.68 123.57 123.67 123.25 123.32 123.29 123.35 123.38 123.36 123.33 123.32 123.39 123.46 123.54 123.54 123.53 123.55 123.69 123.89 124.08
121.96 122.00 122.18 122.21 122.19 122.07 122.01 122.10 122.16 122.24 122.36 122.27 122.45 122.36 122.44 122.54 122.66 122.76 122.90 123.15 123.13 123.20 123.17 123.15 123.19 123.28 123.38 123.42 123.51 123.49 123.49 123.74 123.71 123.79 123.65 123.55 123.50 123.48 123.46 123.47 123.46 123.45 123.48 123.50 123.56 123.62 123.62 123.63 123.65 123.77 123.97 124.18
121.86 122.08 122.08 122.15 122.06 122.13 122.35 122.24 122.26 122.26 122.44 122.55 122.45 122.50 122.57 122.69 122.78 122.89 123.03 123.07 123.07 123.07 123.12 123.23 123.32 123.36 123.44 123.53 123.61 123.66 123.82 123.85 123.93 123.85 123.88 123.83 123.57 123.64 123.53 123.54 123.55 123.56 123.56 123.62 123.66 123.71 123.72 123.75 123.78 123.85 124.01 124.22
121.89 122.09 122.12 122.07 122.15 122.25 122.29 122.28 122.31 122.33 122.42 122.54 122.46 122.63 122.71 122.86 122.88 122.88 122.99 123.00 123.07 123.16 123.24 123.32 123.42 123.49 123.54 123.66 123.74 123.82 123.88 124.09 124.09 124.07 124.08 123.88 123.76 123.65 123.61 123.59 123.64 123.65 123.67 123.69 123.75 123.79 123.79 123.85 123.86 123.93 124.08 124.28
121.90 122.08 122.10 122.13 122.18 122.28 122.35 122.35 122.34 122.38 122.38 122.39 122.65 122.65 122.93 122.81 122.88 122.87 122.98 123.11 123.21 123.26 123.35 123.42 123.47 123.65 123.65 123.65 123.99 123.93 124.02 124.33 124.28 124.06 123.52 124.76 123.99 123.78 123.68 123.67 123.71 123.75 123.80 123.85 123.88 123.91 123.95 123.97 124.01 124.03 124.17 124.35
121.94 122.07 122.10 122.10 122.23 122.29 122.37 122.40 122.41 122.42 122.44 122.47 122.53 122.69 122.88 122.80 122.94 123.05 123.07 123.24 123.35 123.36 123.41 123.47 123.59 123.78 124.03 124.14 123.93 124.07 124.20 124.32 124.21 124.18 124.38 124.67 124.43 124.10 123.85 123.81 123.82 123.84 123.90 123.94 124.00 124.02 124.07 124.08 124.11 124.15 124.26 124.39
121.96 122.03 122.11 122.10 122.42 122.31 122.41 122.39 122.44 122.48 122.68 122.84 122.80 122.75 122.85 123.02 123.18 123.23 123.20 123.32 123.39 123.45 123.57 123.71 123.91 123.80 123.82 123.97 124.24 124.10 124.26 124.18 123.52 124.41 124.17 124.06 124.13 124.67 124.12 124.00 123.94 123.96 124.01 124.05 124.09 124.15 124.16 124.14 124.17 124.26 124.33 124.45
