ncols 52
nrows 52
xllcorner 443392
yllcorner 5714944
cellsize 10
NODATA_value -9999
92.64 92.42 92.26 92.04 91.77 90.95 91.32 92.04 91.93 91.97 92.32 92.62 93.50 92.18 92.19 94.31 94.33 94.36 94.34 94.18 93.69 95.40 95.49 97.25 98.08 97.99 98.67 98.93 99.08 99.10 95.92 98.42 98.85 99.16 100.40 100.57 100.59 100.37 100.17 100.18 100.08 99.86 99.58 99.26 99.13 99.12 99.53 101.14 101.09 101.29 101.90 100.73
92.70 92.51 92.33 92.08 91.84 91.24 91.43 92.14 92.49 92.43 92.20 92.20 92.11 92.10 92.93 94.34 94.19 94.40 94.46 94.95 94.46 94.28 94.67 96.98 97.30 97.70 98.81 98.74 99.03 99.05 96.06 98.70 100.01 100.40 100.53 100.62 100.76 100.75 100.12 100.00 99.94 99.33 99.08 98.95 99.88 102.66 102.34 102.25 101.71 102.15 102.70 101.14
92.82 92.56 92.40 92.29 92.07 90.89 91.79 92.60 92.20 92.20 92.20 92.20 92.20 93.43 93.34 94.25 94.33 94.33 94.56 94.54 94.64 94.91 94.94 96.11 96.92 97.81 98.31 98.72 99.03 98.91 96.23 99.90 100.23 100.50 100.59 100.49 100.69 100.58 99.63 99.18 99.76 98.81 98.91 100.37 101.77 102.50 102.61 102.58 103.49 102.67 101.99 101.57
92.85 92.71 92.56 92.48 92.25 92.29 92.20 92.20 92.20 92.20 92.20 92.20 92.87 93.28 93.82 94.10 94.26 94.46 94.75 94.64 95.13 95.73 95.47 95.82 97.03 97.64 98.35 98.87 99.02 99.06 96.39 98.44 98.72 99.70 100.18 100.80 100.84 100.61 99.97 98.61 98.71 99.49 99.77 100.06 101.32 102.67 102.71 103.07 104.40 103.65 101.50 101.10
93.03 92.75 92.62 92.54 92.36 92.27 92.20 92.20 92.20 92.20 92.20 92.89 93.48 93.48 93.58 94.49 94.41 94.44 94.97 95.22 95.36 97.40 98.20 96.07 96.82 97.78 98.39 98.83 98.91 98.79 96.56 98.08 98.53 98.54 98.32 100.60 100.48 98.46 98.48 98.91 99.22 99.49 99.78 100.37 101.35 102.66 102.83 102.90 103.42 103.68 103.64 102.39
92.94 92.92 92.65 92.56 92.32 92.53 92.20 92.20 92.20 92.20 92.33 93.17 93.45 93.67 93.94 94.91 94.82 95.21 95.93 98.08 98.78 98.69 98.30 96.62 96.82 97.82 98.50 98.79 98.85 98.72 96.75 98.01 98.27 98.33 98.27 98.27 98.27 98.58 99.25 99.29 99.24 99.50 99.99 100.22 101.71 102.56 103.04 103.07 103.22 103.79 103.94 103.25
92.91 93.30 93.03 92.61 92.46 92.20 92.20 92.20 92.20 92.20 93.13 93.32 93.75 93.82 94.55 95.09 95.36 97.71 98.66 98.88 98.97 98.86 98.57 98.23 97.17 98.54 98.61 98.72 98.41 98.19 96.93 97.60 97.89 97.78 97.95 98.22 98.85 99.15 99.78 100.60 99.90 100.16 100.66 101.40 102.46 102.74 103.00 103.31 103.46 103.87 104.22 103.73
92.55 93.19 92.96 93.00 92.62 92.20 92.20 92.20 92.20 92.20 93.43 93.76 94.04 94.33 95.39 94.92 95.87 96.81 98.88 99.00 98.93 98.98 98.78 98.00 97.46 97.37 98.46 98.77 98.43 97.75 97.04 97.25 97.51 98.12 98.69 98.74 99.39 99.54 100.08 102.09 100.78 101.24 101.55 101.97 102.52 102.77 103.10 103.46 103.71 104.11 104.40 104.33
93.07 92.97 92.95 92.84 92.20 92.20 92.20 92.20 92.20 92.20 93.07 93.98 94.32 94.36 94.70 95.13 96.28 98.56 98.95 99.21 99.35 99.56 99.52 99.08 98.46 97.81 97.78 97.99 97.88 97.50 97.29 97.47 97.63 98.93 99.11 99.15 99.36 99.75 100.19 102.80 101.19 101.23 101.35 102.63 102.73 102.93 103.28 103.74 104.17 104.28 104.41 104.50
93.06 93.07 93.06 92.69 92.20 92.20 92.20 92.20 92.20 92.20 93.40 94.62 95.08 95.57 95.85 96.07 96.55 98.37 98.71 99.21 99.65 99.85 99.78 99.42 98.67 98.46 97.57 97.50 97.40 97.40 97.11 97.67 98.74 99.79 99.92 99.50 99.90 99.84 101.40 102.55 102.56 101.55 101.65 102.82 102.79 103.15 103.51 103.96 104.74 104.78 104.18 104.69
93.19 93.21 93.28 92.99 92.20 92.20 92.20 92.20 92.20 92.20 94.21 95.31 95.56 95.73 96.08 96.32 96.69 98.22 98.79 99.24 99.59 99.71 99.75 99.67 98.28 97.87 97.65 97.54 97.85 98.67 98.95 98.35 100.61 100.58 100.77 100.41 100.53 101.21 102.18 102.64 102.58 102.25 102.73 102.85 103.04 103.50 103.44 103.65 104.87 105.27 104.86 104.23
93.27 93.34 93.46 93.67 93.13 92.20 92.20 92.20 92.20 92.20 95.01 95.48 95.85 95.95 96.18 96.40 96.78 98.39 99.10 99.19 99.48 99.47 98.64 98.36 97.83 97.82 97.93 98.39 98.66 98.67 99.16 97.15 100.68 101.41 101.90 101.71 102.03 102.45 102.58 102.77 102.85 102.90 102.74 102.97 103.07 103.30 103.42 103.46 104.70 105.22 104.98 104.28
93.60 93.96 94.27 94.62 94.08 92.50 92.20 92.20 92.20 92.20 95.32 96.03 95.96 96.04 96.26 96.45 96.85 98.56 98.02 97.77 97.64 97.60 97.72 97.82 98.32 99.07 98.78 98.65 98.85 98.93 99.16 97.15 101.40 101.96 102.44 102.47 102.26 102.35 102.54 102.63 102.83 103.04 102.85 102.89 103.08 103.23 103.36 103.56 103.72 104.24 104.10 104.21
93.77 94.47 95.35 95.32 94.94 94.48 92.20 92.25 92.20 92.20 94.46 95.55 96.03 96.06 96.18 96.44 96.98 97.37 97.31 97.30 97.41 97.65 99.45 99.14 99.32 99.49 99.11 99.33 99.18 98.92 99.45 97.95 100.10 102.16 103.16 103.05 102.62 102.58 102.62 102.62 102.79 103.00 102.99 103.15 103.24 103.27 103.47 103.62 103.76 103.88 103.98 104.07
93.93 94.38 95.16 95.53 95.28 95.21 94.85 92.87 92.79 92.18 94.37 95.67 96.19 96.48 96.64 97.07 96.94 97.04 97.15 98.60 99.14 99.01 99.47 99.46 100.10 99.83 99.49 99.76 100.03 100.72 100.18 99.75 98.48 102.20 102.60 102.56 102.53 102.77 102.76 103.03 102.82 102.88 103.07 103.13 103.30 103.38 103.47 103.68 103.90 103.88 104.11 104.30
94.19 94.57 95.04 95.64 95.94 95.50 95.32 95.05 95.32 95.84 95.82 96.36 96.69 96.78 96.71 96.75 97.49 98.19 98.27 99.40 99.24 99.48 99.62 99.74 100.63 100.08 99.78 100.00 100.47 100.70 100.80 100.65 97.74 101.93 102.09 102.40 102.48 102.67 102.69 102.70 102.92 102.91 103.06 103.22 103.49 103.59 103.61 103.92 104.13 104.03 104.09 104.16
94.49 94.79 95.34 95.52 96.21 96.04 95.68 95.67 95.74 96.31 96.60 96.67 96.45 96.51 96.88 97.78 98.11 98.37 98.17 98.94 99.50 99.86 99.94 99.95 100.42 100.81 99.96 100.06 100.77 101.20 101.28 101.16 97.74 101.75 102.08 102.40 102.56 102.70 102.75 102.74 102.82 103.04 103.23 103.46 103.50 103.68 103.94 103.90 103.87 103.93 104.11 104.29
94.91 95.15 95.56 95.85 96.24 96.51 96.08 95.79 96.05 96.53 96.57 96.28 96.32 96.58 96.73 98.13 98.01 98.92 99.10 99.24 99.88 100.09 100.65 100.71 100.90 100.81 100.92 101.00 101.04 101.70 102.12 101.96 97.90 101.75 101.94 102.34 102.61 102.76 102.88 103.13 103.00 103.04 103.22 103.35 103.54 103.76 103.80 103.75 103.86 104.07 104.20 104.36
95.20 95.39 95.86 96.18 96.39 96.68 96.65 96.04 96.24 96.54 96.09 96.21 96.54 96.67 96.54 98.44 98.38 98.53 98.85 99.57 100.60 100.62 100.79 100.76 100.94 101.08 101.29 101.60 101.84 101.93 102.19 102.10 98.07 101.29 101.90 102.35 102.63 102.75 102.85 103.11 103.11 103.13 103.21 103.30 103.56 103.56 103.73 103.85 103.98 104.10 104.27 104.46
95.17 95.90 96.57 96.51 96.74 96.81 96.80 96.35 95.81 95.92 96.58 96.58 96.69 97.37 97.69 98.81 98.82 98.90 98.92 99.61 100.77 100.89 101.06 101.12 101.26 101.60 101.64 101.97 101.97 102.07 102.15 101.86 100.11 100.76 102.14 102.49 102.71 102.84 103.04 103.03 103.11 103.21 103.29 103.43 103.60 103.71 103.77 103.97 104.02 104.19 104.35 104.50
95.32 95.97 96.51 96.66 96.97 95.82 95.80 95.73 96.04 96.90 97.32 97.20 97.20 97.65 98.27 99.11 99.12 99.07 99.06 100.14 100.71 100.89 101.13 101.26 101.46 101.76 101.82 102.05 102.04 102.19 102.15 101.89 101.32 100.10 102.44 102.67 102.80 102.95 103.05 103.12 103.20 103.31 103.35 103.50 103.60 103.83 103.97 103.97 104.10 104.24 104.42 104.56
95.55 95.83 96.45 95.99 96.53 95.48 95.67 96.20 96.85 96.86 97.14 97.63 97.94 98.33 98.73 99.64 99.45 99.26 99.10 100.38 100.99 100.95 101.67 101.91 101.89 101.71 101.88 102.08 102.45 102.27 102.25 102.06 102.08 99.24 102.57 102.79 102.88 103.02 103.14 103.24 103.26 103.39 103.45 103.59 103.66 103.84 103.92 104.05 104.21 104.29 104.47 104.59
95.80 95.68 96.11 95.38 95.35 96.02 97.39 97.85 97.36 97.07 97.11 99.57 99.21 98.96 98.91 99.30 99.87 100.11 100.26 100.65 100.84 100.93 101.74 101.88 101.93 101.88 101.92 102.29 102.45 102.41 102.37 102.67 102.61 98.69 102.64 102.87 102.98 103.08 103.19 103.44 103.33 103.47 103.61 103.67 103.67 103.90 104.12 104.11 104.24 104.33 104.52 104.62
95.85 95.54 95.15 95.26 96.70 97.37 98.21 98.59 98.24 99.40 99.60 99.60 99.61 99.25 99.23 99.56 100.03 100.15 100.35 100.59 100.75 100.89 101.39 101.78 101.79 102.33 102.33 102.36 102.57 102.70 102.81 102.82 102.74 98.72 102.81 102.90 103.04 103.14 103.43 103.44 103.44 103.52 103.63 103.69 103.82 103.88 104.21 104.32 104.26 104.43 104.56 104.76
94.88 94.97 95.40 95.59 97.74 98.59 98.63 99.16 99.28 99.79 99.73 99.90 100.07 99.62 99.77 99.71 99.94 100.21 100.38 100.67 100.90 101.03 101.19 102.21 102.23 102.26 102.46 102.59 102.87 102.91 103.92 103.83 102.42 98.98 102.99 102.94 103.12 103.25 103.38 103.50 103.52 103.59 103.69 103.76 103.84 104.01 104.18 104.32 104.36 104.54 104.68 104.72
95.03 96.42 98.18 97.99 98.27 98.62 99.21 99.87 99.21 100.07 100.18 100.01 100.00 100.14 100.27 100.33 100.10 100.22 100.43 100.82 100.98 101.03 101.19 102.28 102.27 102.35 102.52 102.77 102.89 103.07 102.54 100.63 99.88 99.28 102.92 103.11 103.21 103.31 103.45 103.59 103.65 103.68 103.78 103.85 103.94 104.12 104.21 104.48 104.57 104.52 104.71 104.85
96.26 97.65 97.69 98.50 98.51 98.80 99.53 99.82 99.68 99.71 100.11 100.12 100.25 100.40 100.45 100.46 100.39 100.60 100.55 100.80 101.00 101.14 101.34 102.20 102.26 102.07 102.39 102.57 102.24 101.98 101.75 101.68 102.41 100.50 102.27 103.21 103.30 103.43 103.54 103.71 103.79 103.80 103.90 103.99 104.06 104.15 104.31 104.42 104.51 104.65 104.75 104.88
97.36 97.60 97.71 98.64 98.71 99.04 99.48 99.78 99.85 100.23 100.19 100.34 100.40 100.58 100.64 100.71 100.71 100.53 100.74 101.23 101.18 101.07 101.47 102.05 102.10 102.15 102.35 102.58 102.73 102.86 103.06 103.21 103.17 102.01 100.68 103.27 103.40 103.54 103.65 103.83 103.93 103.91 104.02 104.10 104.18 104.27 104.39 104.50 104.60 104.73 104.83 104.94
97.25 97.54 97.60 98.53 98.50 99.10 99.36 99.96 100.13 100.18 99.86 100.56 100.36 100.19 100.58 100.99 101.15 101.37 101.11 101.08 101.32 101.38 101.53 101.71 101.98 102.19 102.39 102.54 102.68 102.90 102.99 103.12 103.29 103.07 99.76 103.38 103.54 103.65 103.75 103.90 104.04 104.07 104.14 104.23 104.30 104.38 104.50 104.61 104.71 104.85 104.93 105.05
96.85 97.43 98.10 98.52 98.65 99.13 99.41 100.00 99.93 100.25 100.20 100.26 100.45 100.62 100.66 100.89 100.83 100.96 101.07 101.15 101.24 101.32 101.48 101.69 101.96 102.13 102.35 102.50 102.66 102.89 103.02 103.16 103.40 103.32 99.88 103.66 103.62 103.74 103.85 103.98 104.14 104.17 104.24 104.35 104.43 104.52 104.65 104.75 104.86 104.98 105.07 105.18
97.16 97.65 97.83 98.48 98.79 99.25 99.79 100.01 100.06 100.29 100.26 100.36 100.50 100.73 100.68 100.67 100.79 100.98 101.10 101.22 101.25 101.33 101.47 101.69 101.96 102.19 102.38 102.53 102.69 102.89 103.08 103.26 103.44 103.37 99.99 103.60 103.69 103.79 103.93 104.03 104.25 104.32 104.37 104.48 104.59 104.69 104.81 104.90 105.03 105.15 105.26 105.40
97.43 97.79 97.80 98.49 98.79 99.31 99.81 100.22 100.00 100.24 100.41 100.41 100.68 100.77 100.71 100.74 100.88 101.00 101.18 101.29 101.31 101.38 101.53 101.71 101.98 102.20 102.40 102.58 102.75 102.94 103.10 103.29 103.47 103.38 100.32 102.48 103.76 103.88 104.02 104.14 104.33 104.49 104.51 104.67 104.77 104.90 105.00 105.13 105.31 105.46 105.65 105.86
97.69 97.96 97.92 98.57 99.60 99.66 99.94 99.93 99.98 100.19 100.32 100.43 100.67 100.84 100.75 100.79 100.93 101.07 101.25 101.35 101.43 101.50 101.58 101.73 101.96 102.25 102.48 102.66 102.86 102.99 103.21 103.33 103.52 103.46 101.21 101.45 103.85 103.95 104.14 104.31 104.51 104.64 104.69 104.80 105.00 105.18 105.39 105.54 105.71 105.79 105.93 106.82
97.94 97.92 98.02 98.83 99.78 99.91 99.84 99.94 99.94 100.73 100.60 100.46 100.96 101.05 100.79 100.85 100.97 101.15 101.31 101.45 101.54 101.61 101.69 101.82 102.04 102.28 102.57 102.77 102.85 103.03 103.18 103.41 103.58 103.60 101.96 100.81 103.99 104.16 104.34 104.52 104.72 104.89 104.95 105.15 105.38 105.55 105.66 105.83 106.60 106.81 106.98 107.14
98.32 98.58 98.92 98.80 99.87 99.94 99.80 99.85 100.03 100.88 100.60 100.49 101.03 101.10 100.81 100.88 100.97 101.14 101.37 101.52 101.64 101.79 101.83 101.98 102.10 102.31 102.57 102.73 102.93 103.10 103.29 103.45 103.58 103.68 102.56 100.31 104.21 104.35 104.56 104.79 104.96 105.17 105.29 105.31 105.88 106.27 106.43 106.61 106.69 106.67 106.37 106.09
98.78 98.80 98.96 98.99 99.85 99.72 100.00 99.99 100.12 100.68 100.68 100.57 101.02 101.31 100.84 100.82 101.00 101.23 101.46 101.62 101.79 101.86 101.93 101.99 102.10 102.35 102.61 102.83 103.02 103.19 103.38 103.56 103.67 103.78 103.22 100.20 104.54 104.54 104.74 104.98 105.06 105.63 105.89 106.07 106.24 106.21 106.27 105.57 105.78 105.88 106.04 106.12
98.95 99.19 99.17 99.21 99.64 99.64 99.93 99.90 100.16 100.60 100.59 100.65 100.78 101.78 100.87 100.93 101.08 101.31 101.44 101.65 101.75 101.95 102.06 102.15 102.25 102.42 102.66 102.89 103.06 103.26 103.49 103.68 103.86 103.97 103.77 100.12 104.68 104.53 105.28 105.51 105.70 105.85 105.78 105.74 105.08 105.52 105.62 105.72 105.80 105.91 106.03 106.18
99.11 99.26 99.29 99.61 99.74 99.80 99.96 100.07 100.14 100.56 100.60 100.77 100.81 102.30 100.91 100.99 101.06 101.25 101.47 101.68 101.85 102.07 102.20 102.28 102.37 102.48 102.71 102.92 103.15 103.38 103.66 103.86 104.04 104.21 104.83 100.15 104.43 105.32 105.36 105.40 105.07 105.12 105.25 105.38 105.47 105.55 105.63 105.73 105.85 105.96 106.11 106.26
99.19 99.39 99.71 99.76 99.82 99.89 99.90 100.28 100.24 101.80 102.21 102.57 102.52 102.99 100.98 101.06 101.29 101.35 101.53 101.75 101.92 102.10 102.27 102.36 102.46 102.61 102.79 103.08 103.29 103.74 103.54 104.31 104.60 104.77 104.91 100.07 104.26 105.02 104.76 104.90 105.10 105.20 105.27 105.32 105.42 105.54 105.68 105.79 105.91 106.05 106.20 106.37
99.27 99.57 99.87 99.99 99.90 99.92 100.02 100.16 100.21 100.24 100.38 100.44 101.89 101.78 101.20 101.46 101.43 101.43 101.55 101.77 101.94 102.15 102.38 102.57 102.66 102.85 103.00 103.36 103.96 104.21 104.40 104.56 104.48 104.54 104.56 100.44 103.32 104.78 104.86 105.02 105.17 105.23 105.28 105.35 105.45 105.60 105.73 105.87 105.97 106.14 106.29 106.47
99.64 99.88 100.04 100.16 99.93 100.03 99.85 100.11 100.18 100.38 100.50 100.68 101.86 101.84 102.09 102.18 101.34 101.47 101.61 101.84 102.09 102.28 102.75 102.44 103.24 103.61 103.82 103.99 104.07 104.07 103.58 104.03 104.33 104.38 104.63 100.35 103.11 104.77 104.88 105.10 105.27 105.31 105.37 105.43 105.53 105.63 105.82 105.93 106.10 106.22 106.39 106.55
99.61 100.06 100.04 100.00 100.05 100.21 100.10 100.12 100.24 101.03 100.96 101.25 101.82 101.98 102.05 102.06 101.34 101.42 101.79 102.12 101.98 103.03 103.28 103.47 103.64 103.58 103.64 102.87 103.64 103.84 104.04 104.18 104.26 104.51 104.61 100.77 102.72 104.77 104.92 105.10 105.32 105.38 105.46 105.51 105.61 105.73 105.89 106.02 106.16 106.32 106.50 106.70
99.71 99.89 100.07 100.04 100.20 100.40 100.43 100.98 101.19 101.25 101.26 101.23 101.62 101.82 101.93 102.04 102.12 101.99 102.68 102.90 103.08 103.25 103.18 102.99 102.70 103.34 103.41 103.60 103.61 103.75 103.89 104.00 104.22 104.48 104.59 101.63 102.25 104.86 105.03 105.15 105.36 105.47 105.54 105.62 105.67 105.79 105.95 106.12 106.28 106.45 106.64 106.83
99.95 99.96 100.18 100.20 100.26 100.53 100.56 101.00 100.99 101.07 101.28 101.39 101.63 101.82 102.05 102.33 102.53 102.71 102.73 102.79 102.24 102.56 102.78 102.97 103.20 103.22 103.37 103.43 103.54 103.65 103.80 104.04 104.22 104.52 104.64 102.57 102.13 105.01 105.14 105.24 105.44 105.51 105.61 105.71 105.80 105.93 106.07 106.24 106.39 106.53 106.73 106.90
99.87 100.23 100.44 100.40 100.42 100.72 100.70 101.04 101.06 101.18 101.38 101.71 101.95 102.16 102.36 102.29 102.31 101.52 102.19 102.29 102.46 102.68 102.77 102.89 103.01 103.16 103.28 103.45 103.62 103.72 103.89 104.12 104.25 104.45 104.65 103.40 102.17 105.14 105.26 105.39 105.50 105.59 105.73 105.85 105.93 106.03 106.14 106.30 106.47 106.62 106.82 107.01
100.08 100.15 100.57 100.57 100.66 100.87 100.87 101.02 101.40 101.60 101.78 101.88 101.90 101.77 101.44 101.85 101.85 102.10 102.25 102.40 102.54 102.61 102.70 102.83 102.96 103.18 103.43 103.55 103.69 103.82 104.00 104.16 104.29 104.49 104.69 104.29 102.49 105.25 105.29 105.39 105.59 105.71 105.83 105.93 106.01 106.13 106.24 106.41 106.54 106.71 106.88 107.07
100.11 100.18 100.63 100.70 100.85 101.08 101.28 101.37 101.42 101.40 101.42 101.62 101.74 101.73 101.94 101.86 101.96 102.09 102.22 102.39 102.57 102.67 102.88 103.02 103.15 103.31 103.51 103.64 103.77 103.91 104.07 104.25 104.35 104.54 104.89 104.45 102.98 105.31 105.37 105.50 105.71 105.82 105.90 106.04 106.12 106.21 106.33 106.51 106.64 106.77 106.94 107.14
100.29 100.52 100.71 100.85 100.92 100.99 101.01 100.96 101.37 101.54 101.71 101.90 101.97 101.72 101.89 101.92 101.98 102.11 102.29 102.53 102.70 102.85 103.01 103.18 103.29 103.43 103.60 103.75 103.89 104.03 104.17 104.34 104.44 104.66 104.99 104.35 103.58 105.12 105.45 105.59 105.83 105.90 106.01 106.11 106.24 106.31 106.45 106.58 106.76 106.92 107.10 107.26
100.50 100.54 100.61 100.60 100.95 100.91 101.10 101.22 101.44 101.56 101.66 101.83 102.01 101.99 101.89 101.96 102.08 102.28 102.48 102.69 102.85 103.02 103.19 103.31 103.42 103.58 103.71 103.86 104.00 104.13 104.28 104.46 104.57 104.77 105.17 104.46 104.13 105.12 105.49 105.63 105.87 105.96 106.07 106.21 106.32 106.43 106.58 106.75 106.88 107.03 107.18 107.35
100.25 100.68 100.88 101.13 101.23 101.02 101.08 101.19 101.37 101.47 101.58 101.66 101.94 102.19 102.04 102.09 102.29 102.46 102.65 102.82 103.00 103.18 103.33 103.50 103.59 103.72 103.84 103.97 104.11 104.24 104.37 104.56 104.67 104.84 105.33 104.75 104.17 105.21 105.44 105.66 105.89 106.04 106.18 106.35 106.44 106.55 106.69 106.83 106.97 107.12 107.29 107.46
101.00 101.00 101.15 101.15 101.26 101.11 101.06 101.11 101.25 101.39 101.52 101.64 101.95 102.33 102.24 102.31 102.48 102.64 102.81 102.97 103.16 103.35 103.49 103.65 103.75 103.86 104.00 104.11 104.21 104.34 104.48 104.65 104.76 104.90 105.10 105.11 103.96 105.21 105.48 105.72 105.95 106.09 106.25 106.42 106.55 106.65 106.79 106.96 107.10 107.30 107.46 107.63
101.10 101.43 101.55 101.47 101.85 101.27 101.12 101.14 101.24 101.42 101.61 101.79 102.07 102.52 102.45 102.52 102.67 102.80 103.00 103.15 103.33 103.49 103.66 103.80 103.92 104.02 104.14 104.26 104.35 104.47 104.59 104.74 104.86 104.96 105.10 105.10 104.09 105.43 105.65 105.87 106.07 106.21 106.36 106.56 106.72 106.89 107.02 107.18 107.34 107.51 107.65 107.79
