ncols 52
nrows 52
xllcorner 443392
yllcorner 5715968
cellsize 10
NODATA_value -9999
90.62 90.43 90.28 90.15 89.99 89.85 89.74 89.60 89.47 89.35 89.21 89.13 89.02 88.88 88.76 88.60 88.57 88.54 87.20 87.31 86.96 86.95 86.96 86.93 87.05 87.07 87.15 87.30 87.31 87.45 87.48 86.06 87.26 87.26 87.35 87.36 87.35 87.32 87.06 87.25 87.65 88.25 88.72 89.06 89.34 89.68 89.97 90.29 90.57 90.79 90.97 91.12
90.66 90.48 90.32 90.16 90.02 89.87 89.72 89.58 89.47 89.35 89.23 89.11 88.96 88.78 88.59 88.43 88.46 88.40 87.85 87.29 86.87 86.92 86.92 86.90 86.97 87.05 87.15 87.28 87.27 87.42 87.39 86.25 87.29 87.41 87.34 87.38 87.31 87.34 87.30 87.35 87.65 88.45 88.87 89.25 89.45 89.79 90.11 90.40 90.62 90.82 90.96 91.08
90.71 90.54 90.40 90.24 90.10 89.93 89.81 89.68 89.54 89.41 89.30 89.13 88.93 88.69 88.44 88.29 88.24 87.78 87.66 87.25 87.08 87.01 86.91 86.91 87.03 87.03 87.18 87.22 87.25 87.42 87.43 87.59 86.22 87.43 87.38 87.40 87.39 87.47 87.40 87.48 87.67 88.64 89.01 89.38 89.54 89.92 90.15 90.40 90.62 90.80 90.93 91.00
90.75 90.57 90.41 90.26 90.10 89.97 89.83 89.70 89.56 89.44 89.30 89.14 88.95 88.70 88.44 88.32 88.24 87.88 87.17 87.03 86.97 86.97 86.94 86.93 86.97 87.03 87.09 87.20 87.24 87.29 87.36 87.54 86.93 87.41 87.36 87.39 87.40 87.57 87.57 87.49 87.71 88.75 89.08 89.45 89.60 89.92 90.16 90.38 90.60 90.69 90.82 90.85
90.78 90.60 90.46 90.30 90.15 89.99 89.83 89.68 89.57 89.42 89.28 89.12 88.94 88.70 88.50 88.31 88.34 87.95 87.00 86.90 86.94 86.99 87.01 86.95 87.05 87.04 87.10 87.18 87.19 87.16 87.43 87.47 87.33 86.18 87.42 87.44 87.42 87.47 87.60 87.57 87.92 88.84 89.14 89.44 89.59 89.86 90.08 90.27 90.40 90.55 90.78 90.85
90.71 90.57 90.40 90.24 90.06 89.89 89.76 89.59 89.45 89.33 89.20 89.04 88.83 88.63 88.47 88.32 87.41 87.32 87.11 86.93 87.07 87.00 87.06 87.03 87.06 87.07 87.15 87.12 87.32 87.29 87.32 87.42 87.73 86.18 87.50 87.47 87.50 87.71 87.57 87.67 87.93 88.86 89.18 89.42 89.56 89.79 90.06 90.28 90.46 90.63 90.81 90.40
90.62 90.48 90.31 90.18 90.01 89.84 89.68 89.51 89.38 89.24 89.08 88.93 88.72 88.53 88.41 88.37 88.06 87.29 87.09 87.06 87.07 86.97 87.01 87.05 87.08 87.12 87.23 87.27 87.31 87.29 87.30 87.53 87.78 86.20 87.63 87.58 87.48 87.53 87.65 87.84 88.12 88.98 89.27 89.47 89.71 89.94 90.15 90.33 89.68 89.19 88.82 89.58
90.59 90.43 90.27 90.12 89.95 89.79 89.60 89.46 89.33 89.21 89.04 88.88 88.70 88.48 88.39 88.37 88.10 87.10 87.08 87.05 87.07 87.02 87.06 87.11 87.15 87.25 87.26 87.39 87.38 87.37 87.55 87.62 87.67 86.23 87.74 87.79 87.84 87.92 88.06 88.19 88.26 88.65 88.86 88.91 88.96 88.90 88.58 88.71 89.48 89.62 89.81 90.00
90.57 90.42 90.26 90.11 89.95 89.80 89.63 89.54 89.39 89.26 89.14 88.95 88.76 88.57 88.42 88.33 88.18 87.09 87.07 87.21 87.03 87.03 87.07 87.22 87.30 87.28 87.40 87.41 87.40 87.42 87.68 87.75 86.22 86.54 87.60 87.65 87.76 87.83 87.86 87.93 87.82 87.83 88.60 88.65 88.81 88.97 89.19 89.43 89.71 89.96 90.16 90.40
90.68 90.53 90.36 90.18 90.01 89.85 89.71 89.59 89.46 89.31 89.16 88.99 88.82 88.56 88.42 88.38 88.24 87.25 86.97 87.12 87.04 87.08 87.13 87.22 87.28 87.43 87.52 87.44 87.59 87.66 87.81 87.90 87.62 87.50 87.60 87.82 87.72 87.73 87.79 87.90 88.38 88.65 88.67 88.74 88.94 89.16 89.46 89.78 90.08 90.31 90.52 90.72
90.76 90.57 90.35 90.17 89.99 89.80 89.63 89.51 89.37 89.26 89.12 88.99 88.82 88.68 88.49 88.29 88.24 87.18 87.10 87.12 87.04 87.15 87.18 87.26 87.42 87.58 87.66 87.60 87.86 86.58 86.39 86.94 87.68 87.63 87.62 87.76 87.73 87.76 87.96 87.95 88.35 88.81 88.80 88.92 89.18 89.46 89.76 90.08 90.41 90.62 90.78 90.93
90.72 90.57 90.39 90.19 90.01 89.87 89.74 89.60 89.50 89.35 89.19 89.03 88.84 88.65 88.53 88.36 88.26 87.25 87.12 87.16 87.13 87.22 87.22 87.39 87.59 87.69 87.71 86.73 87.29 87.39 87.50 87.61 87.59 87.67 87.70 87.75 87.93 88.29 88.55 88.46 88.36 89.08 89.05 89.18 89.50 89.76 90.04 90.32 90.61 90.83 91.00 91.11
90.75 90.56 90.35 90.16 90.01 89.86 89.72 89.60 89.46 89.33 89.20 89.07 88.88 88.68 88.58 88.47 88.32 87.22 87.25 87.25 87.16 87.24 87.29 87.60 87.89 87.89 86.64 87.70 87.59 87.71 87.69 87.73 87.62 87.63 87.64 87.88 88.17 88.42 88.66 88.62 88.46 89.25 89.27 89.46 89.74 90.02 90.29 90.52 90.72 90.92 91.07 91.19
90.77 90.55 90.37 90.18 90.04 89.88 89.76 89.64 89.51 89.41 89.31 89.16 89.01 88.82 88.62 88.57 88.36 87.29 87.27 87.19 87.21 87.36 87.71 88.08 88.42 88.22 86.86 87.69 87.68 87.72 87.72 87.63 87.63 87.61 87.63 88.10 88.25 88.53 88.77 88.79 88.37 88.98 89.48 89.66 89.94 90.20 90.42 90.59 90.75 90.93 91.11 91.26
90.90 90.69 90.49 90.31 90.16 90.00 89.86 89.74 89.65 89.54 89.45 89.31 89.15 88.98 88.80 88.68 88.40 87.57 87.38 87.39 87.29 87.71 88.06 88.45 88.57 88.50 87.99 86.58 87.71 87.78 87.67 87.65 87.58 87.65 87.69 88.21 88.33 88.62 88.90 88.96 88.50 88.37 89.59 89.80 90.07 90.35 90.56 90.76 90.87 90.98 91.17 91.34
91.01 90.78 90.53 90.34 90.15 90.01 89.86 89.75 89.65 89.55 89.46 89.36 89.27 89.17 88.94 88.83 88.48 88.01 87.61 87.41 87.71 88.14 88.40 88.04 88.38 88.50 87.90 87.44 87.76 87.77 87.65 87.65 87.62 87.61 87.82 88.26 88.41 88.69 89.02 89.05 88.73 88.71 89.73 89.95 90.18 90.48 90.72 90.89 90.98 91.06 91.21 91.39
90.96 90.76 90.57 90.42 90.22 90.07 89.93 89.81 89.73 89.65 89.54 89.44 89.31 89.20 89.09 88.96 88.52 87.97 87.65 87.50 88.02 88.33 88.15 88.30 88.43 88.37 87.16 87.76 87.81 87.81 87.65 87.64 87.60 87.58 87.80 88.25 88.49 88.76 89.09 89.15 88.95 88.88 88.68 90.01 90.29 90.59 90.78 90.90 91.04 91.15 91.30 91.51
90.96 90.78 90.57 90.40 90.25 90.07 89.93 89.84 89.75 89.65 89.54 89.43 89.32 89.17 89.08 88.98 88.57 87.71 87.51 87.74 88.18 88.19 88.19 88.35 88.26 88.16 86.82 87.74 87.76 87.53 87.67 87.68 87.62 87.67 87.86 88.28 88.54 88.80 89.12 89.27 89.18 88.89 88.95 90.10 90.35 90.54 90.81 90.98 91.13 91.29 91.43 91.56
90.97 90.80 90.63 90.45 90.28 90.13 90.01 89.92 89.82 89.72 89.59 89.44 89.29 89.18 89.13 89.00 88.62 87.71 87.71 87.99 88.07 88.14 88.15 88.17 88.09 87.31 87.84 87.70 87.70 87.53 87.65 87.67 87.66 87.65 87.95 88.28 88.49 88.77 89.02 89.27 89.43 89.18 89.05 88.71 90.24 90.51 90.85 91.03 91.17 91.32 91.45 91.56
90.96 90.78 90.65 90.49 90.36 90.24 90.11 90.00 89.89 89.77 89.62 89.51 89.35 89.17 89.11 89.02 88.65 87.88 87.90 88.22 88.06 88.18 88.22 88.18 88.03 86.81 87.76 87.80 87.68 87.62 87.62 87.57 87.64 87.68 88.04 88.38 88.56 88.82 89.00 89.24 89.43 89.47 89.22 89.26 90.15 90.47 90.72 90.98 91.17 91.31 91.43 91.57
90.96 90.81 90.68 90.56 90.42 90.27 90.17 90.01 89.90 89.81 89.64 89.52 89.34 89.20 89.16 89.05 88.70 88.00 88.09 88.22 88.13 88.16 88.18 88.21 88.03 87.97 87.72 87.79 87.67 87.63 87.67 87.54 87.64 87.65 88.20 88.34 88.59 88.85 89.06 89.36 89.63 89.70 89.56 89.40 88.81 90.29 90.57 90.85 91.12 91.31 91.50 91.62
90.99 90.86 90.70 90.60 90.46 90.34 90.17 90.09 89.94 89.83 89.68 89.53 89.42 89.25 89.20 89.08 88.73 88.22 88.46 88.57 88.35 88.15 88.11 88.11 87.28 87.88 87.73 87.80 87.68 87.65 87.58 87.58 87.70 87.73 88.26 88.55 88.76 89.00 89.25 89.50 89.77 89.84 89.91 89.89 89.52 90.28 90.50 90.79 91.15 91.36 91.57 91.73
91.05 90.90 90.78 90.63 90.50 90.39 90.26 90.14 90.00 89.85 89.70 89.53 89.41 89.27 89.13 88.37 88.66 88.37 88.75 88.67 88.47 88.13 88.00 88.08 87.07 87.92 87.84 87.81 87.89 87.73 87.55 87.56 87.65 87.93 88.39 88.62 88.80 89.01 89.27 89.54 89.86 90.00 90.18 90.21 89.86 89.21 90.46 90.80 91.15 91.40 91.64 91.79
91.13 90.97 90.86 90.73 90.58 90.44 90.29 90.15 90.04 89.89 89.74 89.61 89.43 89.31 89.15 88.72 88.88 88.89 88.82 88.67 88.25 88.00 88.01 86.97 87.54 87.90 87.90 87.81 87.70 87.79 87.57 87.54 87.79 88.04 88.54 88.65 88.88 89.12 89.40 89.68 89.96 90.13 90.31 90.43 90.33 89.92 90.49 90.88 91.12 91.49 91.83 92.04
91.22 91.07 90.92 90.77 90.63 90.48 90.34 90.20 90.06 89.94 89.76 89.64 89.45 89.37 89.24 88.86 88.92 88.95 88.76 88.62 88.12 88.08 88.04 87.59 87.90 87.61 87.95 87.90 87.85 87.93 87.93 87.91 87.95 88.19 88.69 88.55 88.68 88.88 89.19 89.35 89.69 90.06 90.39 90.67 90.76 90.48 90.19 91.28 91.63 91.93 92.10 92.06
91.22 91.07 90.91 90.76 90.62 90.46 90.32 90.20 90.10 89.99 89.81 89.68 89.54 89.44 88.92 88.32 88.24 88.17 88.15 88.40 88.16 87.94 87.18 87.94 87.87 87.87 87.81 88.08 87.77 87.80 87.70 87.74 87.88 88.22 88.37 88.39 88.52 88.92 89.23 89.50 89.69 89.93 90.24 90.52 90.73 90.61 90.53 91.60 91.85 92.03 92.11 92.08
91.34 91.16 90.98 90.82 90.69 90.57 90.40 90.26 90.14 89.98 89.86 89.75 89.63 89.34 88.84 88.29 88.14 88.07 88.02 88.04 88.02 87.08 88.10 87.91 87.91 87.93 87.78 87.76 87.71 87.88 87.86 87.82 87.99 88.27 88.41 89.01 88.75 88.91 89.21 89.45 89.51 89.76 89.89 90.22 90.64 90.79 90.82 91.69 91.90 92.04 92.07 92.10
91.31 91.09 90.86 90.69 90.61 90.50 90.30 90.14 89.96 89.79 89.71 89.67 89.56 89.13 88.64 88.30 88.12 88.04 88.04 88.05 87.15 88.01 87.34 87.96 87.88 87.85 87.98 87.72 87.80 87.77 87.82 87.74 88.02 88.27 88.38 89.04 89.13 89.16 89.54 89.63 89.59 89.60 90.09 90.15 90.59 90.80 91.23 91.63 91.79 91.92 92.02 92.13
91.32 91.10 90.90 90.76 90.58 90.43 90.31 90.14 90.01 89.85 89.74 89.69 89.22 89.45 88.90 88.55 88.29 88.14 88.05 87.04 88.22 88.11 88.02 87.43 87.94 87.88 87.88 87.83 87.87 87.75 87.85 87.88 87.92 88.27 88.40 89.15 89.57 89.81 89.90 89.93 89.78 89.90 90.16 90.43 90.73 90.79 91.53 91.49 91.62 91.83 92.00 92.18
91.29 91.11 90.90 90.75 90.62 90.46 90.32 90.16 89.99 89.83 89.89 89.74 89.38 89.09 88.99 88.60 88.43 88.15 87.23 87.90 88.16 88.15 87.98 87.94 87.91 87.92 87.95 87.90 87.96 87.90 87.89 87.96 88.00 88.31 88.45 89.41 89.65 89.94 90.10 90.20 90.44 90.73 91.00 91.28 91.33 91.03 91.39 91.38 91.64 91.89 92.06 92.24
91.30 91.12 90.96 90.78 90.61 90.47 90.32 90.19 90.05 89.92 89.98 89.30 89.35 89.22 88.88 88.72 88.50 88.35 87.60 88.23 88.18 88.21 87.78 87.96 87.99 87.92 87.91 87.96 87.93 87.90 87.86 87.98 88.30 89.43 90.16 90.27 90.53 90.78 90.93 91.05 91.20 91.24 91.30 91.36 91.42 91.10 91.32 91.42 91.74 91.96 92.12 92.28
91.25 91.09 90.92 90.74 90.60 90.47 90.35 90.25 90.13 90.19 90.04 89.60 89.38 89.19 89.10 88.72 88.42 87.17 88.16 88.19 88.19 88.26 88.17 87.92 87.95 88.04 88.18 87.90 87.90 87.97 87.97 87.98 88.06 89.25 90.52 90.67 90.74 90.87 90.98 91.14 91.29 91.33 91.35 91.47 91.58 90.93 91.33 91.54 91.83 92.04 92.18 92.33
91.26 91.09 90.95 90.80 90.67 90.57 90.46 90.38 90.27 90.30 89.46 89.98 89.36 89.17 89.12 88.57 87.79 88.34 88.20 88.20 88.37 88.21 88.17 88.21 88.08 88.11 88.05 88.20 88.25 88.09 88.04 87.92 88.06 89.76 90.65 90.72 90.88 90.98 91.09 91.25 91.34 91.40 91.46 91.56 91.64 90.35 91.41 91.65 91.87 92.04 92.19 92.32
91.30 91.12 90.98 90.85 90.71 90.59 90.50 90.38 90.44 90.33 89.86 90.21 89.69 89.32 89.24 87.21 88.35 88.23 88.26 88.13 88.22 88.32 88.31 88.22 88.22 88.07 88.13 88.07 88.15 88.07 88.10 88.17 88.24 90.97 90.90 90.85 90.92 91.01 91.10 91.30 91.35 91.47 91.53 91.61 91.76 90.38 91.54 91.74 91.89 92.06 92.17 92.32
91.32 91.18 91.00 90.85 90.73 90.61 90.50 90.52 90.48 89.86 90.12 90.27 89.96 89.68 87.78 89.00 88.44 88.35 88.02 88.28 88.21 88.32 88.28 88.20 88.26 88.12 88.18 88.13 88.11 88.18 88.42 88.35 88.45 91.04 91.07 90.97 90.97 91.03 91.10 91.26 91.32 91.47 91.61 91.69 91.71 91.17 91.66 91.85 92.03 92.16 92.27 92.38
91.29 91.17 91.00 90.83 90.71 90.62 90.49 90.60 90.39 90.03 90.35 90.43 89.97 88.20 89.51 88.71 88.51 88.01 88.23 88.23 88.30 88.26 88.27 88.34 88.20 88.13 88.11 88.25 88.29 88.24 88.39 88.38 88.57 90.99 91.16 91.08 91.12 91.14 91.19 91.30 91.38 91.56 91.69 91.82 91.45 91.81 91.84 92.04 92.20 92.32 92.40 92.49
91.24 91.06 90.94 90.81 90.71 90.63 90.65 90.59 90.01 89.98 89.94 89.99 89.72 87.82 89.20 88.77 88.66 88.79 88.28 88.31 88.27 88.54 88.35 88.25 88.54 88.33 88.38 88.31 88.37 88.37 88.37 88.51 88.57 90.98 91.14 91.14 91.22 91.25 91.29 91.42 91.50 91.67 91.82 91.97 91.32 91.97 91.99 92.21 92.36 92.48 92.55 92.62
91.26 91.11 91.02 90.91 90.83 90.69 90.72 90.58 90.12 89.77 89.74 89.75 89.65 87.90 89.04 88.29 88.92 88.72 88.44 88.35 88.32 88.32 88.34 88.41 88.27 88.28 88.28 88.30 88.38 88.33 88.42 88.53 88.98 91.14 91.13 91.21 91.29 91.33 91.43 91.54 91.67 91.81 91.95 92.10 91.51 91.93 92.08 92.31 92.48 92.59 92.66 92.72
91.39 91.23 91.07 90.97 90.86 90.83 90.73 90.05 89.87 89.79 89.80 89.74 89.69 88.14 89.07 88.86 89.11 88.45 88.41 88.36 88.41 88.33 88.49 88.27 88.36 88.41 88.49 88.40 88.36 88.48 88.47 88.57 89.98 91.15 91.22 91.32 91.42 91.44 91.49 91.61 91.76 91.96 92.06 92.20 91.58 91.93 92.16 92.41 92.57 92.67 92.77 92.85
91.42 91.26 91.10 90.96 90.82 90.84 90.73 90.25 89.92 89.89 89.83 89.77 89.83 89.35 89.11 89.03 88.66 88.63 88.45 89.46 89.49 88.36 88.43 88.42 88.45 88.39 88.32 88.47 88.47 88.51 88.72 88.71 90.58 91.16 91.25 91.39 91.47 91.47 91.53 91.63 91.77 91.98 92.10 92.28 91.20 91.99 92.24 92.52 92.71 92.81 92.90 92.98
91.43 91.26 91.14 90.97 90.96 90.83 90.26 90.44 90.22 89.95 89.72 89.64 88.89 88.60 89.06 88.92 88.82 88.78 88.46 89.10 88.39 88.40 88.38 88.37 88.51 88.54 88.50 88.52 88.58 88.90 88.83 88.76 90.78 91.18 91.30 91.40 91.50 91.46 91.52 91.66 91.72 91.97 92.10 92.26 90.80 92.06 92.36 92.65 92.85 92.90 93.01 93.10
91.46 91.33 91.20 91.09 91.02 90.71 90.65 90.46 90.16 89.92 89.72 89.62 88.93 89.60 89.00 88.53 88.57 88.65 88.53 88.79 89.40 88.33 88.44 88.36 88.51 88.85 88.53 88.60 88.78 88.79 88.78 88.80 90.99 91.12 91.32 91.42 91.49 91.48 91.53 91.67 91.74 91.93 92.08 92.24 91.08 92.17 92.46 92.75 92.94 93.02 93.15 93.22
91.54 91.38 91.27 91.27 91.05 90.56 90.76 90.46 90.22 90.00 89.81 89.62 89.04 88.56 89.18 88.60 88.79 88.75 88.50 88.71 88.55 88.33 88.38 88.32 88.62 88.54 88.65 88.80 88.73 88.83 89.10 89.18 91.17 91.21 91.41 91.46 91.54 91.56 91.59 91.74 91.86 92.02 92.10 92.34 91.27 92.23 92.57 92.85 93.04 93.14 93.26 93.36
91.58 91.47 91.35 91.29 90.51 91.04 90.75 90.52 90.25 90.00 89.82 89.69 89.65 89.48 89.07 88.90 88.90 88.66 88.59 88.61 88.70 88.68 88.79 88.78 88.51 88.51 88.68 88.83 88.83 89.05 89.01 89.91 91.28 91.33 91.46 91.51 91.54 91.63 91.69 91.82 91.96 92.12 92.19 92.41 91.58 92.25 92.65 92.97 93.17 93.27 93.40 93.48
91.61 91.47 91.53 91.33 90.83 90.94 90.81 90.69 90.50 90.24 89.99 89.81 89.73 89.49 89.16 89.14 88.80 88.82 88.75 88.78 88.72 88.71 88.67 88.78 88.73 88.71 88.82 88.81 88.92 89.05 88.96 90.99 91.29 91.41 91.47 91.51 91.59 91.73 91.75 91.89 92.03 92.18 92.30 92.43 91.76 92.33 92.77 93.10 93.29 93.42 93.49 93.56
91.73 91.62 91.56 90.98 91.28 91.01 90.85 90.64 90.44 90.19 90.00 89.86 89.73 89.48 89.10 88.93 88.88 88.86 88.82 88.68 88.75 88.69 88.75 88.69 88.77 88.72 88.77 88.79 88.95 89.05 89.05 91.17 91.35 91.47 91.54 91.60 91.67 91.80 91.91 91.91 92.03 92.22 92.36 92.35 92.03 92.45 92.88 93.21 93.40 93.52 93.61 93.68
91.88 91.73 91.76 91.22 91.27 91.07 90.93 90.80 90.65 90.49 90.31 90.12 89.87 89.51 89.29 89.20 89.03 88.96 88.76 88.71 88.74 88.72 88.86 88.76 88.84 88.73 88.75 88.97 89.00 89.02 89.10 91.13 91.29 91.48 91.56 91.60 91.67 91.87 91.92 91.93 92.08 92.23 92.38 92.21 92.42 92.60 93.00 93.31 93.50 93.65 93.73 93.82
91.98 91.91 91.68 91.47 91.15 90.94 90.78 90.65 90.46 90.38 90.21 89.81 89.67 88.76 89.22 89.22 89.07 89.03 89.03 88.99 88.86 88.90 88.89 88.96 88.99 89.16 89.09 89.21 89.19 89.25 90.13 91.14 91.24 91.43 91.49 91.54 91.74 91.92 92.05 92.13 92.29 92.38 92.46 92.20 92.63 92.78 93.15 93.43 93.61 93.77 93.86 93.87
92.12 92.08 91.42 91.38 91.28 91.03 90.88 90.76 90.62 90.45 90.35 90.25 89.81 88.65 89.25 89.10 89.17 89.13 89.14 89.19 89.04 89.11 89.15 89.31 89.10 89.20 89.08 89.05 88.98 89.25 90.71 90.98 91.09 91.28 91.34 91.44 91.67 92.00 92.19 92.38 92.56 92.59 92.54 92.23 92.75 93.01 93.30 93.59 93.79 93.90 93.98 93.97
92.19 92.19 91.87 91.51 91.32 91.10 90.97 90.83 90.67 90.52 90.37 90.18 89.88 88.89 89.19 89.26 89.00 88.83 88.71 88.65 88.74 89.03 89.01 89.18 89.00 89.11 89.34 89.51 89.74 89.90 90.58 90.96 90.98 91.22 91.32 91.45 91.75 92.12 92.35 92.57 92.68 92.75 92.63 92.38 92.78 93.32 93.57 93.85 94.01 94.11 94.16 94.08
92.40 91.58 91.76 91.43 91.27 91.14 90.99 90.85 90.70 90.54 90.39 90.22 90.05 89.38 89.54 89.27 89.16 89.23 89.18 89.11 89.02 89.03 89.02 88.64 89.25 89.31 89.42 89.60 89.78 89.97 90.76 91.06 91.07 91.28 91.37 91.50 91.75 92.14 92.41 92.63 92.77 92.82 92.71 92.57 93.19 93.71 94.14 94.24 94.31 94.31 94.22 94.08
92.38 91.80 91.65 91.39 91.26 91.18 91.06 90.91 90.76 90.57 90.41 90.26 90.07 89.85 89.22 89.29 89.18 89.29 89.19 89.13 89.05 89.06 89.10 89.22 89.17 89.29 89.50 89.73 89.93 90.12 90.50 91.13 91.15 91.33 91.39 91.51 91.75 92.15 92.43 92.62 92.76 92.81 92.74 92.65 93.32 93.96 94.52 94.71 94.67 94.50 94.29 93.85
