ncols 52
nrows 52
xllcorner 443392
yllcorner 5716480
cellsize 10
NODATA_value -9999
89.44 89.38 89.39 89.33 89.32 89.40 89.25 89.15 89.08 89.06 88.98 88.99 88.90 88.72 88.61 88.41 88.10 87.64 87.30 87.04 86.69 86.33 86.23 85.96 86.04 85.68 85.61 85.60 85.58 85.55 85.57 85.66 85.62 85.64 85.74 85.82 85.95 85.99 86.25 86.15 86.17 87.17 87.66 88.00 88.50 88.70 88.93 89.29 90.28 92.10 90.37 90.46
89.59 89.54 89.56 89.49 89.52 89.53 89.37 89.29 89.20 89.14 89.02 88.98 88.85 88.80 88.68 88.55 88.28 87.89 87.57 87.31 86.89 86.46 86.33 86.06 85.93 85.57 85.74 85.66 85.68 85.65 85.67 85.68 85.70 85.77 85.59 85.92 85.98 85.95 86.24 86.15 86.04 87.40 87.79 88.07 88.35 88.68 88.88 88.98 89.77 92.15 90.25 90.46
89.74 89.74 89.67 89.64 89.64 89.36 89.49 89.35 89.24 89.21 89.14 89.04 88.95 88.87 88.72 88.60 88.38 88.08 87.82 87.50 87.02 86.57 86.42 86.28 85.84 85.60 85.65 85.68 85.76 85.82 85.82 85.78 85.70 85.78 85.88 85.99 85.97 86.07 86.11 86.15 86.43 87.64 88.01 88.24 88.58 88.82 88.70 89.01 89.82 91.96 90.29 90.47
89.91 89.89 89.81 89.69 89.78 89.00 89.52 89.40 89.29 89.22 89.13 89.09 88.98 88.81 88.72 88.60 88.35 88.12 87.94 87.55 87.05 86.58 86.44 86.39 85.95 85.69 85.62 85.68 85.65 85.66 85.80 85.82 85.86 85.48 85.96 85.90 85.94 86.06 85.20 86.18 86.80 87.73 88.07 88.31 88.72 88.80 88.72 89.40 89.96 91.03 90.35 90.56
90.06 90.00 89.93 89.86 89.97 89.78 89.58 89.40 89.35 89.26 89.16 89.06 88.99 88.85 88.72 88.57 88.35 88.07 87.90 87.49 86.97 86.56 86.43 86.49 86.10 85.67 85.56 85.65 85.75 85.79 85.77 85.88 86.00 85.93 85.89 85.89 85.92 86.15 85.22 86.13 87.33 87.88 88.17 88.47 88.80 88.86 88.62 89.40 90.40 90.23 90.35 90.52
90.16 90.15 90.06 90.01 89.93 89.82 89.61 89.42 89.33 89.24 89.17 89.05 88.94 88.77 88.67 88.48 88.21 87.96 87.78 87.38 86.88 86.51 86.37 86.39 86.11 85.64 85.65 85.55 85.57 85.64 85.61 85.70 85.69 85.96 85.88 85.88 85.98 86.34 85.51 86.18 87.56 87.95 88.36 88.64 88.98 89.02 88.64 89.26 91.51 90.31 90.42 90.66
90.29 90.22 90.09 90.06 89.97 89.79 89.57 89.39 89.29 89.18 89.08 88.99 88.85 88.69 88.56 88.39 88.08 87.85 87.67 87.24 86.75 86.49 86.56 85.97 86.44 86.22 86.01 85.85 85.76 85.72 85.73 85.68 85.61 85.82 86.05 85.99 86.18 86.52 85.39 87.08 87.69 88.13 88.47 88.79 89.12 89.17 88.81 89.79 91.35 90.25 91.67 92.62
90.38 90.26 90.19 90.11 89.27 89.75 89.50 89.33 89.26 89.12 89.03 88.90 88.73 88.58 88.43 88.24 87.99 87.75 87.56 87.12 86.67 86.52 86.29 86.12 86.34 86.19 86.11 85.99 85.93 85.88 85.94 85.90 85.90 85.92 85.98 86.02 86.29 86.11 86.29 87.52 88.00 88.29 88.66 88.92 89.18 89.32 89.25 90.52 91.50 92.08 90.45 90.33
90.37 90.27 90.19 90.18 89.53 89.70 89.49 89.34 89.17 89.06 88.95 88.82 88.63 88.47 88.33 88.17 87.85 87.66 87.51 87.09 86.68 86.58 85.99 86.18 86.16 86.10 85.98 85.96 85.91 85.93 85.94 85.89 85.92 85.95 86.00 86.11 86.32 85.32 86.44 87.83 88.43 88.70 88.86 89.16 89.41 89.48 89.44 89.78 89.89 89.90 90.01 90.14
90.39 90.26 90.22 90.24 89.94 89.65 89.43 89.29 89.13 89.01 88.85 88.71 88.58 88.38 88.21 88.07 87.75 87.58 87.47 87.11 86.71 86.60 86.25 86.37 86.18 85.98 85.81 85.88 85.99 86.08 86.06 85.88 85.90 86.03 86.07 86.27 86.51 85.23 87.06 87.40 87.99 88.47 88.65 88.93 89.15 89.33 89.46 89.67 89.79 89.84 89.94 90.00
90.34 90.21 90.18 90.16 89.82 89.55 89.35 89.20 89.04 88.89 88.77 88.60 88.43 88.25 88.10 87.91 87.69 87.53 87.44 87.15 86.84 86.70 86.54 86.56 85.90 85.76 85.72 85.71 85.78 85.72 85.74 85.76 85.78 85.79 85.89 85.74 85.56 85.25 86.96 87.34 87.81 88.22 88.70 88.96 89.21 89.32 89.47 89.64 89.75 89.91 90.04 90.18
90.28 90.17 90.12 90.02 89.68 89.42 89.19 89.06 88.90 88.74 88.60 88.46 88.29 88.12 87.99 87.86 87.64 87.48 87.40 87.18 86.93 86.78 86.69 86.43 86.04 85.79 85.71 85.77 85.76 85.74 85.74 85.70 85.72 85.83 86.01 86.46 86.08 86.23 86.93 87.39 87.75 88.26 88.59 88.88 89.14 89.27 89.50 89.71 89.94 90.04 90.17 90.30
90.19 90.05 90.03 89.08 89.55 89.28 89.07 88.91 88.75 88.60 88.47 88.30 88.15 88.00 87.90 87.76 87.60 87.44 87.32 87.17 87.02 86.90 86.77 86.34 85.99 85.91 85.90 85.92 85.98 85.75 85.81 85.76 85.83 85.96 86.17 85.75 85.93 86.29 86.77 87.30 87.67 88.23 88.48 88.75 89.08 89.26 89.52 89.80 90.01 90.16 90.24 90.38
90.05 89.89 89.90 89.56 89.40 89.14 88.95 88.78 88.65 88.48 88.38 88.21 88.06 87.92 87.85 87.71 87.54 87.37 87.30 87.18 87.06 86.94 86.85 86.35 86.01 85.85 85.93 85.98 85.70 85.93 85.94 85.82 85.96 86.07 86.30 86.18 85.67 86.14 86.68 87.36 87.65 88.12 88.42 88.72 89.05 89.23 89.57 89.85 90.05 90.18 90.28 90.43
89.91 89.79 89.75 89.56 89.29 89.00 88.89 88.71 88.62 88.44 88.33 88.15 87.97 87.89 87.77 87.66 87.49 87.36 87.27 87.15 87.07 86.93 86.90 86.47 86.13 85.86 85.72 85.75 86.07 85.97 85.92 85.69 85.96 86.18 85.68 86.22 85.66 86.06 86.67 87.18 87.60 88.04 88.32 88.62 88.93 89.18 89.51 89.84 90.07 90.22 90.32 90.49
89.82 89.77 89.62 89.35 89.13 88.98 88.93 88.76 88.57 88.44 88.28 88.15 88.06 87.93 87.85 87.68 87.54 87.40 87.26 87.17 87.07 86.94 86.99 86.53 86.10 85.73 86.10 86.18 86.05 86.01 85.80 85.60 86.04 86.38 85.38 86.05 85.68 86.11 86.49 87.06 87.49 87.93 88.22 88.49 88.80 89.08 89.46 89.82 90.04 90.26 90.41 90.60
89.68 89.60 89.27 89.21 89.03 88.92 88.82 88.66 88.48 88.33 88.15 88.07 87.95 87.90 87.75 87.66 87.53 87.43 87.31 87.21 87.11 87.01 86.71 86.39 86.15 85.74 86.15 86.11 86.06 86.22 85.70 85.67 86.11 86.46 85.24 86.01 85.75 86.10 86.61 87.07 87.44 87.89 88.17 88.40 88.72 89.06 89.41 89.79 90.09 90.31 90.49 90.67
89.60 89.59 89.10 89.21 89.00 88.86 88.77 88.62 88.48 88.38 88.19 88.12 87.98 87.83 87.74 87.68 87.61 87.48 87.35 87.21 87.10 87.15 87.11 86.42 86.28 85.72 86.13 86.05 85.96 85.96 85.66 85.70 86.10 86.44 85.35 85.89 85.74 86.18 86.63 87.08 87.35 87.85 88.11 88.38 88.65 89.03 89.41 89.80 90.09 90.31 90.52 90.72
89.61 89.56 89.24 89.08 88.97 88.84 88.75 88.53 88.42 88.24 88.10 88.06 87.91 87.82 87.72 87.62 87.57 87.44 87.35 87.22 87.15 87.13 87.09 86.89 86.26 85.75 86.32 86.16 86.12 85.87 85.82 86.14 86.12 86.52 86.58 85.79 85.82 86.26 86.65 86.99 87.33 87.80 88.08 88.37 88.65 89.04 89.44 89.80 90.13 90.35 90.57 90.78
89.62 89.59 89.29 89.12 89.00 88.87 88.74 88.52 88.39 88.26 88.13 88.00 87.88 87.82 87.77 87.69 87.61 87.49 87.38 87.24 87.17 87.04 87.12 86.93 86.48 85.73 86.26 86.18 86.11 86.27 86.24 86.31 86.29 86.57 85.73 85.85 85.94 86.36 86.71 86.97 87.23 87.73 88.04 88.36 88.66 89.04 89.50 89.86 90.18 90.39 90.63 90.83
89.68 89.85 89.38 89.18 89.05 88.92 88.76 88.58 88.40 88.28 88.14 88.04 87.89 87.87 87.80 87.71 87.65 87.55 87.43 87.28 87.14 87.02 87.05 86.98 86.46 85.75 86.27 86.13 86.20 86.51 86.58 86.54 86.65 85.52 86.44 86.06 86.14 86.39 86.74 86.91 87.24 87.66 88.03 88.37 88.64 89.06 89.50 89.90 90.18 90.42 90.63 90.87
89.79 89.15 89.43 89.22 89.10 88.96 88.79 88.61 88.44 88.32 88.19 88.07 87.96 87.90 87.86 87.74 87.69 87.58 87.45 87.31 87.15 87.05 87.06 87.00 86.42 85.96 86.22 86.16 86.38 85.53 86.52 85.47 85.35 86.03 86.25 86.18 86.40 86.43 86.76 86.99 87.09 87.60 87.97 88.32 88.62 89.05 89.51 89.91 90.17 90.44 90.67 90.89
89.85 89.57 89.47 89.29 89.17 89.00 88.79 88.62 88.46 88.33 88.20 88.06 87.97 87.90 87.88 87.82 87.70 87.58 87.46 87.33 87.19 87.04 87.06 87.01 86.33 85.86 86.23 86.16 86.67 86.35 86.66 86.57 86.50 86.45 86.48 86.36 86.33 86.51 86.81 86.97 87.25 87.57 87.96 88.34 88.63 89.06 89.50 89.90 90.19 90.45 90.69 90.92
89.90 89.65 89.50 89.38 89.26 89.09 88.85 88.62 88.46 88.34 88.24 88.07 87.99 87.95 87.89 87.82 87.69 87.61 87.45 87.31 87.19 87.09 87.08 87.01 86.24 85.72 86.30 86.21 86.67 85.78 86.55 85.76 85.76 85.76 85.76 86.43 86.41 86.69 86.71 86.95 87.26 87.64 88.00 88.37 88.65 89.10 89.51 89.89 90.18 90.46 90.71 90.92
89.92 89.73 89.55 89.44 89.29 89.12 88.87 88.65 88.49 88.35 88.25 88.09 88.02 87.99 87.90 87.83 87.71 87.62 87.50 87.33 87.20 87.12 87.09 86.99 86.31 85.73 86.26 86.29 86.65 85.70 86.50 85.76 85.79 85.76 85.77 86.50 86.57 86.55 86.73 87.13 87.39 87.67 88.04 88.39 88.70 89.11 89.49 89.85 90.18 90.44 90.73 90.94
90.04 89.78 89.56 89.47 89.32 89.10 88.87 88.65 88.51 88.35 88.25 88.10 88.05 87.99 87.90 87.84 87.75 87.67 87.53 87.36 87.24 87.15 87.18 86.92 86.31 85.69 86.30 86.34 86.65 86.40 86.58 85.84 85.76 85.76 85.81 86.45 86.75 86.76 86.76 86.96 87.33 87.71 88.03 88.39 88.72 89.11 89.49 89.86 90.20 90.50 90.78 90.98
89.53 89.79 89.61 89.53 89.36 89.14 88.86 88.66 88.51 88.40 88.25 88.12 88.03 88.00 87.92 87.83 87.76 87.66 87.55 87.43 87.30 87.21 87.26 86.96 86.47 86.23 86.46 86.49 87.03 86.61 86.90 86.79 86.72 86.73 86.49 86.44 86.50 86.72 86.72 86.86 87.21 87.69 88.04 88.40 88.76 89.12 89.54 89.90 90.25 90.53 90.81 91.02
89.92 89.80 89.64 89.53 89.37 89.13 88.88 88.70 88.52 88.40 88.24 88.12 88.06 88.00 87.93 87.83 87.76 87.67 87.57 87.47 87.35 87.25 87.35 86.89 86.11 86.56 85.74 86.43 87.01 85.56 86.77 86.84 86.69 86.65 86.50 86.49 86.42 86.41 86.41 86.40 86.91 87.63 88.08 88.40 88.76 89.15 89.53 89.93 90.27 90.58 90.83 91.04
89.97 89.79 89.69 89.54 89.41 89.11 88.88 88.71 88.57 88.43 88.26 88.14 88.09 88.00 87.96 87.85 87.80 87.72 87.63 87.52 87.39 87.32 87.46 86.94 85.93 86.67 86.43 86.52 86.89 85.56 86.80 86.77 86.65 86.64 86.53 86.54 86.51 86.40 86.43 86.41 86.72 87.61 88.16 88.44 88.76 89.11 89.55 89.97 90.29 90.60 90.85 91.08
90.02 89.84 89.72 89.60 89.40 89.11 88.88 88.72 88.57 88.48 88.33 88.18 88.12 88.07 88.00 87.93 87.86 87.78 87.68 87.57 87.44 87.38 87.40 86.79 86.04 86.54 86.51 86.49 86.73 85.59 86.81 86.86 86.72 86.65 86.53 86.64 86.63 86.80 86.61 86.55 86.84 87.70 88.18 88.46 88.76 89.17 89.58 90.02 90.37 90.66 90.89 91.12
90.09 89.88 89.76 89.62 89.40 89.14 88.91 88.75 88.59 88.47 88.35 88.22 88.20 88.10 88.05 88.00 87.92 87.85 87.75 87.62 87.47 87.42 86.85 86.80 85.72 86.60 86.58 86.49 86.68 87.06 86.57 86.81 86.67 86.71 86.60 86.60 86.72 86.73 86.48 86.51 87.16 87.78 88.19 88.50 88.79 89.21 89.65 90.10 90.40 90.69 90.90 91.15
90.11 89.94 89.79 89.63 89.37 89.14 88.92 88.79 88.64 88.48 88.35 88.25 88.21 88.16 88.07 88.00 87.93 87.88 87.77 87.64 87.47 87.43 86.76 86.88 85.81 86.59 86.54 86.64 86.57 87.08 85.61 86.84 86.64 86.75 86.51 86.61 86.70 86.64 86.56 86.56 87.31 87.79 88.16 88.53 88.86 89.27 89.70 90.14 90.49 90.74 90.99 91.18
90.09 89.94 89.82 89.64 89.37 89.12 88.93 88.79 88.66 88.50 88.39 88.30 88.26 88.19 88.10 88.06 87.98 87.88 87.77 87.62 87.50 87.45 87.17 86.98 86.29 86.57 85.83 86.48 86.58 86.91 85.91 86.92 86.69 86.67 86.58 86.59 86.60 86.56 86.55 86.64 87.52 87.82 88.26 88.62 88.90 89.35 89.76 90.16 90.50 90.76 90.99 91.19
90.07 89.93 89.80 89.63 89.35 89.13 88.96 88.79 88.65 88.53 88.41 88.35 88.29 88.22 88.15 88.10 87.99 87.90 87.77 87.62 87.51 87.46 87.31 87.01 86.65 85.93 86.60 86.43 86.47 86.94 86.90 86.93 86.72 86.65 86.58 86.62 86.62 86.49 86.63 86.74 87.57 87.88 88.32 88.69 88.96 89.35 89.78 90.15 90.50 90.74 90.98 91.19
90.03 89.93 89.79 89.58 89.34 89.11 88.97 88.79 88.68 88.56 88.47 88.40 88.31 88.26 88.21 88.11 88.03 87.91 87.76 87.62 87.48 87.41 87.33 86.90 86.72 86.38 86.39 86.42 86.45 86.81 87.10 86.79 86.80 86.68 86.63 86.60 86.60 86.57 86.71 86.90 87.62 87.98 88.42 88.71 88.97 89.37 89.79 90.14 90.47 90.74 91.00 91.18
90.08 89.96 89.81 89.58 89.34 89.12 88.96 88.84 88.72 88.60 88.52 88.43 88.36 88.30 88.26 88.16 88.06 87.91 87.76 87.60 87.47 87.42 87.31 86.90 86.74 86.73 86.38 86.45 86.42 86.86 87.12 86.33 86.82 86.70 86.65 86.61 86.69 86.71 86.68 87.09 87.81 88.13 88.47 88.76 89.06 89.41 89.81 90.18 90.49 90.77 90.95 91.19
90.09 89.97 89.79 89.57 89.33 89.13 88.96 88.85 88.74 88.68 88.58 88.52 88.42 88.33 88.28 88.19 88.07 87.96 87.76 87.57 87.49 87.56 86.95 86.82 86.33 86.68 86.60 86.71 86.40 86.89 87.17 85.75 87.03 87.13 87.04 86.82 86.86 86.87 86.95 87.34 87.96 88.24 88.55 88.83 89.15 89.49 89.88 90.19 90.49 90.77 90.98 91.20
90.09 89.89 89.79 89.51 89.30 89.10 89.00 88.90 88.78 88.71 88.65 88.57 88.49 88.39 88.32 88.23 88.09 87.95 87.74 87.57 87.47 87.46 86.93 86.82 85.92 86.82 86.71 86.78 86.35 86.90 87.06 85.74 86.92 87.08 87.06 86.84 86.85 86.98 87.15 87.32 88.11 88.33 88.67 88.96 89.24 89.61 89.92 90.26 90.52 90.79 90.97 91.21
90.03 89.88 89.72 89.47 89.28 89.17 89.02 88.94 88.85 88.78 88.68 88.60 88.54 88.46 88.35 88.21 88.11 87.95 87.73 87.56 87.51 87.40 87.24 85.89 85.88 86.85 86.77 86.90 86.37 86.83 87.01 85.75 86.96 87.10 87.06 86.84 86.86 87.00 87.23 87.68 88.20 88.44 88.77 89.08 89.33 89.70 90.00 90.28 90.54 90.79 91.01 91.21
89.96 89.82 89.65 89.48 89.32 89.18 89.08 88.99 88.91 88.85 88.76 88.66 88.60 88.50 88.37 88.23 88.10 87.89 87.71 87.54 87.53 87.35 87.00 85.87 85.87 86.61 86.84 87.07 86.94 86.99 87.15 85.84 87.08 87.15 87.11 86.90 86.94 87.01 87.38 87.91 88.33 88.54 88.89 89.19 89.43 89.75 90.04 90.31 90.57 90.79 91.04 91.21
89.90 89.78 89.61 89.47 89.34 89.25 89.15 89.04 88.96 88.89 88.83 88.74 88.65 88.52 88.39 88.24 88.04 87.86 87.67 87.50 87.52 87.38 86.94 85.87 85.87 85.87 86.88 86.98 87.04 87.00 87.28 86.23 87.16 87.24 87.19 87.00 86.93 86.99 87.49 87.98 88.39 88.62 88.93 89.23 89.46 89.78 90.08 90.31 90.56 90.81 91.04 91.23
89.86 89.76 89.63 89.50 89.36 89.29 89.21 89.10 89.05 88.97 88.90 88.82 88.69 88.60 88.41 88.25 88.07 87.82 87.66 87.51 87.52 87.28 86.96 85.86 85.87 86.21 87.02 87.08 87.14 87.27 85.78 87.07 87.18 87.12 87.08 86.95 86.91 86.94 87.49 88.10 88.47 88.63 88.98 89.22 89.47 89.77 90.09 90.29 90.55 90.78 91.03 91.22
89.92 89.82 89.67 89.54 89.43 89.34 89.25 89.17 89.11 89.05 88.96 88.85 88.76 88.65 88.49 88.28 88.08 87.86 87.68 87.56 87.59 86.98 86.90 85.88 85.83 87.33 87.25 87.15 87.39 85.84 87.21 87.10 87.07 87.01 87.24 86.94 86.89 86.95 87.40 88.14 88.50 88.63 88.93 89.15 89.44 89.74 90.04 90.28 90.53 90.79 91.02 91.24
90.02 89.92 89.78 89.65 89.54 89.42 89.36 89.26 89.22 89.14 89.04 88.94 88.83 88.69 88.53 88.35 88.16 87.96 87.72 87.62 87.43 87.00 86.64 85.87 86.59 87.21 87.32 87.26 87.37 85.89 87.04 87.09 87.15 87.17 87.07 87.11 87.10 87.16 87.20 87.98 88.47 88.57 88.90 89.09 89.35 89.64 89.96 90.22 90.49 90.77 91.00 91.24
90.08 89.97 89.85 89.72 89.61 89.52 89.47 89.35 89.26 89.18 89.12 89.00 88.87 88.72 88.60 88.41 88.23 88.05 87.88 87.78 87.63 87.10 85.89 85.87 87.21 87.11 87.32 87.35 87.46 85.90 87.06 87.07 87.11 87.12 87.04 87.05 87.07 87.10 87.20 87.72 88.44 88.52 88.77 88.97 89.22 89.53 89.85 90.15 90.46 90.75 90.98 91.19
90.12 90.00 89.87 89.79 89.69 89.57 89.45 89.37 89.28 89.19 89.09 88.97 88.88 88.72 88.60 88.45 88.27 88.13 87.97 87.91 87.36 87.18 86.07 87.30 87.11 87.22 87.40 87.52 85.97 85.97 87.06 87.07 87.07 87.07 87.09 87.05 87.09 87.09 87.15 87.32 88.38 88.37 88.64 88.85 89.06 89.40 89.76 90.11 90.42 90.70 90.94 91.18
90.22 90.12 90.01 89.89 89.79 89.63 89.55 89.44 89.34 89.25 89.13 89.01 88.89 88.77 88.62 88.48 88.35 88.22 88.07 88.01 87.53 86.46 87.33 87.18 87.21 87.30 87.36 87.18 86.03 86.99 87.10 87.04 87.06 87.04 87.10 87.08 87.06 87.12 87.21 87.20 88.13 88.23 88.49 88.74 88.99 89.32 89.71 90.08 90.43 90.72 90.95 91.17
90.38 90.24 90.13 90.00 89.89 89.75 89.64 89.50 89.44 89.28 89.21 89.07 88.94 88.85 88.70 88.54 88.44 88.35 88.19 88.13 87.71 87.15 87.14 87.14 87.29 87.23 87.34 87.47 86.01 87.35 87.19 87.15 87.12 87.12 87.08 87.15 87.06 87.12 87.27 87.16 87.86 88.10 88.43 88.71 88.93 89.30 89.72 90.09 90.44 90.71 90.96 91.16
90.52 90.36 90.23 90.09 89.96 89.83 89.69 89.59 89.45 89.38 89.26 89.12 89.01 88.88 88.72 88.62 88.46 88.32 88.31 88.09 87.65 87.00 87.04 87.17 87.18 87.18 87.40 87.42 86.89 86.75 87.41 87.19 87.14 87.21 87.13 87.14 87.14 87.09 87.26 87.25 87.69 88.06 88.38 88.72 89.00 89.35 89.76 90.11 90.48 90.73 90.96 91.16
90.54 90.41 90.28 90.12 89.96 89.81 89.69 89.60 89.50 89.42 89.31 89.21 89.08 88.97 88.82 88.69 88.51 88.45 88.35 87.81 87.20 86.91 87.05 87.11 87.25 87.33 87.26 87.33 87.65 86.32 86.21 87.31 87.34 87.31 87.36 87.32 87.26 87.10 87.15 87.15 87.73 88.06 88.45 88.78 89.05 89.41 89.82 90.14 90.48 90.73 90.94 91.13
90.60 90.42 90.27 90.13 90.00 89.88 89.72 89.61 89.50 89.38 89.25 89.15 89.03 88.93 88.80 88.65 88.54 88.56 88.58 87.80 87.20 86.99 86.99 87.07 87.15 87.12 87.23 87.28 87.31 87.48 86.99 87.06 87.40 87.42 87.36 87.29 87.30 87.10 87.02 87.18 87.67 88.11 88.55 88.90 89.17 89.51 89.86 90.21 90.52 90.76 90.93 91.13
90.62 90.46 90.29 90.15 89.99 89.83 89.71 89.59 89.48 89.36 89.22 89.13 89.02 88.90 88.79 88.66 88.59 88.54 87.49 87.41 86.99 86.96 86.96 86.94 87.05 87.13 87.12 87.30 87.35 87.46 87.54 86.07 87.25 87.28 87.33 87.33 87.30 87.26 87.06 87.25 87.70 88.22 88.70 89.03 89.30 89.63 89.96 90.29 90.56 90.78 90.97 91.11
