ncols 52
nrows 52
xllcorner 443392
yllcorner 5713920
cellsize 10
NODATA_value -9999
108.87 109.01 109.38 109.33 109.37 109.38 109.73 109.81 109.87 109.92 109.94 109.94 109.93 109.77 109.79 110.33 110.38 109.99 109.96 109.74 109.51 109.49 109.46 109.51 109.59 109.72 109.88 110.01 110.17 110.32 110.54 110.78 110.99 111.18 111.35 111.53 111.70 111.86 111.92 111.83 111.75 111.78 112.03 110.39 112.29 112.38 112.40 112.57 112.72 112.83 112.98 113.11
108.92 109.17 109.27 109.31 109.39 109.51 109.82 109.88 109.93 109.96 109.97 109.96 109.96 109.78 109.75 109.83 110.72 110.33 110.13 109.82 109.58 109.55 109.55 109.61 109.73 109.86 110.00 110.13 110.28 110.44 110.65 110.92 111.17 111.36 111.54 111.71 111.88 112.02 112.08 112.09 112.12 112.13 112.32 111.46 112.70 112.51 112.54 112.74 112.91 113.04 113.14 113.20
109.07 109.21 109.26 109.38 109.49 109.58 109.84 109.81 109.67 109.73 109.76 109.36 110.04 109.77 109.79 109.80 110.64 110.95 110.21 109.85 109.61 109.63 109.67 109.74 109.85 109.96 110.08 110.22 110.37 110.54 110.77 111.02 111.31 111.52 111.66 111.79 111.96 112.12 112.22 112.29 112.39 112.43 112.42 112.68 112.24 112.62 112.83 112.89 113.00 113.09 113.19 113.27
109.25 109.29 109.36 109.45 109.60 109.58 109.63 109.75 109.72 109.70 109.69 109.73 109.75 109.83 109.72 111.05 111.32 111.03 110.24 109.88 109.69 109.74 109.81 109.88 109.95 110.00 110.13 110.28 110.43 110.60 110.82 111.06 111.32 111.57 111.73 111.86 112.02 112.21 112.32 112.40 112.50 112.53 112.51 112.70 110.66 112.79 112.81 112.99 113.10 113.19 113.21 113.28
109.12 109.29 109.36 109.47 109.59 109.77 109.82 109.99 110.26 111.70 111.38 111.26 110.89 110.58 110.58 110.52 110.52 110.40 110.32 109.98 109.84 109.92 110.01 110.10 110.10 110.16 110.26 110.38 110.50 110.65 110.87 111.10 111.35 111.56 111.71 111.83 112.00 112.21 112.36 112.48 112.53 112.59 112.58 112.78 111.23 113.00 112.98 112.99 113.12 113.21 113.31 113.39
109.34 109.58 109.85 110.95 111.26 110.94 110.06 109.93 109.98 110.09 110.09 110.16 110.18 110.25 110.29 110.32 110.42 110.43 110.43 110.22 109.99 110.12 110.24 110.34 110.38 110.39 110.45 110.53 110.62 110.74 110.91 111.11 111.32 111.52 111.69 111.84 112.04 112.25 112.44 112.55 112.62 112.66 112.71 112.83 112.88 113.12 113.12 112.99 113.20 113.31 113.41 113.51
108.42 108.66 108.89 109.12 109.36 109.61 109.86 110.00 110.15 110.26 110.39 110.73 110.93 110.95 111.26 111.31 110.95 111.12 110.83 110.35 110.18 110.26 110.36 110.42 110.49 110.54 110.60 110.68 110.74 110.87 111.01 111.18 111.38 111.55 111.68 111.86 112.09 112.29 112.44 112.55 112.64 112.73 112.84 112.90 113.19 113.11 113.26 113.18 113.31 113.38 113.51 113.59
108.76 108.82 109.02 109.11 109.45 109.71 110.00 110.10 110.56 110.99 111.01 111.06 111.01 111.30 111.41 111.37 111.14 111.26 111.33 110.42 110.28 110.34 110.41 110.50 110.61 110.71 110.77 110.84 110.91 110.99 111.07 111.18 111.33 111.48 111.67 111.87 112.12 112.35 112.49 112.62 112.73 112.82 112.91 112.99 113.23 111.78 113.38 113.32 113.43 113.55 113.68 113.78
109.06 109.16 109.30 109.29 109.88 109.81 110.10 110.15 110.49 111.24 111.08 111.15 111.07 111.40 111.43 111.38 111.15 111.31 111.24 110.70 110.39 110.39 110.48 110.60 110.67 110.76 110.85 110.94 111.02 111.08 111.18 111.27 111.41 111.54 111.69 111.93 112.19 112.40 112.54 112.67 112.79 112.89 112.96 113.02 113.26 111.32 113.54 113.53 113.58 113.75 113.89 113.98
108.96 109.29 109.51 109.54 109.81 109.96 110.44 110.68 110.91 111.15 111.16 111.17 111.19 111.57 111.32 111.37 111.12 111.32 111.28 110.88 110.55 110.50 110.63 110.77 110.87 110.96 111.03 111.11 111.20 111.29 111.37 111.46 111.58 111.69 111.81 112.00 112.24 112.38 112.50 112.63 112.81 112.91 113.01 113.12 113.20 112.93 113.44 113.63 113.61 113.81 113.94 114.07
109.65 109.51 109.78 109.71 109.93 110.08 110.62 110.78 110.97 111.24 111.72 111.76 111.77 111.79 111.43 111.36 111.22 111.24 111.28 111.10 110.71 110.64 110.83 110.94 111.05 111.15 111.25 111.31 111.38 111.46 111.53 111.62 111.72 111.82 111.91 112.09 112.24 112.35 112.47 112.64 112.84 112.96 113.07 113.12 113.21 113.46 113.36 113.75 113.68 113.84 113.99 114.12
110.00 109.75 109.95 109.98 110.07 110.21 110.90 111.01 111.07 111.20 111.61 111.78 111.85 111.85 111.72 111.43 111.37 111.46 111.41 111.29 110.86 110.82 110.98 111.09 111.23 111.33 111.42 111.47 111.54 111.62 111.68 111.74 111.82 111.92 112.01 112.14 112.26 112.37 112.51 112.70 112.91 113.03 113.12 113.18 113.29 113.47 113.14 113.75 113.75 113.95 114.04 114.16
110.01 110.03 110.13 110.29 110.39 110.32 110.86 111.13 111.19 111.29 111.61 111.77 111.82 111.85 112.01 112.08 112.12 112.14 112.01 111.66 111.01 110.98 111.11 111.28 111.39 111.53 111.63 111.67 111.73 111.79 111.83 111.90 111.96 112.03 112.09 112.19 112.27 112.36 112.51 112.72 112.95 113.06 113.13 113.21 113.29 113.54 112.65 113.88 113.89 113.98 114.08 114.23
110.38 110.26 110.49 110.58 110.61 110.52 111.06 111.26 111.54 111.61 111.67 111.65 111.69 112.17 112.20 112.23 112.24 112.26 112.12 112.22 111.24 111.20 111.35 111.48 111.57 111.68 111.80 111.85 111.90 111.95 112.00 112.04 112.09 112.13 112.18 112.26 112.32 112.41 112.55 112.78 112.98 113.10 113.16 113.23 113.32 113.57 112.21 113.98 113.94 113.99 114.17 114.33
110.56 111.11 111.15 111.05 110.95 110.87 110.97 111.49 111.69 111.71 111.73 111.70 111.61 111.99 112.29 112.31 112.32 112.35 112.28 112.58 111.57 111.49 111.60 111.64 111.72 111.80 111.90 111.97 112.03 112.08 112.12 112.16 112.20 112.24 112.27 112.35 112.42 112.53 112.67 112.87 113.04 113.09 113.14 113.24 113.38 113.57 113.42 114.05 114.03 114.07 114.25 114.39
110.89 111.00 111.00 111.14 111.09 111.07 110.89 111.55 111.70 111.78 111.78 111.75 111.65 111.98 112.34 112.26 112.26 112.35 112.42 112.58 111.93 111.80 111.80 111.82 111.90 111.94 112.03 112.10 112.17 112.24 112.28 112.29 112.32 112.33 112.34 112.39 112.46 112.57 112.72 112.92 113.10 113.16 113.19 113.29 113.45 113.60 113.93 114.22 114.11 114.15 114.28 114.49
111.05 111.07 111.11 111.27 111.15 111.13 111.01 111.63 111.69 111.82 111.81 111.78 111.66 111.90 112.34 112.29 112.30 112.44 112.51 112.61 112.23 112.19 112.13 112.07 112.08 112.12 112.21 112.24 112.28 112.34 112.37 112.38 112.41 112.43 112.43 112.47 112.57 112.71 112.87 113.07 113.20 113.26 113.27 113.35 113.45 113.60 113.92 113.47 114.28 114.24 114.34 114.52
111.07 110.96 111.41 111.38 111.36 111.26 111.11 111.74 111.80 111.83 111.81 111.79 111.82 111.97 112.26 112.26 112.20 112.37 112.49 112.50 112.61 112.50 112.39 112.31 112.26 112.26 112.30 112.37 112.43 112.47 112.51 112.53 112.54 112.54 112.54 112.57 112.68 112.83 113.01 113.19 113.29 113.31 113.34 113.40 113.51 113.60 113.91 113.18 114.43 114.40 114.46 114.59
111.17 111.08 111.38 111.33 111.39 111.43 111.24 111.37 111.53 111.80 111.82 111.86 111.96 112.03 112.11 112.21 112.27 112.34 112.38 112.44 113.01 112.79 112.68 112.58 112.50 112.46 112.44 112.50 112.54 112.55 112.60 112.65 112.65 112.63 112.62 112.68 112.82 112.99 113.18 113.31 113.41 113.42 113.43 113.52 113.60 113.75 113.97 112.50 114.47 114.56 114.54 114.64
111.02 111.07 111.18 111.26 111.24 111.36 111.65 111.85 111.80 111.77 111.82 111.77 111.78 111.85 111.88 112.06 112.17 112.21 112.31 112.38 113.27 113.04 112.90 112.76 112.68 112.60 112.58 112.60 112.61 112.64 112.68 112.72 112.73 112.75 112.80 112.87 112.98 113.12 113.25 113.37 113.47 113.53 113.56 113.61 113.69 113.84 114.06 113.21 114.50 114.63 114.58 114.72
111.24 111.46 111.61 111.85 111.90 111.83 111.84 111.90 111.93 111.93 111.99 111.92 112.00 111.77 111.78 111.94 112.01 112.24 112.33 112.56 113.43 113.21 113.13 112.96 112.90 112.80 112.75 112.73 112.71 112.71 112.75 112.77 112.82 112.90 113.01 113.08 113.14 113.19 113.31 113.44 113.53 113.60 113.69 113.77 113.83 113.96 114.29 114.31 114.61 114.70 114.70 114.87
111.41 111.60 111.84 111.89 111.95 111.99 112.02 112.03 112.07 112.10 112.10 112.10 111.98 111.74 111.81 111.96 112.05 112.21 112.45 112.66 113.55 113.37 113.24 113.14 113.05 112.92 112.88 112.87 112.82 112.80 112.81 112.87 112.93 113.02 113.10 113.21 113.28 113.35 113.40 113.51 113.59 113.69 113.79 113.88 113.98 114.12 114.36 114.51 114.73 114.80 114.90 115.01
111.60 111.96 112.06 112.13 112.16 112.18 112.20 112.10 112.07 112.12 112.12 112.07 111.91 111.75 111.83 112.06 112.26 112.36 112.38 112.71 113.73 113.22 113.32 113.24 113.16 113.07 113.00 112.94 112.92 112.92 112.97 113.00 113.03 113.08 113.18 113.28 113.37 113.45 113.54 113.61 113.69 113.79 113.93 114.01 114.11 114.22 114.39 114.64 113.83 114.91 115.01 115.07
111.69 112.13 112.12 112.13 112.23 112.31 112.45 112.32 112.02 112.13 112.14 112.10 111.89 111.86 112.05 112.07 112.10 112.24 112.47 112.60 113.89 113.57 113.57 113.47 113.34 113.22 113.11 113.04 113.01 113.04 113.07 113.11 113.13 113.17 113.24 113.35 113.44 113.53 113.63 113.72 113.81 113.91 114.01 114.13 114.23 114.31 114.50 114.79 113.75 115.01 115.09 115.14
111.84 112.06 112.12 112.10 112.35 112.46 112.47 112.48 111.99 112.14 112.13 112.11 111.97 112.01 112.17 112.21 112.16 112.25 112.39 112.74 113.90 113.68 113.67 113.53 113.46 113.37 113.24 113.18 113.13 113.15 113.18 113.18 113.20 113.23 113.25 113.33 113.41 113.49 113.57 113.66 113.77 113.91 114.04 114.17 114.31 114.42 114.60 114.93 113.76 115.09 115.26 115.23
112.00 112.04 112.10 112.16 112.34 112.48 112.49 112.47 112.07 112.13 112.16 112.10 112.05 112.18 112.33 112.25 112.10 112.17 112.52 113.40 113.93 113.75 113.77 113.64 113.58 113.50 113.39 113.31 113.25 113.22 113.24 113.23 113.26 113.28 113.28 113.30 113.35 113.44 113.52 113.58 113.69 113.82 113.98 114.16 114.35 114.51 114.67 115.02 114.85 115.23 115.38 115.43
111.96 112.04 111.99 112.07 112.10 112.21 112.21 112.10 112.09 112.06 112.09 112.32 112.77 113.11 113.04 113.29 113.54 113.82 113.84 113.96 114.03 113.94 113.90 113.75 113.69 113.62 113.53 113.43 113.37 113.34 113.33 113.32 113.35 113.37 113.38 113.38 113.40 113.46 113.52 113.56 113.68 113.81 113.96 114.15 114.36 114.55 114.74 115.11 115.36 115.43 115.53 115.65
111.91 111.93 111.98 111.96 112.04 112.21 112.38 112.48 112.56 112.65 112.90 112.92 113.11 113.10 113.23 113.39 113.62 113.79 113.83 113.79 114.09 114.08 113.96 113.89 113.85 113.78 113.68 113.60 113.52 113.48 113.45 113.45 113.44 113.45 113.45 113.43 113.46 113.50 113.54 113.63 113.72 113.87 114.07 114.28 114.53 114.75 114.93 115.25 115.53 115.56 115.67 115.75
111.61 111.67 111.81 112.04 112.16 112.28 112.44 112.51 112.60 112.73 112.85 112.95 113.05 113.14 113.29 113.46 113.72 113.91 113.93 113.97 114.17 114.23 114.06 114.04 114.01 113.95 113.88 113.78 113.67 113.59 113.56 113.56 113.57 113.56 113.55 113.54 113.62 113.68 113.73 113.81 113.92 114.08 114.26 114.47 114.68 114.92 115.08 115.36 115.63 115.85 115.83 115.91
111.48 111.60 111.75 111.92 112.07 112.23 112.40 112.54 112.69 112.81 112.94 113.05 113.16 113.26 113.42 113.61 113.86 114.04 114.04 114.04 114.29 114.36 114.21 114.15 114.12 114.07 114.00 113.90 113.78 113.73 113.71 113.71 113.69 113.67 113.67 113.70 113.75 113.80 113.87 113.94 114.01 114.17 114.36 114.56 114.80 115.06 115.27 115.54 115.76 116.00 115.99 116.11
111.53 111.71 111.83 111.99 112.14 112.34 112.50 112.68 112.83 112.94 113.11 113.23 113.35 113.45 113.57 113.76 113.99 114.13 114.16 114.17 114.31 114.51 114.35 114.31 114.26 114.23 114.15 114.06 113.96 113.89 113.88 113.83 113.79 113.76 113.75 113.80 113.86 113.90 114.00 114.07 114.16 114.32 114.53 114.75 114.99 115.33 115.60 115.72 115.96 114.75 116.18 116.29
111.64 111.80 111.93 112.11 112.28 112.45 112.62 112.78 112.94 113.10 113.24 113.35 113.47 113.60 113.74 113.93 114.16 114.32 114.29 114.32 114.45 114.66 114.43 114.46 114.42 114.38 114.27 114.16 114.11 114.06 113.99 113.95 113.93 113.88 113.88 113.93 114.00 114.08 114.19 114.26 114.40 114.53 114.73 114.97 115.21 115.49 115.74 115.90 116.10 116.04 116.29 116.44
111.82 111.99 112.16 112.35 112.50 112.67 112.86 113.00 113.16 113.28 113.42 113.53 113.66 113.79 113.94 114.12 114.35 114.50 114.44 114.38 114.56 114.76 114.55 114.57 114.52 114.49 114.40 114.31 114.31 114.24 114.14 114.13 114.08 114.06 114.02 114.07 114.17 114.22 114.29 114.34 114.48 114.70 114.90 115.14 115.43 115.77 116.09 116.20 116.35 116.41 116.48 116.62
112.02 112.20 112.33 112.56 112.70 112.89 113.07 113.25 113.35 113.47 113.61 113.74 113.85 113.94 114.10 114.27 114.47 114.58 114.55 114.53 114.60 114.83 114.66 114.69 114.68 114.62 114.57 114.51 114.50 114.39 114.29 114.23 114.13 114.12 114.13 114.22 114.34 114.44 114.49 114.62 114.76 114.96 115.18 115.45 115.71 116.06 116.29 116.51 116.58 116.65 116.58 116.77
112.17 112.36 112.55 112.74 112.89 113.06 113.24 113.40 113.52 113.64 113.76 113.90 114.01 114.14 114.27 114.45 114.68 114.79 114.75 114.69 114.78 114.93 114.84 114.88 114.75 114.66 114.60 114.64 114.64 114.51 114.44 114.41 114.36 114.33 114.40 114.49 114.54 114.65 114.69 114.82 114.96 115.17 115.36 115.59 115.80 116.12 116.46 116.65 116.73 116.84 115.60 117.00
112.35 112.54 112.71 112.92 113.10 113.29 113.50 113.66 113.77 113.85 113.99 114.10 114.17 114.29 114.47 114.68 114.89 114.98 114.96 114.89 114.93 115.01 114.97 114.99 114.93 114.88 114.87 114.84 114.79 114.69 114.60 114.54 114.48 114.53 114.58 114.64 114.74 114.74 114.83 114.96 115.13 115.39 115.52 115.74 116.04 116.29 116.64 116.83 116.91 116.99 117.12 117.21
112.59 112.79 113.00 113.15 113.32 113.43 113.70 113.89 114.00 114.10 114.20 114.33 114.44 114.60 114.71 114.88 115.07 115.14 115.10 115.05 115.07 115.10 115.15 115.11 115.08 115.09 115.07 115.01 114.88 114.77 114.64 114.56 114.54 114.66 114.70 114.77 114.86 114.99 115.09 115.18 115.35 115.54 115.72 115.93 116.17 116.44 116.74 116.93 117.05 117.14 117.21 116.91
112.73 112.93 113.17 113.37 113.57 113.81 114.04 114.17 114.21 114.28 114.37 114.50 114.61 114.76 114.90 115.09 115.26 115.31 115.24 115.16 115.27 115.27 115.30 115.23 115.17 115.18 115.19 115.12 115.03 114.90 114.82 114.75 114.76 114.78 114.90 114.93 115.01 115.06 115.18 115.31 115.50 115.64 115.80 116.02 116.22 116.53 116.88 117.12 117.25 117.27 117.38 117.38
112.92 113.12 113.35 113.57 113.78 114.02 114.26 114.38 114.45 114.53 114.60 114.71 114.84 114.97 115.09 115.27 115.43 115.46 115.40 115.36 115.44 115.44 115.49 115.42 115.42 115.37 115.33 115.20 115.13 115.02 114.86 114.83 114.82 114.88 114.95 115.00 115.04 115.12 115.32 115.49 115.63 115.84 116.04 116.25 116.46 116.67 117.00 117.24 117.36 117.37 117.50 117.65
113.10 113.34 113.57 113.81 114.00 114.23 114.46 114.60 114.67 114.73 114.81 114.94 115.04 115.16 115.28 115.45 115.59 115.64 115.58 115.55 115.59 115.61 115.70 115.56 115.57 115.52 115.40 115.25 115.13 115.00 114.92 114.90 114.90 115.03 115.15 115.22 115.25 115.33 115.49 115.64 115.81 116.00 116.18 116.34 116.50 116.72 117.01 117.23 117.36 117.47 117.61 117.88
113.32 113.58 113.82 114.02 114.24 114.47 114.68 114.79 114.85 114.93 115.01 115.14 115.25 115.36 115.49 115.62 115.75 115.82 115.78 115.70 115.72 115.76 115.90 115.73 115.70 115.67 115.53 115.41 115.31 115.25 115.13 115.15 115.07 115.17 115.18 115.31 115.39 115.47 115.59 115.75 115.87 116.03 116.22 116.44 116.64 116.86 117.14 117.42 117.58 117.73 117.84 118.08
113.57 113.80 114.03 114.24 114.44 114.68 114.92 115.01 115.07 115.13 115.21 115.32 115.44 115.54 115.67 115.79 115.93 115.99 115.95 115.87 115.80 115.89 116.04 115.90 115.83 115.77 115.64 115.50 115.40 115.27 115.17 115.17 115.20 115.22 115.26 115.32 115.46 115.58 115.73 115.93 116.07 116.24 116.38 116.60 116.77 116.99 117.24 117.52 117.78 117.93 118.08 118.23
113.80 114.01 114.23 114.43 114.64 114.85 115.09 115.20 115.24 115.28 115.38 115.49 115.60 115.73 115.85 116.00 116.14 116.19 116.15 116.08 116.04 116.04 116.17 115.99 115.93 115.77 115.60 115.44 115.39 115.29 115.29 115.32 115.36 115.42 115.46 115.53 115.64 115.73 115.84 116.01 116.18 116.41 116.53 116.72 116.92 117.10 117.32 117.65 117.93 118.14 118.24 118.36
114.01 114.20 114.39 114.59 114.78 115.00 115.23 115.37 115.42 115.50 115.59 115.74 115.85 115.98 116.08 116.22 116.34 116.39 116.32 116.22 116.16 116.20 116.28 116.08 116.00 115.90 115.84 115.60 115.56 115.53 115.45 115.44 115.53 115.58 115.63 115.74 115.74 115.92 115.98 116.18 116.32 116.54 116.70 116.97 117.10 117.28 117.59 117.82 118.08 118.18 118.30 118.31
114.19 114.38 114.57 114.76 114.94 115.21 115.43 115.54 115.60 115.67 115.79 115.90 116.02 116.12 116.22 116.36 116.47 116.49 116.40 116.30 116.25 116.32 116.44 116.22 116.11 115.96 115.83 115.74 115.60 115.60 115.60 115.58 115.61 115.65 115.71 115.83 115.94 116.06 116.23 116.39 116.57 116.77 116.96 117.11 117.32 117.54 117.81 118.04 118.27 118.43 118.46 118.38
114.35 114.53 114.72 114.92 115.11 115.32 115.54 115.66 115.70 115.78 115.89 116.03 116.14 116.24 116.35 116.52 116.63 116.68 116.61 116.50 116.42 116.46 116.52 116.37 116.20 116.00 115.87 115.78 115.76 115.74 115.74 115.80 115.83 115.90 115.89 115.98 116.05 116.18 116.38 116.57 116.78 116.97 117.16 117.32 117.47 117.72 117.98 118.28 118.49 118.68 118.78 118.90
114.55 114.70 114.85 115.05 115.24 115.44 115.63 115.75 115.84 115.93 116.05 116.20 116.33 116.45 116.57 116.71 116.84 116.93 116.86 116.71 116.63 116.63 116.65 116.59 116.32 116.14 115.99 115.89 115.84 115.81 115.87 115.95 116.00 116.02 116.06 116.13 116.24 116.34 116.50 116.71 116.94 117.12 117.33 117.48 117.68 117.88 118.12 118.37 118.60 118.81 118.96 119.11
114.78 114.93 115.07 115.22 115.41 115.58 115.77 115.89 116.01 116.13 116.26 116.41 116.51 116.65 116.75 116.88 117.03 117.11 117.05 116.92 116.82 116.78 116.81 116.75 116.40 116.18 116.07 115.92 115.95 115.98 116.03 116.08 116.14 116.22 116.31 116.38 116.43 116.56 116.68 116.86 117.02 117.18 117.38 117.61 117.80 118.00 118.25 118.51 118.79 118.96 119.07 119.12
114.92 115.07 115.20 115.37 115.53 115.70 115.91 116.04 116.17 116.29 116.46 116.60 116.74 116.85 116.94 117.08 117.22 117.28 117.21 117.05 116.99 116.87 116.96 116.91 116.46 116.26 116.15 116.15 116.16 116.18 116.28 116.26 116.26 116.30 116.35 116.42 116.54 116.69 116.88 117.06 117.22 117.42 117.62 117.82 117.98 118.12 118.34 118.60 118.86 119.00 119.13 119.19
115.10 115.26 115.38 115.52 115.69 115.88 116.03 116.19 116.32 116.48 116.62 116.78 116.93 117.06 117.15 117.27 117.40 117.45 117.33 117.18 117.09 117.03 117.07 117.06 116.47 116.32 116.25 116.23 116.21 116.27 116.32 116.35 116.39 116.45 116.49 116.63 116.76 116.91 117.10 117.27 117.45 117.65 117.88 118.06 118.16 118.25 118.44 118.69 118.93 119.10 119.19 119.29
115.36 115.46 115.59 115.71 115.88 116.06 116.20 116.33 116.49 116.68 116.84 116.99 117.12 117.25 117.34 117.46 117.56 117.54 117.44 117.34 117.20 117.15 117.16 117.17 116.70 116.46 116.43 116.35 116.36 116.44 116.46 116.48 116.52 116.57 116.68 116.80 116.98 117.16 117.38 117.54 117.73 117.89 118.09 118.25 118.29 118.37 118.50 118.74 118.98 119.14 119.27 119.38
115.57 115.68 115.76 115.90 116.00 116.17 116.34 116.49 116.69 116.87 117.04 117.20 117.32 117.42 117.49 117.57 117.62 117.62 117.52 117.42 117.30 117.15 117.16 117.25 116.76 116.59 116.49 116.49 116.51 116.58 116.62 116.65 116.72 116.82 116.90 117.05 117.22 117.42 117.59 117.77 117.91 118.09 118.29 118.45 118.49 118.53 118.65 118.81 119.01 119.21 119.35 119.46
