ncols 52
nrows 52
xllcorner 443392
yllcorner 5715456
cellsize 10
NODATA_value -9999
92.40 91.88 91.61 91.39 91.25 91.16 91.04 90.89 90.75 90.57 90.40 90.22 90.08 89.92 88.82 89.29 89.21 89.27 89.20 89.12 89.10 89.14 89.14 89.07 89.18 89.34 89.54 89.76 89.94 90.15 90.40 91.12 91.15 91.32 91.40 91.51 91.76 92.15 92.44 92.62 92.75 92.80 92.78 92.69 93.34 94.06 94.60 94.75 94.75 94.56 94.24 93.82
91.66 91.84 91.62 91.40 91.29 91.20 91.07 90.95 90.81 90.62 90.40 90.23 90.09 89.77 88.62 89.32 89.24 89.30 89.18 89.14 89.17 89.14 89.13 88.72 89.23 89.37 89.59 89.83 90.04 90.28 90.49 91.13 91.17 91.33 91.46 91.62 91.81 92.15 92.43 92.68 92.87 92.99 92.96 92.81 93.43 94.30 95.21 95.37 95.55 94.79 93.71 94.83
91.93 91.89 91.64 91.41 91.31 91.22 91.12 91.00 90.87 90.71 90.49 90.28 90.09 89.77 88.65 89.26 89.32 89.31 89.24 89.16 89.22 89.18 89.20 88.77 89.32 89.48 89.70 89.93 90.18 90.49 90.78 91.19 91.33 91.50 91.63 91.76 91.97 92.19 92.43 92.69 92.89 93.09 93.14 92.95 93.34 94.23 93.81 94.72 95.21 93.64 94.60 95.01
92.05 91.77 91.56 91.45 91.35 91.25 91.15 91.02 90.90 90.72 90.52 90.32 90.09 89.93 88.68 89.41 89.29 89.33 89.33 89.21 89.19 89.25 89.24 89.25 89.36 89.52 89.79 90.02 90.27 90.64 90.96 91.35 91.56 91.64 91.80 91.93 92.10 92.34 92.58 92.82 93.02 93.19 93.33 93.06 92.96 94.06 94.28 94.02 94.51 93.69 95.01 95.20
92.12 91.82 91.61 91.50 91.35 91.22 91.11 91.01 90.85 90.68 90.43 90.18 89.87 89.66 88.76 89.29 89.30 89.22 89.36 89.28 89.30 89.33 89.35 89.37 89.48 89.52 89.83 90.23 90.55 90.76 90.98 91.44 91.62 91.57 91.81 92.05 92.23 92.51 92.80 93.01 93.26 93.40 93.54 93.22 92.42 93.86 93.95 93.19 93.51 95.05 95.24 95.43
92.08 91.81 91.61 91.46 91.19 91.03 90.94 90.82 90.71 90.51 90.22 89.93 89.71 89.71 88.76 89.51 89.36 89.46 89.41 89.36 89.40 89.39 89.38 89.49 89.62 89.62 89.87 90.29 90.65 90.82 91.02 91.41 91.58 91.67 91.86 92.07 92.35 92.57 92.92 93.15 93.30 93.55 93.70 93.49 92.78 92.97 92.96 94.46 95.18 95.27 95.44 95.57
91.99 91.80 91.66 91.46 91.18 91.07 91.01 90.94 90.84 90.63 90.28 89.92 89.70 89.74 88.98 89.47 89.43 89.42 89.46 89.39 89.38 89.38 89.46 89.47 89.60 89.69 89.89 90.26 90.58 90.90 91.04 91.18 91.60 91.68 91.98 92.16 91.93 91.81 93.03 93.35 93.59 93.78 93.88 93.49 92.86 92.36 95.38 95.41 95.47 95.53 95.61 95.74
92.00 91.84 91.71 91.46 91.21 91.17 91.11 91.02 90.90 90.68 90.32 89.97 89.77 89.74 89.32 89.46 89.47 89.39 89.47 89.43 89.42 89.41 89.53 89.52 89.00 89.74 89.91 90.12 90.17 90.12 90.25 90.69 91.62 91.92 92.14 92.45 92.76 93.02 94.48 94.53 93.93 93.96 94.24 94.27 92.85 93.82 95.48 95.57 95.69 95.68 95.67 95.78
92.00 91.87 91.68 91.42 91.18 91.14 91.10 90.93 90.78 90.57 90.33 90.03 89.82 89.75 89.51 89.50 89.45 89.39 89.49 89.55 89.46 89.49 89.54 89.55 89.00 89.70 89.60 89.53 89.94 90.28 90.65 91.10 91.96 92.38 92.65 92.95 93.18 93.27 93.96 94.15 94.08 94.14 94.19 93.84 92.98 94.22 95.62 95.74 95.85 95.81 95.71 95.80
92.01 91.87 91.68 91.46 91.24 91.17 91.10 90.93 90.75 90.51 90.33 90.08 89.96 89.77 89.82 89.50 89.47 89.45 89.48 89.56 89.53 89.43 89.44 89.55 89.62 89.56 89.78 89.86 90.15 90.63 90.94 91.21 92.46 92.70 92.90 93.01 93.46 93.82 94.11 94.26 94.24 94.32 94.41 93.90 93.25 94.74 95.72 95.81 95.96 95.97 95.86 95.88
92.03 91.86 91.72 91.44 91.20 91.19 91.19 90.94 90.72 90.59 90.43 90.11 90.07 89.92 89.60 89.62 89.53 89.52 89.46 89.52 89.50 89.48 89.48 89.46 89.55 89.58 89.67 89.96 90.32 90.86 91.21 91.41 92.39 92.84 93.05 93.12 93.51 93.99 94.22 94.24 94.25 94.31 94.41 94.15 93.58 94.84 95.83 95.96 96.10 96.13 96.02 95.95
92.19 91.33 90.98 90.78 90.36 90.26 90.25 90.25 90.22 90.18 90.09 89.85 89.77 89.81 89.04 89.60 89.55 89.52 89.47 89.50 89.53 89.54 89.57 89.61 89.57 89.48 89.71 89.97 90.53 91.08 91.42 92.01 92.09 93.01 93.15 93.15 93.39 93.90 94.15 94.10 94.18 94.32 94.42 94.41 93.84 94.89 95.99 96.11 96.26 96.31 96.20 96.12
92.22 91.24 91.07 90.86 90.43 90.25 90.20 90.28 90.17 90.14 90.07 89.92 89.80 89.75 88.89 89.74 89.63 89.58 89.56 89.56 89.61 89.60 89.63 89.61 89.71 89.32 90.07 90.30 90.88 91.46 91.76 92.00 92.06 93.53 93.25 93.22 93.34 93.84 94.27 94.07 94.23 94.34 94.46 94.66 94.11 95.30 96.09 96.25 96.37 96.46 96.51 96.55
92.31 91.23 91.01 90.79 90.38 90.27 90.21 90.22 90.12 90.13 90.06 89.99 89.88 89.80 89.04 89.73 89.70 89.65 89.60 89.58 89.63 89.60 89.64 89.74 89.84 89.71 90.33 90.54 90.99 91.94 92.08 92.07 92.08 93.04 93.21 93.28 93.37 93.46 93.79 94.12 94.26 94.40 94.55 94.52 94.34 95.50 96.10 96.53 96.69 95.93 96.55 96.70
92.35 91.25 90.92 90.73 90.38 90.25 90.19 90.21 90.15 90.17 90.21 90.03 89.95 89.88 89.71 89.79 89.77 89.68 89.75 89.72 89.78 89.71 89.69 89.93 90.12 89.78 90.43 90.78 91.22 92.34 92.24 93.82 93.78 93.15 93.36 93.37 93.36 93.31 93.44 94.12 94.32 94.36 94.43 94.63 94.50 94.47 95.56 96.00 96.22 96.38 97.07 97.17
92.19 91.24 90.80 90.66 90.39 90.36 90.28 90.20 90.15 90.18 90.16 90.02 90.01 90.26 90.06 89.89 89.81 89.81 89.83 90.42 90.62 90.67 90.15 90.72 90.24 89.63 90.34 90.82 91.37 92.62 93.11 93.48 93.58 93.65 93.49 93.48 93.41 93.34 93.35 94.13 94.23 94.32 94.37 94.62 94.69 95.06 96.03 96.81 96.96 96.87 97.10 97.31
91.48 91.11 90.58 90.60 90.37 90.35 90.29 90.25 90.19 90.15 90.09 90.06 89.97 89.30 90.08 89.91 89.87 89.77 89.86 90.81 90.82 90.77 90.68 90.68 90.54 89.82 90.44 91.92 93.14 93.11 93.46 93.52 93.36 93.58 93.42 93.58 93.57 93.46 93.41 94.13 94.64 95.10 94.97 94.94 94.60 95.83 96.33 96.93 97.07 97.12 97.10 97.25
91.76 91.01 90.55 90.55 90.38 90.33 90.32 90.23 90.12 90.09 90.13 90.17 90.10 89.80 90.06 90.01 89.91 89.88 89.88 90.54 90.82 90.79 90.72 90.76 90.67 91.20 91.48 92.00 92.84 93.12 93.54 93.55 93.43 93.57 93.50 93.68 94.13 94.55 94.81 95.00 95.56 95.62 95.34 95.39 94.54 96.07 96.49 97.28 97.68 97.15 97.50 97.65
91.79 90.98 90.48 90.45 90.36 90.33 90.32 90.19 90.07 90.08 90.14 90.26 89.10 90.22 90.17 90.07 90.02 90.01 90.02 90.29 90.83 90.82 90.76 90.81 90.67 91.54 91.68 92.12 92.42 92.72 93.50 93.77 93.77 93.66 93.79 94.01 94.22 94.70 95.40 95.60 95.79 95.74 95.55 95.46 94.55 96.33 96.79 97.20 97.38 97.84 97.79 97.83
91.88 90.92 90.59 90.50 90.32 90.33 90.36 90.15 90.13 90.11 90.09 89.11 90.15 89.91 89.97 90.04 89.99 90.01 90.10 90.29 90.83 90.83 90.80 90.85 90.73 91.69 91.83 92.15 92.40 92.93 93.60 94.03 93.89 93.91 94.06 94.19 94.54 94.88 95.54 95.74 95.83 95.79 95.48 95.28 94.60 94.99 97.14 97.18 97.50 97.91 97.79 97.96
91.55 91.18 90.93 90.80 90.49 90.17 90.25 90.17 90.12 89.77 90.30 90.21 90.00 89.97 89.87 89.97 89.99 89.93 89.95 90.82 90.82 90.84 90.74 90.89 90.85 91.78 92.08 92.35 92.63 93.00 94.06 94.06 94.10 94.19 94.32 94.50 94.74 95.02 95.87 95.94 95.97 95.76 95.72 95.70 94.64 96.50 97.04 97.57 97.74 97.90 98.01 98.20
91.46 91.34 91.15 91.04 90.65 90.38 90.34 90.17 90.35 89.25 90.19 90.02 89.86 89.86 89.82 90.05 90.01 89.99 90.04 90.57 90.73 90.57 90.69 90.82 90.98 92.25 92.41 92.69 93.02 93.88 94.18 94.53 94.21 94.34 94.63 94.64 94.83 95.49 95.90 95.82 95.89 95.74 95.53 95.46 94.71 95.77 97.47 97.82 97.92 98.19 98.28 98.32
91.23 91.03 90.87 90.76 90.64 90.54 90.51 90.41 90.43 90.33 90.10 89.92 89.83 89.89 90.00 90.13 90.16 90.09 90.24 90.60 90.74 90.82 90.75 90.86 91.51 92.12 92.60 92.96 93.52 94.19 94.49 94.69 94.54 94.54 94.59 94.68 94.71 94.81 95.85 95.25 96.03 95.81 95.29 95.15 94.81 96.66 97.74 97.94 98.00 98.45 98.63 98.46
91.79 91.57 91.88 91.62 90.77 90.60 90.44 90.46 90.44 90.34 90.11 89.93 89.88 89.85 89.93 90.18 90.04 90.10 90.36 90.68 90.75 90.85 90.10 89.89 91.40 91.90 92.50 92.79 93.76 94.27 94.58 94.71 94.62 94.61 94.47 94.47 94.49 94.60 95.81 94.86 95.65 95.16 95.07 94.99 94.97 96.86 97.65 98.08 98.20 98.48 98.68 98.66
92.42 92.03 92.05 91.75 91.12 91.11 90.50 90.57 90.42 90.23 90.19 89.96 89.86 90.14 90.17 90.41 90.35 90.27 90.38 90.62 90.94 90.96 90.99 91.09 91.18 91.70 92.27 92.54 93.64 94.20 93.82 94.36 93.94 94.09 94.36 95.04 95.66 94.82 95.65 96.64 96.71 96.99 96.40 96.92 95.07 96.82 97.64 98.50 98.43 98.40 98.49 98.79
92.20 92.17 92.07 91.92 91.52 91.26 91.07 90.53 90.08 90.26 90.17 89.97 89.85 90.43 90.27 90.42 90.55 90.46 90.57 90.88 91.49 91.36 91.57 91.58 91.62 91.44 91.76 92.20 92.82 94.43 94.83 95.39 95.52 95.34 95.07 95.54 95.73 95.54 95.40 96.93 97.01 97.31 97.51 97.11 95.19 95.15 97.04 98.37 98.45 98.51 98.50 98.67
92.28 92.22 91.98 91.97 91.59 91.24 90.96 90.72 90.59 90.40 90.26 90.08 90.04 90.19 90.37 90.51 90.54 90.64 90.69 91.19 91.46 91.94 92.25 92.51 92.50 91.71 92.16 92.19 94.28 94.65 95.08 95.94 96.04 95.94 95.43 95.51 95.52 96.21 96.75 97.67 97.59 97.56 97.48 97.09 95.33 96.99 97.31 98.23 98.44 98.75 98.61 98.68
91.44 91.54 90.96 91.08 90.94 90.57 90.78 90.59 90.47 89.61 90.44 90.30 90.27 90.24 90.36 90.51 90.57 90.93 91.04 91.35 92.58 92.71 92.93 93.77 93.26 92.76 92.67 92.17 94.09 94.38 94.53 95.30 95.85 96.02 96.31 96.53 96.88 96.99 97.60 97.54 97.68 97.48 97.47 97.12 95.49 96.20 96.97 97.52 98.40 98.53 98.69 98.68
91.44 91.64 91.44 90.79 90.63 90.67 90.62 90.40 90.54 89.54 90.80 90.44 90.55 90.59 91.09 90.75 90.99 91.18 91.20 92.48 92.53 92.95 93.01 93.13 93.40 92.83 92.79 92.42 93.74 93.97 94.72 95.36 96.16 96.68 97.01 97.20 97.58 97.75 97.61 97.43 97.57 97.44 97.38 97.17 95.63 96.89 97.10 98.08 98.35 98.51 98.62 98.79
92.22 91.83 91.41 90.10 90.62 90.51 90.36 90.33 90.50 89.73 90.64 90.60 90.51 90.49 90.77 90.91 91.02 91.17 91.47 92.57 92.76 93.07 93.09 93.13 93.19 92.82 92.77 93.01 92.98 94.50 95.26 95.74 96.09 96.84 97.07 96.86 97.37 97.51 97.46 97.44 97.46 97.30 97.08 97.04 95.82 95.99 97.57 98.52 98.54 98.60 98.71 98.86
92.13 91.72 91.28 90.89 90.85 90.74 90.51 90.40 90.74 89.60 90.81 89.76 90.52 90.62 90.85 90.98 91.06 91.06 92.19 92.96 93.33 93.01 93.04 93.13 93.32 93.49 92.88 92.98 92.75 93.91 94.93 95.52 96.31 97.27 96.79 96.77 96.60 97.43 97.43 97.32 97.32 97.00 97.09 96.86 96.11 96.18 97.16 98.51 98.67 98.76 98.82 99.16
91.59 91.24 90.88 90.85 90.90 90.91 90.92 90.85 90.68 90.08 90.90 89.72 90.60 90.90 90.95 91.10 91.04 91.21 91.77 92.85 92.71 92.94 93.11 93.23 93.35 93.23 92.96 92.34 92.45 94.10 94.92 95.60 95.61 96.75 96.54 96.66 96.87 97.32 97.00 97.05 97.16 96.85 96.70 96.69 96.42 96.04 96.43 96.91 97.29 97.21 98.81 98.85
91.05 90.97 91.04 91.03 91.12 91.12 91.12 90.86 90.82 90.20 91.01 91.12 90.90 91.03 90.97 90.93 90.96 91.02 91.94 91.35 92.73 92.90 92.97 92.10 91.73 91.90 92.05 92.21 92.38 94.11 95.61 95.50 95.31 96.15 96.23 96.30 96.77 97.34 97.22 96.92 96.99 96.84 96.78 96.43 96.15 96.31 96.54 97.08 97.02 98.25 98.59 98.55
91.11 91.12 91.21 91.02 91.16 91.18 91.49 90.99 91.13 89.59 90.85 91.18 90.93 90.86 90.89 90.77 90.90 90.78 90.81 91.02 91.14 91.32 92.41 93.67 94.25 94.29 94.46 94.28 92.55 93.91 95.56 95.53 95.51 95.57 95.80 95.74 95.99 97.03 97.01 96.90 97.05 96.98 96.97 95.90 96.12 96.27 96.52 98.68 98.73 98.84 98.83 98.76
91.39 91.25 91.24 91.09 90.81 90.70 91.06 90.90 90.99 89.76 90.85 90.64 90.15 91.40 90.91 90.80 90.69 90.81 91.91 92.40 92.79 93.18 94.29 94.52 94.58 94.56 94.53 94.32 94.11 92.72 95.22 95.57 95.45 94.85 95.28 95.24 95.54 95.79 97.12 95.68 95.62 95.99 96.52 98.15 98.30 96.51 97.46 99.24 99.38 99.36 99.73 99.56
91.33 91.14 91.09 90.89 90.84 90.78 90.71 91.02 90.70 90.86 91.07 90.70 90.61 90.33 91.30 91.40 90.99 91.71 92.08 92.60 93.16 93.62 94.22 94.79 94.75 94.79 94.57 94.27 94.05 93.07 93.07 93.31 93.80 94.39 94.76 95.01 95.36 95.75 95.79 98.43 96.23 98.65 98.82 98.67 98.61 96.79 97.85 99.09 99.60 99.62 99.54 99.69
91.49 91.32 91.17 90.90 90.73 90.69 90.83 90.89 90.74 90.94 90.98 90.65 90.68 89.94 90.65 91.10 91.18 91.21 91.83 92.15 93.18 93.85 94.39 95.05 95.12 95.14 95.37 95.04 94.86 93.46 93.21 95.12 95.32 95.14 96.93 96.87 96.81 96.52 96.22 98.15 98.81 98.88 98.93 98.90 98.62 97.66 96.95 98.79 99.73 99.89 99.82 99.97
91.54 91.43 91.32 91.29 91.19 91.01 90.94 90.85 89.96 90.75 90.67 90.46 90.62 90.53 90.39 90.94 91.28 91.30 91.82 92.11 92.61 95.17 95.34 95.54 95.58 95.52 95.46 95.03 94.83 94.50 93.32 95.51 95.52 95.53 97.22 96.84 96.76 96.52 96.48 98.53 98.84 98.99 99.14 99.10 98.71 96.72 97.24 98.00 99.73 99.92 99.87 100.05
91.96 91.60 91.57 91.29 91.15 90.89 90.87 90.82 90.83 90.71 90.68 90.51 90.62 90.56 90.46 91.11 91.44 91.49 92.05 92.40 92.89 95.37 95.37 95.66 95.67 95.74 95.68 95.52 95.06 94.11 94.24 95.57 95.90 95.85 98.24 98.26 97.93 96.69 96.94 98.74 98.79 98.96 99.27 99.47 99.41 99.38 97.63 97.89 99.57 100.21 100.36 100.27
92.04 91.87 91.55 91.14 90.85 90.86 90.90 90.98 91.24 90.92 90.88 90.65 91.02 90.78 90.56 91.31 91.67 91.76 92.45 92.72 93.18 95.74 95.84 95.96 96.21 96.43 96.59 96.59 96.76 96.03 95.31 95.85 97.93 97.82 98.24 98.14 98.05 98.07 98.26 98.40 98.52 98.55 99.36 99.43 99.61 99.41 99.27 97.99 99.46 100.32 100.37 100.40
92.08 91.96 91.66 91.15 90.95 91.02 91.09 89.95 91.15 90.81 90.67 90.73 91.04 90.87 90.57 91.54 91.66 91.59 92.14 92.66 93.54 95.97 96.06 95.92 96.33 96.50 96.59 96.50 96.22 95.88 95.86 98.41 98.49 98.55 98.31 98.29 98.33 98.35 98.44 98.55 98.44 98.40 99.00 99.62 98.91 98.51 98.36 98.33 98.90 100.43 100.69 100.91
91.18 91.31 91.45 91.28 90.64 90.14 91.20 91.07 90.88 90.78 90.68 90.72 90.87 90.88 90.76 91.47 91.62 91.89 92.34 93.05 93.07 95.94 95.93 95.94 96.40 96.60 96.60 96.43 95.97 95.72 96.12 98.17 98.44 98.23 97.63 97.92 97.88 97.89 97.95 98.10 98.28 98.34 98.45 98.87 99.06 99.94 99.84 98.99 98.85 99.52 101.01 100.96
91.96 91.94 91.78 91.33 91.38 91.77 91.44 91.67 91.76 91.76 91.34 90.94 90.93 91.01 90.70 91.12 91.92 92.12 92.10 93.06 93.20 95.02 95.76 95.90 96.44 96.64 97.14 96.27 96.00 95.70 96.00 97.66 97.64 97.38 97.36 97.34 97.44 97.68 97.75 98.02 98.14 99.42 99.72 99.44 99.57 99.72 99.71 99.68 99.00 99.75 101.03 100.99
92.09 91.80 91.60 91.49 90.44 90.83 91.69 91.65 91.67 91.61 91.29 91.17 91.00 91.12 91.38 90.11 91.80 92.10 92.04 93.17 94.15 94.79 95.46 96.32 96.40 96.71 97.31 97.40 97.32 94.96 95.51 97.22 97.60 97.39 97.38 97.31 97.51 97.59 97.89 99.07 99.34 99.59 99.88 99.78 100.01 99.93 99.85 99.70 99.39 99.70 100.36 101.41
92.07 91.88 91.74 91.62 90.62 90.98 91.87 91.97 92.28 92.26 92.11 90.93 91.04 91.15 91.33 90.60 91.55 92.00 92.35 93.83 94.24 94.72 95.03 96.40 96.54 96.54 97.16 97.50 97.47 95.11 94.98 97.22 97.60 97.55 97.51 99.00 98.96 98.24 98.75 99.31 99.68 99.93 100.32 100.33 100.62 100.38 100.39 100.44 100.31 99.60 100.21 101.43
92.17 91.97 91.83 91.72 90.78 90.95 91.84 91.98 92.31 92.38 92.27 91.03 90.89 91.41 91.49 90.14 91.43 91.90 92.84 93.11 94.10 94.54 94.64 96.71 96.58 97.53 98.25 98.56 98.55 98.06 95.00 95.76 96.71 97.57 98.13 99.14 99.10 99.40 99.67 99.61 99.86 100.74 100.79 100.71 100.95 100.95 100.88 101.04 101.03 99.67 100.22 101.57
92.26 92.05 91.92 91.78 90.93 91.13 90.94 92.12 92.36 92.44 92.41 91.16 91.03 91.39 91.66 90.96 91.49 92.01 92.26 92.86 93.79 94.54 95.08 97.37 97.76 98.17 98.30 98.64 98.65 98.37 95.15 96.01 96.94 97.74 98.45 98.99 99.72 100.19 100.39 100.43 100.32 100.53 100.78 100.88 101.18 101.00 101.31 101.54 101.38 99.78 100.24 100.64
92.31 92.10 91.95 91.83 91.24 91.16 90.59 91.99 92.46 92.45 92.50 91.93 91.40 91.40 91.69 92.08 92.36 92.21 92.69 93.19 93.63 94.94 96.79 97.38 97.39 98.17 98.33 98.61 98.61 98.62 95.25 96.29 96.90 98.29 98.81 99.11 100.45 100.48 100.53 100.51 100.62 100.52 100.58 100.68 100.97 101.15 101.23 101.42 101.50 100.63 99.82 100.48
92.36 92.19 91.98 91.87 91.57 91.20 91.10 91.91 92.14 92.32 92.41 92.33 92.26 91.82 91.91 92.31 92.46 92.39 92.60 93.96 95.51 96.65 96.89 97.78 97.53 98.07 98.40 98.77 98.62 98.83 95.40 96.87 97.95 99.23 99.66 99.85 100.49 100.63 100.76 100.81 100.78 100.29 100.50 100.68 100.73 101.17 101.17 101.37 101.32 100.93 99.74 99.80
92.44 92.28 92.05 91.90 91.67 90.74 91.25 91.37 91.81 91.43 91.57 92.37 92.09 92.07 92.29 92.12 92.44 92.61 92.72 95.43 96.66 96.71 96.76 98.05 97.56 98.13 98.94 99.59 100.00 99.45 95.56 97.18 98.69 99.69 100.19 100.37 100.49 100.70 100.80 100.92 100.62 100.39 100.38 100.43 100.68 100.60 101.34 101.21 99.97 99.63 99.81 100.00
92.52 92.36 92.12 91.94 91.68 90.76 91.29 91.65 91.69 91.75 91.73 92.04 92.11 92.14 92.46 92.17 93.18 93.90 94.25 93.17 95.75 96.72 96.34 97.32 98.31 98.64 98.79 98.99 98.98 99.19 95.71 98.45 98.58 98.94 100.14 100.48 100.44 100.56 100.54 100.96 100.90 100.37 100.10 99.84 100.28 100.42 100.60 99.35 99.97 100.68 100.17 100.29
92.61 92.41 92.24 92.01 91.78 91.01 91.34 91.95 91.86 91.88 92.08 92.29 93.33 92.22 92.20 94.34 94.36 94.37 94.36 94.18 93.66 95.56 95.69 97.22 98.40 98.03 98.70 98.78 99.04 99.07 95.86 98.41 98.71 99.41 100.41 100.61 100.56 100.33 100.18 100.22 100.18 99.97 99.68 99.38 99.91 99.11 99.26 101.07 101.03 100.93 101.68 100.65
