ncols 52
nrows 52
xllcorner 443392
yllcorner 5712896
cellsize 10
NODATA_value -9999
121.96 122.04 122.11 122.11 122.43 122.31 122.40 122.41 122.48 122.48 122.76 122.87 122.83 122.78 122.85 122.95 123.26 123.26 123.22 123.32 123.40 123.54 123.58 123.83 124.05 123.73 123.87 123.98 124.21 124.08 124.19 124.14 123.81 124.29 124.18 124.06 124.07 125.29 124.18 124.04 123.98 123.97 124.04 124.06 124.12 124.17 124.16 124.17 124.21 124.28 124.34 124.46
121.98 122.04 122.12 122.11 122.59 122.28 122.43 122.65 122.57 122.68 122.80 122.87 122.93 122.89 122.85 123.15 123.24 123.37 123.32 123.37 123.51 123.77 123.79 123.61 123.79 124.18 124.75 124.15 124.17 124.09 124.02 124.10 124.37 124.44 124.26 124.23 124.26 124.16 124.41 124.14 124.13 124.07 124.11 124.15 124.21 124.30 124.29 124.25 124.25 124.31 124.38 124.49
122.01 122.15 122.29 122.11 122.25 122.56 122.51 122.69 122.64 122.73 122.79 122.88 122.99 122.96 122.93 123.20 123.24 123.24 123.53 123.61 123.57 123.50 123.61 123.79 123.85 124.07 124.15 124.10 124.20 124.11 124.18 124.01 124.37 124.31 124.47 124.49 124.64 124.25 124.36 124.42 124.28 124.22 124.24 124.26 124.32 124.40 124.41 124.40 124.38 124.40 124.47 124.57
122.07 122.21 122.34 122.37 122.68 122.60 122.43 122.58 122.67 122.82 122.87 122.97 123.02 122.43 123.20 123.19 123.57 123.35 123.32 123.40 123.64 123.68 123.74 123.88 123.78 124.15 124.17 124.13 124.13 124.12 123.99 124.04 124.39 124.50 125.19 124.73 124.68 126.65 125.84 124.55 124.42 124.41 124.32 124.40 124.47 124.54 124.57 124.54 124.53 124.53 124.60 124.68
122.09 122.33 122.57 122.79 122.88 122.85 122.61 122.56 122.76 122.89 122.93 123.06 123.09 123.02 123.06 123.10 123.43 123.29 123.56 123.61 123.65 123.70 123.75 123.91 123.85 123.80 124.11 124.16 124.02 123.90 124.04 124.12 124.30 124.96 124.80 124.75 124.75 124.68 124.84 125.51 124.77 124.55 124.47 124.60 124.68 124.76 124.79 124.80 124.75 124.72 124.87 125.10
122.10 122.33 122.62 122.84 122.94 122.90 122.79 122.54 122.92 122.92 122.93 123.16 123.00 123.01 123.00 123.17 123.62 123.80 123.60 123.64 123.71 123.79 123.90 124.02 123.93 123.98 123.94 124.20 124.03 124.16 124.49 124.45 124.58 124.53 125.12 124.84 124.82 124.90 126.79 127.35 124.85 124.89 124.84 124.83 125.03 125.15 125.19 125.30 125.36 125.20 125.08 125.07
122.10 122.29 122.53 122.87 123.01 122.90 122.94 122.66 122.85 122.93 122.92 123.33 122.88 123.04 123.67 123.64 123.71 123.69 123.76 123.73 123.74 123.90 124.06 124.03 124.06 124.04 123.90 124.02 124.13 124.33 124.21 124.29 124.57 124.71 124.82 124.94 124.99 125.12 125.78 125.05 125.54 125.84 125.15 125.01 125.06 125.12 125.08 125.09 125.06 125.07 125.10 125.06
122.12 122.20 122.50 122.83 122.97 122.90 122.96 122.91 122.62 122.71 122.77 122.91 123.57 123.51 123.47 123.50 123.62 123.86 123.84 123.79 123.96 124.04 124.06 124.07 124.11 124.16 123.89 124.03 124.82 124.21 124.48 124.75 124.89 124.70 124.97 125.11 125.13 125.21 125.27 125.33 127.46 125.58 125.15 125.15 125.14 125.18 125.21 125.15 125.10 125.05 125.07 125.10
122.12 122.33 122.33 122.75 122.85 122.79 122.67 122.79 122.64 122.85 123.12 123.02 123.52 123.58 123.54 123.60 123.68 123.70 124.33 124.04 123.92 124.03 124.10 124.03 123.91 124.06 124.41 124.25 124.30 124.52 124.88 125.00 124.80 125.00 125.07 125.11 125.89 125.26 125.35 125.45 125.54 128.07 125.46 125.28 125.22 125.36 125.35 125.27 125.24 125.21 125.17 125.19
122.34 122.42 122.45 122.64 122.61 122.36 122.49 122.60 123.16 123.24 123.23 123.11 123.50 123.65 123.85 123.93 123.92 123.89 124.08 124.10 124.01 124.10 123.97 123.98 124.59 124.58 124.55 124.39 124.21 124.38 124.81 125.03 125.04 125.16 125.18 125.22 125.46 125.34 125.38 125.46 125.56 128.12 126.04 125.41 125.45 125.51 125.56 125.49 125.42 125.32 125.29 125.29
122.23 122.32 122.51 122.21 122.36 122.48 122.76 122.72 122.80 123.22 123.17 123.38 123.29 123.53 124.06 124.06 124.06 123.96 124.02 124.06 124.21 124.18 124.55 124.55 124.72 124.62 124.60 124.67 124.34 124.46 124.61 124.90 125.05 125.14 125.40 125.47 125.47 125.38 125.34 125.40 125.51 125.87 127.94 125.89 125.68 125.71 125.76 125.69 125.59 125.50 125.46 125.41
122.51 122.06 122.22 122.42 122.79 122.83 122.91 122.91 122.88 123.04 123.20 123.32 123.31 123.55 123.99 124.05 123.96 123.95 124.01 124.10 124.06 124.62 124.57 124.49 124.74 124.71 124.71 124.75 124.89 124.49 124.75 124.93 124.99 125.44 125.41 125.40 125.47 125.35 125.35 125.39 125.76 125.71 128.15 125.99 125.92 125.86 125.90 125.86 125.76 125.67 125.59 125.55
122.15 122.53 122.50 122.69 122.93 122.96 122.96 122.93 123.00 123.15 123.23 123.35 123.50 123.75 123.88 123.99 123.94 124.12 123.93 124.16 124.55 124.21 124.40 124.53 124.66 124.69 124.86 124.93 124.79 124.76 124.75 125.29 125.48 125.49 125.40 125.37 125.40 125.32 125.35 125.96 126.02 125.97 126.22 127.53 126.10 126.00 125.99 125.95 125.90 125.81 125.74 125.68
122.43 122.65 122.88 122.95 122.93 122.88 122.84 122.97 123.12 123.21 123.32 123.42 123.86 123.53 123.84 123.96 123.86 123.94 124.45 124.43 124.40 124.33 124.65 124.72 124.76 124.87 125.04 125.05 124.82 125.68 124.80 125.14 125.49 125.40 125.28 125.32 125.31 125.56 126.00 126.15 126.46 126.64 126.43 127.88 126.46 126.15 126.08 126.04 125.99 125.93 125.84 125.80
122.18 122.42 122.75 122.66 122.69 122.80 122.92 123.07 123.17 123.25 123.61 123.86 123.83 123.85 123.76 123.83 124.26 124.34 124.26 124.54 124.73 124.74 124.54 124.72 124.87 124.69 125.20 125.64 125.27 125.80 125.22 125.03 125.55 125.29 125.34 125.46 126.14 126.11 126.22 126.28 126.48 126.56 126.39 126.41 126.19 126.21 126.13 126.08 126.05 125.98 125.94 125.90
122.20 122.38 122.47 122.62 122.74 122.87 122.99 123.16 123.37 123.77 123.76 123.85 123.95 123.99 123.81 124.21 124.49 124.71 124.46 124.54 124.77 124.77 124.71 124.75 124.88 124.92 125.25 125.34 125.25 125.28 125.43 125.32 125.30 125.60 125.95 126.11 126.10 126.10 126.14 126.33 126.51 126.41 126.49 126.42 126.34 126.59 126.18 126.14 126.11 126.06 126.03 126.02
122.53 122.36 122.56 122.69 122.85 122.98 123.13 123.56 123.38 123.67 123.78 123.95 124.06 124.12 124.23 124.06 124.51 124.71 124.67 124.68 124.74 124.76 124.78 124.85 125.00 125.11 125.26 125.42 125.41 125.29 125.30 125.66 125.39 125.80 126.27 126.07 126.20 126.24 126.15 126.32 126.57 126.68 126.75 126.49 126.71 126.52 126.31 126.19 126.21 126.17 126.12 126.13
122.47 122.62 122.57 122.82 122.98 123.97 123.65 123.63 123.55 123.63 123.82 123.99 124.18 124.29 124.31 124.13 124.51 124.74 124.68 124.79 124.92 125.04 125.15 125.03 125.07 125.47 125.28 125.55 125.33 125.39 125.67 125.70 125.84 125.64 125.96 126.23 126.15 126.25 126.42 126.50 126.68 126.72 126.76 126.84 126.86 126.59 126.46 126.35 126.31 126.26 126.26 126.27
122.49 122.64 122.58 122.90 123.40 123.54 123.67 123.74 123.70 123.69 123.94 124.11 124.26 124.43 124.50 124.59 124.40 124.90 124.96 124.99 125.20 125.26 125.29 125.35 125.16 125.28 125.39 125.50 125.67 125.72 125.64 125.87 126.18 125.77 125.98 126.24 126.28 126.42 126.66 126.54 126.75 126.98 126.94 126.83 126.74 126.88 126.82 126.54 126.44 126.43 126.40 126.37
122.56 122.69 122.79 122.79 123.22 123.50 123.72 123.86 123.88 123.88 123.97 124.25 124.41 124.56 124.66 124.69 124.66 124.68 125.07 125.26 125.46 125.46 125.36 125.35 125.27 125.48 125.49 125.65 125.81 126.09 125.68 125.82 125.69 125.94 125.95 126.35 126.57 126.67 126.91 126.94 126.95 127.04 127.07 126.99 126.91 127.23 126.93 126.70 126.57 126.54 126.49 126.46
123.15 123.86 123.60 122.97 123.12 123.51 123.77 123.95 124.01 124.14 124.10 124.33 124.46 124.62 124.82 124.86 124.85 124.76 125.04 125.29 125.52 125.62 125.53 125.46 125.39 125.59 125.57 125.73 125.89 126.07 125.62 125.75 126.24 126.28 126.18 126.19 126.29 126.54 126.90 126.96 126.93 127.04 127.02 127.07 127.12 127.07 127.25 126.91 126.74 126.65 126.59 126.59
123.48 123.55 123.64 123.56 123.14 123.56 123.80 124.04 124.17 124.23 124.29 124.32 124.55 124.71 124.88 125.00 125.13 125.10 124.97 125.38 125.70 125.76 125.62 125.93 125.45 125.69 125.88 125.79 125.68 125.57 126.26 126.28 126.29 126.34 126.51 126.21 126.39 126.55 126.85 127.01 126.98 126.99 127.02 127.43 127.50 128.28 127.07 127.02 126.89 126.79 126.74 126.74
123.59 123.62 123.68 123.67 123.44 123.50 123.85 124.11 124.29 124.41 124.39 124.47 124.59 124.79 125.07 126.87 125.38 125.42 125.14 125.33 125.71 125.71 125.86 125.62 125.75 125.88 126.13 125.71 125.76 126.19 126.32 126.32 126.35 126.49 126.49 126.52 126.46 126.83 126.92 126.93 126.95 127.04 127.21 128.87 127.69 127.63 127.35 127.26 126.99 126.94 126.91 126.88
123.61 123.65 123.63 123.64 123.87 123.75 123.97 124.15 124.37 124.43 124.55 124.65 124.76 124.93 125.27 125.40 125.43 125.44 125.33 125.28 125.74 125.79 125.88 126.02 125.85 125.86 125.74 126.31 126.26 126.33 126.35 126.37 126.47 126.48 126.52 126.62 126.57 126.79 126.96 127.10 127.14 127.13 127.65 127.73 127.71 127.58 127.74 127.71 127.40 127.11 127.06 127.09
123.44 123.48 123.64 123.82 123.90 123.93 123.82 124.15 124.39 124.61 124.73 124.81 124.90 124.98 125.11 125.48 125.50 125.51 125.57 125.51 125.55 125.88 125.89 125.92 125.81 126.03 126.21 126.18 126.33 126.57 126.47 126.52 126.51 126.58 126.68 126.74 126.89 126.73 126.94 127.07 127.10 127.68 127.67 127.62 127.61 127.71 127.79 127.81 127.63 127.35 127.25 127.30
123.37 123.66 123.68 123.92 124.06 124.09 124.10 124.13 124.47 124.78 124.90 124.98 125.06 125.05 125.19 125.37 125.58 125.64 125.66 125.65 125.69 125.82 125.79 125.84 126.13 126.16 126.19 126.18 126.35 127.32 126.70 126.65 126.62 126.76 126.83 127.00 127.07 126.97 126.99 127.13 127.39 127.67 127.64 127.53 127.34 127.84 127.88 127.91 127.89 127.70 127.51 127.51
123.53 123.79 123.78 123.94 124.22 124.29 124.26 124.22 124.57 125.02 125.00 125.05 125.11 125.18 125.26 125.44 125.64 125.69 125.72 126.01 125.87 125.95 126.06 126.14 126.18 126.21 126.23 126.52 126.58 126.63 128.05 126.92 126.77 126.85 126.97 126.95 127.07 127.28 127.03 127.44 127.49 127.54 127.57 127.54 128.09 128.04 127.88 128.00 128.31 128.22 127.71 127.69
123.91 123.70 123.86 124.05 124.24 124.40 124.47 124.45 124.48 124.63 125.07 125.13 125.26 125.39 125.40 125.52 125.66 125.99 125.98 125.99 126.11 126.23 126.00 126.24 126.22 126.55 126.62 126.60 126.76 126.67 126.92 126.98 126.96 126.92 126.98 127.33 127.28 127.31 127.35 127.28 127.52 127.42 127.62 128.55 128.30 128.01 128.07 128.33 128.29 128.30 127.82 127.89
124.06 123.94 123.91 124.09 124.39 124.56 124.78 124.71 124.59 124.76 124.96 125.33 125.49 125.55 125.54 125.60 125.99 125.79 125.93 126.20 126.34 126.36 126.42 126.24 126.63 126.64 126.62 126.64 126.82 127.02 127.04 127.06 127.17 127.27 127.24 127.25 127.35 127.62 127.66 127.46 127.55 128.29 128.43 128.21 128.13 128.19 128.21 128.36 128.29 128.31 128.17 128.04
124.08 124.10 124.00 124.27 124.52 124.68 124.82 124.94 124.79 124.86 125.04 125.31 125.48 125.62 125.72 125.60 125.76 126.05 126.31 126.30 126.56 126.47 126.77 126.35 126.63 126.76 126.89 126.99 126.99 127.04 127.10 127.12 127.35 127.52 127.35 127.55 127.64 127.68 127.68 127.86 127.62 128.09 128.17 128.13 128.25 128.19 128.31 128.25 128.19 128.37 128.49 128.16
124.33 124.18 124.15 124.09 124.28 124.75 124.89 124.99 125.04 124.98 125.13 125.32 125.64 125.85 125.60 125.81 126.04 125.93 126.28 126.27 126.67 126.86 126.91 126.52 126.49 126.87 127.04 127.01 127.04 127.21 127.21 127.32 127.33 127.58 127.57 127.63 127.71 127.77 127.96 127.87 127.94 127.86 128.18 128.23 128.29 128.28 128.46 128.21 128.24 128.43 128.65 128.32
124.18 124.36 124.59 124.18 124.29 124.51 124.88 124.97 125.12 125.17 125.31 125.35 125.40 125.68 126.07 126.29 126.21 125.98 126.44 126.72 126.76 126.77 126.76 126.70 126.72 126.90 127.07 127.20 127.29 127.29 127.31 127.39 127.51 127.66 127.71 127.67 127.82 127.86 127.89 127.91 128.01 127.94 128.19 128.30 128.23 128.29 128.21 128.32 128.43 129.52 128.71 128.79
124.12 124.47 124.56 124.49 124.33 124.53 124.89 124.94 125.12 125.35 125.23 125.36 125.82 126.27 126.34 126.44 126.42 126.27 126.47 126.84 126.95 126.65 126.83 126.78 126.86 126.86 127.25 127.23 127.31 127.34 127.36 127.54 127.57 127.66 127.83 127.85 127.87 127.97 127.99 127.96 128.06 128.13 128.14 128.49 128.13 128.26 128.60 129.32 128.60 128.67 129.76 129.29
123.99 124.24 124.58 124.62 124.67 124.49 124.71 124.94 125.10 125.15 125.31 126.26 126.60 126.29 126.41 126.37 126.29 125.39 126.68 126.96 127.15 126.69 126.81 126.65 127.18 127.22 127.13 127.30 127.41 127.57 127.53 127.69 127.67 127.79 127.90 127.92 128.00 127.99 128.02 128.27 128.13 128.29 128.34 128.40 128.70 128.46 129.23 129.23 128.86 128.84 128.92 129.04
124.13 124.28 124.46 124.62 124.74 124.68 124.75 124.81 124.96 125.37 125.30 125.96 126.53 126.58 126.35 126.07 125.53 126.63 127.13 127.29 127.33 127.29 127.17 127.18 127.40 127.49 127.21 127.43 127.49 127.56 127.64 127.69 127.61 127.65 127.91 127.98 127.97 128.07 128.10 128.26 128.36 128.34 128.55 128.44 128.63 128.67 128.93 128.97 128.90 128.99 129.12 129.15
124.49 124.31 124.53 124.68 124.81 124.51 124.65 124.79 124.98 125.37 125.67 125.72 126.44 126.38 126.68 125.67 126.96 127.24 127.35 127.37 127.37 127.38 127.23 127.23 127.42 127.53 127.51 127.35 127.73 128.06 127.59 127.68 127.67 127.72 128.06 128.00 128.15 128.50 128.35 128.49 128.47 128.62 128.74 128.73 128.67 129.03 129.03 129.03 129.05 129.17 129.33 129.77
124.36 124.67 124.51 124.62 124.65 124.77 124.98 125.21 125.00 125.42 125.76 125.68 126.30 126.68 126.50 126.78 127.20 127.33 127.36 127.38 127.40 127.45 127.36 127.40 127.44 127.58 127.77 127.59 127.71 127.68 127.70 127.74 127.95 128.13 128.10 128.20 129.31 128.49 128.58 128.62 128.70 128.84 128.87 128.90 128.88 129.02 129.36 129.11 129.24 129.76 129.75 129.78
124.42 124.92 124.67 124.78 124.89 125.22 125.18 125.39 125.57 125.70 125.89 126.02 125.96 126.74 126.47 126.80 127.17 127.40 127.37 127.40 127.40 127.42 127.42 127.32 127.63 127.72 127.62 127.61 127.69 127.72 127.74 127.88 128.12 128.15 128.15 128.22 128.28 128.61 128.60 128.74 128.83 128.84 128.99 129.11 129.12 128.99 129.23 129.59 129.88 130.01 129.81 129.64
124.84 124.36 124.76 124.83 125.00 125.11 125.46 125.63 125.74 125.88 126.00 126.23 126.17 126.44 128.42 126.69 127.03 127.34 127.37 127.38 127.40 127.45 127.43 127.42 127.68 127.60 127.60 127.61 127.83 127.85 128.10 128.16 128.18 128.14 128.12 128.20 128.51 128.74 128.73 128.91 128.94 129.12 129.12 129.10 129.19 129.25 129.30 129.52 129.75 129.88 129.81 129.77
124.38 124.72 124.71 124.94 125.07 125.27 125.33 125.75 125.94 126.06 126.29 126.31 126.32 126.24 126.87 127.06 126.92 127.19 127.39 127.40 127.43 127.45 127.42 127.44 127.50 127.75 127.58 127.63 127.92 128.07 128.09 128.15 128.19 128.15 128.18 128.35 128.31 128.61 128.79 128.96 129.24 129.18 129.22 129.20 129.26 129.54 129.51 130.74 131.08 130.04 129.91 129.91
124.67 124.75 124.79 124.90 125.06 125.15 125.47 125.54 126.06 126.33 126.37 126.25 126.28 126.30 126.51 127.49 126.84 127.10 127.29 127.41 127.43 127.42 127.51 127.48 127.60 127.81 127.85 127.96 128.25 128.26 128.17 128.12 128.15 128.36 128.28 128.33 128.53 128.76 128.96 129.10 129.18 129.19 129.40 129.23 129.39 129.40 129.82 130.85 131.15 130.31 130.05 130.00
124.75 124.79 124.81 125.03 125.06 125.24 125.50 125.75 125.80 126.28 126.33 126.30 126.24 126.40 126.51 127.00 129.75 127.03 127.23 127.40 127.46 127.45 127.48 127.57 127.67 127.78 128.13 127.94 128.28 128.46 128.52 128.38 128.42 128.29 128.39 128.67 128.75 128.97 129.08 129.17 129.25 129.51 129.33 129.90 130.20 130.02 130.08 130.82 130.81 130.65 130.31 130.26
124.90 124.90 124.97 125.11 125.20 125.29 125.41 125.62 125.94 126.06 126.52 126.54 126.30 126.47 126.66 126.81 127.22 127.01 127.15 127.31 127.40 127.46 127.51 127.61 127.71 127.82 127.92 128.27 128.48 128.35 128.54 128.50 128.52 128.54 128.71 128.89 129.04 129.13 129.17 129.33 129.31 129.73 130.58 130.72 130.37 130.23 130.23 130.80 130.93 131.04 131.15 130.79
125.94 124.93 125.10 125.19 125.25 125.39 125.46 125.65 125.67 126.02 126.31 126.65 126.71 126.54 126.72 127.10 127.24 129.29 127.16 127.30 127.41 127.46 127.58 127.66 127.77 127.86 127.98 128.19 128.45 128.38 128.40 128.74 128.64 128.84 128.99 129.09 129.09 129.15 129.50 129.44 129.66 129.93 130.85 130.75 130.62 130.48 130.38 130.79 131.08 131.12 131.09 131.13
126.07 126.21 125.17 125.38 125.43 125.45 125.58 125.68 125.81 125.93 126.23 126.55 126.82 126.98 126.98 127.19 127.16 127.47 127.32 127.37 127.45 127.53 127.65 127.72 127.82 127.90 128.02 128.15 128.33 128.49 128.42 128.74 128.90 129.02 129.12 129.07 129.27 129.52 129.64 129.77 129.87 130.01 130.44 130.88 130.91 130.82 130.80 130.84 131.02 131.21 131.29 131.35
126.16 126.18 126.24 125.38 125.67 125.59 125.70 125.85 126.35 125.99 126.35 126.57 126.83 127.00 127.13 127.25 127.85 127.47 127.74 127.42 127.52 127.60 127.67 127.78 127.86 127.96 128.07 128.19 128.35 128.66 128.68 130.49 129.15 129.10 129.29 129.37 129.62 129.67 129.94 129.96 130.01 130.19 130.44 130.70 130.95 130.92 131.00 130.96 131.41 131.37 131.49 131.55
126.26 126.33 126.42 126.35 125.69 125.77 125.89 126.24 126.58 126.69 126.40 126.40 126.68 127.13 127.19 127.30 127.55 127.60 127.81 129.07 127.56 127.70 127.72 127.80 127.93 128.04 128.13 128.24 128.35 128.79 128.99 129.30 129.32 129.36 129.36 129.72 129.81 129.99 130.16 130.37 130.33 130.40 130.62 130.94 130.86 130.98 131.05 131.23 131.63 131.60 131.62 131.73
126.40 126.46 126.49 126.53 126.51 126.02 126.43 126.57 126.64 126.89 127.03 126.51 126.64 126.77 127.39 127.45 127.53 127.80 127.79 127.88 129.25 127.71 127.81 127.88 128.00 128.12 128.19 128.36 128.69 128.99 129.57 130.07 129.41 129.86 130.05 130.02 130.07 130.21 130.31 130.56 130.55 130.78 130.94 131.09 131.08 131.13 131.31 131.64 131.64 131.85 131.88 131.97
126.40 126.52 126.59 126.69 126.65 126.77 126.65 126.81 126.89 126.99 127.02 127.18 126.70 126.82 126.99 127.68 127.64 127.86 128.04 128.17 129.59 127.83 127.90 127.96 128.06 128.21 128.38 129.54 129.78 129.11 129.22 129.43 130.21 130.39 130.25 130.09 130.26 130.56 130.75 130.79 130.74 130.99 131.22 131.40 131.40 131.60 131.62 131.84 131.88 132.05 132.12 132.20
126.43 126.54 126.69 126.71 126.79 126.85 126.85 126.87 127.02 127.02 127.09 127.26 127.51 127.07 127.12 127.13 128.03 127.94 128.07 128.14 128.44 129.78 127.96 128.04 128.18 128.57 129.33 129.23 129.16 129.31 129.46 129.95 130.21 130.43 130.43 130.35 130.65 130.96 131.10 131.14 131.07 131.24 131.76 131.67 131.73 131.75 131.85 131.90 132.10 132.32 132.47 132.67
126.51 126.60 126.72 126.83 126.89 127.02 127.06 127.01 126.99 127.09 127.27 127.28 127.44 127.64 127.51 127.48 127.52 128.41 128.23 128.45 128.44 128.65 128.37 128.58 129.91 128.98 129.03 129.18 129.61 129.73 129.51 129.73 130.21 130.40 130.51 130.53 130.85 131.22 131.42 131.48 131.58 131.85 131.84 131.97 131.92 132.20 132.11 132.31 132.25 132.45 132.67 132.79
126.63 126.69 126.85 126.90 127.04 127.05 127.12 127.20 127.24 127.29 127.37 127.47 127.56 127.78 127.93 127.65 127.88 127.81 128.63 128.48 128.65 128.78 128.70 129.07 128.99 129.00 129.36 129.99 130.04 129.94 129.92 129.80 130.21 130.39 130.52 130.62 130.54 130.49 131.54 131.76 131.93 131.96 131.96 132.14 132.04 132.24 132.41 132.57 132.40 132.79 132.82 132.83
