ncols 52
nrows 52
xllcorner 443392
yllcorner 5714432
cellsize 10
NODATA_value -9999
101.13 101.54 101.62 101.47 102.23 101.29 101.13 101.14 101.25 101.43 101.65 101.84 102.11 102.56 102.51 102.56 102.70 102.84 103.01 103.18 103.35 103.53 103.69 103.83 103.96 104.05 104.18 104.29 104.38 104.51 104.61 104.76 104.87 104.97 105.11 105.11 104.28 105.47 105.70 105.92 106.11 106.25 106.40 106.61 106.79 106.94 107.06 107.21 107.39 107.56 107.70 107.84
101.61 101.53 101.62 101.57 101.67 101.37 101.24 101.26 101.40 101.60 101.85 102.06 102.36 102.76 102.71 102.80 102.89 103.03 103.20 103.35 103.51 103.69 103.86 104.00 104.11 104.23 104.35 104.44 104.52 104.63 104.74 104.86 104.96 105.03 105.25 105.02 105.13 105.66 105.82 106.08 106.25 106.43 106.62 106.81 107.00 107.17 107.31 107.43 107.57 107.73 107.88 108.03
101.76 101.79 101.79 101.72 101.96 101.47 101.40 101.49 101.61 101.86 102.09 102.32 102.56 102.96 102.99 103.01 103.12 103.24 103.40 103.53 103.69 103.87 104.03 104.16 104.29 104.42 104.52 104.59 104.68 104.79 104.88 104.97 105.07 105.15 105.33 104.58 105.70 105.76 105.85 106.11 106.39 106.56 106.77 106.92 107.08 107.25 107.37 107.49 107.67 107.81 107.96 108.14
102.71 103.41 102.95 102.99 101.90 101.70 101.68 101.78 101.91 102.12 102.38 102.55 102.75 103.03 103.33 103.27 103.34 103.46 103.62 103.75 103.89 104.05 104.21 104.35 104.48 104.59 104.69 104.76 104.85 104.93 105.00 105.10 105.19 105.24 105.39 104.07 105.81 105.83 105.88 106.16 106.42 106.66 106.85 106.98 107.07 107.18 107.29 107.46 107.64 107.86 108.01 108.21
101.93 102.07 102.09 102.02 102.07 102.04 102.04 102.15 102.29 102.46 102.68 102.82 103.01 103.15 103.57 103.48 103.58 103.69 103.79 103.92 104.06 104.22 104.39 104.53 104.65 104.76 104.86 104.94 105.02 105.09 105.17 105.26 105.34 105.37 105.58 104.07 105.82 105.85 105.96 106.17 106.44 106.70 106.88 106.99 107.08 107.18 107.30 107.48 107.72 107.93 108.13 108.29
102.14 102.18 102.19 102.15 102.18 102.28 102.38 102.50 102.61 102.82 102.99 103.08 103.21 103.35 103.46 103.67 103.75 103.87 104.00 104.10 104.25 104.36 104.52 104.68 104.81 104.92 105.02 105.11 105.20 105.26 105.33 105.43 105.51 105.53 105.72 103.88 105.87 106.00 106.06 106.24 106.47 106.69 106.90 107.06 107.17 107.26 107.40 107.57 107.78 107.97 108.16 108.32
102.30 102.31 102.29 102.30 102.38 102.51 102.62 102.73 102.85 102.97 103.14 103.24 103.30 103.56 103.51 103.82 103.91 104.03 104.15 104.25 104.38 104.49 104.67 104.82 104.96 105.06 105.18 105.29 105.35 105.43 105.51 105.60 105.66 105.66 105.85 103.82 105.96 106.06 106.23 106.43 106.58 106.74 106.94 107.16 107.26 107.35 107.43 107.60 107.81 107.96 108.16 108.37
102.47 102.47 102.44 102.44 102.49 102.62 102.70 102.83 102.93 103.04 103.19 103.34 103.44 103.63 103.85 103.99 104.06 104.16 104.28 104.39 104.52 104.64 104.82 104.97 105.11 105.23 105.35 105.46 105.54 105.61 105.68 105.75 105.83 105.86 106.00 103.79 106.02 106.13 106.29 106.56 106.78 106.94 107.12 107.28 107.36 107.43 107.48 107.63 107.80 107.96 108.17 108.35
102.64 102.61 102.60 102.56 102.60 102.72 102.86 102.97 103.11 103.23 103.40 103.49 103.62 103.85 104.10 104.13 104.17 104.30 104.43 104.54 104.68 104.82 104.96 105.10 105.26 105.39 105.50 105.60 105.71 105.79 105.86 105.92 105.98 106.01 106.18 103.91 106.19 106.20 106.45 106.72 106.94 107.16 107.32 107.40 107.44 107.47 107.51 107.64 107.78 107.95 108.16 108.35
102.79 102.81 102.79 102.74 102.79 102.89 103.07 103.26 103.36 103.47 103.59 103.69 103.66 103.98 104.29 104.29 104.31 104.43 104.58 104.71 104.83 104.97 105.14 105.25 105.39 105.53 105.68 105.79 105.88 105.94 106.03 106.09 106.14 106.18 106.45 104.32 106.37 106.41 106.55 106.83 107.08 107.29 107.40 107.46 107.48 107.50 107.56 107.64 107.79 107.99 108.18 108.40
103.02 103.02 103.02 102.88 102.97 103.07 103.18 103.38 103.55 103.66 103.79 103.86 103.96 104.24 104.46 104.43 104.46 104.58 104.72 104.86 105.00 105.13 105.32 105.46 105.60 105.72 105.81 105.93 106.06 106.17 106.25 106.28 106.31 106.33 106.67 105.04 106.69 106.59 106.68 106.90 107.16 107.36 107.49 107.57 107.58 107.63 107.66 107.70 107.83 108.00 108.23 108.45
103.12 103.18 103.07 103.07 103.11 103.27 103.39 103.58 103.72 103.92 103.97 104.11 104.11 104.33 104.58 104.56 104.63 104.69 104.87 105.04 105.19 105.33 105.49 105.63 105.76 105.89 106.02 106.13 106.24 106.35 106.43 106.51 106.54 106.51 106.68 106.65 106.69 106.76 106.76 107.00 107.24 107.46 107.60 107.69 107.72 107.75 107.75 107.79 107.87 108.07 108.28 108.46
103.33 103.28 103.31 103.25 103.32 103.40 103.56 103.79 103.90 104.01 104.10 104.17 104.19 104.47 104.70 104.70 104.79 104.84 105.00 105.16 105.32 105.49 105.70 105.83 105.94 106.06 106.18 106.32 106.43 106.55 106.65 106.71 106.70 106.68 106.78 107.03 104.84 106.90 106.96 107.10 107.32 107.54 107.70 107.78 107.85 107.89 107.95 107.93 107.97 108.09 108.32 108.45
103.44 103.44 103.37 103.32 103.32 103.54 103.71 103.89 104.11 104.23 104.37 104.45 104.55 104.66 104.84 104.90 104.93 105.02 105.18 105.36 105.51 105.68 105.84 105.98 106.14 106.26 106.36 106.51 106.62 106.74 106.86 106.90 106.87 106.86 106.85 107.16 105.32 107.07 107.09 107.17 107.38 107.60 107.78 107.91 107.99 108.06 108.10 108.13 108.10 108.18 108.29 108.48
103.66 103.61 103.54 103.50 103.57 103.67 103.85 104.03 104.25 104.43 104.53 104.58 104.70 104.89 104.93 105.02 105.16 105.18 105.30 105.49 105.67 105.83 106.03 106.19 106.32 106.43 106.54 106.67 106.79 106.92 107.04 107.10 107.08 107.03 106.99 107.25 107.88 105.62 107.24 107.29 107.46 107.68 107.87 108.04 108.16 108.19 108.26 108.26 108.30 108.29 108.37 108.53
103.80 103.76 103.73 103.71 103.71 103.80 103.93 104.13 104.25 104.43 104.60 104.72 104.83 104.94 105.10 105.16 105.26 105.35 105.48 105.67 105.86 106.01 106.19 106.37 106.50 106.62 106.72 106.85 106.99 107.12 107.23 107.28 107.24 107.19 107.18 107.31 107.55 105.30 107.42 107.49 107.58 107.74 107.92 108.12 108.26 108.35 108.42 108.49 108.50 108.54 108.59 108.65
104.01 103.94 103.86 103.83 103.91 104.00 104.13 104.29 104.50 104.65 104.87 104.94 104.93 104.99 105.26 105.24 105.49 105.50 105.64 105.83 106.02 106.17 106.36 106.54 106.72 106.83 106.92 107.04 107.19 107.32 107.41 107.44 107.41 107.35 107.33 107.38 107.60 108.14 106.56 107.67 107.63 107.78 107.98 108.17 108.34 108.48 108.60 108.68 108.74 108.74 108.75 108.75
104.24 104.32 104.21 104.16 104.02 104.07 104.22 104.43 104.56 104.73 104.94 105.06 105.10 105.12 105.32 105.46 105.67 105.71 105.85 106.02 106.21 106.36 106.55 106.75 106.91 107.02 107.10 107.21 107.35 107.48 107.59 107.62 107.57 107.53 107.51 107.50 107.74 107.93 104.70 107.80 107.78 107.87 108.10 108.25 108.42 108.55 108.66 108.79 108.88 108.89 108.90 108.91
104.46 104.49 104.48 104.41 104.31 104.32 104.36 104.43 104.66 104.92 105.03 105.16 105.29 105.37 105.61 105.62 105.89 105.91 106.07 106.26 106.42 106.56 106.74 106.96 107.10 107.20 107.28 107.42 107.54 107.67 107.76 107.79 107.76 107.72 107.70 107.72 107.86 107.99 105.70 107.88 107.88 107.87 108.09 108.27 108.46 108.58 108.71 108.85 108.93 109.04 109.04 109.06
104.59 104.72 104.68 104.60 104.55 104.54 104.60 104.74 104.90 105.04 105.23 105.39 105.51 105.61 105.76 105.82 106.13 106.15 106.34 106.50 106.67 106.80 106.96 107.18 107.31 107.44 107.52 107.65 107.76 107.89 107.97 107.98 107.96 107.93 107.92 107.89 107.96 108.25 107.83 107.83 108.01 107.97 108.14 108.33 108.49 108.64 108.79 108.92 109.01 109.07 109.12 109.15
104.69 104.78 104.80 104.77 104.72 104.75 104.80 104.86 105.08 105.17 105.36 105.51 105.66 105.79 105.96 106.01 106.33 106.39 106.55 106.71 106.87 107.03 107.17 107.37 107.50 107.64 107.78 107.90 108.02 108.13 108.18 108.18 108.14 108.14 108.13 108.10 108.12 108.23 108.52 106.72 108.08 108.12 108.24 108.41 108.57 108.70 108.83 108.92 109.05 109.09 109.18 109.22
104.80 104.87 104.86 104.90 104.89 104.86 104.87 104.96 105.06 105.21 105.38 105.54 105.67 105.88 106.07 106.19 106.43 106.48 106.65 106.81 106.93 107.10 107.24 107.44 107.61 107.76 107.91 108.07 108.21 108.29 108.35 108.35 108.32 108.33 108.34 108.32 108.23 108.30 108.48 105.48 108.19 108.27 108.31 108.48 108.63 108.76 108.87 108.99 109.07 109.16 109.26 109.31
104.97 104.97 105.00 104.99 104.96 104.97 105.00 105.07 105.13 105.24 105.40 105.57 105.72 105.88 106.07 106.38 106.44 106.52 106.65 106.79 106.94 107.09 107.21 107.42 107.62 107.76 107.94 108.10 108.26 108.39 108.46 108.50 108.49 108.50 108.49 108.48 108.34 108.43 108.43 105.16 108.34 108.37 108.46 108.59 108.75 108.83 108.98 109.07 109.21 109.29 109.36 109.39
105.07 105.10 105.18 105.22 105.22 105.19 105.21 105.22 105.17 105.27 105.47 105.61 105.73 106.02 106.25 106.49 106.49 106.54 106.67 106.76 106.92 107.04 107.17 107.36 107.58 107.74 107.91 108.12 108.29 108.46 108.58 108.65 108.64 108.65 108.62 108.63 108.53 108.49 108.53 105.51 108.46 108.45 108.51 108.73 108.87 109.00 109.13 109.24 109.33 109.38 109.43 109.48
105.20 105.19 105.33 105.39 105.40 105.38 105.42 105.43 105.48 105.57 105.55 105.69 105.75 105.95 106.31 106.46 106.60 106.58 106.66 106.78 106.93 107.07 107.19 107.39 107.60 107.76 107.94 108.10 108.34 108.51 108.65 108.74 108.74 108.74 108.72 108.72 108.63 108.57 108.68 105.98 108.48 108.66 108.69 108.90 109.02 109.17 109.23 109.35 109.40 109.48 109.51 109.54
105.48 105.50 105.48 105.52 105.53 105.52 105.54 105.55 105.56 105.62 105.61 105.72 105.81 105.97 106.23 106.43 106.61 106.63 106.68 106.82 106.97 107.12 107.28 107.45 107.68 107.83 107.98 108.15 108.37 108.53 108.69 108.80 108.79 108.82 108.82 108.81 108.78 108.70 108.83 106.61 108.65 108.88 108.86 109.01 109.17 109.26 109.37 109.43 109.47 109.53 109.56 109.60
105.60 105.58 105.64 105.59 105.61 105.63 105.61 105.67 105.66 105.61 105.77 105.82 105.85 106.09 106.21 106.42 106.60 106.70 106.75 106.87 107.01 107.21 107.36 107.54 107.74 107.90 108.06 108.21 108.39 108.56 108.72 108.83 108.85 108.90 108.96 108.95 108.94 108.85 108.92 107.83 108.91 109.00 109.05 109.15 109.27 109.34 109.43 109.46 109.55 109.60 109.66 109.72
105.82 105.82 105.78 105.74 105.76 105.72 105.81 105.79 105.76 105.82 105.83 105.89 105.99 106.13 106.29 106.54 106.67 106.76 106.81 106.93 107.09 107.28 107.43 107.60 107.81 107.98 108.12 108.25 108.45 108.61 108.77 108.87 108.95 109.01 109.09 109.05 109.03 109.06 109.08 108.89 109.03 109.19 109.22 109.27 109.35 109.44 109.53 109.59 109.66 109.73 109.80 109.85
105.89 105.88 105.88 105.92 105.96 105.96 105.97 105.97 106.01 105.99 106.04 106.08 106.12 106.28 106.38 106.63 106.82 106.81 106.87 107.00 107.14 107.35 107.50 107.68 107.88 108.01 108.16 108.30 108.44 108.54 108.80 108.93 109.01 109.11 109.19 109.23 109.26 109.21 109.16 109.39 108.49 109.34 109.29 109.36 109.49 109.56 109.64 109.73 109.78 109.82 109.87 109.91
106.10 106.06 106.05 106.10 106.16 106.16 106.18 106.17 106.22 106.23 106.26 106.29 106.32 106.32 106.36 106.74 106.95 106.90 106.94 107.01 107.18 107.42 107.54 107.74 107.89 108.07 108.24 108.38 108.54 108.71 108.90 109.04 109.12 109.21 109.30 109.35 109.38 109.34 109.30 109.41 107.32 109.44 109.46 109.51 109.63 109.72 109.77 109.81 109.91 109.97 110.02 110.03
106.23 106.18 106.15 106.21 106.22 106.22 106.26 106.35 106.41 106.50 106.52 106.51 106.50 106.57 106.57 106.93 107.11 107.02 106.99 107.12 107.32 107.50 107.62 107.81 108.00 108.18 108.33 108.46 108.64 108.82 108.98 109.15 109.24 109.32 109.40 109.43 109.52 109.54 109.46 109.51 106.46 109.67 109.67 109.69 109.73 109.93 109.96 109.91 109.97 110.02 110.04 110.04
106.28 106.30 106.30 106.32 106.32 106.50 106.61 106.68 106.80 106.81 106.81 106.83 106.84 106.87 106.85 107.05 107.26 107.07 107.07 107.21 107.39 107.58 107.73 107.89 108.10 108.28 108.43 108.58 108.71 108.89 109.06 109.23 109.33 109.42 109.52 109.60 109.69 109.71 109.65 109.65 108.54 109.80 109.86 109.94 109.85 109.91 109.94 109.98 109.98 110.05 110.10 110.15
106.41 106.38 106.39 106.43 106.51 106.67 106.85 106.96 107.02 107.02 107.10 107.06 107.03 106.99 107.04 107.21 107.36 107.21 107.21 107.30 107.49 107.66 107.83 108.00 108.18 108.35 108.50 108.64 108.77 108.94 109.15 109.31 109.45 109.53 109.65 109.75 109.82 109.88 109.85 109.93 109.11 109.88 110.09 109.96 109.93 109.96 110.04 110.08 110.10 110.18 110.22 110.23
106.46 106.48 106.56 106.59 106.59 106.72 106.90 107.07 107.17 107.17 107.24 107.21 107.23 107.15 107.15 107.31 107.44 107.28 107.33 107.39 107.56 107.72 107.91 108.03 108.24 108.42 108.59 108.73 108.87 109.03 109.20 109.39 109.57 109.69 109.80 109.86 109.95 110.02 110.03 110.21 107.92 110.09 110.03 109.98 109.99 110.09 110.13 110.15 110.18 110.22 110.26 110.31
106.54 106.59 106.62 106.61 106.78 106.92 107.04 107.18 107.23 107.25 107.30 107.28 107.31 107.32 107.17 107.33 107.43 107.40 107.43 107.48 107.62 107.79 107.95 108.08 108.30 108.51 108.72 108.88 108.99 109.14 109.33 109.54 109.74 109.89 109.97 110.05 110.14 110.19 110.15 110.04 107.97 109.88 110.13 109.99 110.09 110.17 110.21 110.24 110.29 110.32 110.34 110.38
106.57 106.68 106.83 106.90 106.97 107.04 107.18 107.24 107.28 107.26 107.32 107.28 107.36 107.36 107.34 107.45 107.48 107.57 107.56 107.58 107.68 107.89 108.07 108.22 108.43 108.65 108.80 108.96 109.10 109.28 109.50 109.73 109.91 110.05 110.15 110.23 110.28 110.28 110.22 110.14 107.58 110.40 110.18 110.11 110.26 110.30 110.33 110.39 110.44 110.43 110.48 110.53
106.82 106.83 106.86 106.96 107.08 107.22 107.28 107.36 107.49 107.43 107.47 107.46 107.52 107.49 107.51 107.66 107.66 107.63 107.74 107.68 107.76 107.99 108.19 108.42 108.69 108.90 109.08 109.19 109.29 109.43 109.61 109.79 110.00 110.20 110.31 110.37 110.43 110.36 110.28 110.27 108.09 110.66 110.32 110.31 110.43 110.48 110.52 110.54 110.60 110.60 110.64 110.68
106.87 106.99 107.12 107.21 107.31 107.32 107.43 107.58 107.69 107.67 107.64 107.67 107.65 107.75 107.56 107.67 107.76 107.94 107.98 107.97 108.03 108.24 108.43 108.66 108.87 109.04 109.24 109.36 109.45 109.60 109.74 109.89 110.07 110.28 110.40 110.47 110.49 110.46 110.42 110.39 108.93 110.72 110.53 110.49 110.56 110.65 110.68 110.72 110.74 110.78 110.81 110.84
107.01 107.18 107.29 107.36 107.47 107.54 107.57 107.66 107.75 107.70 107.81 107.85 107.83 107.85 107.89 107.76 108.02 108.00 108.01 108.06 108.18 108.38 108.60 108.76 109.00 109.18 109.33 109.47 109.60 109.74 109.93 110.06 110.22 110.38 110.46 110.50 110.54 110.53 110.54 110.54 109.88 110.63 110.60 110.60 110.74 110.79 110.85 110.90 110.91 110.93 110.94 110.97
107.12 107.27 107.43 107.51 107.61 107.72 107.82 107.99 108.06 108.04 108.14 108.14 108.06 107.97 107.89 107.91 108.15 108.18 108.10 108.15 108.26 108.45 108.59 108.74 108.93 109.12 109.30 109.44 109.60 109.79 110.07 110.27 110.42 110.54 110.55 110.60 110.65 110.71 110.65 110.65 110.63 110.13 110.72 110.71 110.86 110.94 111.00 111.02 111.04 111.06 111.08 111.09
107.31 107.43 107.63 107.75 107.79 107.85 107.92 108.01 108.06 108.08 108.12 108.14 108.07 108.07 108.10 108.12 108.15 108.38 108.25 108.26 108.31 108.45 108.52 108.65 108.83 109.06 109.27 109.44 109.62 109.88 110.17 110.43 110.56 110.64 110.66 110.69 110.79 110.85 110.84 110.79 110.74 109.40 110.79 110.80 110.96 111.07 111.15 111.15 111.20 111.21 111.22 111.28
107.29 107.47 107.61 107.76 107.83 107.90 107.99 108.08 108.13 108.16 108.14 108.24 108.35 108.58 109.06 109.75 109.37 108.57 108.35 108.36 108.37 108.46 108.57 108.74 108.92 109.13 109.33 109.53 109.74 110.00 110.28 110.46 110.55 110.60 110.66 110.72 110.84 110.92 110.93 110.94 110.83 109.81 110.90 110.92 111.08 111.20 111.29 111.32 111.35 111.40 111.44 111.49
107.31 107.51 107.68 107.81 108.03 108.23 108.38 108.75 109.38 109.48 109.13 109.35 109.91 109.94 110.02 110.08 109.17 108.70 108.57 108.57 108.53 108.61 108.69 108.84 109.02 109.21 109.41 109.57 109.76 109.99 110.25 110.40 110.52 110.60 110.72 110.80 110.95 111.03 111.02 111.06 110.98 109.93 111.01 111.11 111.23 111.33 111.44 111.49 111.54 111.56 111.63 111.68
108.22 108.85 108.96 108.44 108.96 109.00 109.01 109.18 109.31 109.42 109.52 109.61 109.34 109.56 109.79 109.82 109.44 108.80 108.77 108.74 108.63 108.71 108.77 108.89 109.07 109.22 109.39 109.58 109.76 109.98 110.25 110.43 110.54 110.63 110.75 110.86 111.01 111.10 111.15 111.21 111.10 109.49 111.17 111.27 111.36 111.50 111.60 111.66 111.68 111.76 111.82 111.87
108.12 108.30 108.47 108.64 108.79 108.93 109.04 109.15 108.93 109.04 109.43 109.46 109.51 109.47 109.55 109.71 109.76 109.01 108.92 108.87 108.81 108.82 108.83 108.97 109.16 109.29 109.44 109.61 109.80 110.01 110.30 110.46 110.54 110.68 110.84 110.98 111.09 111.25 111.26 111.38 111.14 108.84 111.32 111.33 111.49 111.62 111.71 111.74 111.82 111.89 111.99 112.07
108.29 108.45 108.54 108.14 108.39 108.87 109.04 109.13 108.96 109.01 109.07 109.11 109.32 109.54 109.68 109.63 110.09 109.14 109.06 109.01 108.85 108.89 108.96 109.06 109.21 109.35 109.50 109.69 109.89 110.07 110.28 110.48 110.62 110.75 110.92 111.07 111.22 111.35 111.42 111.34 111.32 108.68 111.42 111.42 111.56 111.73 111.83 111.90 111.96 112.05 112.19 112.30
108.46 108.60 108.45 108.38 108.48 108.60 108.85 109.11 108.78 108.99 109.17 109.27 109.41 109.51 109.59 109.63 110.27 109.29 109.17 109.08 108.96 109.00 109.07 109.18 109.31 109.42 109.53 109.69 109.88 110.10 110.33 110.56 110.70 110.84 110.98 111.07 111.19 111.35 111.43 111.43 111.48 109.79 111.50 111.56 111.61 111.82 111.95 112.05 112.10 112.21 112.33 112.45
108.65 108.75 109.69 108.43 108.42 108.56 108.75 108.95 109.14 109.19 108.80 109.51 109.64 109.67 109.68 109.61 109.54 109.40 109.31 109.08 109.04 109.10 109.18 109.26 109.35 109.46 109.60 109.74 109.91 110.08 110.32 110.51 110.68 110.84 111.02 111.12 111.25 111.40 111.52 111.53 111.47 110.81 111.77 111.65 111.75 111.98 112.10 112.18 112.24 112.30 112.41 112.53
108.83 108.90 110.50 109.04 109.04 109.07 109.00 109.11 109.31 109.39 109.42 109.58 109.71 109.98 109.84 110.50 109.62 109.50 109.42 109.36 109.24 109.20 109.22 109.31 109.41 109.53 109.66 109.82 109.99 110.15 110.36 110.58 110.74 110.93 111.11 111.25 111.35 111.50 111.58 111.53 111.35 111.22 110.98 111.82 111.92 112.04 112.18 112.24 112.29 112.39 112.55 112.71
109.01 109.06 109.09 109.10 109.12 109.10 109.18 109.42 109.43 109.39 109.56 109.67 109.69 109.70 109.68 109.71 110.32 109.64 109.59 109.43 109.33 109.32 109.29 109.34 109.45 109.58 109.74 109.90 110.07 110.22 110.43 110.63 110.79 110.97 111.16 111.29 111.41 111.54 111.63 111.54 111.31 111.33 109.81 111.90 112.10 112.13 112.24 112.33 112.43 112.53 112.69 112.85
108.82 109.04 109.22 109.21 109.18 109.42 109.54 109.58 109.68 109.74 109.78 109.80 109.81 109.74 109.71 109.72 109.82 109.81 109.76 109.61 109.46 109.43 109.39 109.42 109.50 109.61 109.78 109.96 110.10 110.25 110.45 110.66 110.83 111.02 111.21 111.36 111.52 111.64 111.69 111.59 111.36 111.46 111.62 112.23 112.14 112.21 112.29 112.44 112.52 112.64 112.76 112.93
109.07 109.07 109.35 109.31 109.25 109.34 109.70 109.78 109.85 109.90 109.92 109.93 109.93 109.77 109.79 110.17 110.22 109.95 109.93 109.72 109.50 109.49 109.46 109.47 109.57 109.71 109.85 110.01 110.14 110.32 110.53 110.74 110.94 111.15 111.32 111.53 111.68 111.80 111.86 111.79 111.68 111.71 111.99 110.61 112.26 112.33 112.39 112.52 112.68 112.81 112.95 113.07
