ncols 52
nrows 52
xllcorner 443904
yllcorner 5712896
cellsize 10
NODATA_value -9999
124.48 124.54 124.60 124.75 124.90 125.00 125.10 125.19 125.29 125.36 125.43 125.49 125.53 125.60 125.63 125.65 125.72 125.76 125.60 125.75 125.74 125.80 125.83 125.85 125.85 125.84 125.90 126.02 126.08 126.06 126.07 125.99 125.92 125.83 125.83 125.95 126.08 126.19 126.32 126.46 126.51 126.43 126.37 126.39 126.46 126.56 126.58 126.61 126.69 126.90 126.91 127.15
124.51 124.56 124.66 124.80 124.96 125.10 125.22 125.32 125.40 125.47 125.55 125.61 125.66 125.74 125.77 125.82 125.87 125.88 125.71 125.96 126.12 126.17 126.18 126.22 126.10 126.10 126.06 126.06 126.11 126.12 126.10 126.06 126.00 125.92 125.90 125.96 126.07 126.20 126.37 126.54 126.66 126.65 126.60 126.61 126.64 126.72 126.81 126.83 126.89 127.11 127.23 127.43
124.59 124.64 124.72 124.89 125.07 125.18 125.34 125.47 125.60 125.69 125.75 125.75 125.81 126.00 126.12 126.18 126.24 126.19 125.92 126.06 126.11 126.10 126.11 126.15 126.16 126.15 126.15 126.17 126.18 126.14 126.15 126.10 126.05 126.03 126.05 126.13 126.21 126.29 126.47 126.68 126.83 126.86 126.83 126.81 126.85 126.94 127.01 127.06 127.11 127.23 127.39 127.66
124.71 124.82 124.92 125.02 125.15 125.28 125.52 125.78 125.92 126.10 126.25 126.31 126.17 126.16 126.18 126.23 126.14 126.15 125.98 126.18 126.04 126.11 126.10 126.15 126.23 126.21 126.22 126.33 126.40 126.38 126.33 126.29 126.27 126.25 126.29 126.33 126.37 126.42 126.56 126.77 126.92 127.07 127.12 127.08 127.12 127.17 127.24 127.30 127.33 127.46 127.55 127.07
125.11 125.23 125.38 125.52 125.60 125.54 125.68 125.77 125.85 125.91 126.00 126.08 126.13 126.11 126.20 126.23 126.18 126.22 126.20 126.19 126.00 126.08 126.18 126.27 126.34 126.38 126.40 126.49 126.57 126.55 126.50 126.47 126.43 126.46 126.46 126.51 126.54 126.60 126.68 126.84 127.00 127.19 127.33 127.35 127.38 127.39 127.46 127.52 127.57 127.66 127.80 127.78
125.08 125.14 125.15 125.32 125.40 125.58 125.76 125.86 125.88 125.88 125.97 126.08 126.11 126.15 126.19 126.24 126.30 126.32 126.31 126.22 126.24 126.28 126.34 126.36 126.43 126.49 126.52 126.57 126.65 126.67 126.62 126.58 126.55 126.59 126.58 126.60 126.70 126.73 126.82 126.97 127.16 127.38 127.54 127.57 127.56 127.57 127.61 127.71 127.79 127.84 127.96 128.01
125.05 125.13 125.17 125.28 125.47 125.61 125.78 125.90 125.93 125.96 126.04 126.17 126.24 126.28 126.29 126.32 126.41 126.39 126.41 126.25 126.46 126.50 126.52 126.49 126.50 126.58 126.65 126.66 126.72 126.74 126.71 126.67 126.66 126.70 126.69 126.72 126.81 126.86 126.95 127.13 127.33 127.54 127.73 127.79 127.75 127.72 127.76 127.86 127.96 127.97 128.01 128.10
125.09 125.18 125.25 125.42 125.55 125.69 125.85 125.96 126.03 126.07 126.17 126.28 126.39 126.39 126.38 126.40 126.47 126.43 126.50 126.17 126.75 126.67 126.65 126.62 126.65 126.71 126.75 126.74 126.79 126.81 126.79 126.77 126.78 126.84 126.85 126.88 126.96 127.01 127.08 127.28 127.47 127.66 127.85 127.96 127.97 127.96 127.98 128.06 128.13 128.09 128.07 128.21
125.20 125.31 125.43 125.46 125.58 125.78 125.88 125.97 126.09 126.18 126.29 126.42 126.52 126.56 126.57 126.58 126.60 126.61 126.65 126.75 126.88 126.79 126.77 126.77 126.80 126.86 126.85 126.83 126.86 126.90 126.88 126.88 126.94 126.97 126.99 127.03 127.09 127.15 127.25 127.40 127.57 127.75 127.92 128.09 128.16 128.24 128.25 128.31 128.32 128.24 128.15 128.23
125.28 125.40 125.50 125.52 125.65 125.80 125.93 126.06 126.18 126.32 126.40 126.55 126.65 126.74 126.76 126.76 126.77 126.79 126.75 126.87 126.74 126.94 126.90 126.91 126.97 127.03 127.01 126.97 126.95 126.98 127.03 127.03 127.07 127.08 127.12 127.15 127.21 127.32 127.42 127.53 127.69 127.84 128.01 128.18 128.31 128.46 128.50 128.54 128.51 128.41 128.28 128.30
125.40 125.42 125.51 125.61 125.74 125.85 125.97 126.14 126.32 126.42 126.53 126.65 126.83 126.90 126.90 126.92 126.89 126.88 126.86 127.00 126.86 127.08 127.06 127.08 127.15 127.21 127.18 127.10 127.06 127.10 127.12 127.16 127.19 127.23 127.28 127.32 127.36 127.47 127.58 127.65 127.83 127.93 128.07 128.24 128.40 128.60 128.70 128.74 128.70 128.57 128.42 128.38
125.57 125.58 125.62 125.69 125.84 125.92 126.02 126.21 126.38 126.52 126.60 126.67 126.83 126.95 126.98 126.96 126.98 126.96 127.03 127.19 126.77 127.34 127.23 127.21 127.29 127.38 127.37 127.27 127.19 127.20 127.26 127.29 127.33 127.40 127.45 127.45 127.52 127.62 127.71 127.80 127.93 128.02 128.11 128.32 128.50 128.71 128.88 128.93 128.89 128.74 128.54 128.47
125.69 125.68 125.76 125.82 125.90 126.03 126.17 126.27 126.41 126.53 126.60 126.65 126.81 126.94 127.01 127.04 127.06 127.09 127.19 127.39 127.55 127.61 127.42 127.35 127.40 127.48 127.53 127.44 127.32 127.33 127.40 127.41 127.45 127.53 127.60 127.63 127.68 127.78 127.85 127.92 128.01 128.12 128.22 128.41 128.65 128.87 129.05 129.11 129.08 128.90 128.71 128.57
125.79 125.82 125.87 125.94 126.02 126.15 126.29 126.37 126.46 126.53 126.60 126.66 126.81 126.95 127.06 127.12 127.15 127.20 127.35 127.51 127.67 127.49 127.56 127.49 127.47 127.54 127.62 127.60 127.48 127.47 127.52 127.54 127.58 127.64 127.75 127.85 127.89 127.91 127.98 128.02 128.10 128.22 128.35 128.54 128.80 129.01 129.20 129.27 129.23 129.06 128.85 128.68
125.90 125.96 125.98 126.05 126.17 126.33 126.42 126.50 126.55 126.60 126.66 126.72 126.85 127.01 127.16 127.21 127.27 127.37 127.51 127.60 127.79 127.53 127.68 127.62 127.59 127.61 127.69 127.72 127.65 127.61 127.62 127.65 127.70 127.77 127.85 127.97 128.05 128.07 128.13 128.13 128.18 128.35 128.49 128.68 128.98 129.19 129.36 129.41 129.34 129.20 128.99 128.79
126.04 126.04 126.10 126.18 126.33 126.48 126.59 126.61 126.65 126.71 126.78 126.85 126.96 127.10 127.27 127.36 127.42 127.50 127.61 127.70 127.83 127.38 127.89 127.74 127.71 127.69 127.76 127.82 127.82 127.75 127.71 127.75 127.80 127.86 127.94 128.06 128.17 128.23 128.28 128.30 128.34 128.51 128.66 128.84 129.15 129.35 129.49 129.54 129.43 129.29 129.07 128.88
126.12 126.15 126.22 126.30 126.44 126.64 126.72 126.78 126.83 126.88 126.94 126.99 127.07 127.21 127.34 127.46 127.54 127.63 127.69 127.75 127.93 128.00 128.06 127.87 127.85 127.82 127.87 127.93 127.95 127.90 127.86 127.87 127.90 128.00 128.05 128.16 128.27 128.31 128.39 128.45 128.53 128.69 128.85 129.06 129.33 129.51 129.62 129.65 129.54 129.38 129.14 128.99
126.27 126.28 126.36 126.44 126.59 126.76 126.86 126.94 126.98 127.04 127.09 127.14 127.22 127.32 127.49 127.59 127.68 127.73 127.78 127.89 127.91 128.08 127.96 128.00 127.97 127.96 127.98 128.05 128.07 128.05 128.02 128.00 128.03 128.10 128.16 128.25 128.35 128.37 128.46 128.59 128.71 128.90 129.12 129.34 129.53 129.70 129.81 129.79 129.65 129.46 129.23 129.15
126.38 126.39 126.46 126.57 126.67 126.86 127.02 127.10 127.18 127.27 127.33 127.40 127.50 127.63 127.76 127.80 127.85 127.94 127.98 128.05 128.04 128.15 128.05 128.12 128.08 128.10 128.09 128.14 128.20 128.17 128.16 128.13 128.15 128.22 128.29 128.37 128.46 128.50 128.61 128.80 128.95 129.14 129.39 129.60 129.77 129.90 129.96 129.91 129.76 129.55 129.33 129.33
126.49 126.49 126.56 126.64 126.81 127.10 127.25 127.38 127.50 127.63 127.72 127.79 127.85 127.93 127.93 127.99 128.04 128.07 128.09 128.14 128.12 128.25 127.95 128.32 128.20 128.21 128.22 128.24 128.32 128.30 128.29 128.28 128.29 128.37 128.44 128.51 128.61 128.68 128.83 129.06 129.26 129.41 129.61 129.78 129.97 130.11 130.14 130.03 129.85 129.61 129.43 129.53
126.58 126.61 126.67 126.80 127.04 127.31 127.52 127.68 127.79 127.90 128.01 128.07 128.08 128.12 128.15 128.18 128.23 128.24 128.29 128.32 128.30 128.35 128.29 128.55 128.34 128.36 128.35 128.38 128.46 128.46 128.44 128.45 128.46 128.48 128.60 128.67 128.77 128.88 129.08 129.33 129.53 129.65 129.82 129.94 130.08 130.24 130.29 130.17 129.93 129.65 129.55 129.70
126.73 126.75 126.83 126.97 127.25 127.55 127.73 127.86 128.02 128.14 128.22 128.30 128.32 128.33 128.38 128.42 128.46 128.48 128.54 128.52 128.44 128.44 128.62 128.43 128.47 128.50 128.48 128.52 128.59 128.61 128.60 128.59 128.62 128.65 128.77 128.85 128.95 129.11 129.35 129.58 129.76 129.87 129.99 130.11 130.21 130.31 130.38 130.30 130.05 129.77 129.72 129.88
126.88 126.92 127.00 127.16 127.47 127.73 127.94 128.15 128.26 128.35 128.44 128.46 128.51 128.52 128.57 128.64 128.67 128.68 128.74 128.71 128.63 128.46 128.71 128.53 128.64 128.67 128.65 128.67 128.73 128.78 128.77 128.77 128.80 128.86 128.96 129.04 129.13 129.35 129.55 129.75 129.92 130.04 130.12 130.24 130.34 130.43 130.49 130.39 130.18 129.98 129.98 130.07
127.10 127.15 127.25 127.43 127.64 127.90 128.12 128.35 128.46 128.53 128.67 128.71 128.73 128.76 128.77 128.82 128.81 128.85 128.86 128.85 128.79 128.63 128.80 128.58 128.82 128.80 128.82 128.81 128.87 128.95 128.95 128.95 128.98 129.02 129.14 129.24 129.35 129.57 129.76 129.93 130.10 130.21 130.29 130.39 130.49 130.53 130.58 130.43 130.27 130.22 130.25 130.33
127.33 127.38 127.49 127.62 127.80 128.10 128.31 128.54 128.65 128.75 128.80 128.86 128.93 128.95 128.96 129.01 129.02 129.05 129.06 129.06 129.02 128.81 128.89 128.40 129.08 128.96 128.94 128.93 129.02 129.10 129.15 129.15 129.19 129.21 129.29 129.43 129.57 129.76 129.93 130.09 130.26 130.37 130.45 130.54 130.61 130.65 130.62 130.49 130.39 130.36 130.42 130.59
127.53 127.57 127.66 127.78 127.97 128.27 128.49 128.69 128.83 128.89 129.00 129.04 129.09 129.10 129.15 129.19 129.22 129.25 129.29 129.27 129.21 129.03 129.00 129.19 129.15 129.12 129.11 129.12 129.17 129.29 129.35 129.37 129.40 129.37 129.41 129.57 129.75 129.90 130.09 130.23 130.38 130.51 130.59 130.65 130.73 130.77 130.70 130.59 130.46 130.53 130.62 130.85
127.71 127.78 127.85 127.98 128.18 128.41 128.64 128.86 129.05 129.14 129.20 129.26 129.27 129.35 129.36 129.40 129.41 129.46 129.43 129.44 129.37 129.22 129.10 129.24 129.02 129.29 129.28 129.31 129.30 129.44 129.54 129.56 129.60 129.58 129.57 129.69 129.85 130.02 130.20 130.35 130.52 130.62 130.72 130.78 130.85 130.86 130.87 130.74 130.67 130.71 131.00 131.15
127.87 127.94 128.02 128.16 128.30 128.45 128.80 129.05 129.20 129.31 129.40 129.48 129.52 129.55 129.57 129.59 129.60 129.60 129.59 129.61 129.59 129.47 129.32 129.37 129.12 129.48 129.49 129.49 129.47 129.59 129.71 129.74 129.76 129.79 129.77 129.83 129.93 130.11 130.34 130.49 130.68 130.88 130.97 131.07 131.11 131.12 131.11 131.03 130.88 130.98 131.26 131.51
128.03 128.04 128.15 128.29 128.40 128.55 128.92 129.17 129.37 129.49 129.59 129.68 129.72 129.76 129.79 129.78 129.76 129.80 129.79 129.77 129.77 129.73 129.58 129.51 129.38 129.76 129.65 129.64 129.67 129.76 129.84 129.95 129.97 130.04 130.09 130.18 130.29 130.43 130.61 130.76 130.91 131.04 131.13 131.29 131.31 131.30 131.22 131.21 131.33 131.23 132.03 134.14
128.20 128.20 128.29 128.40 128.54 128.72 129.08 129.35 129.56 129.69 129.74 129.82 129.92 129.97 129.98 129.99 130.01 130.01 129.99 129.99 130.01 130.02 129.93 129.81 129.69 129.81 129.79 129.91 129.96 130.10 130.19 130.28 130.33 130.35 130.43 130.52 130.56 130.69 130.73 130.88 131.02 131.18 131.30 131.37 131.39 131.43 131.46 131.61 131.26 132.65 135.18 135.46
128.33 128.33 128.42 128.55 128.68 128.90 129.20 129.53 129.71 129.85 129.92 130.02 130.12 130.22 130.23 130.23 130.26 130.26 130.25 130.22 130.21 130.18 130.11 130.04 130.00 129.56 130.04 130.20 130.23 130.31 130.42 130.56 130.65 130.66 130.69 130.71 130.68 130.73 130.77 130.90 131.08 131.29 131.47 131.53 131.60 131.68 131.78 132.00 133.61 135.44 135.52 135.71
128.64 128.51 128.59 128.69 128.83 129.01 129.27 129.63 129.88 130.03 130.14 130.23 130.35 130.40 130.46 130.47 130.46 130.47 130.46 130.40 130.38 130.36 130.31 130.22 130.21 129.59 130.30 130.50 130.60 130.66 130.77 130.80 130.79 130.87 130.86 130.87 130.83 130.90 130.99 131.02 131.14 131.33 131.55 131.74 131.82 131.75 132.59 134.57 135.51 135.57 135.67 135.50
129.22 128.73 128.74 128.83 128.98 129.16 129.38 129.82 130.04 130.24 130.38 130.51 130.60 130.63 130.68 130.65 130.66 130.62 130.60 130.57 130.55 130.49 130.46 130.39 130.43 129.09 130.48 130.71 130.83 130.87 130.88 130.88 131.00 130.99 131.03 131.02 131.01 131.06 131.17 131.25 131.29 131.43 131.67 131.85 131.64 133.06 135.40 135.58 135.63 135.61 135.50 135.12
129.05 128.88 128.89 129.01 129.17 129.38 129.58 129.99 130.24 130.45 130.61 130.70 130.76 130.81 130.79 130.79 130.77 130.73 130.71 130.66 130.63 130.61 130.59 130.57 130.59 129.46 129.57 130.85 130.97 131.04 131.04 131.04 131.08 131.12 131.16 131.18 131.19 131.19 131.37 131.46 131.61 131.72 131.87 132.06 133.76 135.57 135.64 135.84 135.60 135.50 133.89 132.49
129.18 129.03 129.08 129.23 129.40 129.57 129.79 130.11 130.35 130.62 130.76 130.80 130.88 130.90 130.94 130.94 130.88 130.84 130.79 130.76 130.79 130.76 130.75 130.76 130.79 130.83 129.84 131.02 131.20 131.22 131.19 131.16 131.20 131.29 131.33 131.37 131.38 131.38 131.45 131.62 131.87 131.83 132.40 134.68 135.64 135.69 135.80 135.61 135.49 133.09 132.12 132.55
129.82 129.21 129.26 129.38 129.52 129.69 129.89 130.17 130.49 130.70 130.90 130.99 130.95 131.00 131.01 130.99 130.96 130.90 130.90 130.91 130.93 130.94 130.95 130.94 130.97 131.04 129.88 131.13 131.40 131.38 131.40 131.35 131.36 131.43 131.47 131.50 131.50 131.54 131.66 131.85 131.76 133.06 135.53 135.69 135.76 135.72 135.62 135.01 132.61 132.29 132.43 132.58
129.80 129.38 129.38 129.45 129.62 129.83 130.01 130.24 130.59 130.83 131.05 131.13 131.12 131.08 131.09 131.05 131.04 131.03 131.07 131.09 131.11 131.15 131.16 131.17 131.19 131.22 129.51 131.21 131.59 131.57 131.59 131.52 131.50 131.58 131.60 131.64 131.71 131.84 131.95 132.25 133.92 135.67 135.74 135.87 135.73 135.61 134.26 132.34 132.24 132.32 132.43 132.74
129.56 130.01 129.48 129.54 129.75 129.96 130.17 130.42 130.70 130.94 131.12 131.21 131.17 131.15 131.14 131.18 131.19 131.22 131.23 131.28 131.34 131.34 131.37 131.40 131.37 131.40 129.42 130.02 131.72 131.77 131.76 131.74 131.68 131.71 131.74 131.84 132.04 131.97 132.55 134.76 135.74 135.80 135.88 135.73 135.62 133.46 132.12 132.25 132.26 132.38 132.59 132.90
129.77 129.54 129.64 129.67 129.85 130.10 130.33 130.56 130.78 130.96 131.19 131.34 131.32 131.29 131.30 131.34 131.38 131.40 131.44 131.51 131.54 131.56 131.58 131.58 131.60 131.57 130.96 129.99 131.87 132.01 131.94 131.87 131.85 131.88 131.98 132.04 131.91 133.15 135.58 135.79 135.87 135.83 135.74 135.25 132.84 132.33 132.31 132.30 132.37 132.52 132.76 133.04
129.86 129.73 129.75 129.76 129.95 130.21 130.45 130.70 130.93 131.07 131.27 131.43 131.48 131.45 131.45 131.51 131.54 131.59 131.64 131.69 131.71 131.74 131.71 131.74 131.71 131.76 131.82 130.09 132.05 132.28 132.24 132.16 132.12 132.14 132.18 132.37 133.88 135.77 135.85 136.05 135.83 135.73 134.54 132.67 132.43 132.40 132.38 132.43 132.49 132.67 132.91 133.17
130.04 129.89 129.86 129.90 130.07 130.32 130.59 130.81 131.08 131.21 131.40 131.56 131.63 131.59 131.61 131.64 131.70 131.74 131.80 131.86 131.88 131.90 131.90 131.89 131.88 131.93 131.96 129.98 131.96 132.52 132.49 132.38 132.38 132.37 132.79 134.74 135.85 135.90 136.01 135.83 135.71 133.47 132.51 132.53 132.47 132.45 132.44 132.47 132.61 132.80 133.06 133.31
130.20 130.20 130.17 130.07 130.13 130.42 130.71 130.95 131.15 131.36 131.53 131.71 131.77 131.72 131.76 131.78 131.83 131.90 131.99 132.05 132.06 132.07 132.09 132.10 132.11 132.12 132.16 129.32 130.59 132.63 132.57 132.62 132.51 133.27 135.68 135.90 135.97 135.94 135.85 135.40 132.99 132.62 132.61 132.63 132.59 132.53 132.52 132.56 132.78 133.00 133.21 133.37
130.92 130.56 130.35 130.23 130.27 130.55 130.84 131.11 131.29 131.52 131.65 131.82 131.93 131.89 131.90 131.97 132.02 132.10 132.17 132.22 132.27 132.28 132.31 132.31 132.32 132.35 132.35 130.79 130.20 132.82 132.83 132.73 133.93 135.89 135.95 136.14 135.93 135.84 134.38 132.75 132.59 132.60 132.65 132.74 132.76 132.68 132.71 132.80 133.02 133.19 133.37 133.55
131.14 131.04 130.81 130.51 130.49 130.69 130.99 131.26 131.49 131.68 131.82 131.99 132.11 132.09 132.09 132.11 132.21 132.28 132.35 132.43 132.47 132.48 132.49 132.49 132.54 132.55 132.66 132.40 130.28 132.88 133.22 134.82 135.96 136.00 136.16 135.94 135.84 133.63 132.61 132.70 132.71 132.65 132.74 132.76 132.88 132.98 133.14 133.30 133.46 133.64 133.72 133.88
131.26 131.33 130.98 130.76 130.74 130.88 131.17 131.44 131.69 131.87 132.03 132.16 132.26 132.26 132.26 132.27 132.33 132.42 132.50 132.59 132.62 132.65 132.65 132.65 132.65 132.73 132.90 132.79 130.31 132.77 135.82 136.01 136.06 136.04 135.95 135.66 133.19 132.79 132.76 132.85 132.92 132.98 133.04 133.15 133.28 133.39 133.54 133.61 133.78 133.86 133.90 134.23
131.58 131.50 131.35 131.04 131.04 131.11 131.32 131.62 131.83 132.05 132.18 132.29 132.40 132.41 132.37 132.41 132.47 132.59 132.66 132.73 132.80 132.82 132.81 132.86 132.88 132.98 133.03 133.40 130.61 131.40 136.06 136.14 136.05 135.95 134.87 133.11 132.85 132.93 132.92 133.34 133.03 133.14 133.27 133.37 133.47 133.60 133.64 133.72 133.83 133.98 134.01 134.34
131.72 131.63 131.69 131.49 131.36 131.31 131.49 131.76 132.02 132.18 132.34 132.46 132.52 132.53 132.49 132.54 132.61 132.73 132.81 132.89 132.99 133.01 133.10 133.10 133.12 134.34 138.21 135.85 132.20 130.76 136.04 136.06 135.93 134.12 132.90 132.99 133.08 133.56 133.90 133.15 133.05 133.21 133.36 133.49 133.61 133.69 133.81 133.87 133.97 134.18 134.29 134.42
132.00 132.10 132.18 131.96 131.73 131.62 131.64 131.89 132.18 132.38 132.55 132.64 132.68 132.70 132.67 132.69 132.79 132.89 132.98 133.08 133.18 133.29 133.32 133.29 135.12 139.08 136.01 136.10 133.67 130.65 134.58 135.96 133.65 133.15 133.21 133.21 133.15 133.33 133.41 134.23 133.22 133.35 133.49 133.58 133.76 133.85 133.96 133.96 134.19 134.37 134.46 134.61
132.26 132.67 132.61 132.67 132.09 131.90 131.85 132.05 132.34 132.60 132.74 132.82 132.89 132.87 132.88 132.89 132.93 133.02 133.08 133.23 133.37 133.47 133.51 136.41 138.27 136.02 136.15 136.26 135.08 130.74 133.02 133.61 132.99 133.47 133.52 133.40 133.34 133.41 133.29 133.52 134.03 133.44 133.59 133.69 133.91 134.05 134.05 134.19 134.35 134.53 134.68 134.62
132.71 132.79 132.83 132.86 132.31 132.16 132.09 132.21 132.49 132.74 132.88 132.98 133.01 133.04 133.01 133.03 133.08 133.17 133.33 133.43 133.57 134.00 137.75 137.03 136.14 136.20 136.35 136.18 136.02 131.39 131.05 131.99 133.72 133.67 133.60 133.51 133.43 133.48 134.23 133.43 133.40 133.61 133.81 133.91 134.07 134.19 134.24 134.38 134.46 134.61 134.72 134.73
132.82 132.78 132.83 133.07 132.43 132.33 132.23 132.32 132.57 132.83 133.01 133.09 133.14 133.15 133.15 133.15 133.21 133.40 133.57 133.58 135.30 139.02 136.24 136.19 136.25 136.29 136.17 136.06 134.45 132.30 131.24 132.79 133.84 133.78 133.75 133.68 133.62 133.65 134.01 134.17 133.75 133.73 133.93 134.12 134.26 134.30 134.42 134.49 134.58 134.74 134.91 134.90
132.84 132.96 132.95 133.10 132.73 132.45 132.30 132.44 132.68 132.96 133.14 133.24 133.29 133.29 133.30 133.30 133.48 133.61 133.62 136.41 138.86 136.10 136.26 136.31 136.29 136.17 135.81 134.17 134.12 133.98 131.51 133.99 133.94 133.96 133.96 133.92 133.83 133.79 134.46 134.43 134.94 134.42 134.14 134.31 134.34 134.43 134.56 134.64 134.66 134.88 135.09 135.12
