ncols 52
nrows 52
xllcorner 443904
yllcorner 5714944
cellsize 10
NODATA_value -9999
100.78 103.85 102.99 102.78 102.89 102.85 102.85 102.79 102.88 102.82 102.71 102.67 102.68 102.73 102.69 102.72 102.79 102.88 102.96 103.06 103.20 103.36 103.59 103.71 103.69 103.74 103.81 103.87 103.99 104.12 104.22 104.30 104.34 104.40 104.38 104.40 104.45 104.64 104.61 104.29 102.97 103.59 103.64 104.93 105.75 105.74 105.56 105.36 105.43 105.62 105.85 105.99
101.08 102.81 102.15 103.02 103.07 103.04 103.00 102.82 102.82 102.82 102.74 102.84 102.85 102.99 102.87 102.88 102.97 103.05 103.15 103.25 103.37 103.53 103.73 103.84 103.82 103.82 103.90 104.00 104.10 104.22 104.36 104.46 104.51 104.60 104.64 104.67 104.71 104.79 104.00 104.25 104.43 104.55 104.40 103.15 103.79 103.91 104.40 105.10 105.35 105.62 105.85 106.06
101.50 101.85 100.67 103.08 103.26 103.13 103.14 103.10 103.05 103.02 103.04 103.22 103.11 103.16 103.06 103.04 103.13 103.24 103.32 103.43 103.53 103.67 103.87 103.92 103.89 103.92 103.99 104.10 104.22 104.40 104.49 104.58 104.68 104.75 104.81 104.87 104.79 105.12 103.90 104.10 104.10 104.19 104.32 104.36 103.86 104.30 103.38 104.11 104.28 104.78 105.88 106.14
101.24 101.40 103.47 103.53 103.54 103.47 103.41 103.56 103.50 103.57 103.54 103.37 103.31 103.32 103.33 103.24 103.30 103.40 103.48 103.56 103.68 103.86 103.96 104.00 104.01 104.06 104.16 104.27 104.40 104.55 104.67 104.75 104.84 104.90 104.96 105.01 104.96 104.75 104.07 104.16 104.19 104.22 104.09 104.02 103.86 103.81 103.90 104.63 105.42 104.21 104.67 104.87
102.29 101.66 103.14 103.62 103.83 103.83 103.78 103.76 103.79 103.86 103.81 103.71 103.75 103.53 103.60 103.44 103.48 103.54 103.59 103.66 103.82 104.04 104.11 104.13 104.14 104.21 104.31 104.43 104.62 104.75 104.85 104.95 105.03 105.07 105.16 105.17 105.33 104.30 104.20 104.25 104.35 104.22 104.16 104.06 104.08 103.88 103.78 103.89 106.39 106.43 106.40 106.21
102.91 101.92 101.66 103.89 103.88 104.01 103.93 103.80 103.91 104.01 103.93 103.85 103.69 103.54 103.66 103.60 103.58 103.65 103.71 103.77 103.93 104.18 104.31 104.28 104.31 104.40 104.52 104.65 104.82 104.95 105.07 105.15 105.20 105.27 105.33 105.27 105.72 104.36 104.29 104.39 104.41 104.38 104.42 104.39 104.32 104.02 104.24 105.00 106.44 106.53 106.66 106.79
102.85 102.13 101.86 103.61 103.85 104.07 103.89 103.80 103.87 104.00 104.07 103.93 104.11 103.73 103.73 103.82 103.74 103.78 103.84 103.93 104.09 104.35 104.49 104.44 104.49 104.58 104.68 104.85 105.00 105.14 105.23 105.30 105.35 105.42 105.44 105.46 104.79 104.44 104.38 104.40 104.43 104.54 104.51 104.48 104.44 104.20 104.86 106.45 106.36 106.60 106.76 106.97
104.22 103.40 102.07 101.97 103.81 103.88 103.78 103.57 103.91 104.13 104.29 104.01 104.31 103.97 103.90 104.10 103.93 103.95 104.02 104.11 104.29 104.55 104.66 104.62 104.64 104.73 104.84 104.95 105.12 105.27 105.38 105.44 105.50 105.50 105.61 105.71 104.58 104.55 104.49 104.47 104.48 104.54 104.52 104.52 104.56 104.41 104.14 106.39 106.33 106.61 106.80 107.02
104.54 104.15 102.39 102.04 102.48 102.92 104.16 104.29 104.57 104.49 104.57 104.37 104.13 104.42 104.19 104.21 104.18 104.17 104.24 104.33 104.48 104.72 104.85 104.78 104.80 104.87 104.98 105.12 105.28 105.41 105.49 105.60 105.73 105.83 106.04 104.96 104.64 104.61 104.54 104.43 104.41 104.48 104.48 104.56 104.54 104.79 105.79 106.30 106.43 106.55 106.77 107.06
104.72 104.83 104.05 102.76 102.36 104.26 104.43 104.61 104.62 104.71 104.92 104.63 104.52 104.48 104.43 104.46 104.51 104.41 104.44 104.52 104.68 104.93 105.04 104.99 104.97 105.04 105.20 105.26 105.49 105.67 105.75 105.73 104.51 104.42 104.53 104.73 104.83 104.86 104.88 104.76 104.65 104.51 104.40 104.29 104.35 104.95 106.52 106.40 106.54 106.66 106.81 106.98
104.22 104.24 104.34 104.25 102.43 104.25 104.59 104.57 104.83 104.86 104.78 104.79 104.71 104.68 104.68 104.67 104.82 104.67 104.68 104.73 104.89 105.20 105.29 105.18 105.15 105.29 105.40 105.49 105.29 104.30 104.44 104.47 104.48 104.44 104.61 104.79 104.88 104.96 104.92 104.90 104.90 104.68 104.70 104.41 104.70 104.67 106.57 106.56 106.72 106.86 106.98 107.13
104.31 104.22 104.43 104.47 103.44 102.79 104.75 104.99 105.06 105.04 105.03 105.04 104.98 104.94 104.94 104.95 104.96 105.00 104.97 105.00 105.12 105.36 105.52 105.45 105.44 104.68 103.94 103.98 104.08 104.29 104.43 104.52 104.53 104.56 104.75 105.00 104.91 104.95 104.97 104.97 104.94 104.87 104.96 105.06 105.18 106.57 106.75 106.76 106.93 107.11 107.20 107.34
104.21 104.26 104.40 104.52 104.41 102.85 104.76 105.08 105.19 105.24 105.31 105.30 105.28 105.27 105.25 105.20 105.27 105.45 105.41 105.34 105.44 105.63 104.64 103.83 103.89 103.97 104.03 104.08 104.17 104.33 104.47 104.53 104.55 104.61 104.83 105.22 105.65 105.60 105.49 105.33 105.28 105.85 105.26 104.74 104.66 106.87 106.82 106.97 107.12 107.26 107.39 107.55
104.11 104.35 104.57 104.58 104.79 103.81 104.43 105.16 105.35 105.43 105.50 105.56 105.57 105.54 105.53 105.53 105.48 105.66 105.12 103.71 103.62 103.60 103.76 103.86 103.98 104.08 104.17 104.25 104.32 104.43 104.49 104.57 104.62 104.69 104.86 105.27 106.42 106.65 106.31 106.31 106.48 106.38 106.34 105.99 106.32 106.99 107.03 107.15 107.28 107.42 107.56 107.71
104.30 104.36 104.43 104.60 104.64 104.72 103.20 105.33 105.55 105.62 105.68 105.79 105.82 105.81 105.75 105.78 105.77 105.78 103.42 103.62 103.57 103.65 103.85 104.02 104.13 104.24 104.35 104.38 104.47 104.51 104.60 104.63 104.83 104.87 105.05 105.37 106.33 106.58 106.57 106.60 106.64 106.48 106.43 105.88 107.16 107.11 107.19 107.29 107.45 107.58 107.69 107.86
104.18 104.33 104.50 104.74 104.79 104.82 103.44 105.28 105.61 105.75 105.83 105.94 106.01 105.99 105.96 105.93 105.99 106.03 104.17 103.97 103.81 103.89 104.03 104.18 104.28 104.39 104.49 104.52 104.52 104.59 104.65 104.74 104.88 104.89 105.23 106.01 106.43 106.56 106.65 106.72 106.63 106.43 106.53 106.45 107.27 107.22 107.37 107.49 107.56 107.69 107.86 108.04
104.34 104.45 104.64 104.81 104.94 104.94 105.07 103.89 105.73 105.85 105.97 106.06 106.15 106.17 106.20 106.24 105.92 104.49 104.50 104.37 104.15 104.17 104.26 104.43 104.52 104.52 104.69 104.73 104.75 104.75 104.64 104.82 104.78 104.99 105.42 106.44 106.63 106.67 106.74 106.73 106.78 106.87 106.79 107.04 107.34 107.43 107.53 107.65 107.77 107.96 108.19 108.52
104.40 104.55 104.68 104.88 105.04 105.19 105.20 103.87 105.93 105.84 106.03 106.17 106.32 105.38 104.26 104.29 104.35 104.43 104.53 104.54 104.52 104.53 104.56 104.65 104.77 104.88 104.94 104.90 104.88 104.90 104.83 104.89 104.94 105.06 105.72 106.71 106.68 106.72 106.74 107.06 107.39 107.31 107.26 107.42 107.40 107.58 107.82 108.17 108.07 109.15 109.86 110.01
104.49 104.63 104.79 104.93 105.09 105.26 105.29 105.43 104.34 106.07 104.96 104.24 104.21 104.20 104.24 104.38 104.47 104.61 104.74 104.86 104.94 104.98 105.01 105.14 105.26 105.03 105.15 105.15 105.21 105.20 105.48 105.54 105.52 106.80 107.10 106.98 106.86 106.87 107.23 107.64 107.85 107.72 107.54 107.52 107.94 107.85 109.29 109.61 109.77 109.90 109.93 109.82
104.54 104.71 104.85 104.99 105.15 105.30 105.43 105.45 104.24 104.28 104.43 104.37 104.45 104.58 104.71 104.87 105.00 105.14 105.29 105.53 105.72 105.85 105.93 106.09 106.22 106.70 106.82 107.02 106.97 106.71 107.16 107.29 107.33 107.34 107.28 107.16 107.17 107.28 107.90 108.03 108.17 108.21 108.24 109.21 109.42 109.55 109.68 109.58 109.48 108.50 108.60 108.68
104.57 104.76 104.90 105.04 105.19 105.36 105.52 105.54 105.76 104.38 104.94 105.14 105.32 105.51 105.75 105.96 106.19 106.31 106.54 106.69 106.83 106.96 106.99 106.98 107.04 107.37 107.30 107.15 107.49 107.61 107.64 107.69 107.75 107.56 107.54 107.53 107.50 107.57 108.15 108.54 109.00 109.18 109.32 109.44 109.30 109.05 108.12 108.29 108.38 108.51 108.65 108.77
104.63 104.78 104.93 105.07 105.24 105.44 105.63 105.78 105.92 104.60 105.60 106.03 106.27 106.58 106.79 106.98 107.13 107.25 107.32 107.37 107.42 107.53 107.52 107.46 107.48 107.61 107.57 107.43 107.47 107.54 107.57 107.82 108.09 107.57 107.64 108.07 108.41 108.78 108.93 109.07 109.11 109.05 108.76 107.93 108.18 108.26 108.26 108.37 108.51 108.64 108.83 108.94
104.64 104.81 105.00 105.18 105.33 105.42 105.61 105.83 105.96 106.01 104.88 106.38 106.69 106.86 107.07 107.20 107.35 107.40 107.48 107.52 107.60 107.68 107.71 107.65 107.70 107.72 107.74 107.66 107.56 107.68 107.89 108.28 108.21 108.30 108.54 108.69 108.83 108.72 108.69 107.57 107.69 108.37 108.31 108.32 108.30 108.32 108.40 108.52 108.66 108.80 108.96 109.12
104.79 104.92 105.09 105.15 105.32 105.51 105.71 105.89 105.99 106.19 105.60 106.42 106.75 106.92 107.07 107.26 107.39 107.47 107.55 107.62 107.73 107.80 107.87 107.80 107.92 107.90 107.90 107.92 107.84 107.58 108.28 108.40 108.50 108.65 108.50 108.36 107.74 107.74 107.66 107.68 107.84 108.25 108.39 108.35 108.34 108.44 108.54 108.69 108.82 108.99 109.15 109.27
104.75 104.91 105.08 105.27 105.41 105.51 105.68 105.86 106.07 106.21 106.33 105.55 106.64 106.97 107.15 107.34 107.51 107.65 107.72 107.81 107.89 107.97 107.99 107.98 107.99 107.74 107.88 108.25 108.31 108.39 108.48 108.33 108.15 108.18 108.07 107.86 107.81 107.76 107.60 107.78 107.89 108.15 108.54 108.54 108.51 108.65 108.74 108.85 109.01 109.14 109.32 109.46
104.86 104.98 105.14 105.24 105.42 105.62 105.78 105.92 106.07 106.30 106.45 106.50 106.51 106.86 107.18 107.41 107.67 107.84 107.94 107.96 107.97 107.97 107.26 107.97 108.15 108.24 108.32 108.33 108.13 108.36 108.21 108.21 108.10 108.07 108.10 108.06 107.95 107.89 107.80 107.85 107.92 108.17 108.77 108.69 108.65 108.81 108.93 109.06 109.18 109.34 109.50 109.62
104.90 105.03 105.22 105.36 105.49 105.65 105.81 105.98 106.11 106.30 106.53 106.52 106.60 106.87 107.22 107.48 107.74 107.88 107.97 107.08 107.96 108.05 108.15 108.25 108.15 108.14 108.30 108.49 108.74 108.51 108.57 108.28 108.18 108.17 108.17 108.08 108.04 107.97 107.94 107.96 108.07 108.37 108.86 108.90 108.84 108.99 109.15 109.27 109.39 109.48 109.62 109.77
104.96 105.09 105.26 105.40 105.62 105.76 105.89 106.03 106.18 106.32 106.55 106.82 106.99 107.22 107.16 107.39 107.42 107.91 107.98 108.08 108.06 107.96 107.96 108.35 108.25 108.23 108.53 108.48 108.60 108.61 108.76 108.64 108.32 108.19 108.10 108.01 108.03 108.14 108.37 108.50 108.74 108.90 108.98 109.10 109.08 109.20 109.36 109.42 109.52 109.63 109.78 109.92
105.08 105.19 105.34 105.49 105.71 105.89 106.06 106.11 106.33 106.53 106.71 106.72 107.01 107.60 107.81 107.92 108.03 107.97 107.81 108.06 107.98 108.15 108.19 108.21 108.18 108.19 108.40 108.39 108.52 108.66 108.79 108.56 108.27 108.46 108.54 108.40 108.51 108.64 108.75 108.83 108.87 109.11 109.21 109.29 109.30 109.32 109.45 109.57 109.65 109.79 109.90 110.07
105.22 105.35 105.47 105.71 106.00 106.21 106.32 106.47 106.46 106.68 107.57 107.73 107.84 107.93 107.82 107.68 107.81 108.12 108.19 108.25 108.16 108.19 108.24 108.29 108.29 108.32 108.42 108.37 108.56 109.34 108.80 108.55 108.57 108.75 108.93 108.90 108.71 108.86 109.01 109.18 109.17 109.26 109.39 109.48 109.47 109.43 109.57 109.68 109.80 109.93 110.06 110.21
105.43 105.61 105.83 106.10 106.14 106.53 106.92 107.55 107.65 107.74 107.72 107.65 107.55 107.47 107.45 107.82 107.68 107.88 108.18 108.31 108.32 108.31 108.36 108.44 108.43 108.47 108.49 108.46 109.00 109.17 108.73 108.78 108.80 108.94 108.92 109.05 108.90 108.92 108.97 109.10 109.22 109.27 109.37 109.68 109.64 109.57 109.68 109.85 109.93 110.04 110.19 110.33
105.90 106.01 106.15 107.07 107.40 107.53 107.65 107.61 107.54 106.85 107.42 107.33 107.57 107.44 107.47 107.92 107.90 107.87 108.27 108.47 108.50 108.44 108.53 108.55 108.58 108.61 108.64 108.68 108.82 108.81 108.79 109.03 108.95 109.03 109.05 108.99 108.99 109.04 109.08 109.15 109.29 109.36 109.46 109.65 109.78 109.79 109.83 109.93 110.07 110.22 110.37 110.52
106.93 107.16 107.31 107.46 107.35 107.32 106.51 106.74 107.28 107.15 107.34 107.33 107.37 107.67 107.83 108.03 108.07 108.07 108.12 108.38 108.61 108.47 108.54 108.66 108.70 108.72 108.81 108.92 109.06 109.06 109.08 109.09 109.07 109.15 109.14 109.11 109.10 109.19 109.25 109.34 109.45 109.52 109.60 109.77 109.97 109.97 109.95 110.11 110.24 110.38 110.54 110.74
107.13 107.05 106.88 106.35 106.40 106.56 106.78 106.93 107.23 107.25 107.33 107.40 107.51 107.60 107.80 108.01 108.20 108.30 108.19 108.27 108.46 108.51 108.56 108.70 108.76 108.85 108.91 109.02 109.11 109.10 109.18 109.20 109.26 109.28 109.25 109.26 109.26 109.30 109.36 109.44 109.55 109.65 109.73 109.94 110.22 110.15 110.16 110.31 110.45 110.57 110.70 110.89
106.10 106.18 106.31 106.45 106.55 106.65 106.75 106.99 107.20 107.34 107.36 107.59 107.75 107.89 107.94 108.03 108.24 108.02 108.54 108.29 108.08 107.93 108.64 108.63 108.74 108.89 109.06 109.17 109.24 109.26 109.35 109.42 109.45 109.43 109.37 109.39 109.38 109.37 109.44 109.53 109.65 109.74 109.87 110.05 110.40 110.34 110.38 110.58 110.66 110.73 110.88 111.03
106.14 106.25 106.37 106.52 106.67 106.79 106.91 107.14 107.25 107.47 107.70 107.64 107.72 107.69 107.81 107.97 108.28 108.44 108.72 108.78 108.57 108.45 106.68 108.54 108.81 108.92 109.11 109.30 109.43 109.48 109.55 109.57 109.57 109.56 109.50 109.50 109.50 109.52 109.58 109.68 109.79 109.90 109.99 110.13 110.33 110.50 110.54 110.64 110.84 110.96 111.07 111.21
106.20 106.34 106.51 106.65 106.81 106.94 107.05 107.25 107.46 107.57 107.46 107.57 107.73 107.81 107.89 107.97 108.29 108.60 108.88 108.91 108.88 108.81 108.85 108.29 107.23 109.18 109.27 109.40 109.57 109.65 109.69 109.70 109.69 109.69 109.67 109.66 109.65 109.66 109.75 109.86 110.00 110.11 110.21 110.29 110.50 110.71 110.72 110.80 110.93 111.08 111.22 111.39
106.28 106.44 106.63 106.81 106.96 107.10 107.24 107.39 107.65 107.61 107.57 107.70 107.80 107.94 108.03 108.12 108.40 108.73 108.94 108.96 108.99 109.01 108.95 109.10 109.17 107.57 109.11 109.51 109.63 109.77 109.84 109.87 109.86 109.83 109.85 109.82 109.87 109.89 109.96 110.08 110.20 110.32 110.43 110.49 110.64 110.98 110.95 110.90 111.07 111.22 111.36 111.57
106.39 106.56 106.75 106.95 107.12 107.27 107.41 107.50 107.62 107.71 107.76 107.82 107.95 108.08 108.21 108.24 108.46 108.76 108.86 108.99 109.09 109.11 109.14 109.21 109.28 109.46 108.12 108.77 109.71 109.82 109.92 109.97 110.03 110.05 110.06 110.08 110.11 110.12 110.19 110.29 110.42 110.53 110.60 110.66 110.76 111.14 111.14 111.12 111.25 111.43 111.60 111.79
106.51 106.66 106.86 107.05 107.24 107.42 107.56 107.70 107.82 107.88 107.92 107.94 108.06 108.21 108.35 108.41 108.50 108.75 108.41 109.12 109.17 109.17 109.22 109.35 109.40 109.65 109.90 108.89 108.71 109.88 109.99 110.11 110.19 110.23 110.28 110.32 110.32 110.35 110.40 110.49 110.57 110.66 110.80 110.86 110.95 111.18 111.35 111.36 111.47 111.65 111.82 112.00
106.58 106.76 106.98 107.20 107.38 107.58 107.72 107.87 107.93 108.02 108.05 108.13 108.21 108.33 108.42 108.48 108.54 108.78 108.94 109.25 109.20 109.24 109.34 109.43 109.53 109.80 109.96 110.04 109.78 108.72 110.02 110.15 110.31 110.39 110.45 110.48 110.50 110.54 110.59 110.68 110.79 110.92 111.01 111.11 111.20 111.45 111.62 111.63 111.69 111.89 112.02 112.19
106.73 106.90 107.12 107.35 107.56 107.71 107.88 107.99 108.08 108.16 108.20 108.25 108.31 108.36 108.45 108.51 108.51 108.82 109.07 109.32 109.25 109.35 109.41 109.53 109.72 109.90 110.08 110.19 110.14 110.00 109.10 110.23 110.35 110.49 110.60 110.67 110.70 110.76 110.84 110.93 111.04 111.14 111.21 111.29 111.39 111.61 111.85 111.88 111.93 112.01 112.20 112.39
106.87 107.06 107.25 107.53 107.73 107.89 108.01 108.11 108.18 108.25 108.29 108.31 108.36 108.41 108.53 108.58 108.59 108.86 109.18 109.27 109.31 109.47 109.46 109.62 109.83 110.02 110.20 110.34 110.34 110.34 109.88 110.28 110.50 110.63 110.78 110.88 110.93 111.01 111.05 111.10 111.22 111.32 111.38 111.47 111.60 111.69 112.03 112.09 112.10 112.19 112.35 112.50
106.94 107.17 107.39 107.61 107.79 107.94 108.04 108.10 108.21 108.29 108.33 108.41 108.42 108.49 108.57 108.67 108.66 108.87 109.12 109.15 109.35 109.53 109.61 109.73 109.90 110.15 110.26 110.39 110.51 110.52 110.53 110.18 110.61 110.65 110.90 111.04 111.11 111.16 111.23 111.30 111.43 111.50 111.58 111.67 111.75 111.81 112.02 112.28 112.31 112.36 112.55 112.72
107.04 107.21 107.41 107.63 107.77 107.93 108.04 108.17 108.23 108.34 108.37 108.43 108.47 108.52 108.59 108.71 108.76 108.88 109.12 108.99 109.45 109.61 109.61 109.86 110.07 110.21 110.35 110.57 110.69 110.74 110.67 110.54 110.29 110.72 110.89 111.14 111.25 111.34 111.41 111.49 111.56 111.66 111.77 111.84 111.92 112.01 112.21 112.55 112.56 112.51 112.70 112.90
107.10 107.26 107.46 107.64 107.85 107.97 108.10 108.15 108.26 108.33 108.41 108.45 108.51 108.56 108.67 108.76 108.82 108.92 109.14 109.50 109.51 109.67 109.69 109.91 110.11 110.33 110.50 110.65 110.75 110.87 110.93 110.86 110.87 110.54 111.03 111.21 111.37 111.46 111.55 111.64 111.73 111.82 111.94 112.04 112.11 112.23 112.45 112.81 112.71 112.71 112.96 113.05
107.19 107.36 107.57 107.71 107.90 108.02 108.12 108.19 108.28 108.36 108.42 108.50 108.55 108.62 108.72 108.83 108.88 108.96 109.21 109.62 109.46 109.62 109.74 109.98 110.18 110.40 110.64 110.80 110.93 111.00 110.97 110.95 110.96 110.97 111.09 111.34 111.45 111.62 111.74 111.81 111.87 111.96 112.10 112.19 112.32 112.45 112.58 112.90 112.90 112.83 113.09 113.25
107.29 107.48 107.62 107.78 107.94 108.10 108.20 108.29 108.37 108.43 108.49 108.55 108.59 108.65 108.76 108.93 109.00 108.97 109.22 109.67 109.49 109.59 109.76 110.06 110.27 110.53 110.60 110.75 110.90 111.03 111.10 111.14 111.12 111.24 111.38 111.45 111.58 111.77 111.90 111.99 112.04 112.15 112.26 112.40 112.51 112.61 112.74 112.99 113.11 113.13 113.24 113.36
107.40 107.57 107.73 107.88 108.06 108.19 108.30 108.37 108.43 108.46 108.52 108.57 108.67 108.72 108.86 108.98 109.06 109.01 109.26 109.53 109.65 109.72 109.92 110.03 110.25 110.45 110.64 110.81 110.99 111.11 111.24 111.28 111.30 111.36 111.38 111.12 111.67 111.87 112.08 112.21 112.29 112.34 112.44 112.57 112.70 112.85 112.96 113.14 113.45 113.30 113.38 113.49
107.50 107.70 107.85 108.03 108.17 108.29 108.33 108.40 108.47 108.54 108.58 108.65 108.70 108.79 108.92 109.06 109.11 109.20 109.30 109.57 109.53 109.87 109.86 110.09 110.32 110.51 110.71 110.89 111.06 111.18 111.31 111.41 111.49 111.49 111.53 111.57 111.84 111.96 112.17 112.33 112.43 112.54 112.68 112.82 112.97 113.08 113.20 113.34 113.62 113.50 113.50 113.54
107.66 107.83 107.99 108.11 108.26 108.38 108.43 108.49 108.54 108.59 108.67 108.75 108.81 108.87 109.01 109.16 109.24 109.28 109.39 109.66 109.92 109.89 109.92 110.17 110.35 110.56 110.72 110.92 111.08 111.27 111.40 111.54 111.65 111.68 111.69 111.79 111.61 112.08 112.21 112.40 112.56 112.70 112.88 113.04 113.18 113.35 113.49 113.56 113.80 113.75 113.72 113.72
107.82 107.99 108.17 108.31 108.47 108.53 108.60 108.64 108.73 108.76 108.80 108.88 108.95 109.01 109.15 109.25 109.32 109.39 109.40 109.72 110.01 110.04 110.02 110.15 110.36 110.59 110.79 110.98 111.17 111.35 111.51 111.63 111.74 111.79 111.82 111.88 111.79 112.10 112.24 112.43 112.66 112.82 113.01 113.18 113.37 113.55 113.69 113.75 113.91 113.98 113.90 113.85
