ncols 52
nrows 52
xllcorner 443904
yllcorner 5715968
cellsize 10
NODATA_value -9999
91.16 91.30 91.47 91.55 91.68 91.80 91.86 91.90 91.99 91.98 91.95 91.81 91.73 91.76 91.25 90.98 91.58 91.71 91.78 91.68 91.67 92.19 93.06 93.18 93.37 93.50 93.73 93.94 94.16 94.33 94.45 94.53 94.64 94.79 94.95 95.10 95.22 95.40 95.55 95.78 96.01 96.10 96.27 96.43 96.65 96.85 97.10 97.34 97.53 97.61 97.71 97.82
91.11 91.24 91.39 91.45 91.53 91.62 91.68 91.81 91.86 91.83 91.79 91.30 90.91 91.15 91.74 91.89 91.80 91.68 92.21 92.49 92.71 92.94 93.09 93.26 93.40 93.57 93.74 93.85 93.97 94.11 94.26 94.46 94.63 94.73 94.89 95.04 95.12 95.32 95.50 95.76 95.94 96.07 96.23 96.41 96.63 96.86 97.08 97.35 97.56 97.66 97.75 97.88
91.05 91.15 91.18 91.27 91.45 91.56 91.67 91.78 91.68 90.75 90.23 91.32 91.51 91.73 91.90 92.17 92.04 91.97 92.44 92.60 92.74 92.89 93.02 93.15 93.28 93.45 93.62 93.76 93.90 94.05 94.27 94.52 94.65 94.76 94.87 95.00 95.10 95.29 95.50 95.75 95.98 96.08 96.24 96.44 96.67 96.88 97.09 97.36 97.57 97.69 97.78 97.94
90.91 90.99 91.14 91.21 91.37 91.56 90.53 90.24 90.68 90.97 91.22 91.48 91.79 92.03 92.26 92.35 92.25 92.05 92.43 92.75 92.87 93.00 93.07 93.18 93.25 93.41 93.59 93.72 93.88 94.09 94.32 94.60 94.75 94.82 94.92 95.01 95.11 95.29 95.50 95.76 95.99 96.12 96.27 96.47 96.66 96.86 97.08 97.36 97.60 97.72 97.82 97.99
90.89 91.02 91.11 90.22 89.94 89.69 90.52 90.68 90.88 91.15 91.47 91.77 92.08 92.32 92.44 92.52 92.37 92.20 92.53 92.89 92.97 93.06 93.15 93.24 93.35 93.49 93.64 93.76 93.92 94.14 94.38 94.64 94.82 94.89 94.95 95.06 95.15 95.30 95.51 95.78 96.02 96.13 96.29 96.49 96.70 96.89 97.10 97.37 97.62 97.76 97.86 98.03
90.12 89.56 89.26 90.06 90.38 90.60 90.83 91.04 91.24 91.46 91.71 91.96 92.20 92.43 92.52 92.64 92.54 92.40 92.64 93.00 93.05 93.15 93.22 93.32 93.41 93.55 93.68 93.79 93.93 94.16 94.42 94.69 94.88 94.97 95.00 95.11 95.21 95.35 95.54 95.77 96.06 96.15 96.32 96.51 96.71 96.90 97.12 97.42 97.65 97.81 97.93 98.10
89.73 89.96 90.10 90.37 90.68 90.95 91.21 91.39 91.57 91.71 91.91 92.10 92.32 92.52 92.67 92.68 92.67 92.52 92.76 93.08 93.13 93.23 93.29 93.38 93.50 93.61 93.73 93.85 94.01 94.22 94.48 94.74 94.93 95.01 95.06 95.16 95.25 95.40 95.59 95.82 96.07 96.21 96.35 96.54 96.75 96.93 97.17 97.44 97.71 97.87 97.99 98.15
90.03 90.28 90.49 90.73 91.02 91.24 91.49 91.65 91.80 91.91 92.04 92.25 92.44 92.60 92.73 92.76 92.71 92.66 92.84 93.13 93.20 93.27 93.35 93.46 93.58 93.66 93.82 93.94 94.07 94.29 94.53 94.79 94.97 95.07 95.11 95.20 95.33 95.44 95.64 95.82 96.11 96.24 96.40 96.57 96.78 96.97 97.20 97.49 97.76 97.94 98.08 98.21
90.46 90.64 90.84 91.07 91.28 91.49 91.66 91.80 91.97 92.08 92.19 92.35 92.52 92.63 92.72 92.82 92.82 92.99 92.91 93.19 93.23 93.31 93.43 93.52 93.62 93.72 93.87 94.00 94.15 94.34 94.57 94.79 95.02 95.13 95.17 95.26 95.40 95.51 95.68 95.89 96.15 96.30 96.45 96.64 96.83 97.02 97.24 97.54 97.82 98.01 98.15 98.30
90.75 90.94 91.11 91.26 91.47 91.66 91.80 91.93 92.04 92.16 92.29 92.39 92.51 92.67 92.74 92.84 92.90 92.85 92.99 93.26 93.29 93.38 93.49 93.55 93.65 93.75 93.90 94.06 94.17 94.37 94.60 94.84 95.06 95.20 95.25 95.35 95.47 95.60 95.75 95.93 96.20 96.34 96.49 96.69 96.87 97.07 97.29 97.61 97.90 98.11 98.25 98.38
90.97 91.15 91.33 91.46 91.60 91.74 91.86 91.96 92.08 92.17 92.32 92.43 92.54 92.69 92.76 92.88 92.98 92.91 93.04 93.32 93.35 93.44 93.52 93.57 93.70 93.80 93.93 94.09 94.24 94.40 94.64 94.83 95.09 95.27 95.35 95.43 95.55 95.68 95.81 95.97 96.24 96.39 96.55 96.75 96.95 97.14 97.39 97.68 97.98 98.19 98.32 98.48
91.13 91.27 91.41 91.53 91.65 91.78 91.93 92.01 92.08 92.21 92.37 92.46 92.58 92.72 92.80 92.94 93.10 92.99 93.09 93.38 93.43 93.50 93.57 93.62 93.74 93.85 93.97 94.12 94.28 94.46 94.66 94.87 95.11 95.32 95.42 95.51 95.62 95.74 95.89 96.05 96.30 96.46 96.65 96.85 97.04 97.24 97.50 97.77 98.07 98.28 98.42 98.57
91.22 91.33 91.46 91.58 91.69 91.81 91.96 92.06 92.17 92.26 92.38 92.50 92.64 92.81 92.92 93.03 93.25 93.11 93.11 93.43 93.50 93.55 93.61 93.66 93.79 93.93 94.05 94.21 94.35 94.52 94.73 94.90 95.11 95.36 95.49 95.60 95.71 95.83 95.99 96.17 96.40 96.53 96.71 96.93 97.14 97.35 97.60 97.87 98.14 98.36 98.51 98.69
91.29 91.38 91.52 91.64 91.76 91.90 92.02 92.14 92.24 92.36 92.49 92.61 92.75 92.92 92.96 93.09 93.31 93.16 93.21 93.49 93.56 93.59 93.68 93.75 93.89 94.03 94.14 94.31 94.46 94.60 94.78 94.94 95.14 95.38 95.55 95.68 95.80 95.93 96.08 96.25 96.49 96.63 96.81 97.03 97.24 97.46 97.69 97.96 98.21 98.46 98.62 98.81
91.38 91.49 91.57 91.72 91.85 91.98 92.13 92.28 92.40 92.48 92.58 92.67 92.81 92.91 92.94 93.16 93.32 93.21 93.26 93.52 93.62 93.66 93.75 93.82 93.97 94.11 94.22 94.38 94.53 94.68 94.85 94.98 95.18 95.42 95.62 95.78 95.91 96.04 96.19 96.35 96.59 96.76 96.92 97.15 97.34 97.55 97.78 98.02 98.30 98.54 98.69 98.86
91.43 91.60 91.72 91.85 91.97 92.10 92.21 92.31 92.40 92.50 92.59 92.67 92.77 92.86 92.96 93.17 93.18 93.24 93.32 93.57 93.67 93.71 93.81 93.90 94.03 94.18 94.27 94.43 94.60 94.76 94.93 95.11 95.27 95.50 95.73 95.91 96.05 96.18 96.32 96.47 96.70 96.88 97.04 97.26 97.45 97.62 97.87 98.10 98.38 98.60 98.76 98.90
91.56 91.70 91.81 91.90 92.00 92.11 92.20 92.30 92.38 92.47 92.60 92.68 92.76 92.86 92.97 93.27 93.35 93.35 93.43 93.60 93.71 93.79 93.88 93.98 94.09 94.22 94.34 94.49 94.68 94.84 95.04 95.21 95.39 95.61 95.85 96.05 96.17 96.31 96.44 96.60 96.82 97.02 97.18 97.38 97.56 97.74 97.97 98.19 98.49 98.70 98.81 98.96
91.57 91.68 91.80 91.89 91.98 92.08 92.18 92.29 92.39 92.51 92.60 92.72 92.83 92.95 93.04 93.34 93.49 93.41 93.49 93.65 93.76 93.86 93.96 94.08 94.18 94.32 94.41 94.59 94.77 94.94 95.14 95.32 95.50 95.72 95.95 96.18 96.32 96.43 96.59 96.73 96.98 97.18 97.33 97.54 97.68 97.85 98.06 98.26 98.56 98.76 98.87 99.00
91.59 91.69 91.78 91.91 91.99 92.09 92.22 92.34 92.45 92.58 92.68 92.81 92.93 93.03 93.04 93.24 93.47 93.45 93.57 93.72 93.86 93.96 94.07 94.18 94.29 94.43 94.56 94.71 94.89 95.05 95.21 95.38 95.58 95.82 96.09 96.33 96.47 96.58 96.74 96.91 97.14 97.36 97.49 97.66 97.81 97.97 98.18 98.38 98.64 98.85 98.93 99.04
91.60 91.70 91.81 91.96 92.05 92.19 92.31 92.42 92.52 92.65 92.74 92.82 92.96 93.13 93.29 93.40 93.42 93.46 93.68 93.81 93.95 94.04 94.17 94.26 94.37 94.53 94.65 94.81 94.97 95.14 95.32 95.50 95.69 95.93 96.21 96.49 96.64 96.73 96.91 97.08 97.32 97.51 97.65 97.81 97.96 98.09 98.30 98.50 98.75 98.95 99.04 99.09
91.67 91.80 91.94 92.04 92.15 92.29 92.37 92.40 92.52 92.65 92.85 92.98 93.13 93.29 93.40 93.51 93.47 93.49 93.76 93.92 94.04 94.13 94.22 94.32 94.45 94.60 94.74 94.91 95.09 95.23 95.43 95.61 95.83 96.09 96.37 96.65 96.79 96.94 97.11 97.27 97.48 97.68 97.80 97.97 98.10 98.21 98.40 98.60 98.83 99.05 99.14 99.18
91.74 91.90 92.03 92.12 92.13 92.27 92.42 92.58 92.72 92.85 92.91 93.02 93.14 93.29 93.42 93.57 93.49 93.60 93.83 93.99 94.10 94.20 94.29 94.40 94.54 94.69 94.84 95.02 95.21 95.35 95.56 95.77 95.97 96.21 96.51 96.79 96.99 97.11 97.30 97.46 97.65 97.85 97.97 98.11 98.24 98.36 98.51 98.71 98.96 99.16 99.24 99.29
91.79 91.89 92.08 92.27 92.39 92.49 92.54 92.60 92.69 92.81 92.93 93.04 93.17 93.34 93.47 93.65 93.61 93.71 93.92 94.07 94.18 94.25 94.39 94.50 94.65 94.80 94.97 95.14 95.34 95.48 95.72 95.93 96.15 96.36 96.64 96.93 97.15 97.33 97.49 97.64 97.78 97.98 98.11 98.25 98.39 98.50 98.64 98.85 99.07 99.28 99.35 99.42
92.08 92.17 92.25 92.33 92.37 92.43 92.53 92.63 92.72 92.88 93.02 93.15 93.28 93.38 93.50 93.74 93.67 93.85 94.01 94.16 94.30 94.37 94.51 94.64 94.79 94.93 95.11 95.29 95.46 95.65 95.88 96.07 96.29 96.49 96.76 97.09 97.34 97.49 97.65 97.80 97.93 98.14 98.27 98.42 98.55 98.65 98.79 99.00 99.19 99.39 99.46 99.53
92.06 92.09 92.22 92.34 92.44 92.53 92.65 92.76 92.88 92.99 93.11 93.24 93.36 93.44 93.57 93.62 93.71 93.99 94.14 94.24 94.39 94.47 94.62 94.76 94.93 95.09 95.24 95.39 95.58 95.75 95.99 96.21 96.42 96.63 96.91 97.22 97.50 97.68 97.83 97.97 98.09 98.30 98.43 98.59 98.72 98.84 98.96 99.13 99.32 99.52 99.59 99.60
92.08 92.17 92.30 92.44 92.55 92.64 92.76 92.88 92.98 93.07 93.18 93.31 93.44 93.53 93.65 93.74 93.81 94.09 94.24 94.35 94.51 94.60 94.75 94.89 95.05 95.20 95.35 95.51 95.71 95.93 96.13 96.36 96.55 96.79 97.06 97.36 97.66 97.86 97.99 98.14 98.29 98.47 98.57 98.73 98.87 98.97 99.09 99.26 99.45 99.64 99.74 99.74
92.11 92.27 92.40 92.54 92.66 92.74 92.84 92.97 93.06 93.17 93.28 93.39 93.54 93.61 93.79 93.83 93.94 94.18 94.33 94.44 94.60 94.67 94.82 94.98 95.14 95.29 95.46 95.65 95.86 96.05 96.29 96.51 96.71 96.94 97.21 97.53 97.83 98.04 98.15 98.31 98.43 98.60 98.69 98.85 99.00 99.10 99.20 99.38 99.58 99.75 99.86 99.83
92.17 92.32 92.47 92.60 92.72 92.81 92.92 93.03 93.15 93.26 93.35 93.47 93.60 93.64 93.96 93.97 94.10 94.29 94.41 94.54 94.68 94.78 94.93 95.08 95.20 95.39 95.58 95.79 96.01 96.23 96.44 96.68 96.88 97.12 97.35 97.67 98.00 98.21 98.31 98.45 98.56 98.72 98.79 98.94 99.11 99.19 99.29 99.47 99.68 99.85 99.96 99.96
92.21 92.39 92.53 92.66 92.78 92.89 92.99 93.11 93.23 93.35 93.45 93.60 93.67 93.73 93.98 94.02 94.24 94.38 94.48 94.61 94.77 94.86 95.02 95.17 95.32 95.50 95.73 95.93 96.15 96.37 96.58 96.81 97.02 97.24 97.48 97.79 98.10 98.35 98.46 98.58 98.67 98.83 98.90 99.06 99.20 99.26 99.37 99.54 99.73 99.93 100.05 100.04
92.29 92.42 92.56 92.71 92.85 92.97 93.08 93.19 93.32 93.43 93.53 93.69 93.77 93.85 94.14 94.10 94.33 94.44 94.56 94.68 94.85 94.99 95.10 95.26 95.42 95.64 95.87 96.09 96.30 96.51 96.72 96.92 97.13 97.36 97.61 97.89 98.22 98.47 98.57 98.67 98.77 98.91 98.97 99.09 99.28 99.35 99.46 99.62 99.82 100.01 100.15 100.20
92.33 92.46 92.60 92.76 92.89 93.02 93.15 93.23 93.37 93.49 93.60 93.79 93.85 94.00 94.05 94.17 94.38 94.51 94.63 94.74 94.93 95.07 95.22 95.38 95.59 95.79 96.01 96.22 96.44 96.65 96.85 97.04 97.27 97.49 97.73 97.96 98.31 98.57 98.68 98.76 98.84 98.96 99.01 99.15 99.33 99.43 99.56 99.74 99.92 100.08 100.26 100.34
92.35 92.48 92.62 92.78 92.88 93.02 93.17 93.28 93.42 93.56 93.72 93.86 93.90 94.27 94.16 94.28 94.41 94.58 94.71 94.82 95.00 95.16 95.33 95.52 95.71 95.94 96.18 96.38 96.57 96.78 96.96 97.17 97.39 97.62 97.83 98.08 98.37 98.62 98.74 98.81 98.90 99.01 99.08 99.18 99.41 99.51 99.64 99.83 99.99 100.15 100.35 100.52
92.34 92.46 92.61 92.75 92.90 93.04 93.18 93.32 93.48 93.64 93.79 93.90 94.00 94.26 94.21 94.42 94.51 94.62 94.76 94.90 95.08 95.28 95.46 95.65 95.87 96.09 96.29 96.50 96.69 96.88 97.08 97.29 97.52 97.75 97.94 98.11 98.36 98.61 98.79 98.86 98.95 99.07 99.15 99.27 99.48 99.60 99.69 99.88 100.03 100.19 100.42 100.62
92.34 92.45 92.60 92.76 92.92 93.07 93.21 93.36 93.50 93.67 93.83 93.98 94.11 94.05 94.23 94.48 94.54 94.69 94.83 94.97 95.17 95.37 95.54 95.77 95.95 96.18 96.39 96.60 96.78 97.00 97.18 97.40 97.61 97.81 97.99 98.14 98.37 98.61 98.82 98.92 99.03 99.14 99.22 99.31 99.53 99.67 99.76 99.93 100.07 100.21 100.42 100.61
92.41 92.51 92.66 92.80 92.93 93.09 93.22 93.37 93.51 93.67 93.88 94.02 94.24 94.24 94.32 94.51 94.57 94.74 94.89 95.03 95.22 95.44 95.61 95.83 96.04 96.25 96.46 96.67 96.89 97.07 97.28 97.49 97.67 97.85 98.04 98.18 98.39 98.65 98.87 99.02 99.09 99.22 99.31 99.38 99.57 99.72 99.78 99.95 100.09 100.23 100.40 100.57
92.54 92.62 92.73 92.86 92.94 93.10 93.23 93.37 93.50 93.67 93.87 94.02 94.47 94.31 94.40 94.54 94.59 94.78 94.94 95.08 95.28 95.49 95.65 95.87 96.07 96.29 96.50 96.74 96.97 97.17 97.34 97.51 97.70 97.88 98.08 98.22 98.43 98.69 98.96 99.10 99.16 99.26 99.37 99.43 99.62 99.75 99.82 99.98 100.08 100.23 100.37 100.54
92.64 92.71 92.82 92.92 92.98 93.10 93.22 93.35 93.51 93.68 93.87 94.08 94.39 94.31 94.45 94.52 94.65 94.84 95.02 95.17 95.37 95.56 95.71 95.91 96.09 96.31 96.54 96.78 97.04 97.24 97.40 97.57 97.73 97.93 98.15 98.29 98.49 98.73 98.97 99.15 99.22 99.32 99.42 99.47 99.63 99.79 99.83 99.99 100.10 100.22 100.35 100.47
92.73 92.78 92.89 92.99 93.06 93.16 93.27 93.40 93.54 93.70 93.92 94.21 94.44 94.30 94.47 94.57 94.72 94.88 95.08 95.27 95.46 95.64 95.76 95.93 96.11 96.35 96.57 96.81 97.10 97.31 97.46 97.63 97.81 97.99 98.19 98.37 98.54 98.74 99.01 99.18 99.24 99.33 99.46 99.50 99.66 99.81 99.86 99.99 100.10 100.20 100.33 100.47
92.86 92.90 93.03 93.12 93.16 93.25 93.33 93.44 93.57 93.75 93.97 94.47 94.56 94.29 94.43 94.59 94.75 94.90 95.11 95.32 95.53 95.70 95.81 95.97 96.15 96.36 96.62 96.85 97.15 97.39 97.56 97.71 97.86 98.04 98.25 98.40 98.55 98.74 98.97 99.17 99.26 99.33 99.48 99.54 99.69 99.82 99.88 99.97 100.10 100.24 100.31 100.51
92.99 93.08 93.15 93.20 93.25 93.32 93.42 93.50 93.64 93.82 94.14 94.43 94.69 94.31 94.42 94.59 94.77 94.92 95.13 95.36 95.60 95.76 95.88 96.01 96.18 96.41 96.66 96.92 97.21 97.48 97.67 97.81 97.95 98.11 98.29 98.44 98.56 98.72 98.90 99.11 99.21 99.28 99.47 99.57 99.72 99.85 99.93 100.03 100.10 100.23 100.41 100.57
93.13 93.18 93.27 93.32 93.37 93.45 93.52 93.64 93.74 94.00 94.27 94.29 94.29 94.41 94.45 94.65 94.76 94.94 95.17 95.41 95.66 95.83 95.92 96.07 96.24 96.46 96.72 96.99 97.26 97.55 97.78 97.93 98.06 98.18 98.34 98.48 98.56 98.70 98.84 99.04 99.17 99.24 99.46 99.57 99.71 99.89 99.94 100.08 100.22 100.31 99.99 100.82
93.25 93.32 93.41 93.45 93.49 93.57 93.65 93.72 93.91 94.28 94.40 94.46 94.60 94.37 94.45 94.69 94.81 95.00 95.23 95.46 95.70 95.92 96.02 96.19 96.37 96.60 96.84 97.09 97.34 97.58 97.81 98.01 98.11 98.23 98.36 98.47 98.58 98.70 98.83 99.00 99.12 99.22 99.44 99.62 99.69 99.88 100.07 100.13 99.84 100.61 100.22 100.46
93.37 93.46 93.53 93.53 93.64 93.69 93.71 93.89 94.32 94.28 94.32 94.49 94.60 94.59 94.57 94.66 94.89 95.09 95.29 95.51 95.74 96.00 96.14 96.33 96.53 96.72 96.96 97.14 97.35 97.60 97.85 98.06 98.18 98.24 98.41 98.52 98.62 98.74 98.85 99.00 99.14 99.27 99.46 99.64 99.84 99.93 99.72 100.38 100.13 100.10 100.31 100.44
93.49 93.56 93.62 93.68 93.68 93.79 93.88 94.29 94.21 94.33 94.45 94.52 94.62 94.73 94.63 94.72 95.01 95.17 95.38 95.57 95.79 96.07 96.25 96.42 96.59 96.78 96.99 97.19 97.39 97.62 97.88 98.14 98.27 98.34 98.46 98.60 98.68 98.80 98.90 99.06 99.20 99.37 99.59 99.75 99.90 100.21 100.00 99.96 100.11 100.18 100.18 100.27
93.58 93.65 93.74 93.72 93.82 93.98 94.21 94.22 94.32 94.44 94.48 94.54 94.70 94.83 94.72 94.82 95.11 95.29 95.48 95.67 95.88 96.10 96.27 96.45 96.64 96.81 97.03 97.23 97.46 97.72 98.03 98.26 98.41 98.46 98.56 98.68 98.77 98.89 98.98 99.14 99.37 99.48 99.37 99.99 99.91 99.85 100.03 100.10 100.07 100.10 100.25 100.40
93.69 93.84 93.81 93.89 94.00 94.16 94.25 94.31 94.42 94.50 94.57 94.63 94.72 94.93 94.93 94.94 95.14 95.38 95.58 95.75 95.94 96.16 96.29 96.48 96.67 96.85 97.08 97.33 97.57 97.83 98.12 98.38 98.53 98.57 98.67 98.82 98.89 99.01 99.18 99.28 99.13 99.86 99.79 99.67 99.98 100.07 100.02 100.01 100.10 100.17 100.32 100.45
93.86 93.88 93.96 94.02 94.15 94.26 94.37 94.43 94.53 94.62 94.70 94.74 94.81 94.93 95.04 95.05 95.21 95.46 95.67 95.83 96.01 96.21 96.33 96.54 96.76 96.96 97.20 97.45 97.68 97.92 98.18 98.43 98.60 98.75 98.83 98.98 99.16 99.22 99.10 99.77 99.72 99.57 99.78 99.88 99.96 99.96 100.05 100.16 100.23 100.31 100.46 100.58
93.88 93.96 94.04 94.12 94.32 94.41 94.54 94.59 94.67 94.71 94.85 94.87 94.96 95.07 95.24 95.33 95.28 95.58 95.74 95.91 96.06 96.26 96.44 96.62 96.86 97.07 97.32 97.56 97.75 97.99 98.24 98.50 98.74 98.83 99.05 99.14 99.20 99.61 99.61 99.49 99.70 99.77 99.82 99.81 100.01 100.11 100.17 100.33 100.34 100.49 100.60 100.71
93.99 94.01 94.04 94.35 94.51 94.64 94.69 94.74 94.82 94.91 95.00 95.06 95.12 95.15 95.33 95.37 95.41 95.64 95.79 95.99 96.15 96.35 96.56 96.75 96.98 97.21 97.44 97.65 97.85 98.08 98.32 98.59 98.92 99.04 99.08 99.38 99.43 99.39 99.59 99.68 99.69 99.71 99.85 99.94 100.13 100.28 100.38 100.53 100.56 100.67 100.71 100.86
94.06 93.98 94.42 94.57 94.73 94.79 94.86 94.95 95.03 95.12 95.18 95.23 95.24 95.28 95.40 95.47 95.55 95.61 95.88 96.09 96.24 96.46 96.67 96.85 97.08 97.29 97.54 97.79 97.98 98.20 98.53 98.78 98.96 99.13 99.22 99.29 99.52 99.54 99.65 99.61 99.73 99.85 99.95 100.07 100.28 100.46 100.60 100.70 100.74 100.82 100.85 100.93
94.15 94.53 94.67 94.77 94.90 94.96 95.07 95.12 95.20 95.23 95.31 95.39 95.43 95.48 95.54 95.65 95.73 95.71 95.98 96.18 96.35 96.56 96.78 96.95 97.19 97.41 97.68 97.89 98.17 98.39 98.57 98.85 98.98 99.04 99.31 99.58 99.61 99.54 99.60 99.72 99.79 99.96 100.02 100.18 100.42 100.63 100.75 100.79 100.88 100.93 100.97 101.05
93.78 94.82 94.90 95.02 95.06 95.15 95.25 95.27 95.33 95.44 95.54 95.59 95.63 95.65 95.65 95.75 95.44 95.79 96.06 96.29 96.43 96.65 96.87 97.07 97.31 97.56 97.82 98.07 98.23 98.61 98.75 98.88 99.04 99.13 99.33 99.54 99.62 99.64 99.70 99.81 99.91 100.03 100.18 100.31 100.50 100.73 100.84 100.93 101.01 101.02 101.10 101.16
