ncols 52
nrows 52
xllcorner 443904
yllcorner 5713920
cellsize 10
NODATA_value -9999
113.13 113.20 113.20 113.18 113.21 113.23 113.44 113.56 113.70 113.77 113.89 113.98 114.10 114.23 114.36 114.50 114.62 114.75 114.87 114.85 114.81 114.72 114.71 114.85 115.17 115.62 116.02 116.35 116.56 116.67 116.91 116.95 116.97 116.90 116.97 116.98 116.96 116.93 116.85 116.76 116.67 116.61 116.48 116.28 116.03 115.79 115.60 115.40 115.25 115.10 114.87 114.58
113.21 113.21 113.25 113.32 113.33 113.42 113.50 113.68 113.83 113.95 114.03 114.12 114.22 114.36 114.49 114.64 114.75 114.89 115.03 115.08 115.01 114.93 114.85 114.92 115.14 115.58 116.06 116.42 116.62 116.75 116.98 117.08 117.09 117.02 117.02 117.01 117.02 117.01 116.90 116.82 116.75 116.67 116.53 116.30 116.06 115.83 115.62 115.41 115.24 115.06 114.82 114.55
113.27 113.32 113.30 113.35 113.44 113.50 113.63 113.83 114.00 114.10 114.16 114.24 114.40 114.48 114.65 114.75 114.89 115.03 115.18 115.24 115.21 115.17 115.08 115.08 115.23 115.61 116.06 116.48 116.70 116.78 117.01 117.21 117.14 117.12 117.09 117.07 117.08 117.05 116.99 116.92 116.86 116.77 116.60 116.34 116.07 115.84 115.64 115.43 115.24 115.03 114.79 114.59
113.30 113.35 113.41 113.48 113.57 113.66 113.79 113.97 114.12 114.22 114.29 114.38 114.51 114.62 114.78 114.92 115.04 115.16 115.33 115.46 115.45 115.40 115.36 115.31 115.49 115.73 116.07 116.41 116.70 116.87 117.04 117.31 117.25 117.24 117.19 117.21 117.20 117.17 117.10 117.03 116.96 116.84 116.64 116.38 116.14 115.90 115.69 115.50 115.29 115.07 114.82 114.67
113.40 113.48 113.54 113.61 113.68 113.77 113.90 114.09 114.27 114.35 114.42 114.50 114.62 114.74 114.89 115.03 115.19 115.35 115.51 115.67 115.72 115.72 115.68 115.61 115.67 115.85 116.12 116.43 116.70 116.94 117.09 117.39 117.41 117.36 117.33 117.37 117.35 117.26 117.19 117.13 117.04 116.92 116.71 116.46 116.21 115.97 115.75 115.53 115.34 115.10 114.88 114.76
113.50 113.54 113.63 113.69 113.77 113.88 113.99 114.24 114.41 114.48 114.50 114.59 114.73 114.87 115.01 115.19 115.34 115.54 115.70 115.86 115.96 115.99 115.95 115.91 115.90 116.10 116.38 116.65 116.86 117.05 117.19 117.35 117.61 117.55 117.46 117.49 117.45 117.38 117.29 117.23 117.17 117.04 116.80 116.53 116.26 116.03 115.81 115.61 115.39 115.15 114.95 114.84
113.61 113.69 113.75 113.82 113.92 114.00 114.11 114.28 114.46 114.55 114.62 114.71 114.85 114.99 115.20 115.35 115.46 115.65 115.85 116.03 116.19 116.23 116.26 116.24 116.21 116.41 116.71 116.96 117.16 117.29 117.35 117.60 117.80 117.69 117.61 117.64 117.61 117.53 117.44 117.36 117.28 117.10 116.87 116.60 116.32 116.08 115.85 115.62 115.36 115.14 114.97 114.93
113.81 113.88 113.94 113.96 114.03 114.10 114.25 114.45 114.62 114.70 114.74 114.86 114.95 115.12 115.29 115.46 115.63 115.81 116.01 116.28 116.44 116.52 116.52 116.51 116.51 116.70 117.02 117.23 117.40 117.50 117.60 117.74 117.96 117.85 117.79 117.82 117.78 117.69 117.58 117.46 117.37 117.21 116.95 116.68 116.37 116.10 115.85 115.59 115.37 115.15 115.04 115.05
114.01 114.08 114.09 114.12 114.21 114.31 114.47 114.67 114.82 114.84 114.90 115.00 115.10 115.27 115.45 115.65 115.86 116.03 116.19 116.42 116.59 116.72 116.76 116.78 116.75 116.85 117.14 117.43 117.56 117.69 117.77 117.85 117.96 117.98 117.99 117.93 117.92 117.84 117.72 117.58 117.47 117.29 117.05 116.74 116.43 116.16 115.91 115.69 115.45 115.24 115.15 115.19
114.08 114.14 114.24 114.27 114.39 114.49 114.62 114.82 114.97 115.01 115.08 115.18 115.33 115.48 115.67 115.82 116.01 116.19 116.38 116.59 116.78 116.89 116.95 116.93 116.90 116.97 117.25 117.54 117.74 117.84 117.96 117.98 118.09 118.11 118.10 118.01 118.00 117.92 117.78 117.64 117.49 117.33 117.11 116.88 116.57 116.30 116.07 115.79 115.53 115.32 115.29 115.34
114.14 114.25 114.32 114.38 114.46 114.60 114.76 114.99 115.15 115.24 115.31 115.39 115.52 115.67 115.82 116.01 116.21 116.32 116.50 116.68 116.88 117.05 117.17 117.20 117.13 117.12 117.34 117.63 117.85 117.96 118.01 118.07 118.17 118.31 118.15 118.03 118.00 117.96 117.85 117.70 117.51 117.36 117.19 116.95 116.64 116.38 116.10 115.83 115.63 115.44 115.41 115.52
114.18 114.29 114.40 114.52 114.62 114.79 115.01 115.23 115.39 115.46 115.50 115.57 115.71 115.90 116.01 116.16 116.33 116.48 116.61 116.82 117.02 117.23 117.38 117.40 117.32 117.28 117.40 117.68 117.92 118.08 118.14 118.12 118.25 118.43 118.22 118.07 118.10 118.08 117.97 117.81 117.57 117.34 117.10 116.85 116.61 116.38 116.15 115.87 115.62 115.50 115.56 115.74
114.27 114.40 114.57 114.71 114.82 114.99 115.18 115.42 115.58 115.66 115.74 115.79 115.93 116.05 116.18 116.33 116.48 116.64 116.75 116.93 117.11 117.32 117.48 117.54 117.46 117.43 117.57 117.82 118.03 118.14 118.25 118.22 118.34 118.53 118.30 118.18 118.20 118.19 118.04 117.84 117.59 117.35 117.10 116.84 116.61 116.38 116.11 115.83 115.67 115.65 115.79 115.97
114.37 114.52 114.67 114.81 114.98 115.15 115.40 115.59 115.78 115.86 115.87 115.97 116.08 116.26 116.35 116.48 116.60 116.75 116.87 117.02 117.21 117.38 117.63 117.71 117.70 117.64 117.70 117.88 118.12 118.23 118.32 118.36 118.35 118.53 118.40 118.31 118.25 118.22 118.12 117.96 117.72 117.42 117.12 116.83 116.60 116.35 116.11 115.89 115.81 115.88 116.04 116.11
114.41 114.57 114.74 114.97 115.09 115.29 115.51 115.76 115.92 116.01 116.06 116.15 116.28 116.39 116.53 116.64 116.77 116.88 117.03 117.18 117.35 117.53 117.74 117.83 117.85 117.82 117.80 117.93 118.18 118.36 118.40 118.45 118.47 118.60 118.65 118.42 118.36 118.34 118.19 118.01 117.74 117.44 117.13 116.86 116.64 116.39 116.17 116.02 116.03 116.12 116.26 116.23
114.49 114.62 114.82 114.99 115.16 115.33 115.57 115.85 116.07 116.14 116.23 116.33 116.46 116.57 116.69 116.83 116.96 117.08 117.20 117.32 117.46 117.64 117.81 117.90 117.90 117.95 117.91 118.05 118.27 118.43 118.52 118.54 118.58 118.68 118.85 118.57 118.45 118.38 118.24 118.01 117.78 117.45 117.17 116.90 116.68 116.47 116.28 116.21 116.24 116.37 116.43 116.47
114.56 114.71 114.87 115.07 115.24 115.41 115.66 115.93 116.15 116.28 116.38 116.51 116.67 116.79 116.90 117.00 117.12 117.25 117.35 117.48 117.54 117.73 117.88 117.99 118.03 118.04 118.04 118.11 118.35 118.51 118.60 118.67 118.68 118.81 118.93 118.68 118.51 118.44 118.27 118.07 117.79 117.46 117.18 116.96 116.72 116.55 116.40 116.42 116.46 116.55 116.52 116.62
114.63 114.79 114.96 115.11 115.30 115.48 115.74 116.04 116.26 116.48 116.58 116.74 116.86 116.98 117.08 117.21 117.30 117.38 117.50 117.60 117.71 117.84 117.97 118.09 118.18 118.20 118.17 118.25 118.46 118.65 118.75 118.82 118.80 118.91 118.98 118.81 118.62 118.48 118.33 118.08 117.80 117.48 117.22 117.04 116.81 116.65 116.52 116.58 116.71 116.73 116.73 116.75
114.65 114.83 115.02 115.21 115.36 115.62 115.87 116.16 116.39 116.57 116.72 116.85 117.01 117.09 117.21 117.33 117.44 117.53 117.66 117.75 117.85 117.98 118.10 118.21 118.34 118.38 118.36 118.42 118.55 118.75 118.86 118.90 118.89 118.92 119.00 118.89 118.81 118.54 118.38 118.15 117.86 117.56 117.32 117.11 116.88 116.68 116.65 116.71 116.83 116.83 116.94 117.07
114.76 114.94 115.15 115.34 115.57 115.75 116.00 116.28 116.53 116.70 116.83 116.97 117.12 117.26 117.39 117.50 117.58 117.71 117.82 117.91 118.01 118.14 118.27 118.40 118.51 118.56 118.57 118.59 118.70 118.81 118.97 119.01 119.06 119.04 119.08 119.14 118.88 118.66 118.50 118.24 117.92 117.64 117.40 117.18 116.93 116.76 116.78 116.86 116.75 116.68 116.96 117.26
114.89 115.07 115.27 115.46 115.69 115.90 116.13 116.41 116.65 116.83 116.96 117.11 117.25 117.40 117.53 117.68 117.76 117.91 118.02 118.14 118.24 118.35 118.45 118.55 118.67 118.74 118.78 118.81 118.88 119.01 119.11 119.15 119.17 119.20 119.20 119.26 119.04 118.83 118.61 118.34 118.00 117.71 117.46 117.24 117.01 116.85 116.89 116.99 116.85 116.71 117.08 117.50
115.03 115.19 115.39 115.56 115.75 115.99 116.24 116.54 116.79 116.94 117.08 117.26 117.43 117.58 117.74 117.89 118.00 118.13 118.26 118.35 118.48 118.56 118.61 118.73 118.85 118.97 119.04 119.00 119.02 119.13 119.25 119.29 119.28 119.28 119.35 119.37 119.23 119.01 118.79 118.52 118.17 117.87 117.58 117.34 117.08 116.94 117.06 117.16 117.29 117.43 117.68 117.82
115.09 115.23 115.41 115.62 115.84 116.07 116.31 116.60 116.88 117.06 117.23 117.41 117.63 117.77 117.94 118.08 118.21 118.34 118.48 118.57 118.69 118.79 118.86 118.92 119.00 119.08 119.11 119.11 119.09 119.25 119.36 119.42 119.38 119.38 119.43 119.49 119.34 119.15 118.97 118.72 118.39 118.04 117.74 117.43 117.16 117.09 117.23 117.37 117.66 117.88 117.99 118.02
115.17 115.33 115.48 115.64 115.85 116.09 116.35 116.62 116.92 117.15 117.35 117.58 117.77 117.96 118.10 118.27 118.38 118.54 118.63 118.75 118.86 118.96 118.97 119.03 119.08 119.13 119.19 119.21 119.25 119.34 119.46 119.49 119.51 119.48 119.50 119.54 119.44 119.31 119.07 118.81 118.47 118.14 117.86 117.55 117.27 117.23 117.34 117.58 117.89 118.08 118.16 118.19
115.29 115.41 115.62 115.79 116.00 116.24 116.43 116.74 116.99 117.25 117.44 117.67 117.85 118.06 118.23 118.39 118.50 118.62 118.72 118.81 118.96 119.04 119.12 119.16 119.25 119.26 119.34 119.37 119.41 119.48 119.57 119.57 119.58 119.53 119.57 119.62 119.67 119.45 119.12 118.86 118.55 118.24 117.94 117.64 117.40 117.34 117.46 117.76 118.08 118.26 118.31 118.37
115.46 115.66 115.85 116.04 116.25 116.46 116.68 116.93 117.21 117.42 117.58 117.79 117.98 118.15 118.34 118.44 118.58 118.68 118.81 118.94 119.11 119.25 119.31 119.37 119.41 119.46 119.50 119.53 119.51 119.60 119.68 119.68 119.65 119.65 119.64 119.65 119.73 119.50 119.20 118.90 118.59 118.27 118.02 117.73 117.52 117.42 117.58 117.93 118.22 118.41 118.49 118.56
115.67 115.84 116.03 116.23 116.44 116.66 116.87 117.14 117.42 117.57 117.69 117.88 118.05 118.25 118.43 118.58 118.70 118.87 118.99 119.13 119.28 119.41 119.49 119.53 119.55 119.58 119.58 119.63 119.63 119.70 119.76 119.82 119.80 119.76 119.72 119.73 119.86 119.62 119.28 118.97 118.65 118.35 118.10 117.86 117.59 117.52 117.70 118.06 118.33 118.54 118.63 118.74
115.78 115.94 116.14 116.38 116.64 116.83 117.07 117.35 117.59 117.72 117.82 117.98 118.19 118.42 118.59 118.71 118.85 119.01 119.13 119.30 119.42 119.54 119.62 119.67 119.67 119.65 119.68 119.70 119.78 119.84 119.89 119.93 119.94 119.91 119.86 119.84 119.90 119.70 119.40 119.06 118.75 118.44 118.19 117.93 117.67 117.57 117.77 118.10 118.37 118.62 118.78 118.88
115.96 116.16 116.37 116.62 116.83 117.03 117.25 117.54 117.76 117.89 118.01 118.19 118.37 118.59 118.74 118.89 119.01 119.12 119.28 119.43 119.58 119.69 119.77 119.76 119.80 119.82 119.86 119.85 119.92 119.96 120.04 120.08 120.09 120.05 119.98 119.95 119.98 119.81 119.49 119.16 118.83 118.54 118.26 118.00 117.77 117.66 117.79 118.14 118.46 118.71 118.89 118.99
116.14 116.37 116.53 116.76 116.98 117.19 117.49 117.78 118.04 118.15 118.25 118.36 118.60 118.70 118.86 119.00 119.17 119.28 119.46 119.60 119.74 119.87 119.97 119.96 119.94 119.99 120.00 120.02 120.03 120.07 120.12 120.18 120.18 120.09 120.02 119.98 120.03 120.00 119.58 119.24 118.88 118.61 118.33 118.07 117.85 117.75 117.87 118.18 118.48 118.77 119.01 119.14
116.29 116.49 116.70 116.97 117.23 117.43 117.72 117.95 118.22 118.33 118.41 118.53 118.74 118.88 119.03 119.19 119.30 119.49 119.62 119.80 119.91 120.07 120.11 120.13 120.08 120.08 120.06 120.06 120.07 120.10 120.15 120.20 120.19 120.12 120.08 120.01 120.04 120.05 119.65 119.28 118.97 118.67 118.38 118.14 117.93 117.80 117.93 118.19 118.53 118.82 119.05 119.18
116.49 116.69 116.92 117.18 117.39 117.61 117.88 118.15 118.38 118.52 118.56 118.73 118.90 119.05 119.21 119.38 119.51 119.68 119.81 119.96 120.08 120.18 120.23 120.22 120.20 120.18 120.15 120.16 120.20 120.20 120.19 120.24 120.22 120.15 120.11 119.99 120.05 120.13 119.73 119.34 119.02 118.71 118.43 118.18 117.97 117.88 118.03 118.24 118.49 118.77 119.00 119.17
116.62 116.82 117.08 117.33 117.52 117.78 118.02 118.31 118.51 118.67 118.75 118.91 119.13 119.23 119.39 119.56 119.68 119.79 119.93 120.06 120.18 120.28 120.34 120.30 120.31 120.29 120.28 120.26 120.30 120.29 120.30 120.35 120.32 120.26 120.19 120.15 120.07 120.10 119.75 119.44 119.07 118.79 118.51 118.26 118.07 117.97 118.12 118.30 118.50 118.76 118.97 119.15
116.83 117.01 117.26 117.50 117.71 117.93 118.15 118.46 118.72 118.90 118.99 119.09 119.32 119.40 119.57 119.71 119.83 119.94 120.10 120.19 120.32 120.44 120.50 120.49 120.45 120.40 120.38 120.38 120.41 120.42 120.44 120.49 120.45 120.38 120.30 120.22 120.15 120.12 119.85 119.49 119.14 118.85 118.58 118.33 118.15 118.07 118.21 118.42 118.62 118.84 119.05 119.20
117.05 117.20 117.42 117.65 117.89 118.12 118.36 118.62 118.90 119.09 119.24 119.34 119.51 119.65 119.76 119.94 119.97 120.15 120.29 120.43 120.54 120.64 120.65 120.64 120.58 120.53 120.52 120.54 120.56 120.58 120.62 120.64 120.60 120.50 120.43 120.29 120.19 120.17 120.06 119.60 119.22 118.92 118.66 118.43 118.22 118.15 118.37 118.62 118.79 118.98 119.15 119.30
117.26 117.40 117.61 117.85 118.09 118.31 118.51 118.76 119.05 119.31 119.46 119.60 119.72 119.86 120.04 120.19 120.27 120.37 120.47 120.57 120.68 120.74 120.77 120.75 120.76 120.71 120.73 120.71 120.74 120.74 120.77 120.73 120.64 120.56 120.46 120.33 120.19 120.22 120.18 119.68 119.30 118.95 118.74 118.51 118.31 118.28 118.47 118.69 118.89 119.09 119.22 119.41
117.53 117.67 117.79 118.01 118.22 118.44 118.62 118.88 119.15 119.43 119.61 119.76 119.89 120.03 120.15 120.29 120.39 120.44 120.54 120.62 120.74 120.79 120.86 120.91 120.89 120.85 120.77 120.74 120.67 120.72 120.72 120.73 120.70 120.66 120.56 120.44 120.28 120.28 120.30 119.76 119.41 119.05 118.82 118.61 118.43 118.37 118.48 118.68 118.97 119.25 119.52 119.73
116.40 117.76 117.91 118.12 118.33 118.53 118.71 118.91 119.20 119.47 119.68 119.83 119.93 120.03 120.15 120.28 120.38 120.48 120.60 120.68 120.78 120.87 120.91 120.96 120.92 120.80 120.73 120.65 120.60 120.66 120.71 120.75 120.79 120.75 120.68 120.59 120.47 120.33 120.29 119.81 119.50 119.16 118.93 118.71 118.54 118.51 118.71 118.99 119.28 119.54 119.74 119.85
117.71 117.89 118.08 118.21 118.44 118.64 118.84 119.02 119.27 119.51 119.71 119.85 119.93 120.02 120.17 120.29 120.47 120.58 120.66 120.77 120.85 120.90 120.96 120.96 120.93 120.79 120.68 120.61 120.61 120.68 120.76 120.77 120.87 120.88 120.85 120.72 120.56 120.42 120.30 119.97 119.55 119.26 119.03 118.81 118.67 118.81 119.02 119.23 119.43 119.65 119.85 119.96
117.86 117.43 118.18 118.35 118.54 118.76 118.95 119.13 119.34 119.58 119.79 119.93 120.04 120.13 120.26 120.38 120.53 120.65 120.75 120.82 120.90 120.96 121.00 120.99 120.97 120.86 120.77 120.67 120.61 120.73 120.83 120.93 120.94 120.94 120.85 120.74 120.56 120.41 120.31 120.19 119.64 119.28 119.10 118.93 118.84 118.96 119.16 119.35 119.56 119.76 119.91 120.04
118.10 117.71 118.33 118.46 118.67 118.87 119.06 119.27 119.51 119.76 119.97 120.08 120.17 120.25 120.37 120.49 120.63 120.72 120.82 120.88 120.97 121.04 121.09 121.12 121.04 121.01 120.88 120.82 120.78 120.86 120.95 120.99 121.01 120.95 120.88 120.77 120.65 120.50 120.40 120.25 119.89 119.41 119.15 119.01 118.93 119.08 119.26 119.40 119.64 119.83 119.98 120.07
118.29 118.40 118.52 118.65 118.84 119.04 119.27 119.47 119.68 119.88 120.10 120.19 120.26 120.35 120.45 120.59 120.69 120.79 120.89 121.00 121.08 121.13 121.18 121.20 121.21 121.15 121.07 120.99 120.96 120.97 121.04 121.07 121.13 121.07 121.00 120.90 120.75 120.54 120.47 120.35 119.85 119.43 119.24 119.08 119.04 119.19 119.33 119.48 119.67 119.90 120.05 120.15
118.35 118.45 117.89 118.83 118.97 119.21 119.43 119.62 119.78 119.99 120.17 120.30 120.33 120.45 120.54 120.67 120.79 120.86 120.98 121.09 121.18 121.25 121.29 121.30 121.28 121.25 121.18 121.12 121.12 121.15 121.19 121.23 121.21 121.17 121.07 120.96 120.78 120.64 120.50 120.39 119.91 119.51 119.31 119.12 119.11 119.29 119.45 119.57 119.75 119.95 120.11 120.26
118.33 118.36 118.34 119.05 119.20 119.37 119.58 119.81 119.96 120.14 120.31 120.41 120.46 120.56 120.64 120.75 120.86 120.96 121.10 121.20 121.28 121.31 121.37 121.41 121.35 121.36 121.35 121.30 121.31 121.30 121.34 121.36 121.33 121.25 121.12 120.99 120.85 120.66 120.49 120.43 120.17 119.62 119.36 119.22 119.23 119.40 119.52 119.68 119.85 120.02 120.17 120.29
118.38 118.54 118.69 119.26 119.40 119.60 119.83 120.01 120.20 120.32 120.44 120.51 120.58 120.64 120.74 120.85 120.98 121.07 121.15 121.25 121.32 121.40 121.47 121.52 121.50 121.51 121.46 121.42 121.41 121.40 121.40 121.44 121.38 121.30 121.15 121.01 120.88 120.69 120.53 120.46 120.27 119.65 119.40 119.28 119.29 119.45 119.58 119.74 119.90 120.04 120.17 120.29
118.91 119.10 119.40 118.89 119.61 119.74 119.95 120.12 120.25 120.39 120.47 120.58 120.66 120.75 120.79 120.92 121.03 121.15 121.25 121.37 121.47 121.54 121.61 121.65 121.62 121.58 121.53 121.46 121.49 121.47 121.50 121.49 121.49 121.35 121.23 121.05 120.90 120.71 120.54 120.47 120.34 119.79 119.43 119.32 119.34 119.47 119.59 119.74 119.81 119.89 120.00 120.11
119.14 119.32 119.54 119.60 119.78 119.87 119.97 120.14 120.27 120.44 120.53 120.64 120.71 120.79 120.88 121.01 121.17 121.30 121.42 121.49 121.62 121.64 121.71 121.68 121.71 121.66 121.61 121.56 121.58 121.59 121.58 121.59 121.51 121.40 121.24 121.06 120.88 120.68 120.46 120.44 120.43 119.91 119.54 119.39 119.38 119.38 119.46 119.57 119.73 119.88 120.04 120.20
119.14 119.28 119.46 119.65 119.91 119.96 120.03 120.18 120.32 120.47 120.55 120.67 120.86 120.93 121.07 121.18 121.33 121.45 121.53 121.58 121.67 121.71 121.74 121.77 121.75 121.74 121.70 121.68 121.69 121.67 121.67 121.67 121.57 121.43 121.25 121.06 120.86 120.69 120.56 120.48 120.42 120.01 119.78 119.63 119.33 119.35 119.46 119.64 119.82 119.98 120.15 120.32
119.21 119.29 119.44 119.76 119.14 120.03 120.09 120.21 120.38 120.56 120.71 120.84 121.03 121.18 121.29 121.40 121.46 121.54 121.62 121.67 121.72 121.79 121.84 121.87 121.86 121.86 121.79 121.78 121.73 121.71 121.67 121.66 121.57 121.44 121.30 121.15 120.99 120.85 120.59 120.48 120.40 120.25 119.90 119.62 119.47 119.44 119.57 119.74 119.92 120.09 120.29 120.47
119.30 119.40 119.49 119.77 119.54 120.14 120.17 120.36 120.53 120.71 120.84 121.01 121.19 121.36 121.46 121.59 121.64 121.70 121.74 121.81 121.87 121.92 121.94 121.94 121.96 121.92 121.84 121.78 121.76 121.69 121.71 121.71 121.70 121.60 121.43 121.26 121.11 120.84 120.63 120.45 120.43 120.39 119.93 119.76 119.56 119.55 119.67 119.86 120.01 120.18 120.38 120.57
119.39 119.50 119.58 119.79 120.01 120.19 120.32 120.47 120.62 120.80 120.93 121.11 121.28 121.47 121.56 121.68 121.72 121.77 121.85 121.87 122.00 122.03 122.02 122.00 121.98 121.92 121.86 121.84 121.86 121.88 121.86 121.83 121.82 121.68 121.46 121.28 121.08 120.85 120.63 120.44 120.38 120.46 120.01 119.87 119.74 119.67 119.75 119.93 120.09 120.31 120.47 120.67
119.47 119.57 119.69 119.85 120.08 120.24 120.40 120.52 120.69 120.85 121.02 121.14 121.32 121.44 121.54 121.67 121.75 121.82 121.92 121.96 122.02 122.07 122.01 122.04 122.04 122.07 122.07 122.02 121.99 122.01 121.93 121.91 121.85 121.73 121.49 121.28 121.04 120.89 120.68 120.50 120.40 120.49 120.18 120.00 119.83 119.75 119.83 120.02 120.23 120.43 120.65 120.83
