ncols 52
nrows 52
xllcorner 443904
yllcorner 5713408
cellsize 10
NODATA_value -9999
119.47 119.60 119.70 119.84 120.08 120.28 120.42 120.56 120.70 120.88 121.02 121.16 121.30 121.44 121.55 121.68 121.75 121.82 121.92 121.96 122.02 122.04 122.06 122.08 122.07 122.12 122.08 122.01 122.05 121.98 121.93 121.92 121.87 121.71 121.51 121.25 121.08 120.88 120.69 120.53 120.37 120.48 120.13 119.92 119.83 119.79 119.85 120.03 120.26 120.47 120.67 120.85
119.58 119.71 119.78 119.91 120.18 120.49 120.55 120.64 120.79 120.94 121.10 121.22 121.36 121.46 121.60 121.70 121.80 121.81 121.95 121.99 122.09 122.19 122.25 122.26 122.30 122.32 122.23 122.18 122.12 122.07 121.98 121.96 121.90 121.80 121.57 121.32 121.12 120.93 120.76 120.56 120.49 120.50 120.28 120.05 119.93 119.87 119.93 120.11 120.34 120.56 120.77 121.01
119.71 119.79 119.89 120.02 120.29 119.89 120.67 120.76 120.89 121.01 121.18 121.28 121.40 121.51 121.63 121.72 121.84 121.94 122.09 122.18 122.22 122.40 122.44 122.46 122.48 122.46 122.42 122.33 122.26 122.21 122.14 122.11 122.04 121.91 121.67 121.40 121.19 121.00 120.83 120.66 120.60 120.60 120.52 120.27 120.08 120.01 120.04 120.20 120.40 120.62 120.85 121.07
119.82 119.93 120.03 120.15 120.34 120.39 120.74 120.83 120.97 121.11 121.25 121.35 121.49 121.60 121.75 121.88 122.00 122.12 122.24 122.29 122.39 122.45 122.54 122.54 122.57 122.56 122.54 122.45 122.37 122.32 122.24 122.21 122.12 122.00 121.72 121.44 121.25 121.10 120.89 120.75 120.63 120.63 120.68 120.43 120.18 120.12 120.17 120.36 120.53 120.71 120.94 121.15
119.93 120.05 120.16 120.27 120.49 120.72 120.82 120.88 121.03 121.21 121.33 121.50 121.61 121.72 121.94 122.04 122.10 122.22 122.31 122.35 122.39 122.47 122.55 122.58 122.59 122.53 122.49 122.41 122.35 122.29 122.23 122.15 122.10 121.97 121.73 121.50 121.33 121.17 120.97 120.81 120.71 120.61 120.77 120.56 120.26 120.23 120.35 120.55 120.68 120.81 120.98 121.21
120.12 120.20 120.32 120.40 120.57 120.82 120.93 121.11 121.17 121.29 121.47 121.66 121.74 121.87 121.97 122.10 122.18 122.28 122.33 122.41 122.47 122.50 122.57 122.57 122.56 122.53 122.48 122.40 122.32 122.24 122.21 122.15 122.13 121.99 121.78 121.55 121.37 121.23 121.06 120.90 120.78 120.72 120.83 120.59 120.39 120.35 120.50 120.77 120.91 120.96 121.03 120.97
120.24 120.33 120.45 120.57 120.69 120.97 120.86 121.28 121.43 121.55 121.59 121.68 121.80 121.89 122.04 122.14 122.26 122.37 122.40 122.46 122.50 122.55 122.60 122.62 122.55 122.54 122.49 122.41 122.34 122.28 122.21 122.16 122.10 122.00 121.83 121.58 121.43 121.26 121.14 120.98 120.83 120.80 120.90 120.67 120.57 120.49 120.63 120.84 120.98 121.06 121.00 120.81
120.40 120.53 120.67 120.75 120.88 121.06 120.59 121.56 121.68 121.67 121.66 121.75 121.87 122.01 122.13 122.22 122.32 122.43 122.47 122.54 122.59 122.61 122.64 122.68 122.65 122.61 122.54 122.48 122.35 122.26 122.21 122.15 122.09 122.01 121.81 121.61 121.45 121.28 121.18 121.03 120.91 120.80 120.97 120.76 120.56 120.52 120.65 120.88 121.12 121.15 121.39 120.88
120.64 120.76 120.86 120.97 121.01 121.21 120.75 121.67 121.72 121.74 121.79 121.89 122.00 122.14 122.25 122.32 122.44 122.50 122.57 122.60 122.65 122.66 122.71 122.71 122.70 122.64 122.59 122.52 122.38 122.30 122.21 122.15 122.10 122.02 121.84 121.65 121.49 121.33 121.25 121.13 120.92 120.96 121.00 120.87 120.64 120.63 120.78 120.92 121.13 121.26 120.88 120.82
120.79 120.88 120.95 121.02 121.10 121.28 121.35 121.77 121.75 121.80 121.89 122.02 122.17 122.28 122.38 122.49 122.58 122.61 122.64 122.64 122.69 122.71 122.73 122.77 122.74 122.70 122.65 122.53 122.44 122.33 122.22 122.17 122.11 122.01 121.87 121.73 121.57 121.39 121.32 121.21 121.11 121.10 121.05 120.90 120.80 120.75 120.89 121.07 121.27 121.39 121.30 120.66
120.88 120.97 121.06 121.14 121.20 121.36 121.58 121.79 121.79 121.89 121.99 122.12 122.23 122.38 122.50 122.64 122.71 122.73 122.71 122.72 122.78 122.77 122.82 122.84 122.82 122.80 122.72 122.61 122.48 122.35 122.25 122.20 122.16 122.03 121.93 121.78 121.63 121.48 121.40 121.26 121.19 121.20 121.11 121.01 120.88 120.90 121.03 121.19 121.39 121.60 121.78 121.57
121.00 121.06 121.15 121.24 121.32 121.46 121.58 121.81 121.81 121.93 122.05 122.17 122.26 122.43 122.58 122.74 122.83 122.87 122.86 122.90 122.90 122.93 122.92 122.93 122.90 122.86 122.76 122.67 122.60 122.48 122.32 122.30 122.26 122.18 122.01 121.84 121.68 121.60 121.51 121.40 121.31 121.33 121.17 121.07 120.91 121.05 121.18 121.34 121.50 121.64 121.72 121.97
121.11 121.18 121.28 121.40 121.46 121.58 121.76 121.82 121.85 121.95 122.08 122.18 122.31 122.48 122.65 122.88 123.01 123.06 123.07 123.08 123.09 123.10 123.09 123.04 123.05 122.99 122.87 122.82 122.78 122.66 122.56 122.47 122.38 122.29 122.12 121.96 121.82 121.68 121.58 121.46 121.35 121.43 121.26 121.04 121.01 121.17 121.28 121.41 121.67 121.80 121.96 122.01
121.25 121.31 121.41 121.51 121.58 121.65 121.90 121.96 121.95 122.03 122.11 122.26 122.43 122.55 122.76 122.94 123.10 123.13 123.15 123.15 123.19 123.24 123.21 123.18 123.18 123.18 123.11 123.06 123.01 122.91 122.76 122.65 122.57 122.43 122.22 122.05 121.92 121.76 121.64 121.50 121.43 121.47 121.33 121.23 121.21 121.33 121.45 121.66 121.75 121.85 121.97 122.12
121.33 121.40 121.46 121.59 121.68 121.75 122.01 121.41 122.14 122.13 122.23 122.38 122.53 122.66 122.84 123.02 123.09 123.15 123.16 123.12 123.21 123.27 123.29 123.32 123.32 123.29 123.25 123.19 123.14 123.10 122.94 122.78 122.71 122.50 122.30 122.10 121.97 121.84 121.69 121.60 121.53 121.58 121.34 121.35 121.35 121.39 121.53 121.71 121.89 122.03 122.12 122.25
121.50 121.53 121.59 121.67 121.81 121.90 122.08 121.68 122.25 122.18 122.33 122.44 122.57 122.71 122.92 123.07 123.14 123.18 123.21 123.25 123.29 123.33 123.38 123.38 123.39 123.35 123.29 123.25 123.21 123.19 123.03 122.89 122.75 122.60 122.39 122.20 122.11 121.98 121.86 121.76 121.60 121.68 121.44 121.36 121.41 121.53 121.67 121.86 122.04 122.19 122.29 122.42
121.64 121.68 121.72 121.82 121.93 121.99 122.07 122.22 122.32 122.23 122.39 122.50 122.60 122.76 122.97 123.21 123.29 123.29 123.32 123.35 123.40 123.44 123.44 123.45 123.42 123.42 123.33 123.29 123.31 123.29 123.16 123.03 122.87 122.74 122.54 122.36 122.23 122.08 121.96 121.80 121.65 121.79 121.55 121.51 121.51 121.65 121.85 122.04 122.23 122.34 122.45 122.58
121.81 121.85 121.85 121.93 122.00 122.05 122.16 122.25 122.25 122.30 122.43 122.59 122.75 122.91 123.14 123.34 123.41 123.42 123.43 123.46 123.48 123.50 123.54 123.51 123.51 123.45 123.36 123.36 123.37 123.41 123.33 123.22 123.07 122.91 122.69 122.49 122.34 122.18 122.00 121.88 121.76 121.87 121.64 121.66 121.65 121.83 122.02 122.19 122.35 122.45 122.57 122.71
121.95 121.98 121.97 122.02 122.10 122.14 122.21 122.40 122.41 122.46 122.55 122.71 122.89 123.05 123.28 123.46 123.50 123.49 123.47 123.52 123.54 123.54 123.56 123.55 123.53 123.45 123.44 123.44 123.48 123.47 123.38 123.32 123.18 123.02 122.81 122.61 122.43 122.29 122.12 122.01 121.92 121.96 121.79 121.79 121.81 121.95 122.15 122.29 122.45 122.60 122.70 122.85
122.07 122.12 122.11 122.12 122.19 122.25 122.31 122.52 122.57 122.59 122.66 122.83 123.00 123.17 123.31 123.47 123.54 123.53 123.56 123.57 123.58 123.60 123.63 123.58 123.57 123.55 123.50 123.49 123.50 123.45 123.34 123.26 123.16 123.02 122.87 122.71 122.60 122.44 122.29 122.14 122.04 122.11 121.94 121.91 121.96 122.13 122.28 122.42 122.57 122.71 122.84 122.97
122.24 122.28 122.28 122.29 122.35 122.40 122.44 122.58 122.40 122.69 122.76 122.92 123.10 123.25 123.40 123.55 123.61 123.63 123.64 123.64 123.68 123.70 123.69 123.68 123.65 123.61 123.58 123.58 123.54 123.42 123.31 123.24 123.15 123.04 122.94 122.81 122.68 122.52 122.39 122.20 122.10 122.22 122.14 122.13 122.18 122.34 122.46 122.57 122.70 122.84 122.97 123.11
122.35 122.39 122.36 122.35 122.42 122.47 122.47 122.63 122.83 122.79 122.89 123.03 123.19 123.33 123.50 123.65 123.70 123.74 123.75 123.77 123.80 123.79 123.79 123.76 123.73 123.68 123.67 123.65 123.59 123.47 123.36 123.30 123.21 123.11 123.00 122.87 122.72 122.54 122.43 122.22 122.19 122.34 122.29 122.31 122.34 122.49 122.64 122.79 122.84 122.99 123.09 123.23
122.43 122.47 122.45 122.46 122.48 122.54 122.58 122.68 122.86 122.83 122.90 123.07 123.20 123.36 123.54 123.68 123.75 123.78 123.78 123.80 123.82 123.85 123.83 123.81 123.76 123.76 123.80 123.81 123.67 123.54 123.44 123.36 123.26 123.09 122.97 122.84 122.71 122.57 122.44 122.26 122.21 122.42 122.35 122.36 122.35 122.46 122.68 122.84 122.99 123.12 123.23 123.35
122.54 122.56 122.54 122.56 122.61 122.68 122.75 122.79 123.04 122.76 123.06 123.10 123.29 123.49 123.66 123.81 123.84 123.85 123.82 123.83 123.82 123.83 123.82 123.82 123.83 123.84 123.88 123.87 123.74 123.60 123.44 123.37 123.20 123.10 122.98 122.87 122.74 122.63 122.49 122.35 122.38 122.54 122.46 122.47 122.46 122.55 122.74 122.93 123.08 123.21 123.35 123.48
122.63 122.69 122.71 122.76 122.82 122.88 122.94 122.96 123.11 123.08 123.12 123.19 123.40 123.57 123.72 123.86 123.89 123.84 123.83 123.87 123.90 123.93 123.95 123.95 123.95 123.96 123.96 123.89 123.74 123.54 123.46 123.35 123.26 123.15 123.05 122.94 122.83 122.72 122.57 122.46 122.50 122.67 122.62 122.62 122.62 122.71 122.89 123.07 123.19 123.34 123.47 123.60
122.71 122.79 122.88 122.93 122.98 123.06 123.10 123.10 123.13 123.24 123.11 123.24 123.42 123.54 123.71 123.85 123.89 123.92 123.90 123.96 124.00 124.01 124.03 124.02 123.98 124.03 123.97 123.90 123.75 123.64 123.52 123.43 123.32 123.22 123.11 123.04 122.91 122.77 122.63 122.60 122.67 122.77 122.79 122.82 122.86 122.92 123.04 123.15 123.27 123.41 123.57 123.73
122.72 122.82 122.87 122.92 122.99 123.08 123.17 123.21 123.15 123.29 122.93 123.35 123.40 123.53 123.74 123.90 123.99 123.98 123.99 124.01 124.03 124.02 124.09 124.04 124.08 124.10 124.08 123.96 123.84 123.73 123.61 123.51 123.41 123.31 123.22 123.09 122.97 122.85 122.72 122.68 122.83 122.89 122.90 123.00 123.06 123.14 123.17 123.24 123.33 123.49 123.65 123.82
122.76 122.83 122.92 122.99 123.04 123.12 123.21 123.27 123.24 123.29 123.43 123.35 123.40 123.62 123.82 123.98 124.04 124.03 124.02 124.02 124.04 124.08 124.09 124.10 124.14 124.18 124.16 124.04 123.90 123.82 123.72 123.61 123.47 123.36 123.26 123.15 123.02 122.90 122.78 122.78 122.93 122.98 122.96 123.10 123.26 123.36 123.38 123.40 123.46 123.66 123.79 123.98
122.75 122.82 122.87 122.95 123.04 123.13 123.25 123.32 123.38 123.39 123.54 123.42 123.57 123.68 123.88 124.03 124.03 124.05 124.08 124.10 124.10 124.12 124.13 124.17 124.22 124.25 124.21 124.10 124.00 123.89 123.78 123.66 123.55 123.42 123.33 123.22 123.11 122.96 122.86 122.89 123.04 123.08 123.05 123.18 123.38 123.52 123.59 123.69 123.74 123.73 123.85 124.10
122.77 122.85 122.93 123.02 123.13 123.22 123.35 123.46 123.52 123.51 123.65 123.62 123.53 123.74 123.91 124.07 124.14 124.14 124.15 124.17 124.18 124.18 124.19 124.25 124.30 124.31 124.23 124.15 124.04 123.94 123.82 123.72 123.61 123.49 123.40 123.28 123.18 123.03 122.97 123.06 123.18 123.13 123.19 123.33 123.52 123.64 123.68 123.87 123.92 123.94 124.05 124.27
122.82 122.88 122.95 123.04 123.18 123.29 123.44 123.58 123.70 123.73 123.79 123.73 123.68 123.96 123.99 124.14 124.19 124.21 124.23 124.26 124.28 124.27 124.28 124.31 124.35 124.33 124.26 124.18 124.09 124.01 123.89 123.79 123.66 123.57 123.46 123.36 123.23 123.10 123.09 123.18 123.29 123.21 123.34 123.32 123.53 123.67 123.95 124.08 124.12 124.11 124.20 124.31
122.87 122.95 123.04 123.13 123.25 123.37 123.55 123.70 123.78 123.80 123.82 123.85 123.49 123.93 123.98 124.09 124.19 124.24 124.29 124.29 124.29 124.32 124.36 124.40 124.43 124.39 124.31 124.22 124.15 124.05 123.96 123.84 123.74 123.63 123.54 123.43 123.29 123.20 123.21 123.28 123.44 123.39 123.57 123.61 123.68 123.77 123.92 123.97 124.04 124.12 124.35 124.46
122.95 123.04 123.14 123.23 123.35 123.46 123.58 123.71 123.78 123.81 123.75 123.83 123.89 123.85 123.98 124.05 124.11 124.17 124.21 124.25 124.29 124.37 124.44 124.52 124.53 124.46 124.36 124.28 124.21 124.11 124.00 123.89 123.81 123.69 123.61 123.49 123.38 123.31 123.35 123.45 123.60 123.59 123.71 123.69 123.78 123.79 123.82 124.12 124.21 124.34 124.47 124.60
122.99 123.08 123.21 123.29 123.40 123.53 123.61 123.71 123.77 123.81 123.80 123.83 123.99 123.47 123.98 123.97 124.08 124.13 124.19 124.22 124.30 124.38 124.44 124.52 124.53 124.48 124.40 124.32 124.25 124.17 124.06 123.95 123.86 123.77 123.69 123.57 123.48 123.43 123.48 123.62 123.76 123.82 123.82 123.86 123.98 124.07 124.18 124.12 124.16 124.29 124.49 124.64
123.02 123.12 123.25 123.34 123.45 123.58 123.67 123.78 123.83 123.88 123.92 123.96 124.03 124.06 124.01 124.05 124.10 124.18 124.24 124.28 124.32 124.39 124.43 124.46 124.47 124.48 124.44 124.38 124.32 124.23 124.12 124.04 123.96 123.84 123.76 123.65 123.57 123.54 123.58 123.74 123.87 124.02 124.04 124.08 124.10 124.19 124.25 124.27 124.25 124.32 124.49 124.71
123.10 123.23 123.31 123.44 123.53 123.60 123.73 123.85 123.91 123.94 124.01 124.07 124.08 124.19 124.05 124.17 124.13 124.22 124.29 124.35 124.42 124.45 124.47 124.49 124.49 124.49 124.49 124.46 124.38 124.28 124.17 124.10 124.00 123.92 123.81 123.72 123.66 123.67 123.74 123.84 124.07 124.10 124.12 124.16 124.21 124.27 124.35 124.42 124.46 124.51 124.61 124.75
123.17 123.30 123.38 123.49 123.59 123.69 123.78 123.87 123.94 124.01 124.09 124.16 124.13 124.26 124.23 124.19 124.21 124.31 124.40 124.48 124.53 124.55 124.54 124.55 124.56 124.55 124.52 124.49 124.42 124.31 124.23 124.16 124.08 123.98 123.89 123.82 123.78 123.79 123.88 123.93 124.24 124.18 124.17 124.24 124.32 124.42 124.54 124.62 124.69 124.74 124.76 124.82
123.24 123.35 123.46 123.56 123.62 123.74 123.87 123.94 124.01 124.10 124.19 124.25 124.24 124.28 124.38 124.23 124.42 124.43 124.52 124.59 124.62 124.62 124.63 124.62 124.60 124.58 124.55 124.52 124.44 124.36 124.30 124.25 124.15 124.04 123.98 123.94 123.93 123.94 123.99 124.11 124.37 124.29 124.27 124.37 124.45 124.57 124.71 124.82 124.92 124.97 124.96 124.97
123.41 123.48 123.57 123.65 123.74 123.84 123.94 124.04 124.14 124.21 124.33 124.36 124.39 124.39 124.55 124.22 124.51 124.49 124.59 124.65 124.68 124.67 124.67 124.67 124.64 124.63 124.63 124.58 124.52 124.43 124.40 124.36 124.26 124.12 124.06 124.07 124.09 124.11 124.14 124.26 124.52 124.46 124.43 124.49 124.60 124.73 124.89 125.04 125.15 125.19 125.19 125.15
123.56 123.69 123.76 123.86 123.96 124.02 124.12 124.19 124.33 124.42 124.49 124.53 124.54 124.53 124.63 124.64 124.57 124.55 124.65 124.69 124.69 124.68 124.74 124.79 124.80 124.79 124.72 124.67 124.59 124.55 124.50 124.43 124.33 124.24 124.18 124.20 124.26 124.28 124.28 124.42 124.65 124.60 124.56 124.65 124.75 124.89 125.03 125.18 125.31 125.39 125.33 125.27
123.75 123.86 123.98 124.05 124.12 124.20 124.27 124.42 124.53 124.60 124.69 124.73 124.76 124.74 124.78 124.78 124.58 124.63 124.70 124.73 124.73 124.74 124.82 124.90 124.98 124.97 124.90 124.78 124.67 124.63 124.61 124.53 124.42 124.33 124.32 124.33 124.40 124.44 124.43 124.57 124.79 124.72 124.71 124.81 124.89 125.02 125.15 125.29 125.43 125.52 125.50 125.46
123.84 123.97 124.04 124.13 124.23 124.25 124.35 124.47 124.63 124.71 124.77 124.83 124.84 124.83 124.81 124.92 124.71 124.71 124.71 124.79 124.76 124.82 124.90 124.98 125.04 125.06 125.05 124.96 124.86 124.81 124.73 124.63 124.54 124.47 124.45 124.46 124.53 124.58 124.59 124.72 124.95 124.91 124.88 124.96 125.03 125.15 125.29 125.42 125.55 125.65 125.66 125.64
123.88 123.99 124.10 124.18 124.23 124.30 124.40 124.53 124.62 124.72 124.78 124.84 124.86 124.85 124.81 124.92 124.51 124.88 124.82 124.85 124.85 124.88 124.93 124.98 125.03 125.08 125.12 125.07 125.03 125.00 124.92 124.81 124.70 124.64 124.60 124.60 124.64 124.74 124.76 124.90 125.13 125.08 124.98 125.09 125.20 125.29 125.38 125.55 125.65 125.75 125.77 125.83
123.92 124.03 124.11 124.22 124.26 124.33 124.42 124.54 124.65 124.69 124.79 124.86 124.88 124.88 124.87 124.96 125.03 124.95 124.91 124.92 124.89 124.92 124.97 125.02 125.07 125.13 125.16 125.14 125.16 125.15 125.10 125.02 124.94 124.87 124.82 124.76 124.81 124.90 124.99 125.12 125.28 125.18 125.10 125.21 125.30 125.39 125.46 125.65 125.77 125.85 125.93 125.99
123.99 124.12 124.19 124.30 124.39 124.42 124.48 124.59 124.67 124.75 124.82 124.90 124.92 124.94 124.93 125.05 125.12 124.96 124.98 124.95 124.96 125.03 125.07 125.10 125.14 125.23 125.23 125.21 125.22 125.23 125.20 125.18 125.13 125.09 125.04 125.00 124.99 125.10 125.21 125.35 125.29 125.32 125.25 125.36 125.40 125.40 125.44 125.64 125.85 125.96 126.04 126.09
124.10 124.25 124.32 124.41 124.46 124.54 124.60 124.65 124.69 124.77 124.85 124.93 124.98 125.02 125.02 125.09 125.22 125.06 125.11 125.03 125.07 125.13 125.19 125.20 125.26 125.29 125.28 125.27 125.28 125.26 125.27 125.24 125.20 125.17 125.18 125.16 125.18 125.31 125.42 125.61 125.11 125.53 125.43 125.50 125.53 125.52 125.50 125.70 125.92 126.03 126.12 126.21
124.21 124.33 124.43 124.48 124.56 124.61 124.69 124.75 124.78 124.81 124.88 124.96 125.03 125.08 125.11 125.17 125.29 125.01 125.16 125.12 125.17 125.21 125.25 125.27 125.31 125.35 125.34 125.36 125.37 125.34 125.30 125.23 125.18 125.18 125.20 125.22 125.29 125.45 125.60 125.83 125.08 125.72 125.62 125.66 125.69 125.70 125.79 125.91 126.04 126.15 126.21 126.29
124.28 124.42 124.51 124.57 124.65 124.70 124.77 124.84 124.92 124.93 124.94 125.02 125.12 125.18 125.20 125.26 125.38 124.85 125.28 125.19 125.24 125.29 125.33 125.37 125.43 125.43 125.44 125.44 125.44 125.38 125.33 125.25 125.21 125.19 125.24 125.32 125.42 125.57 125.76 126.01 125.11 125.89 125.79 125.88 125.91 125.97 126.06 126.16 126.19 126.26 126.30 126.36
124.32 124.46 124.54 124.60 124.70 124.76 124.88 124.93 124.99 125.07 125.09 125.12 125.17 125.24 125.30 125.33 125.45 125.47 125.38 125.26 125.34 125.39 125.45 125.48 125.50 125.50 125.51 125.52 125.50 125.44 125.39 125.35 125.30 125.27 125.33 125.44 125.57 125.72 125.88 126.13 125.30 126.01 125.95 126.07 126.10 125.75 125.76 126.26 126.78 126.97 127.05 127.08
124.37 124.48 124.57 124.65 124.76 124.84 124.94 125.01 125.10 125.14 125.21 125.26 125.30 125.33 125.36 125.44 125.53 125.61 125.46 125.43 125.43 125.49 125.56 125.58 125.61 125.60 125.60 125.61 125.59 125.55 125.51 125.48 125.43 125.39 125.46 125.57 125.72 125.89 125.98 126.26 126.30 126.17 126.49 126.63 126.68 126.69 126.47 126.45 126.50 126.64 127.03 126.80
124.42 124.52 124.57 124.70 124.82 124.93 125.03 125.10 125.18 125.24 125.27 125.32 125.40 125.42 125.48 125.50 125.57 125.72 125.56 125.60 125.55 125.61 125.65 125.71 125.71 125.70 125.69 125.70 125.69 125.69 125.66 125.64 125.61 125.57 125.60 125.87 126.04 126.15 126.28 126.41 126.43 126.27 126.24 126.28 126.40 126.48 126.51 126.54 126.60 126.75 126.22 126.92
124.48 124.54 124.61 124.72 124.87 124.98 125.08 125.17 125.25 125.31 125.40 125.45 125.52 125.57 125.60 125.62 125.69 125.78 125.61 125.74 125.71 125.79 125.80 125.84 125.83 125.84 125.82 125.83 125.94 126.01 126.02 126.05 126.03 125.93 125.89 125.93 126.07 126.19 126.30 126.44 126.51 126.43 126.35 126.38 126.43 126.54 126.53 126.57 126.67 126.87 126.65 127.10
