ncols 52
nrows 52
xllcorner 443904
yllcorner 5715456
cellsize 10
NODATA_value -9999
93.84 94.85 94.97 95.04 95.13 95.17 95.26 95.32 95.40 95.47 95.57 95.63 95.66 95.68 95.70 95.79 95.63 95.81 96.05 96.30 96.45 96.65 96.87 97.09 97.35 97.62 97.83 98.05 97.82 98.65 98.36 98.91 99.04 99.12 99.37 99.53 99.62 99.63 99.71 99.82 99.93 100.08 100.21 100.34 100.51 100.76 100.88 100.98 101.03 101.07 101.12 101.19
94.88 95.03 95.16 95.21 95.25 95.33 95.47 95.54 95.61 95.68 95.77 95.82 95.87 95.90 95.92 95.94 95.82 95.92 96.04 96.36 96.53 96.73 96.97 97.22 97.52 97.70 97.58 98.44 98.32 98.49 98.64 98.81 99.01 99.15 99.30 99.54 99.68 99.75 99.83 99.93 100.07 100.18 100.32 100.45 100.59 100.85 100.96 101.06 101.12 101.18 101.26 101.29
95.06 95.21 95.31 95.40 95.47 95.58 95.69 95.77 95.83 95.86 95.94 96.03 96.08 96.09 96.12 96.15 96.15 96.04 96.11 96.43 96.59 96.83 97.17 97.34 97.31 98.23 98.25 98.56 98.48 98.57 98.72 98.90 99.10 99.26 99.38 99.56 99.78 99.84 99.93 100.06 100.17 100.27 100.42 100.55 100.68 100.90 101.02 101.15 101.21 101.30 101.39 101.44
95.23 95.40 95.49 95.58 95.68 95.80 95.90 95.98 96.03 96.09 96.14 96.20 96.25 96.26 96.31 96.32 96.43 96.06 96.35 96.55 96.83 96.99 97.04 98.01 98.07 98.16 98.43 98.68 98.65 98.62 98.79 98.98 99.26 99.47 99.53 99.68 99.93 99.99 100.02 100.18 100.29 100.39 100.54 100.65 100.78 100.97 101.14 101.23 101.33 101.44 101.49 101.63
95.46 95.54 95.70 95.77 95.89 96.03 96.16 96.20 96.23 96.26 96.29 96.34 96.41 96.46 96.50 96.57 96.69 96.50 96.49 96.68 96.76 97.74 97.83 97.89 98.26 98.58 98.60 98.71 98.80 98.75 98.93 99.11 99.27 99.43 99.65 99.86 100.02 100.06 100.15 100.32 100.39 100.50 100.64 100.78 100.91 101.03 101.21 101.32 101.46 101.58 101.67 101.80
95.60 95.76 95.90 95.99 96.12 96.20 96.33 96.36 96.41 96.40 96.46 96.50 96.56 96.65 96.73 96.84 96.95 96.78 96.44 97.62 97.62 97.55 97.78 97.88 98.10 98.35 98.88 98.87 99.07 98.96 99.13 99.28 99.39 99.57 99.72 99.90 100.15 100.22 100.32 100.45 100.53 100.67 100.78 100.90 101.01 101.15 101.32 101.42 101.59 101.74 101.85 102.01
95.77 95.92 96.00 96.12 96.21 96.33 96.47 96.57 96.66 96.62 96.65 96.68 96.79 96.85 96.93 97.11 97.23 97.66 97.61 97.44 97.44 97.50 97.76 98.04 98.20 99.01 98.89 99.00 99.21 99.03 99.23 99.50 99.66 99.82 99.88 100.07 100.25 100.38 100.52 100.61 100.73 100.83 100.92 101.03 101.11 101.27 101.43 101.53 101.71 101.86 102.07 102.21
95.80 95.96 96.10 96.20 96.35 96.52 96.66 96.81 96.86 96.86 96.89 96.89 96.99 97.11 97.30 97.60 97.66 97.61 97.61 97.69 97.51 97.45 97.59 97.86 98.10 98.65 98.81 99.10 99.06 99.24 99.44 99.57 99.72 99.95 100.16 100.29 100.39 100.67 100.65 100.76 100.90 100.99 101.08 101.17 101.29 101.40 101.56 101.70 101.85 102.03 102.29 102.32
95.82 96.03 96.23 96.35 96.49 96.61 96.77 96.94 97.08 97.09 97.07 97.13 97.37 97.61 97.66 97.80 97.93 97.93 97.88 98.10 97.96 97.68 97.72 97.92 98.27 98.71 98.78 98.93 99.14 99.35 99.56 99.77 99.90 100.10 100.25 100.39 100.54 100.81 100.79 100.87 101.06 101.16 101.24 101.32 101.45 101.58 101.71 101.85 101.98 102.16 102.43 102.49
95.90 96.06 96.24 96.37 96.54 96.70 96.89 97.08 97.25 97.36 97.48 97.64 97.63 97.79 97.82 98.04 98.23 98.37 98.12 98.17 98.27 98.14 97.96 98.20 98.38 98.55 98.76 98.97 99.26 99.51 99.79 100.01 100.07 100.22 100.40 100.55 100.65 100.79 100.92 101.02 101.19 101.28 101.41 101.46 101.60 101.75 101.84 101.98 102.10 102.29 102.50 102.65
95.96 96.08 96.21 96.35 96.56 96.78 97.06 97.39 97.47 97.67 97.74 97.84 97.93 97.91 97.97 98.31 98.25 98.38 98.27 98.43 98.28 98.36 98.43 98.36 98.42 98.62 98.90 99.14 99.33 99.64 99.88 100.05 100.22 100.43 100.54 100.68 100.83 101.21 101.10 101.18 101.31 101.42 101.49 101.60 101.74 101.84 101.96 102.12 102.24 102.42 102.59 102.78
96.12 96.19 96.31 96.54 96.82 96.90 97.45 97.59 97.62 97.97 98.07 98.37 98.10 97.94 97.99 98.45 98.39 98.39 98.44 98.81 98.59 98.62 98.60 98.58 98.65 98.79 98.98 99.25 99.47 99.67 99.90 100.12 100.28 100.46 100.71 100.90 101.12 102.41 101.22 101.32 101.39 101.50 101.57 101.71 101.84 101.98 102.10 102.24 102.40 102.57 102.75 102.90
96.56 96.40 96.87 97.07 97.10 97.21 97.60 97.78 98.03 98.17 98.21 98.32 98.12 98.17 98.31 98.53 98.64 98.57 98.64 98.67 98.82 98.81 98.86 98.89 98.96 98.97 99.12 99.34 99.50 99.72 99.99 100.26 100.43 101.04 102.01 100.93 100.98 101.35 101.36 101.51 101.47 101.56 101.65 101.84 101.99 102.12 102.29 102.43 102.59 102.74 102.90 103.04
96.71 96.87 97.22 97.54 97.32 97.33 97.61 97.82 97.96 98.21 98.09 98.12 98.19 98.36 98.27 98.61 98.77 98.84 98.82 98.88 99.01 99.11 99.15 99.13 99.18 99.18 99.27 99.45 99.60 99.85 100.08 100.62 100.84 100.92 100.79 100.91 101.25 101.44 101.70 101.62 101.61 101.68 101.80 101.97 102.10 102.28 102.47 102.60 102.76 102.90 103.09 103.23
97.20 97.32 97.43 97.50 97.40 97.65 97.61 97.89 98.36 98.21 98.19 98.33 98.31 98.56 98.59 98.76 99.04 98.94 98.99 99.11 99.22 99.26 99.43 99.43 99.43 99.45 99.47 99.60 99.80 100.03 100.35 100.56 100.80 100.65 101.04 101.15 101.28 101.44 101.66 101.78 101.76 101.82 101.96 102.06 102.25 102.43 102.60 102.75 102.91 103.10 103.22 103.36
97.28 97.28 97.56 97.50 97.33 97.45 97.57 97.72 98.19 98.24 98.35 98.51 98.43 98.60 98.79 98.85 99.08 99.07 99.18 99.31 99.39 99.51 99.67 99.69 99.66 99.68 99.76 99.89 100.18 100.19 100.37 100.54 100.74 100.88 101.05 101.18 101.31 101.43 101.79 101.76 101.86 101.93 102.10 102.21 102.39 102.57 102.72 102.89 103.03 103.21 103.34 103.49
97.23 97.09 97.26 97.51 97.74 97.96 97.82 98.29 98.69 98.42 98.40 98.58 98.55 98.66 98.78 99.02 99.38 99.31 99.30 99.46 99.57 99.71 99.82 99.96 99.93 100.07 100.32 100.23 100.24 100.31 100.47 100.57 100.78 101.01 101.02 101.18 101.45 101.46 101.73 101.94 102.03 102.06 102.20 102.32 102.53 102.67 102.83 102.99 103.09 103.29 103.39 103.56
97.65 97.85 98.27 98.27 98.19 98.38 98.18 98.26 98.42 98.36 98.59 98.83 98.79 98.90 99.06 99.05 99.14 99.54 99.42 99.58 99.71 99.84 100.06 100.24 100.35 100.55 100.38 100.32 100.35 100.40 100.64 100.65 100.89 101.06 101.43 101.34 101.50 101.61 101.84 102.04 102.16 102.21 102.32 102.44 102.60 102.74 102.88 103.04 103.18 103.35 103.46 103.67
97.85 98.14 98.21 98.17 98.17 98.02 98.18 98.37 98.58 98.72 98.83 98.94 98.90 98.99 99.10 99.34 99.54 99.59 99.60 99.71 99.89 100.01 100.15 100.31 100.56 100.69 100.60 100.55 100.57 100.53 101.08 100.76 100.96 101.14 101.24 101.46 101.58 101.78 101.94 102.13 102.32 102.29 102.36 102.51 102.64 102.78 102.90 103.10 103.25 103.40 103.53 103.71
97.97 97.91 98.09 98.23 98.38 98.49 98.48 98.45 98.46 98.66 98.77 99.17 99.30 99.36 99.46 99.44 99.54 99.74 99.82 99.84 99.96 100.08 100.26 100.41 100.70 100.92 100.76 100.77 100.85 100.95 101.04 101.03 101.15 101.35 101.47 101.58 101.71 101.87 101.96 102.15 102.18 102.31 102.38 102.53 102.65 102.79 102.93 103.13 103.32 103.42 103.54 103.68
98.19 98.36 98.44 98.41 98.41 98.38 98.57 98.60 98.74 98.90 99.16 99.30 99.45 99.35 99.36 99.54 99.84 99.91 100.00 99.93 100.08 100.21 100.41 100.58 100.75 100.99 100.93 101.06 101.10 101.06 101.22 101.32 101.25 101.38 101.51 101.75 101.86 101.97 102.07 102.25 102.09 102.34 102.40 102.58 102.65 102.82 102.92 103.15 103.32 103.42 103.55 103.62
98.33 98.38 98.50 98.44 98.52 98.65 98.78 98.82 98.83 98.83 98.99 99.35 99.56 99.68 99.69 99.77 99.71 99.77 100.10 100.10 100.28 100.39 100.53 100.71 100.92 101.15 101.34 101.32 101.32 101.35 101.40 101.45 101.52 101.49 101.68 101.93 102.07 102.19 102.27 102.24 102.88 102.44 102.51 102.60 102.71 102.81 102.95 103.09 103.24 103.37 103.46 103.47
98.50 98.51 98.63 98.71 98.70 98.76 98.86 98.71 98.90 99.15 99.40 99.55 99.72 99.63 99.56 99.72 99.99 100.16 100.23 100.22 100.41 100.58 100.69 100.88 101.04 101.12 101.33 101.49 101.51 101.49 101.54 101.65 101.67 101.57 101.75 102.01 102.25 102.31 102.36 102.07 102.07 102.58 102.56 102.61 102.69 102.74 102.82 102.88 103.07 103.19 103.33 103.38
98.65 98.62 98.60 98.89 98.73 98.90 99.05 99.24 99.21 99.19 99.21 99.33 99.65 99.88 100.16 100.07 99.99 100.55 100.37 100.40 100.56 100.71 100.82 100.93 101.07 101.14 101.31 101.40 101.43 101.66 101.78 101.69 101.75 101.81 101.84 102.09 102.24 102.31 102.06 102.15 102.39 102.83 102.63 102.61 102.64 102.72 102.79 102.92 103.02 103.08 103.08 103.26
98.77 98.77 98.88 98.93 99.08 99.19 99.17 99.10 99.14 99.24 99.52 99.81 100.03 100.08 100.02 100.54 100.58 100.62 100.61 100.57 100.59 100.73 100.81 100.90 101.04 101.15 101.23 101.40 101.57 101.77 101.87 101.93 101.78 101.96 101.98 102.06 102.28 102.39 102.52 102.43 102.68 102.53 102.65 102.69 102.69 102.72 102.80 102.76 103.03 103.09 103.39 103.58
98.71 98.86 98.99 98.96 99.01 99.04 99.07 99.32 99.52 99.63 99.65 99.74 100.22 100.22 100.53 100.50 100.60 100.69 100.68 100.57 100.49 100.66 100.81 100.86 101.04 101.18 101.23 101.39 101.61 101.70 101.82 101.94 101.97 102.18 102.14 102.07 102.42 102.42 102.53 102.52 102.80 102.75 102.71 102.62 102.52 102.77 102.79 103.25 103.29 103.44 103.65 103.64
98.68 98.80 98.84 98.97 99.16 99.32 99.44 99.57 99.45 99.67 99.76 100.37 100.60 100.55 100.73 100.71 100.58 100.53 100.56 100.61 100.42 100.61 100.78 100.90 101.05 101.24 101.36 101.47 101.73 101.96 102.09 102.03 102.12 102.13 102.20 102.30 102.53 102.57 102.60 102.53 102.50 102.49 102.50 103.09 103.13 103.19 103.26 103.33 103.39 103.46 103.62 103.68
98.69 98.82 99.13 99.22 99.36 99.47 99.45 99.81 99.76 99.75 99.96 100.45 100.58 100.79 100.91 100.75 100.71 100.68 100.57 100.65 100.52 100.62 100.83 100.99 101.12 101.31 101.47 101.57 101.67 101.92 101.95 102.19 102.29 102.25 102.33 102.40 102.60 102.32 102.35 102.16 103.06 103.07 103.16 103.16 103.15 103.20 103.27 103.37 103.46 103.56 103.68 103.80
98.85 98.95 99.11 99.27 99.40 100.12 100.29 100.43 100.21 100.00 100.05 100.68 100.69 100.79 100.76 100.82 100.89 100.92 100.91 100.90 100.67 100.66 100.88 101.05 101.15 101.34 101.50 101.67 101.71 101.93 102.21 102.29 102.33 102.51 102.31 102.32 102.12 102.84 102.90 103.00 103.05 103.10 103.10 103.15 103.16 103.25 103.32 103.44 103.53 103.64 103.78 103.93
98.89 98.96 99.02 100.01 100.33 100.39 100.18 100.12 100.24 100.25 100.79 100.79 100.64 100.61 100.58 100.66 100.90 101.13 101.15 101.06 100.72 100.70 100.95 101.12 101.23 101.39 101.58 101.71 101.83 101.88 102.10 102.31 102.40 102.41 102.08 102.32 102.76 102.87 102.93 102.99 103.05 103.08 103.16 103.22 103.25 103.30 103.38 103.50 103.61 103.72 103.85 103.98
98.96 99.11 99.14 100.08 100.26 100.07 99.90 100.02 100.30 100.26 100.68 100.78 100.51 100.94 100.89 101.15 100.96 101.26 101.19 101.22 100.89 100.81 101.02 101.21 101.34 101.48 101.63 101.79 101.87 101.97 102.29 102.27 102.42 101.93 102.57 102.68 102.84 102.90 102.98 103.01 103.09 103.14 103.21 103.29 103.32 103.37 103.42 103.53 103.67 103.76 103.90 104.05
98.93 99.07 99.19 99.34 100.15 100.15 99.94 100.24 100.70 100.63 100.57 100.49 100.68 100.82 101.05 101.06 101.21 101.14 101.32 101.07 101.12 101.04 101.10 101.28 101.46 101.60 101.71 101.84 102.06 102.21 102.36 101.46 101.87 102.58 102.72 102.82 102.95 102.99 103.02 103.07 103.14 103.22 103.29 103.34 103.40 103.44 103.48 103.58 103.69 103.82 103.93 104.07
98.55 98.76 99.06 99.05 100.11 100.12 100.03 100.25 100.67 100.60 100.35 101.00 101.04 101.14 101.44 101.36 101.31 101.34 101.46 101.65 101.57 101.25 101.17 101.38 101.54 101.62 101.82 102.08 102.29 102.28 101.68 101.99 102.48 102.67 102.83 102.12 102.89 103.03 103.13 103.21 103.18 103.28 103.36 103.44 103.47 103.53 103.55 103.64 103.77 103.88 103.98 104.05
98.76 98.41 98.32 98.67 98.89 100.07 100.25 100.24 100.18 100.16 100.51 101.04 101.03 101.46 101.36 101.40 101.41 101.44 101.54 101.71 101.73 101.34 101.27 101.43 101.60 101.79 102.08 102.28 101.33 101.83 101.98 102.66 103.01 102.93 103.01 103.15 103.17 103.13 102.22 103.17 103.23 103.26 103.34 103.39 103.44 103.50 103.56 103.62 103.74 103.84 103.90 103.99
99.48 99.44 99.64 99.04 98.41 98.56 100.24 100.22 100.07 100.22 100.65 100.86 101.48 101.54 101.49 101.35 101.46 101.55 101.60 101.91 101.97 101.44 101.49 101.55 101.82 102.06 102.16 101.68 102.01 102.25 102.76 102.87 102.93 103.05 103.06 103.22 103.26 103.25 103.25 103.21 102.41 103.17 103.27 103.28 103.36 103.45 103.54 103.60 103.75 103.88 103.98 104.16
99.70 99.66 99.66 99.39 99.16 99.76 99.31 99.38 99.58 100.66 100.71 101.05 101.52 101.50 101.18 101.48 101.57 101.61 101.81 101.98 102.06 101.86 101.69 101.85 102.04 101.11 101.76 102.15 102.61 102.85 102.82 102.80 102.95 103.14 103.16 103.33 103.41 103.41 103.38 103.37 103.36 102.65 103.32 103.31 103.39 103.58 103.69 103.85 104.00 104.15 104.30 104.43
99.88 100.05 99.69 99.67 99.53 99.85 99.86 99.33 99.36 100.04 100.86 101.25 101.16 101.14 101.21 101.49 101.56 101.69 102.01 101.89 102.01 101.99 101.90 101.93 101.30 101.82 102.21 102.62 102.97 102.86 102.82 102.90 103.03 103.26 103.35 103.40 103.57 103.58 103.59 103.50 103.50 103.50 103.54 103.60 103.68 103.83 104.00 104.14 104.28 104.39 104.52 104.61
100.00 100.41 100.21 99.92 100.17 100.39 100.11 100.11 100.40 100.14 99.97 100.33 100.78 101.31 101.30 101.42 101.49 101.54 101.61 102.04 101.66 102.09 100.99 101.24 101.51 102.21 102.63 102.75 102.92 102.91 102.98 103.00 103.12 103.35 103.49 103.56 103.76 103.73 103.82 103.69 103.71 103.69 102.84 103.90 103.98 104.12 104.25 104.35 104.44 104.56 104.67 104.76
100.17 100.28 100.32 100.51 100.45 100.49 100.48 100.49 100.59 100.52 100.65 100.58 100.44 100.69 101.29 101.17 101.55 101.83 101.84 101.30 101.24 100.88 101.33 101.47 102.35 102.58 102.56 102.75 102.88 102.96 103.05 103.17 103.26 103.57 103.74 103.68 103.92 103.91 104.04 104.01 103.91 103.89 103.78 104.12 104.26 104.31 104.43 104.52 104.63 104.72 104.82 104.88
100.47 100.33 100.88 100.68 100.64 100.75 100.71 100.70 100.75 100.92 100.96 101.03 101.26 101.14 100.85 100.88 101.27 101.52 101.49 101.08 100.92 101.10 101.47 101.82 102.58 102.60 102.65 102.74 102.88 103.00 103.20 103.37 103.54 103.81 104.00 103.85 104.03 104.10 104.28 104.22 104.17 104.11 104.06 103.11 104.33 104.41 104.56 104.66 104.77 104.86 104.95 105.02
100.88 100.91 100.76 100.81 100.82 100.75 100.79 100.93 101.03 101.10 101.35 101.62 101.73 101.68 101.81 101.60 100.88 101.20 101.12 101.10 101.45 101.65 102.05 102.76 102.88 102.68 102.77 102.81 102.98 103.16 103.33 103.51 103.69 103.94 104.15 104.04 104.22 104.26 104.44 104.44 104.33 104.28 104.24 104.08 104.40 104.53 104.60 104.79 104.89 105.02 105.08 105.19
100.95 100.85 100.78 100.79 100.85 100.98 100.99 101.05 100.93 101.04 101.04 101.63 101.75 101.94 101.81 101.78 101.02 101.05 101.10 101.74 102.18 102.41 102.91 102.98 102.93 102.89 102.91 103.00 103.26 103.36 103.54 103.73 103.79 104.03 104.30 104.30 104.30 104.40 104.56 104.55 104.53 104.51 104.44 104.36 103.40 104.57 104.75 104.89 105.05 105.15 105.25 105.28
100.99 101.13 101.19 101.04 100.94 101.06 101.19 101.28 101.45 101.38 101.68 100.58 101.73 101.90 100.82 100.82 100.90 100.97 101.18 101.23 101.62 102.66 102.98 103.02 103.02 103.04 103.10 103.24 103.37 103.49 103.61 103.75 103.88 104.13 104.39 104.43 104.41 104.46 104.62 104.68 104.77 104.79 104.81 104.67 104.59 104.61 104.85 104.93 105.15 105.25 105.39 105.49
101.32 101.18 101.13 101.15 101.27 101.37 101.53 101.57 101.47 101.85 101.59 100.43 100.32 100.39 101.49 102.03 102.37 102.35 101.30 102.44 101.54 101.52 103.08 103.09 103.14 103.18 103.35 103.43 103.49 103.65 103.72 103.87 103.95 104.09 104.39 104.62 104.55 104.72 104.86 104.89 104.83 104.82 104.82 104.79 104.75 104.94 104.88 105.11 105.28 105.40 105.44 105.50
101.51 101.43 101.43 101.54 101.44 101.52 101.42 101.31 99.96 99.91 99.97 100.11 101.46 101.88 102.12 102.29 102.45 102.33 102.39 102.42 102.47 102.55 101.62 101.83 103.18 103.42 103.44 103.54 103.65 103.72 103.83 103.93 104.18 104.34 104.63 104.85 104.81 104.82 104.83 104.89 104.93 104.98 105.00 105.03 105.01 104.95 104.93 105.11 105.31 105.44 105.57 105.64
101.56 101.72 101.36 101.47 101.53 101.21 99.79 99.56 99.55 100.85 101.40 101.49 101.85 102.13 102.25 102.23 102.16 102.19 102.26 102.40 102.57 102.51 102.61 102.46 102.03 102.17 103.57 103.63 103.65 103.93 104.20 104.38 104.38 104.52 104.68 104.82 104.94 104.98 105.05 105.15 105.19 105.18 105.17 105.15 105.11 105.05 105.03 105.14 105.37 105.53 105.65 105.77
100.63 100.75 101.37 100.03 99.93 99.77 101.42 101.71 101.85 101.71 101.79 101.93 102.02 102.15 102.12 102.13 102.11 102.18 102.33 102.46 102.60 102.74 102.73 102.75 102.82 102.75 102.24 102.36 103.00 104.07 104.10 104.28 104.45 104.63 104.83 105.00 105.16 105.22 105.29 105.39 105.42 105.43 105.43 105.39 105.35 105.25 105.17 105.23 105.42 105.60 105.72 105.87
100.52 99.90 99.92 100.28 101.09 101.94 102.11 102.23 102.30 102.04 102.00 102.04 102.07 101.99 102.15 102.18 102.23 102.26 102.36 102.47 102.65 102.84 102.99 102.97 102.93 103.00 103.09 103.14 101.91 102.66 102.72 104.34 104.54 104.72 104.89 105.03 105.18 105.27 105.36 105.47 105.56 105.61 105.65 105.68 105.62 105.50 105.35 105.33 105.44 105.60 105.75 105.88
99.81 101.14 101.99 102.44 102.16 102.43 102.34 102.37 102.28 102.33 102.04 102.10 102.09 102.13 102.19 102.25 102.31 102.35 102.43 102.55 102.72 102.97 103.12 103.17 103.15 103.14 103.23 103.36 103.54 103.63 103.53 102.73 102.90 103.49 104.86 105.03 105.17 105.24 105.32 105.43 105.52 105.60 105.71 105.75 105.78 105.67 105.54 105.44 105.51 105.61 105.75 105.93
100.08 102.47 102.52 102.53 102.56 102.53 102.41 102.42 102.44 102.39 102.31 102.24 102.35 102.26 102.29 102.36 102.43 102.50 102.60 102.72 102.88 103.07 103.29 103.33 103.31 103.36 103.48 103.54 103.63 103.67 103.75 103.91 104.04 103.33 103.12 103.19 103.75 105.26 105.38 105.43 105.54 105.59 105.68 105.77 105.82 105.79 105.65 105.58 105.53 105.59 105.74 105.97
100.35 102.75 102.54 102.55 102.57 102.58 102.56 102.53 102.63 102.62 102.42 102.32 102.56 102.43 102.45 102.52 102.61 102.69 102.76 102.87 102.99 103.20 103.42 103.51 103.48 103.54 103.62 103.74 103.85 103.91 103.99 103.99 104.00 104.06 104.23 104.45 102.76 103.29 103.41 103.80 105.52 105.69 105.77 105.82 105.84 105.84 105.72 105.58 105.53 105.60 105.79 106.00
100.69 103.73 102.78 102.72 102.85 102.78 102.79 102.74 102.85 102.89 102.90 102.60 102.65 102.68 102.65 102.70 102.76 102.85 102.93 103.02 103.16 103.35 103.57 103.68 103.65 103.70 103.78 103.85 103.96 104.10 104.19 104.26 104.30 104.35 104.32 104.31 104.46 104.66 104.52 103.13 103.47 103.60 103.98 105.74 105.81 105.79 105.61 105.43 105.46 105.63 105.82 106.00
