ncols 52
nrows 52
xllcorner 443904
yllcorner 5716480
cellsize 10
NODATA_value -9999
90.50 90.83 90.73 90.71 90.76 90.90 91.12 92.32 91.17 91.89 92.14 92.39 92.53 92.70 92.77 92.92 93.08 93.26 93.53 93.77 94.01 94.21 94.45 94.72 94.95 95.11 95.32 95.53 95.63 96.10 96.23 96.26 96.46 96.63 96.80 96.95 97.10 97.23 97.31 97.32 97.31 97.28 97.27 97.24 97.21 97.12 97.07 96.99 96.92 96.82 96.68 96.57
90.54 90.99 90.99 90.97 91.07 91.19 91.31 92.60 92.04 91.43 91.56 91.93 92.39 92.55 92.65 92.78 92.99 93.25 93.50 93.72 93.97 94.24 94.47 94.71 95.00 95.21 95.41 95.67 95.96 96.13 96.24 96.39 96.56 96.73 96.89 97.06 97.21 97.37 97.44 97.48 97.46 97.45 97.43 97.44 97.40 97.35 97.27 97.21 97.12 97.04 96.90 96.80
90.51 91.97 91.17 91.17 91.28 91.51 92.93 92.88 91.40 91.52 91.60 91.76 91.93 92.14 92.30 92.46 92.68 92.86 93.12 93.15 93.51 93.79 94.06 94.41 94.71 94.82 95.19 95.68 95.94 96.19 96.35 96.55 96.71 96.89 97.03 97.19 97.35 97.47 97.54 97.60 97.64 97.61 97.61 97.57 97.53 97.47 97.42 97.34 97.26 97.15 97.01 96.87
90.56 90.78 92.19 91.92 92.95 92.88 91.76 91.25 91.39 91.38 91.59 91.76 92.04 92.30 92.56 92.77 92.96 93.18 93.29 93.33 94.14 94.26 94.46 94.71 94.96 95.21 95.51 95.75 95.99 96.21 96.40 96.57 96.75 96.90 97.07 97.23 97.38 97.51 97.62 97.71 97.74 97.73 97.71 97.67 97.65 97.59 97.55 97.46 97.35 97.22 97.11 96.97
90.58 90.78 91.24 92.72 92.36 91.11 91.11 91.21 91.20 91.30 91.54 91.93 92.20 92.44 92.71 92.98 93.13 93.33 93.53 93.70 94.20 94.42 94.60 94.81 95.07 95.31 95.56 95.82 96.05 96.25 96.45 96.63 96.81 96.97 97.14 97.29 97.44 97.57 97.70 97.79 97.85 97.83 97.80 97.76 97.73 97.69 97.63 97.52 97.42 97.30 97.17 97.06
90.93 92.56 92.65 90.99 90.91 90.92 90.96 91.05 91.19 91.37 91.68 92.11 92.40 92.65 92.86 93.09 93.33 93.54 93.69 93.91 94.24 94.46 94.64 94.87 95.08 95.33 95.58 95.80 96.04 96.27 96.46 96.65 96.86 97.03 97.18 97.37 97.51 97.65 97.77 97.88 97.94 97.92 97.90 97.87 97.84 97.79 97.71 97.62 97.51 97.38 97.26 97.10
92.65 90.74 90.68 90.71 90.71 90.73 90.91 91.05 91.28 91.45 91.75 92.18 92.44 92.69 92.90 93.16 93.39 93.60 93.79 94.02 94.33 94.58 94.73 94.95 95.15 95.38 95.62 95.85 96.09 96.29 96.51 96.71 96.90 97.07 97.22 97.39 97.54 97.68 97.81 97.91 97.98 97.97 97.94 97.94 97.92 97.89 97.82 97.70 97.58 97.45 97.31 97.20
90.34 90.37 90.44 90.46 90.64 90.82 90.97 91.16 91.37 91.58 91.85 92.27 92.50 92.74 92.96 93.20 93.44 93.67 93.88 94.14 94.43 94.67 94.82 94.98 95.19 95.41 95.66 95.91 96.15 96.36 96.56 96.74 96.90 97.09 97.25 97.40 97.54 97.69 97.82 97.95 98.02 98.01 97.99 98.00 97.97 97.93 97.88 97.77 97.68 97.56 97.43 97.28
90.15 90.14 90.29 90.50 90.74 90.90 91.09 91.25 91.45 91.69 91.99 92.35 92.54 92.78 93.01 93.24 93.51 93.69 93.96 94.23 94.59 94.77 94.89 95.04 95.23 95.47 95.69 95.94 96.16 96.39 96.59 96.76 96.92 97.09 97.25 97.41 97.57 97.74 97.89 98.01 98.08 98.08 98.07 98.07 98.07 98.01 97.97 97.86 97.76 97.64 97.49 97.33
90.07 90.24 90.44 90.65 90.89 91.08 91.25 91.43 91.62 91.86 92.09 92.39 92.58 92.81 93.07 93.28 93.56 93.78 94.05 94.34 94.72 94.85 94.96 95.12 95.31 95.52 95.74 95.96 96.16 96.37 96.57 96.74 96.91 97.07 97.24 97.40 97.57 97.72 97.87 98.02 98.10 98.11 98.13 98.14 98.15 98.10 98.06 97.96 97.83 97.70 97.54 97.43
90.22 90.40 90.62 90.85 91.03 91.23 91.40 91.61 91.77 92.00 92.22 92.46 92.63 92.87 93.14 93.36 93.65 93.88 94.15 94.44 94.82 94.95 95.09 95.24 95.41 95.62 95.81 96.02 96.24 96.40 96.57 96.74 96.88 97.06 97.19 97.37 97.53 97.68 97.85 97.98 98.09 98.11 98.14 98.16 98.17 98.14 98.07 98.00 97.86 97.74 97.62 97.49
90.35 90.51 90.69 90.93 91.13 91.29 91.50 91.70 91.90 92.08 92.29 92.50 92.73 92.96 93.24 93.46 93.73 93.97 94.26 94.63 94.95 95.04 95.15 95.29 95.47 95.62 95.83 96.03 96.24 96.43 96.59 96.74 96.90 97.06 97.21 97.37 97.54 97.68 97.83 97.98 98.05 98.11 98.17 98.18 98.18 98.13 98.10 98.01 97.90 97.78 97.64 97.53
90.40 90.56 90.71 90.95 91.15 91.33 91.54 91.74 91.94 92.15 92.36 92.57 92.81 93.03 93.32 93.54 93.80 94.09 94.35 94.79 95.01 95.06 95.16 95.28 95.43 95.57 95.77 95.96 96.18 96.37 96.52 96.67 96.79 96.96 97.14 97.31 97.46 97.63 97.80 97.94 98.05 98.12 98.17 98.21 98.23 98.20 98.15 98.06 97.94 97.82 97.69 97.54
90.46 90.61 90.76 90.99 91.20 91.37 91.58 91.76 92.00 92.19 92.41 92.65 92.88 93.12 93.40 93.62 93.90 94.21 94.46 94.90 95.09 95.11 95.17 95.26 95.40 95.59 95.76 95.93 96.12 96.28 96.44 96.58 96.72 96.86 97.02 97.18 97.34 97.52 97.70 97.88 97.99 98.05 98.11 98.16 98.21 98.18 98.15 98.07 97.97 97.86 97.73 97.58
90.51 90.68 90.85 91.04 91.23 91.42 91.65 91.80 92.04 92.26 92.48 92.72 92.93 93.21 93.49 93.71 93.98 94.29 94.60 95.04 95.12 95.14 95.21 95.29 95.44 95.59 95.76 95.92 96.10 96.24 96.38 96.53 96.65 96.80 96.96 97.11 97.29 97.47 97.65 97.83 97.94 98.03 98.08 98.14 98.16 98.16 98.10 98.04 97.95 97.82 97.72 97.59
90.62 90.77 90.96 91.14 91.33 91.53 91.75 91.92 92.13 92.36 92.55 92.81 93.05 93.29 93.55 93.78 94.07 94.35 94.69 95.12 95.16 95.17 95.21 95.36 95.50 95.65 95.79 95.94 96.10 96.24 96.36 96.50 96.63 96.78 96.93 97.09 97.28 97.46 97.65 97.82 97.92 98.00 98.08 98.11 98.12 98.15 98.10 98.04 97.93 97.83 97.72 97.60
90.69 90.86 91.06 91.22 91.41 91.62 91.83 92.03 92.20 92.45 92.67 92.88 93.11 93.37 93.64 93.82 94.11 94.39 94.76 95.22 95.18 95.20 95.30 95.43 95.54 95.69 95.84 95.98 96.13 96.27 96.40 96.53 96.67 96.81 96.96 97.14 97.30 97.50 97.67 97.83 97.93 98.00 98.07 98.12 98.14 98.13 98.10 98.04 97.95 97.85 97.72 97.58
90.76 90.93 91.14 91.34 91.51 91.72 91.93 92.11 92.33 92.53 92.73 92.96 93.18 93.41 93.66 93.88 94.15 94.43 94.79 95.18 95.15 95.20 95.27 95.39 95.53 95.65 95.80 95.94 96.08 96.24 96.39 96.54 96.67 96.83 96.99 97.17 97.35 97.52 97.72 97.87 97.98 98.06 98.13 98.17 98.22 98.18 98.13 98.05 97.98 97.86 97.77 97.64
90.81 91.00 91.18 91.39 91.57 91.81 92.00 92.21 92.40 92.64 92.84 93.02 93.25 93.46 93.72 93.87 94.17 94.49 94.82 95.13 95.11 95.11 95.20 95.32 95.45 95.57 95.71 95.84 95.97 96.10 96.23 96.39 96.58 96.77 96.96 97.14 97.33 97.51 97.68 97.84 97.98 98.07 98.16 98.23 98.26 98.23 98.17 98.13 98.03 97.95 97.81 97.69
90.85 91.06 91.25 91.45 91.63 91.86 92.08 92.30 92.49 92.68 92.90 93.10 93.29 93.51 93.72 93.93 94.21 94.50 94.85 95.04 95.05 95.06 95.16 95.26 95.39 95.49 95.60 95.75 95.85 96.00 96.13 96.29 96.47 96.64 96.82 97.01 97.21 97.40 97.58 97.73 97.91 98.01 98.08 98.20 98.25 98.23 98.15 98.07 98.03 97.95 97.85 97.72
90.89 91.11 91.26 91.48 91.67 91.93 92.14 92.35 92.56 92.76 92.96 93.12 93.36 93.57 93.76 93.96 94.22 94.48 94.81 94.94 95.00 95.03 95.12 95.23 95.33 95.46 95.56 95.68 95.79 95.93 96.07 96.23 96.42 96.60 96.78 96.96 97.14 97.30 97.48 97.69 97.86 97.93 98.02 98.12 98.15 98.13 98.06 98.03 97.97 97.91 97.78 97.67
90.93 91.13 91.32 91.52 91.74 91.97 92.21 92.44 92.64 92.82 93.03 93.21 93.40 93.62 93.80 94.02 94.25 94.46 94.74 94.88 94.91 94.97 95.06 95.15 95.27 95.38 95.49 95.63 95.75 95.90 96.03 96.20 96.36 96.55 96.73 96.90 97.07 97.24 97.41 97.62 97.79 97.86 97.96 98.06 98.11 98.07 98.00 97.97 97.93 97.84 97.72 97.62
90.94 91.16 91.36 91.55 91.78 92.00 92.25 92.48 92.71 92.89 93.07 93.23 93.44 93.62 93.78 94.01 94.21 94.44 94.72 94.85 94.87 94.92 94.98 95.08 95.19 95.31 95.45 95.56 95.69 95.82 95.97 96.14 96.31 96.49 96.66 96.84 97.00 97.17 97.38 97.56 97.73 97.82 97.91 98.00 98.03 97.99 97.95 97.93 97.88 97.79 97.70 97.62
90.99 91.17 91.39 91.56 91.79 92.02 92.29 92.54 92.71 92.90 93.08 93.25 93.43 93.60 93.79 93.99 94.19 94.40 94.75 94.78 94.79 94.87 94.97 95.05 95.14 95.25 95.38 95.50 95.65 95.75 95.92 96.08 96.24 96.41 96.60 96.74 96.93 97.09 97.28 97.47 97.66 97.75 97.87 97.95 97.96 97.92 97.91 97.90 97.86 97.80 97.72 97.65
90.99 91.20 91.40 91.59 91.82 92.05 92.28 92.53 92.71 92.90 93.07 93.22 93.43 93.61 93.76 93.96 94.18 94.36 94.65 94.68 94.72 94.79 94.90 95.00 95.12 95.21 95.33 95.46 95.60 95.73 95.90 96.05 96.23 96.38 96.53 96.68 96.85 97.01 97.18 97.39 97.57 97.68 97.80 97.90 97.92 97.88 97.85 97.82 97.81 97.75 97.70 97.64
91.04 91.22 91.45 91.64 91.82 92.06 92.29 92.55 92.71 92.90 93.08 93.23 93.43 93.57 93.77 93.95 94.11 94.36 94.56 94.58 94.60 94.68 94.78 94.91 95.05 95.18 95.30 95.42 95.57 95.70 95.85 96.01 96.15 96.32 96.47 96.63 96.77 96.93 97.09 97.28 97.47 97.61 97.72 97.81 97.84 97.80 97.76 97.76 97.76 97.71 97.67 97.62
91.06 91.24 91.43 91.64 91.83 92.06 92.31 92.53 92.74 92.90 93.09 93.24 93.45 93.59 93.74 93.93 94.10 94.34 94.50 94.49 94.51 94.60 94.74 94.85 95.00 95.12 95.25 95.37 95.50 95.64 95.79 95.92 96.08 96.24 96.39 96.55 96.70 96.86 97.00 97.19 97.35 97.50 97.60 97.70 97.74 97.72 97.68 97.68 97.68 97.65 97.65 97.62
91.08 91.26 91.46 91.65 91.84 92.09 92.33 92.56 92.76 92.92 93.11 93.25 93.45 93.56 93.74 93.90 94.06 94.28 94.40 94.43 94.46 94.58 94.71 94.84 94.98 95.12 95.25 95.39 95.52 95.62 95.76 95.89 96.06 96.21 96.36 96.50 96.64 96.76 96.90 97.07 97.24 97.38 97.50 97.58 97.63 97.65 97.63 97.64 97.67 97.65 97.64 97.62
91.10 91.29 91.47 91.70 91.89 92.13 92.39 92.61 92.82 92.95 93.13 93.26 93.42 93.56 93.67 93.83 93.95 94.25 94.31 94.36 94.40 94.51 94.65 94.79 94.94 95.07 95.22 95.38 95.51 95.63 95.77 95.90 96.05 96.16 96.28 96.41 96.52 96.67 96.79 96.94 97.11 97.25 97.35 97.49 97.53 97.55 97.53 97.58 97.59 97.59 97.58 97.57
91.14 91.35 91.54 91.73 91.93 92.18 92.45 92.64 92.82 92.98 93.12 93.25 93.39 93.51 93.63 93.78 93.93 94.15 94.25 94.30 94.32 94.44 94.56 94.70 94.85 95.01 95.15 95.31 95.43 95.56 95.68 95.83 95.95 96.06 96.18 96.29 96.42 96.55 96.69 96.88 97.06 97.18 97.26 97.35 97.43 97.45 97.46 97.49 97.52 97.54 97.53 97.54
91.19 91.37 91.57 91.79 91.99 92.20 92.45 92.66 92.80 92.94 93.07 93.21 93.34 93.47 93.56 93.69 93.84 94.12 94.17 94.20 94.30 94.42 94.55 94.69 94.84 94.96 95.11 95.26 95.39 95.49 95.61 95.73 95.85 95.97 96.08 96.20 96.31 96.44 96.59 96.79 96.99 97.11 97.19 97.26 97.29 97.29 97.31 97.38 97.44 97.49 97.51 97.53
91.22 91.39 91.63 91.80 92.00 92.21 92.43 92.64 92.79 92.92 93.03 93.14 93.26 93.38 93.51 93.61 93.79 94.01 94.11 94.18 94.30 94.40 94.54 94.67 94.82 94.93 95.09 95.23 95.35 95.45 95.57 95.69 95.78 95.90 95.98 96.09 96.20 96.33 96.49 96.69 96.88 96.97 97.02 97.10 97.13 97.11 97.17 97.27 97.35 97.41 97.45 97.49
91.24 91.41 91.60 91.81 92.00 92.23 92.42 92.63 92.75 92.87 92.96 93.08 93.20 93.30 93.44 93.58 93.80 93.92 94.09 94.15 94.25 94.36 94.49 94.62 94.74 94.89 95.03 95.18 95.29 95.40 95.51 95.62 95.71 95.81 95.90 96.01 96.08 96.20 96.34 96.54 96.74 96.86 96.93 96.99 97.01 97.04 97.12 97.24 97.33 97.38 97.45 97.47
91.24 91.42 91.60 91.81 91.96 92.22 92.38 92.58 92.70 92.82 92.93 93.04 93.18 93.29 93.43 93.58 93.79 93.87 94.06 94.12 94.22 94.34 94.45 94.60 94.74 94.86 94.96 95.10 95.21 95.30 95.41 95.50 95.59 95.65 95.74 95.83 95.93 96.07 96.22 96.44 96.66 96.78 96.84 96.93 96.99 97.03 97.11 97.21 97.32 97.36 97.43 97.48
91.22 91.42 91.60 91.80 91.97 92.20 92.38 92.56 92.71 92.80 92.92 93.03 93.21 93.30 93.45 93.59 93.80 93.90 94.04 94.10 94.21 94.34 94.44 94.55 94.68 94.79 94.93 95.02 95.12 95.18 95.30 95.38 95.46 95.54 95.63 95.73 95.82 95.95 96.12 96.36 96.60 96.77 96.84 96.90 96.96 97.03 97.12 97.24 97.34 97.40 97.43 97.51
91.21 91.43 91.59 91.79 91.98 92.22 92.42 92.56 92.73 92.84 92.96 93.07 93.22 93.36 93.48 93.57 93.77 93.88 93.97 94.03 94.18 94.29 94.42 94.52 94.63 94.74 94.84 94.95 95.03 95.12 95.22 95.29 95.37 95.44 95.51 95.62 95.72 95.86 96.03 96.28 96.56 96.73 96.82 96.89 96.98 97.04 97.11 97.22 97.32 97.38 97.45 97.49
91.24 91.43 91.64 91.81 92.01 92.23 92.44 92.62 92.77 92.88 93.01 93.15 93.28 93.42 93.51 93.56 93.72 93.79 93.92 93.99 94.16 94.24 94.36 94.46 94.56 94.67 94.76 94.85 94.93 95.00 95.10 95.17 95.26 95.33 95.43 95.51 95.64 95.76 95.95 96.22 96.53 96.73 96.82 96.90 96.97 97.00 97.09 97.17 97.26 97.35 97.43 97.50
91.25 91.44 91.64 91.81 92.04 92.27 92.50 92.69 92.83 92.95 93.02 93.16 93.29 93.41 93.46 93.47 93.57 93.71 93.81 93.93 94.08 94.20 94.29 94.41 94.51 94.58 94.67 94.73 94.82 94.89 94.96 95.04 95.13 95.24 95.35 95.47 95.61 95.75 95.94 96.21 96.51 96.71 96.79 96.88 96.93 96.96 96.99 97.09 97.20 97.32 97.43 97.52
91.26 91.46 91.67 91.85 92.06 92.30 92.53 92.72 92.82 92.91 93.00 93.10 93.23 93.32 93.37 93.38 93.32 93.63 93.74 93.88 94.02 94.12 94.21 94.31 94.41 94.49 94.58 94.66 94.72 94.81 94.89 94.98 95.09 95.19 95.31 95.42 95.56 95.75 95.94 96.20 96.50 96.68 96.79 96.85 96.90 96.89 96.90 96.99 97.12 97.27 97.37 97.46
91.29 91.47 91.68 91.85 92.06 92.27 92.47 92.65 92.75 92.85 92.89 93.01 93.13 93.22 93.32 93.34 93.06 93.56 93.69 93.83 93.96 94.08 94.17 94.26 94.34 94.44 94.51 94.58 94.65 94.74 94.81 94.89 95.00 95.10 95.24 95.38 95.52 95.69 95.91 96.19 96.47 96.67 96.75 96.82 96.83 96.81 96.81 96.92 97.09 97.24 97.33 97.42
91.29 91.49 91.67 91.83 91.99 92.18 92.37 92.57 92.68 92.79 92.85 92.97 93.07 93.17 93.26 93.27 92.90 93.47 93.63 93.82 93.92 94.02 94.10 94.20 94.27 94.34 94.41 94.47 94.54 94.61 94.71 94.80 94.90 95.01 95.14 95.29 95.47 95.66 95.88 96.15 96.44 96.62 96.71 96.78 96.79 96.74 96.77 96.90 97.13 97.28 97.40 97.47
91.29 91.48 91.64 91.80 91.95 92.12 92.32 92.51 92.67 92.78 92.84 92.99 93.05 93.12 93.19 93.22 92.79 93.39 93.58 93.72 93.86 93.94 94.04 94.09 94.15 94.22 94.29 94.36 94.44 94.51 94.62 94.70 94.81 94.92 95.08 95.24 95.41 95.60 95.81 96.10 96.39 96.61 96.65 96.73 96.75 96.72 96.78 96.96 97.24 97.44 97.53 97.61
91.27 91.49 91.63 91.80 91.93 92.08 92.27 92.47 92.62 92.75 92.83 92.90 92.99 93.10 93.15 93.15 92.69 93.28 93.49 93.64 93.75 93.85 93.93 94.00 94.06 94.11 94.18 94.27 94.34 94.43 94.53 94.64 94.74 94.86 95.02 95.16 95.35 95.54 95.79 96.05 96.36 96.53 96.60 96.68 96.73 96.73 96.78 96.98 97.26 97.48 97.57 97.64
91.26 91.45 91.59 91.76 91.91 92.04 92.21 92.41 92.60 92.69 92.79 92.89 92.97 93.04 93.09 93.06 92.58 93.17 93.32 93.54 93.68 93.76 93.85 93.88 93.96 94.03 94.11 94.20 94.31 94.39 94.49 94.60 94.71 94.84 94.97 95.12 95.31 95.51 95.75 96.03 96.31 96.46 96.54 96.62 96.68 96.70 96.76 96.94 97.22 97.47 97.57 97.65
91.23 91.44 91.57 91.72 91.86 91.97 92.18 92.35 92.55 92.69 92.77 92.85 92.93 93.04 93.00 92.97 92.48 92.94 93.23 93.44 93.59 93.66 93.72 93.77 93.87 93.96 94.04 94.13 94.23 94.32 94.42 94.53 94.65 94.79 94.93 95.09 95.29 95.48 95.72 95.99 96.25 96.40 96.46 96.52 96.59 96.60 96.68 96.89 97.18 97.43 97.59 97.69
91.21 91.41 91.54 91.70 91.84 91.96 92.15 92.32 92.53 92.67 92.74 92.86 92.89 92.96 92.94 92.85 92.30 92.85 93.11 93.33 93.51 93.56 93.63 93.72 93.81 93.88 93.98 94.07 94.17 94.26 94.38 94.50 94.62 94.78 94.93 95.09 95.27 95.47 95.69 95.91 96.14 96.27 96.33 96.41 96.46 96.49 96.61 96.84 97.12 97.41 97.68 97.90
91.20 91.40 91.57 91.68 91.85 91.97 92.12 92.29 92.49 92.62 92.70 92.79 92.81 92.91 92.82 92.67 92.10 92.71 92.95 93.22 93.38 93.46 93.54 93.62 93.72 93.81 93.93 94.03 94.14 94.26 94.36 94.49 94.62 94.76 94.90 95.08 95.25 95.44 95.61 95.82 95.99 96.12 96.22 96.35 96.38 96.44 96.60 96.88 97.26 97.43 97.24 97.68
91.20 91.39 91.54 91.69 91.83 91.96 92.09 92.25 92.42 92.57 92.64 92.74 92.77 92.81 92.69 92.46 91.94 92.54 92.77 93.11 93.24 93.35 93.45 93.56 93.69 93.79 93.92 94.02 94.12 94.22 94.35 94.49 94.62 94.75 94.88 95.03 95.21 95.38 95.54 95.69 95.81 95.93 96.10 96.32 96.45 96.51 96.54 96.12 97.32 97.49 97.63 97.70
91.21 91.39 91.51 91.65 91.79 91.95 92.06 92.19 92.35 92.50 92.59 92.64 92.66 92.66 92.52 92.26 91.99 92.35 92.59 92.84 93.11 93.25 93.38 93.51 93.63 93.75 93.87 93.99 94.07 94.18 94.31 94.41 94.55 94.69 94.83 95.00 95.11 95.27 95.44 95.60 95.76 95.95 95.94 95.77 96.34 97.08 97.17 97.29 97.40 97.44 97.63 97.71
91.17 91.34 91.50 91.64 91.77 91.93 92.04 92.15 92.29 92.38 92.46 92.50 92.47 92.39 92.19 92.06 92.00 92.21 92.43 92.63 92.90 93.11 93.27 93.41 93.56 93.70 93.79 93.89 94.00 94.11 94.22 94.36 94.49 94.61 94.80 94.97 95.14 95.29 95.19 95.27 95.14 96.46 96.55 96.72 96.84 96.96 97.04 97.25 97.44 97.50 97.61 97.71
91.15 91.34 91.48 91.61 91.75 91.90 91.99 92.05 92.21 92.22 92.24 92.17 92.08 92.05 91.93 91.87 91.88 92.16 92.26 92.50 92.74 92.96 93.21 93.40 93.59 93.69 93.73 93.72 93.62 93.67 93.86 94.03 94.26 94.11 94.05 94.85 95.28 95.52 95.77 95.98 96.15 96.32 96.43 96.51 96.66 96.85 97.08 97.33 97.47 97.55 97.64 97.77
91.15 91.32 91.46 91.58 91.71 91.81 91.90 91.92 91.98 92.01 91.97 91.92 91.79 91.76 91.77 91.19 90.85 91.67 91.83 91.93 92.06 92.08 92.11 92.29 92.96 93.51 93.76 93.91 94.10 94.29 94.44 94.52 94.62 94.80 94.96 95.11 95.28 95.49 95.62 95.78 95.93 96.16 96.29 96.44 96.64 96.85 97.10 97.34 97.52 97.60 97.68 97.81
