ncols 52
nrows 52
xllcorner 443904
yllcorner 5714432
cellsize 10
NODATA_value -9999
107.87 108.05 108.20 108.36 108.49 108.57 108.65 108.69 108.75 108.79 108.87 108.92 108.99 109.04 109.16 109.28 109.34 109.39 109.42 109.72 110.02 110.07 110.04 110.15 110.39 110.61 110.81 111.01 111.19 111.38 111.53 111.64 111.75 111.82 111.85 111.86 111.83 112.16 112.25 112.45 112.68 112.85 113.03 113.20 113.38 113.59 113.73 113.79 113.93 114.05 113.93 113.86
108.07 108.21 108.38 108.56 108.74 108.84 108.90 108.96 109.04 109.08 109.12 109.15 109.17 109.19 109.24 109.32 109.37 109.44 109.48 109.73 110.04 110.18 110.15 110.21 110.44 110.68 110.89 111.07 111.24 111.40 111.57 111.73 111.86 111.98 112.00 111.99 112.09 111.97 112.36 112.53 112.79 113.00 113.17 113.36 113.54 113.73 113.87 113.93 114.00 114.32 113.99 113.92
108.16 108.34 108.48 108.74 108.96 109.11 109.13 109.19 109.22 109.28 109.29 109.29 109.29 109.29 109.32 109.40 109.44 109.53 109.58 109.79 110.06 110.26 110.24 110.29 110.53 110.72 110.90 111.11 111.32 111.51 111.66 111.80 111.94 112.08 112.17 112.20 112.20 112.24 112.44 112.63 112.92 113.12 113.31 113.50 113.66 113.85 113.97 114.05 114.04 114.29 114.12 113.94
108.25 108.42 108.64 108.83 109.06 109.21 109.26 109.25 109.28 109.35 109.38 109.40 109.38 109.37 109.42 109.49 109.56 109.60 109.67 109.83 110.17 110.30 110.27 110.34 110.62 110.84 111.02 111.19 111.39 111.58 111.75 111.89 112.05 112.18 112.29 112.35 112.37 112.42 112.30 112.75 112.97 113.26 113.45 113.62 113.80 113.94 114.10 114.14 114.11 114.25 114.21 114.00
108.32 108.51 108.67 108.87 109.06 109.21 109.26 109.29 109.36 109.39 109.40 109.40 109.43 109.44 109.49 109.56 109.63 109.72 109.79 109.88 110.23 110.50 110.49 110.51 110.73 110.94 111.10 111.32 111.50 111.71 111.85 112.02 112.14 112.29 112.40 112.56 112.59 112.58 112.59 112.77 113.06 113.35 113.58 113.76 113.92 114.08 114.19 114.21 114.17 114.26 114.21 114.07
108.35 108.52 108.69 108.88 109.09 109.20 109.29 109.33 109.38 109.42 109.43 109.46 109.48 109.53 109.60 109.65 109.71 109.78 109.88 109.94 110.32 110.60 110.66 110.69 110.86 111.05 111.23 111.41 111.61 111.80 111.99 112.14 112.33 112.45 112.59 112.70 112.76 112.73 112.82 112.70 113.19 113.39 113.68 113.86 114.05 114.23 114.36 114.35 114.24 114.24 114.48 114.25
108.41 108.54 108.71 108.86 109.05 109.22 109.32 109.39 109.42 109.47 109.50 109.53 109.56 109.61 109.67 109.71 109.79 109.86 109.97 110.04 110.31 110.58 110.78 110.93 110.99 111.13 111.33 111.49 111.73 111.97 112.17 112.31 112.45 112.57 112.68 112.79 112.91 112.90 112.94 112.98 113.22 113.49 113.80 114.05 114.19 114.35 114.46 114.41 114.31 114.40 114.49 114.41
108.39 108.55 108.73 108.93 109.08 109.25 109.38 109.47 109.49 109.53 109.54 109.56 109.58 109.62 109.69 109.76 109.85 109.92 110.03 110.10 110.34 110.61 110.60 111.11 111.09 111.28 111.44 111.65 111.85 112.07 112.22 112.39 112.51 112.67 112.79 112.95 113.06 113.12 113.09 113.14 113.31 113.52 113.97 114.21 114.33 114.42 114.47 114.45 114.39 114.38 114.45 114.47
108.40 108.58 108.78 108.96 109.16 109.29 109.44 109.50 109.50 109.55 109.55 109.58 109.60 109.68 109.74 109.83 109.86 109.96 110.04 110.10 110.27 110.64 110.93 111.32 111.29 111.40 111.51 111.64 111.88 112.08 112.31 112.48 112.68 112.82 112.96 113.10 113.21 113.30 113.34 113.42 113.50 113.71 114.01 114.27 114.43 114.52 114.52 114.54 114.46 114.42 114.60 114.73
108.44 108.64 108.81 109.01 109.18 109.33 109.46 109.54 109.57 109.57 109.58 109.57 109.64 109.73 109.83 109.88 109.94 110.00 110.08 110.13 110.31 110.67 111.07 111.38 111.32 111.43 111.53 111.70 111.95 112.20 112.41 112.62 112.82 112.95 113.09 113.27 113.40 113.49 113.57 113.64 113.67 113.80 114.07 114.36 114.55 114.63 114.65 114.65 114.57 114.59 114.70 114.80
108.46 108.66 108.82 108.99 109.15 109.31 109.47 109.53 109.58 109.57 109.59 109.62 109.68 109.80 109.90 109.96 109.96 110.02 110.05 110.20 110.30 110.72 111.18 111.39 111.35 111.46 111.64 111.83 112.07 112.32 112.56 112.77 113.00 113.11 113.25 113.38 113.53 113.64 113.74 113.77 113.81 113.90 114.15 114.43 114.64 114.74 114.81 114.72 114.68 114.67 114.79 114.81
108.49 108.67 108.83 108.96 109.10 109.29 109.41 109.56 109.59 109.62 109.62 109.68 109.77 109.85 109.95 110.00 110.02 110.05 110.07 110.15 110.35 110.68 111.11 111.45 111.48 111.53 111.75 111.97 112.22 112.53 112.66 112.85 113.04 113.21 113.37 113.51 113.63 113.78 113.88 113.96 114.04 114.13 114.27 114.53 114.68 114.82 114.85 114.83 114.80 114.80 114.87 114.92
108.49 108.67 108.80 108.95 109.13 109.28 109.46 109.59 109.65 109.67 109.69 109.70 109.76 109.88 109.98 110.04 110.08 110.08 110.07 110.20 110.41 110.64 111.12 111.37 111.60 111.66 111.89 112.07 112.34 112.60 112.78 112.94 113.12 113.34 113.54 113.66 113.77 113.94 114.06 114.18 114.27 114.32 114.42 114.60 114.81 114.92 114.93 114.85 114.96 115.00 115.01 115.11
108.52 108.67 108.81 109.00 109.17 109.34 109.46 109.60 109.69 109.76 109.78 109.80 109.86 109.95 110.01 110.06 110.12 110.17 110.20 110.32 110.50 110.74 111.20 111.60 111.65 111.76 111.99 112.21 112.44 112.65 112.89 113.09 113.29 113.47 113.68 113.81 113.95 114.04 114.20 114.29 114.44 114.53 114.60 114.68 114.89 115.02 115.03 114.99 114.96 114.97 114.98 115.06
108.57 108.74 108.88 109.02 109.16 109.31 109.45 109.63 109.74 109.85 109.90 109.93 109.95 110.01 110.04 110.10 110.18 110.25 110.35 110.45 110.66 110.82 111.19 111.68 111.70 111.83 112.03 112.29 112.54 112.81 113.04 113.26 113.46 113.64 113.75 113.93 114.06 114.23 114.33 114.44 114.46 114.78 114.90 114.95 115.00 115.05 115.04 115.00 114.98 114.96 114.98 115.09
108.67 108.79 108.90 109.04 109.18 109.34 109.50 109.65 109.81 109.87 109.91 109.93 110.01 110.06 110.11 110.15 110.27 110.35 110.44 110.62 110.81 110.99 111.24 111.78 111.73 112.01 112.17 112.45 112.71 112.98 113.18 113.40 113.59 113.76 113.90 114.02 114.15 114.21 114.52 114.70 114.70 114.79 114.89 114.99 115.08 115.12 115.12 115.08 115.06 115.07 115.07 115.14
108.76 108.82 108.93 109.08 109.24 109.36 109.52 109.68 109.79 109.90 109.94 110.00 110.06 110.14 110.17 110.25 110.33 110.53 110.69 110.88 111.04 111.14 111.41 111.69 111.75 112.19 112.32 112.59 112.86 113.09 113.35 113.56 113.73 113.78 113.93 114.15 114.35 114.45 114.56 114.67 114.74 114.83 114.97 115.08 115.18 115.19 115.12 115.09 115.05 115.07 115.02 115.05
108.90 108.90 108.97 109.15 109.27 109.42 109.54 109.71 109.82 109.92 109.97 110.02 110.14 110.24 110.35 110.49 110.58 110.72 110.89 111.05 111.21 111.32 111.51 111.79 111.60 112.15 112.27 112.58 112.82 113.04 113.23 113.57 113.84 113.93 114.08 114.22 114.36 114.49 114.63 114.78 114.88 114.96 115.04 115.13 115.19 115.18 115.12 115.09 115.08 115.09 115.06 114.98
109.04 109.00 109.04 109.14 109.30 109.40 109.57 109.67 109.81 109.91 110.06 110.17 110.30 110.40 110.52 110.55 110.68 110.78 110.97 111.17 111.32 111.45 111.58 111.85 112.11 112.20 112.32 112.43 112.86 113.09 113.29 113.54 113.79 113.93 114.10 114.27 114.43 114.59 114.72 114.84 114.95 115.02 115.10 115.17 115.19 115.19 115.14 115.09 115.07 115.10 115.10 115.04
109.16 109.13 109.13 109.17 109.24 109.39 109.53 109.74 109.89 110.04 110.13 110.21 110.32 110.40 110.49 110.61 110.69 110.84 111.04 111.27 111.45 111.58 111.67 111.89 112.24 112.41 112.61 112.68 112.81 113.06 113.29 113.57 113.85 114.04 114.20 114.38 114.53 114.68 114.80 114.92 114.99 115.07 115.13 115.21 115.23 115.21 115.18 115.17 115.15 115.15 115.12 115.03
109.22 109.19 109.18 109.20 109.28 109.42 109.58 109.76 109.90 110.06 110.14 110.22 110.34 110.43 110.54 110.64 110.77 110.91 111.13 111.36 111.56 111.71 111.81 112.03 112.36 112.55 112.63 112.70 112.91 113.14 113.43 113.71 113.95 114.12 114.31 114.46 114.62 114.74 114.85 114.97 115.06 115.12 115.17 115.24 115.22 115.20 115.18 115.19 115.19 115.17 115.12 115.04
109.32 109.28 109.26 109.22 109.29 109.38 109.56 109.73 109.91 110.04 110.19 110.28 110.40 110.50 110.62 110.71 110.82 110.97 111.17 111.46 111.67 111.79 111.90 112.08 112.45 112.54 112.74 112.74 113.02 113.26 113.53 113.82 114.06 114.22 114.35 114.56 114.72 114.83 114.94 115.03 115.13 115.15 115.20 115.20 115.20 115.16 115.15 115.15 115.16 115.14 115.10 115.02
109.40 109.35 109.29 109.27 109.31 109.39 109.53 109.73 109.91 110.07 110.20 110.32 110.44 110.52 110.68 110.76 110.88 111.06 111.28 111.52 111.78 112.01 112.18 112.25 112.52 112.36 112.80 112.89 113.10 113.36 113.61 113.89 114.13 114.31 114.51 114.71 114.87 114.96 115.05 115.11 115.17 115.18 115.21 115.21 115.15 115.11 115.10 115.13 115.16 115.17 115.13 115.06
109.49 109.43 109.38 109.36 109.37 109.44 109.54 109.74 109.93 110.09 110.23 110.35 110.49 110.60 110.71 110.83 110.93 111.25 111.47 111.63 111.83 112.00 112.14 112.21 112.46 112.77 112.92 113.06 113.25 113.44 113.71 113.99 114.25 114.44 114.64 114.83 115.01 115.10 115.17 115.24 115.28 115.25 115.27 115.24 115.22 115.15 115.16 115.18 115.23 115.24 115.16 115.05
109.55 109.51 109.46 109.46 109.47 109.51 109.61 109.77 109.93 110.12 110.26 110.41 110.55 110.65 110.91 111.07 111.09 111.21 111.35 111.54 111.75 112.00 112.21 112.38 112.64 112.94 113.10 113.26 113.36 113.57 113.87 114.16 114.40 114.62 114.80 114.98 115.15 115.21 115.26 115.33 115.40 115.38 115.38 115.38 115.36 115.32 115.31 115.29 115.26 115.24 115.12 114.99
109.60 109.60 109.57 109.56 109.57 109.62 109.71 109.85 110.00 110.15 110.40 110.58 110.74 110.77 110.87 110.95 111.05 111.15 111.31 111.56 111.82 112.12 112.32 112.54 112.78 113.03 113.26 113.35 113.43 113.68 113.96 114.26 114.58 114.81 114.97 115.16 115.27 115.31 115.29 115.32 115.37 115.40 115.45 115.47 115.43 115.37 115.35 115.31 115.26 115.19 115.08 114.93
109.75 109.74 109.75 109.74 109.78 109.82 109.85 110.08 110.20 110.22 110.38 110.53 110.66 110.77 110.90 111.05 111.19 111.33 111.51 111.73 112.01 112.24 112.40 112.58 112.83 113.04 113.28 113.43 113.48 113.74 114.00 114.30 114.62 114.90 115.06 115.22 115.32 115.32 115.32 115.32 115.35 115.37 115.42 115.43 115.39 115.39 115.35 115.31 115.24 115.16 115.03 114.89
109.87 109.88 109.88 109.87 110.06 110.11 110.07 110.05 110.04 110.16 110.32 110.50 110.67 110.85 111.01 111.16 111.30 111.46 111.62 111.83 112.09 112.35 112.54 112.66 112.83 113.09 113.14 113.51 113.63 113.82 114.12 114.40 114.70 114.91 115.07 115.18 115.26 115.29 115.32 115.34 115.37 115.42 115.42 115.42 115.40 115.38 115.33 115.27 115.22 115.10 115.01 114.84
109.95 110.01 110.10 110.08 110.14 110.12 110.10 110.08 110.11 110.13 110.30 110.47 110.65 110.86 111.07 111.26 111.40 111.50 111.67 111.92 112.21 112.43 112.61 112.71 112.87 113.21 113.52 113.61 113.79 113.98 114.27 114.56 114.84 115.01 115.09 115.18 115.23 115.29 115.33 115.38 115.40 115.44 115.43 115.43 115.43 115.37 115.33 115.25 115.18 115.10 115.00 114.83
110.04 110.06 110.08 110.12 110.14 110.16 110.17 110.24 110.26 110.20 110.34 110.49 110.72 110.97 111.20 111.37 111.49 111.59 111.76 112.02 112.29 112.50 112.65 112.85 112.96 113.26 113.66 113.71 113.88 114.13 114.43 114.71 114.97 115.07 115.15 115.21 115.26 115.32 115.37 115.42 115.42 115.44 115.43 115.43 115.39 115.35 115.29 115.22 115.16 115.13 115.06 114.92
110.04 110.09 110.13 110.16 110.20 110.21 110.23 110.25 110.33 110.41 110.51 110.64 110.79 111.05 111.28 111.44 111.53 111.64 111.83 112.10 112.38 112.57 112.71 112.89 113.07 113.32 113.64 113.96 114.06 114.28 114.57 114.86 115.08 115.16 115.19 115.25 115.30 115.36 115.38 115.44 115.44 115.44 115.43 115.42 115.39 115.34 115.28 115.21 115.13 115.10 115.03 114.89
110.15 110.21 110.23 110.24 110.29 110.32 110.38 110.39 110.46 110.54 110.63 110.72 110.87 111.10 111.35 111.50 111.63 111.77 111.94 112.18 112.43 112.65 112.79 112.98 113.15 113.38 113.68 114.07 114.19 114.36 114.67 114.95 115.12 115.18 115.23 115.28 115.36 115.41 115.46 115.47 115.48 115.48 115.46 115.43 115.38 115.32 115.24 115.14 115.08 115.06 114.97 114.81
110.23 110.25 110.31 110.31 110.40 110.48 110.52 110.48 110.48 110.57 110.67 110.79 110.99 111.21 111.44 111.59 111.75 111.92 112.12 112.33 112.58 112.76 112.91 113.06 113.20 113.40 113.75 114.10 114.29 114.46 114.75 115.00 115.15 115.19 115.26 115.35 115.42 115.48 115.52 115.54 115.57 115.54 115.49 115.43 115.36 115.31 115.21 115.15 115.08 115.05 114.94 114.76
110.31 110.32 110.36 110.42 110.51 110.60 110.65 110.65 110.61 110.64 110.74 110.93 111.08 111.28 111.50 111.71 111.86 112.06 112.25 112.46 112.68 112.85 113.01 113.17 113.34 113.47 113.86 114.23 114.41 114.56 114.84 115.08 115.20 115.24 115.32 115.43 115.53 115.57 115.57 115.58 115.56 115.53 115.51 115.46 115.40 115.33 115.26 115.19 115.10 115.04 114.88 114.67
110.38 110.41 110.47 110.56 110.68 110.79 110.83 110.81 110.81 110.81 110.84 110.92 111.04 111.26 111.55 111.77 111.94 112.12 112.32 112.55 112.75 112.92 113.09 113.29 113.48 113.59 113.93 114.34 114.54 114.69 114.94 115.17 115.28 115.35 115.40 115.50 115.56 115.58 115.60 115.58 115.58 115.57 115.56 115.50 115.46 115.39 115.33 115.23 115.11 114.99 114.82 114.57
110.53 110.56 110.61 110.72 110.85 110.94 111.01 110.98 110.96 110.96 110.97 111.00 111.10 111.26 111.55 111.79 112.01 112.20 112.44 112.68 112.91 113.08 113.31 113.53 113.65 113.77 114.04 114.38 114.68 114.85 115.09 115.26 115.33 115.38 115.45 115.54 115.59 115.63 115.64 115.63 115.65 115.63 115.60 115.53 115.47 115.41 115.33 115.21 115.07 114.93 114.72 114.48
110.68 110.73 110.75 110.86 110.96 111.06 111.10 111.13 111.13 111.19 111.21 111.22 111.25 111.29 111.48 111.71 111.95 112.22 112.49 112.76 113.00 113.24 113.44 113.63 113.82 113.96 114.16 114.53 114.90 115.00 115.17 115.35 115.43 115.47 115.54 115.64 115.69 115.71 115.72 115.72 115.70 115.65 115.58 115.51 115.45 115.41 115.32 115.17 115.01 114.85 114.65 114.42
110.84 110.86 110.89 110.95 111.05 111.15 111.22 111.25 111.33 111.43 111.43 111.47 111.42 111.35 111.44 111.64 111.92 112.21 112.46 112.72 113.03 113.27 113.46 113.68 113.87 114.06 114.25 114.63 114.89 115.14 115.25 115.40 115.52 115.58 115.64 115.71 115.76 115.75 115.75 115.75 115.71 115.65 115.57 115.50 115.44 115.40 115.29 115.15 114.97 114.79 114.58 114.38
110.98 110.99 111.03 111.09 111.17 111.22 111.32 111.40 111.54 111.65 111.70 111.67 111.60 111.47 111.49 111.63 111.90 112.26 112.50 112.77 113.02 113.25 113.47 113.69 113.91 114.12 114.35 114.75 115.07 115.26 115.34 115.50 115.57 115.66 115.71 115.75 115.78 115.78 115.79 115.75 115.72 115.65 115.56 115.49 115.44 115.41 115.29 115.12 114.96 114.75 114.53 114.32
111.10 111.12 111.17 111.23 111.30 111.37 111.50 111.61 111.71 111.86 111.86 111.79 111.72 111.61 111.58 111.70 111.98 112.28 112.55 112.84 113.10 113.33 113.57 113.78 114.03 114.24 114.42 114.79 115.22 115.38 115.46 115.58 115.67 115.72 115.77 115.80 115.83 115.82 115.82 115.79 115.74 115.66 115.57 115.51 115.48 115.42 115.28 115.08 114.91 114.70 114.51 114.31
111.28 111.32 111.34 111.42 111.47 111.59 111.66 111.75 111.84 111.96 111.96 111.90 111.85 111.81 111.74 111.84 112.08 112.39 112.68 112.92 113.18 113.44 113.68 113.92 114.16 114.40 114.57 114.90 115.30 115.50 115.64 115.67 115.73 115.79 115.83 115.87 115.88 115.89 115.87 115.84 115.78 115.70 115.60 115.53 115.47 115.41 115.27 115.08 114.89 114.69 114.50 114.30
111.49 111.51 111.57 111.60 111.64 111.70 111.77 111.85 111.91 112.06 112.12 112.10 112.12 112.10 112.07 112.01 112.13 112.44 112.73 113.03 113.30 113.62 113.87 114.10 114.30 114.53 114.77 115.03 115.40 115.65 115.77 115.75 115.82 115.89 115.93 115.96 115.95 115.97 115.94 115.91 115.81 115.72 115.63 115.57 115.53 115.40 115.24 115.07 114.87 114.68 114.50 114.32
111.69 111.69 111.71 111.71 111.79 111.83 111.92 111.96 112.04 112.20 112.31 112.33 112.37 112.38 112.35 112.22 112.26 112.49 112.82 113.15 113.46 113.71 113.95 114.17 114.43 114.65 114.92 115.17 115.51 115.69 115.87 115.85 115.93 115.98 116.03 116.04 116.03 116.05 116.01 115.97 115.89 115.78 115.69 115.65 115.57 115.43 115.26 115.09 114.88 114.67 114.46 114.30
111.88 111.87 111.85 111.92 111.95 112.00 112.05 112.13 112.21 112.36 112.47 112.54 112.59 112.59 112.64 112.56 112.49 112.59 112.88 113.22 113.53 113.81 114.05 114.32 114.57 114.82 115.12 115.36 115.67 115.92 116.00 115.97 116.04 116.07 116.12 116.13 116.13 116.12 116.08 116.05 115.96 115.87 115.79 115.72 115.63 115.46 115.24 115.06 114.85 114.66 114.50 114.31
112.09 112.08 112.08 112.11 112.17 112.21 112.25 112.27 112.32 112.47 112.59 112.72 112.80 112.84 112.87 112.82 112.70 112.71 112.95 113.24 113.62 113.94 114.24 114.51 114.76 115.01 115.26 115.43 115.68 116.02 116.10 116.13 116.15 116.18 116.20 116.24 116.24 116.23 116.24 116.16 116.06 115.96 115.85 115.78 115.66 115.48 115.26 115.07 114.86 114.67 114.50 114.32
112.31 112.30 112.27 112.27 112.32 112.31 112.34 112.37 112.46 112.60 112.78 112.89 112.97 113.02 113.06 113.08 113.02 112.95 113.06 113.31 113.68 114.06 114.40 114.71 114.91 115.13 115.43 115.65 115.89 116.08 116.18 116.23 116.21 116.29 116.34 116.38 116.40 116.40 116.35 116.26 116.13 116.03 115.92 115.85 115.68 115.51 115.29 115.10 114.88 114.68 114.50 114.34
112.45 112.43 112.40 112.39 112.42 112.46 112.50 112.56 112.61 112.73 112.91 113.06 113.18 113.28 113.35 113.40 113.39 113.31 113.26 113.42 113.71 114.09 114.44 114.94 115.15 115.38 115.50 115.70 115.92 116.18 116.36 116.34 116.35 116.43 116.46 116.51 116.53 116.50 116.46 116.36 116.24 116.12 116.01 115.91 115.73 115.54 115.33 115.12 114.92 114.73 114.54 114.38
112.53 112.58 112.57 112.58 112.60 112.61 112.67 112.74 112.82 112.94 113.14 113.31 113.47 113.57 113.66 113.69 113.72 113.67 113.59 113.66 113.91 114.21 114.61 114.93 115.23 115.46 115.64 115.87 116.04 116.31 116.41 116.46 116.45 116.51 116.58 116.60 116.62 116.59 116.56 116.45 116.32 116.24 116.13 116.03 115.83 115.62 115.37 115.16 114.95 114.75 114.58 114.41
112.73 112.77 112.75 112.72 112.76 112.79 112.88 113.01 113.11 113.22 113.38 113.52 113.69 113.79 113.83 113.86 114.02 114.07 114.05 113.97 114.00 114.25 114.57 114.96 115.29 115.56 115.77 115.99 116.14 116.42 116.57 116.59 116.56 116.62 116.65 116.70 116.69 116.69 116.62 116.52 116.43 116.34 116.28 116.14 115.96 115.73 115.47 115.21 114.99 114.81 114.64 114.48
112.87 112.90 112.87 112.87 112.91 113.00 113.10 113.25 113.33 113.47 113.57 113.65 113.71 113.94 114.01 114.12 114.18 114.28 114.32 114.23 114.21 114.31 114.58 114.94 115.29 115.62 115.90 116.14 116.30 116.50 116.74 116.72 116.68 116.69 116.75 116.78 116.79 116.77 116.71 116.62 116.52 116.46 116.40 116.27 116.06 115.81 115.56 115.30 115.07 114.89 114.73 114.54
112.95 113.04 113.04 113.05 113.08 113.14 113.27 113.37 113.45 113.56 113.74 113.82 113.93 114.02 114.17 114.29 114.43 114.55 114.57 114.49 114.43 114.45 114.61 114.91 115.26 115.65 116.00 116.25 116.46 116.54 116.83 116.81 116.79 116.79 116.85 116.88 116.87 116.84 116.78 116.70 116.62 116.52 116.45 116.26 116.06 115.82 115.57 115.34 115.14 115.00 114.83 114.60
113.10 113.15 113.18 113.18 113.20 113.24 113.36 113.54 113.66 113.75 113.85 113.97 114.04 114.20 114.33 114.48 114.58 114.72 114.82 114.82 114.74 114.67 114.69 114.85 115.19 115.63 116.03 116.33 116.54 116.65 116.89 116.94 116.94 116.89 116.94 116.97 116.96 116.92 116.83 116.76 116.67 116.61 116.48 116.28 116.02 115.78 115.59 115.39 115.24 115.09 114.89 114.61
