ncols 52
nrows 52
xllcorner 444416
yllcorner 5712896
cellsize 10
NODATA_value -9999
127.10 127.09 127.13 127.18 127.21 127.26 127.39 127.51 127.66 127.85 128.05 128.20 128.33 128.51 128.83 129.09 129.42 129.81 130.15 130.54 130.96 131.26 131.56 131.62 131.68 131.76 131.88 131.93 132.15 132.17 132.30 132.43 132.71 132.98 133.20 133.85 134.20 133.91 133.68 133.40 133.39 133.65 134.32 134.38 134.47 134.40 134.32 134.19 133.94 134.23 134.09 133.99
127.34 127.27 127.31 127.33 127.36 127.40 127.52 127.65 127.80 127.99 128.19 128.34 128.48 128.67 128.99 129.22 129.55 129.93 130.33 130.73 131.13 131.42 131.61 131.82 131.91 132.07 132.07 132.09 132.25 132.33 132.39 132.57 132.84 133.36 133.74 134.08 133.85 133.47 133.33 133.56 134.22 134.40 134.46 134.57 134.39 134.28 134.02 133.77 134.07 134.37 134.25 134.10
127.70 127.44 127.46 127.53 127.54 127.57 127.65 127.75 127.94 128.12 128.34 128.50 128.63 128.79 129.11 129.42 129.75 130.11 130.51 130.92 131.29 131.58 131.76 131.99 132.10 132.17 132.23 132.26 132.26 132.45 132.60 132.80 133.18 133.97 134.07 133.72 133.42 133.46 133.84 134.42 134.47 134.70 134.45 134.37 134.11 133.51 133.85 134.01 134.29 134.28 134.32 134.25
127.79 127.67 127.64 127.69 127.70 127.72 127.81 127.94 128.09 128.29 128.47 128.63 128.77 128.95 129.23 129.59 129.93 130.32 130.70 131.07 131.45 131.72 131.92 132.11 132.18 132.30 132.31 132.40 132.39 132.49 132.77 133.13 134.05 134.11 133.93 133.46 133.74 134.39 134.48 134.54 134.54 134.44 134.35 133.86 133.81 133.73 133.98 134.36 134.20 134.32 134.46 134.38
127.51 127.86 127.81 127.80 127.81 127.85 127.97 128.09 128.25 128.42 128.63 128.79 128.95 129.10 129.40 129.79 130.09 130.53 130.95 131.26 131.62 131.83 132.00 132.20 132.30 132.37 132.40 132.58 132.60 132.78 133.20 133.98 134.21 133.83 133.73 134.21 134.51 134.55 134.80 134.52 134.43 134.09 133.74 133.77 133.86 134.04 134.36 134.30 134.35 134.47 134.45 134.53
127.81 128.10 127.96 127.92 127.93 127.97 128.10 128.24 128.41 128.59 128.79 128.98 129.13 129.31 129.53 129.96 130.29 130.71 131.13 131.46 131.75 131.93 132.11 132.21 132.34 132.37 132.48 132.70 132.73 133.09 133.95 134.30 134.02 134.30 134.51 134.57 134.64 134.62 134.52 134.41 133.94 133.70 133.86 133.92 134.08 134.41 134.42 134.50 134.46 134.54 134.63 134.66
128.12 128.40 128.08 127.99 128.01 128.07 128.22 128.41 128.56 128.72 128.93 129.11 129.30 129.45 129.68 130.12 130.50 130.88 131.26 131.56 131.83 132.07 132.21 132.30 132.44 132.49 132.50 132.68 132.76 133.45 134.50 134.26 134.55 134.60 134.65 134.76 134.60 134.50 134.05 133.86 133.83 133.92 134.02 134.25 134.43 134.49 134.54 134.57 134.65 134.73 134.81 134.96
128.19 128.64 128.21 128.11 128.15 128.21 128.35 128.55 128.73 128.89 129.07 129.26 129.46 129.61 129.84 130.22 130.62 131.02 131.38 131.70 131.92 132.18 132.30 132.41 132.48 132.53 132.59 132.58 132.60 133.90 134.42 134.60 134.65 134.75 134.68 134.60 134.43 133.92 133.84 133.96 134.07 134.18 134.46 134.58 134.68 134.73 134.70 134.82 134.83 134.94 135.12 135.04
128.28 128.08 128.35 128.27 128.29 128.39 128.53 128.69 128.90 129.08 129.25 129.45 129.65 129.85 130.03 130.31 130.76 131.12 131.52 131.82 132.01 132.29 132.39 132.47 132.57 132.60 132.64 132.34 133.51 134.59 134.67 134.72 134.82 134.67 134.58 134.02 133.94 134.02 134.15 134.24 134.56 134.65 134.80 134.78 134.74 134.76 134.93 134.97 135.06 135.19 135.16 135.24
128.35 128.25 128.48 128.37 128.43 128.54 128.63 128.79 129.01 129.21 129.41 129.62 129.82 130.01 130.17 130.40 130.81 131.19 131.61 131.91 132.17 132.41 132.52 132.67 132.63 132.26 133.01 134.18 134.68 134.74 134.84 134.76 134.67 134.51 134.31 134.29 134.29 134.41 134.59 134.65 134.70 134.82 134.98 134.96 134.92 134.97 135.07 135.18 135.31 135.40 135.36 135.35
128.42 128.54 128.65 128.47 128.55 128.63 128.71 128.86 129.04 129.27 129.48 129.69 129.90 130.10 130.29 130.55 130.92 131.29 131.70 132.03 132.27 132.54 132.71 132.68 131.68 133.35 134.68 134.74 134.80 134.89 134.74 134.67 134.46 134.45 134.56 134.48 134.48 134.57 134.63 134.70 134.87 135.01 135.15 135.10 135.09 135.16 135.26 135.42 135.57 135.47 135.47 135.47
128.47 128.54 128.88 128.62 128.67 128.76 128.85 128.99 129.16 129.37 129.60 129.82 130.04 130.22 130.37 130.70 131.02 131.42 131.77 132.13 132.45 132.64 132.33 132.94 134.26 134.77 134.82 134.96 134.82 134.74 134.58 134.21 134.07 134.17 134.24 134.42 134.57 134.70 134.78 134.90 135.04 135.17 135.21 135.35 135.27 135.38 135.45 135.59 135.65 135.71 135.68 135.60
128.56 128.64 128.74 128.80 128.84 128.93 128.98 129.10 129.30 129.50 129.73 129.94 130.17 130.36 130.55 130.79 131.14 131.48 131.93 132.28 132.45 131.62 133.28 134.76 134.82 134.89 135.00 134.82 134.71 134.21 133.85 134.27 134.27 134.40 134.45 134.61 134.73 134.81 134.92 135.09 135.18 135.31 135.35 135.46 135.46 135.56 135.61 135.79 135.79 135.84 135.83 135.76
128.65 128.76 128.89 128.99 128.99 129.05 129.11 129.24 129.38 129.57 129.81 130.06 130.31 130.53 130.71 130.98 131.25 131.65 131.93 131.85 132.79 134.27 134.83 134.90 135.04 134.89 134.81 134.66 134.14 134.26 134.27 134.43 134.42 134.48 134.62 134.74 134.92 135.04 135.13 135.27 135.35 135.49 135.55 135.66 135.67 135.72 135.84 135.90 136.01 136.04 135.95 135.93
128.77 128.91 128.99 129.24 129.19 129.25 129.32 129.38 129.52 129.71 129.93 130.21 130.47 130.70 130.90 131.16 131.39 131.65 131.61 133.22 134.82 134.90 134.96 135.09 134.89 134.80 134.23 134.10 134.44 134.38 134.42 134.54 134.53 134.63 134.77 134.93 135.14 135.11 135.37 135.48 135.55 135.71 135.83 135.87 135.84 135.88 136.12 136.06 136.15 136.15 136.15 136.11
128.90 129.05 129.25 129.65 129.37 129.40 129.52 129.58 129.69 129.86 130.04 130.33 130.58 130.89 131.14 131.33 131.50 132.22 134.23 134.90 134.96 135.07 134.97 134.88 134.75 134.28 134.44 134.41 134.60 134.52 134.63 134.68 134.80 134.88 135.04 135.15 135.27 135.43 135.51 135.65 135.77 135.91 136.03 136.03 136.04 136.12 136.17 136.26 136.33 136.30 136.26 136.31
129.00 129.22 129.46 129.55 129.59 129.61 129.69 129.73 129.85 130.01 130.19 130.44 130.77 131.06 131.25 131.41 132.80 134.84 134.97 135.01 135.15 134.96 134.86 134.39 134.07 134.48 134.58 134.59 134.66 134.73 134.80 134.99 135.01 135.17 135.29 135.38 135.52 135.61 135.72 135.86 136.09 136.09 136.23 136.28 136.23 136.39 136.38 136.43 136.46 136.47 136.45 136.55
129.17 129.42 129.70 129.10 129.74 129.75 129.83 129.90 130.03 130.21 130.42 130.71 130.92 131.09 131.92 133.97 134.97 135.03 135.15 135.05 134.97 134.83 134.09 134.03 134.30 134.45 134.59 134.76 134.88 134.96 135.07 135.20 135.33 135.40 135.58 135.65 135.86 135.93 135.93 136.04 136.21 136.28 136.45 136.49 136.46 136.53 136.63 136.62 136.63 136.60 136.68 136.80
129.36 129.62 129.88 129.96 129.97 129.92 129.99 130.06 130.20 130.44 130.65 130.84 131.16 132.62 134.88 135.01 135.09 135.23 135.05 134.96 134.52 133.54 133.87 134.02 134.08 134.36 134.65 134.93 135.09 135.18 135.30 135.39 135.54 135.64 135.80 135.98 136.11 136.18 136.20 136.30 136.41 136.44 136.57 136.69 136.76 136.74 136.77 136.81 136.83 136.81 136.90 136.99
129.55 129.81 130.06 130.14 130.38 130.12 130.15 130.26 130.46 130.60 130.72 131.69 133.73 135.04 135.10 135.19 135.14 135.05 134.93 133.77 133.33 133.69 133.79 133.88 134.05 134.29 134.67 134.99 135.20 135.37 135.54 135.63 135.73 135.87 135.99 136.08 136.25 136.37 136.42 136.47 136.60 136.66 136.74 136.89 136.96 136.97 136.97 136.93 136.97 137.05 137.17 137.25
129.74 129.98 130.23 130.38 130.53 130.34 130.43 130.52 130.61 130.58 132.29 134.76 135.10 135.17 135.25 135.14 135.04 134.57 133.25 133.21 133.51 133.59 133.82 133.95 134.10 134.32 134.63 135.01 135.31 135.49 135.66 135.82 135.93 136.07 136.19 136.29 136.42 136.50 136.54 136.65 136.74 136.79 136.81 137.08 137.36 137.30 137.21 137.15 137.17 137.25 137.36 137.44
129.91 130.17 130.43 130.62 130.06 130.68 130.68 130.69 131.32 132.96 135.10 135.17 135.22 135.24 135.13 135.02 133.65 132.79 133.22 133.24 133.43 133.63 133.87 134.04 134.18 134.42 134.67 135.01 135.35 135.58 135.80 135.97 136.12 136.29 136.36 136.49 136.63 136.79 136.79 136.93 137.10 137.17 137.22 137.49 137.80 137.68 137.73 137.69 137.64 137.59 137.57 137.54
130.11 130.35 130.64 130.88 130.98 131.01 130.79 131.67 134.04 135.17 135.23 135.38 135.23 135.13 134.85 133.06 132.83 133.10 133.19 133.35 133.55 133.76 133.97 134.17 134.29 134.51 134.74 135.07 135.43 135.75 136.08 136.19 136.32 136.61 136.79 136.81 136.84 136.91 136.96 136.98 137.01 137.07 137.18 137.68 138.00 138.02 138.02 138.09 138.14 138.03 137.99 137.99
130.36 130.58 130.94 131.19 131.38 131.00 132.42 134.90 135.24 135.29 135.40 135.22 135.11 134.02 132.74 132.98 133.01 133.10 133.32 133.54 133.76 134.07 134.19 134.38 134.59 134.73 135.06 135.38 135.67 135.96 136.18 136.37 136.46 136.56 136.65 136.78 136.84 136.90 137.01 137.04 137.10 137.18 137.49 137.97 138.11 138.20 138.22 138.26 138.25 138.27 138.25 138.27
130.68 130.88 131.26 131.51 131.92 132.37 135.21 135.29 135.42 135.32 135.23 135.06 133.16 132.68 132.97 132.98 133.25 133.48 133.58 133.86 134.16 134.38 134.51 134.65 134.82 134.96 135.12 135.33 135.63 135.92 136.18 136.37 136.50 136.64 136.76 136.85 136.93 137.04 137.11 137.15 137.25 137.34 137.85 138.18 138.27 138.37 138.38 138.40 138.45 138.45 138.44 138.47
130.90 131.18 131.23 132.10 134.27 135.30 135.34 135.61 135.31 135.20 134.22 132.85 132.90 132.96 133.01 133.24 133.45 133.63 133.80 133.94 134.14 134.34 134.49 134.68 134.90 135.12 135.28 135.49 135.76 136.07 136.32 136.49 136.61 136.76 136.90 136.98 137.05 137.13 137.21 137.27 137.40 137.60 138.14 138.34 138.41 138.48 138.52 138.52 138.51 138.52 138.48 138.57
131.15 131.29 132.83 135.15 135.35 135.41 135.39 135.31 135.09 133.14 132.38 132.75 132.76 132.91 133.08 133.29 133.45 133.65 133.88 134.07 134.26 134.47 134.68 134.91 135.14 135.36 135.57 135.79 136.00 136.25 136.45 136.62 136.75 136.88 136.98 137.10 137.18 137.24 137.32 137.44 137.58 137.98 138.39 138.46 138.57 138.64 138.68 138.67 138.64 138.64 138.64 138.69
131.71 133.72 135.35 135.41 135.55 135.40 135.31 134.10 132.39 132.60 132.69 132.69 132.85 133.02 133.22 133.46 133.64 133.83 134.07 134.30 134.51 134.65 134.86 135.10 135.39 135.66 135.88 136.05 136.28 136.46 136.61 136.76 136.91 137.06 137.13 137.20 137.29 137.40 137.49 137.60 137.73 138.30 138.57 138.61 138.73 138.80 138.79 138.77 138.78 138.77 138.80 138.89
134.72 135.41 135.47 135.54 135.42 135.30 133.42 131.77 132.63 132.65 132.65 132.80 133.02 133.23 133.44 133.67 133.85 134.05 134.28 134.50 134.71 134.90 135.09 135.32 135.60 135.93 136.21 136.41 136.56 136.69 136.82 136.95 137.09 137.20 137.26 137.33 137.43 137.54 137.62 137.74 137.95 138.52 138.63 138.74 138.88 138.90 138.88 138.86 138.87 138.89 138.97 139.07
135.47 135.57 135.49 135.40 134.80 132.82 132.49 132.67 132.66 132.72 132.83 133.03 133.24 133.45 133.66 133.88 134.05 134.26 134.51 134.77 134.95 135.14 135.33 135.57 135.85 136.18 136.49 136.72 136.82 136.91 137.01 137.12 137.21 137.27 137.35 137.43 137.52 137.61 137.73 137.86 138.35 138.64 138.76 138.90 139.00 139.07 139.04 139.01 138.98 139.00 139.13 139.23
135.67 135.49 135.39 133.88 132.65 132.60 132.65 132.67 132.77 132.91 133.09 133.31 133.51 133.68 133.87 134.09 134.29 134.52 134.77 135.00 135.20 135.37 135.57 135.83 136.10 136.42 136.69 136.89 137.02 137.08 137.15 137.23 137.30 137.38 137.46 137.54 137.63 137.75 137.88 138.07 138.61 138.80 138.92 139.01 139.12 139.18 139.21 139.21 139.20 139.24 139.31 139.32
135.49 135.34 133.17 131.85 132.64 132.65 132.70 132.83 132.96 133.14 133.34 133.55 133.73 133.91 134.07 134.26 134.49 134.73 134.98 135.19 135.37 135.58 135.83 136.11 136.40 136.67 136.89 137.06 137.17 137.23 137.28 137.34 137.42 137.51 137.59 137.68 137.79 137.90 138.05 138.39 138.70 138.86 139.00 139.13 139.23 139.27 139.26 139.31 139.31 139.40 139.47 139.41
134.60 132.82 132.64 132.64 132.67 132.77 132.90 133.03 133.15 133.38 133.56 133.73 133.88 134.07 134.26 134.45 134.69 134.94 135.19 135.41 135.60 135.82 136.09 136.41 136.69 136.94 137.13 137.24 137.30 137.37 137.43 137.49 137.57 137.68 137.76 137.86 137.98 138.08 138.26 138.54 138.75 138.85 138.91 139.07 139.21 139.26 139.35 139.40 139.44 139.54 139.57 139.54
132.43 132.66 132.72 132.75 132.86 132.91 133.03 133.15 133.36 133.55 133.71 133.87 134.04 134.22 134.46 134.67 134.92 135.16 135.41 135.62 135.85 136.09 136.38 136.68 136.96 137.17 137.32 137.37 137.46 137.57 137.63 137.67 137.74 137.84 137.93 138.02 138.11 138.23 138.41 138.69 138.85 138.93 138.94 139.03 139.20 139.29 139.36 139.46 139.57 139.68 139.69 139.67
132.60 132.71 132.83 132.94 133.00 133.05 133.15 133.29 133.50 133.70 133.88 134.04 134.21 134.42 134.66 134.89 135.12 135.37 135.61 135.85 136.07 136.36 136.68 136.96 137.19 137.37 137.48 137.55 137.64 137.75 137.78 137.81 137.91 138.00 138.07 138.15 138.22 138.32 138.64 138.84 138.95 139.04 139.10 139.19 139.27 139.40 139.41 139.51 139.63 139.73 139.78 139.86
132.62 132.85 133.00 133.07 133.15 133.25 133.35 133.49 133.67 133.85 134.03 134.23 134.40 134.60 134.83 135.10 135.35 135.61 135.85 136.09 136.34 136.63 136.94 137.21 137.39 137.54 137.65 137.74 137.80 137.89 137.92 137.96 138.04 138.13 138.19 138.27 138.34 138.46 138.76 138.95 138.99 139.08 139.25 139.38 139.41 139.51 139.57 139.70 139.83 139.90 139.89 139.93
132.79 133.04 133.12 133.22 133.31 133.39 133.52 133.65 133.83 134.05 134.23 134.41 134.62 134.82 135.02 135.28 135.53 135.82 136.09 136.31 136.62 136.94 137.25 137.46 137.57 137.71 137.84 137.93 138.01 138.05 138.07 138.12 138.16 138.24 138.33 138.40 138.47 138.63 138.88 138.98 139.06 139.14 139.35 139.50 139.58 139.70 139.74 139.89 140.01 140.14 140.17 140.21
132.93 133.15 133.28 133.38 133.45 133.55 133.66 133.81 133.99 134.19 134.40 134.60 134.80 135.00 135.24 135.49 135.71 135.99 136.27 136.54 136.84 137.17 137.48 137.69 137.80 137.94 138.05 138.13 138.21 138.23 138.24 138.25 138.33 138.37 138.46 138.52 138.62 138.96 139.05 139.12 139.13 139.30 139.49 139.65 139.72 139.82 139.89 140.06 140.15 140.26 140.39 140.43
133.09 133.24 133.38 133.48 133.58 133.71 133.84 133.99 134.14 134.35 134.56 134.78 134.98 135.20 135.42 135.66 135.90 136.18 136.43 136.69 136.99 137.35 137.65 137.87 138.02 138.19 138.28 138.30 138.34 138.39 138.38 138.42 138.45 138.54 138.62 138.67 138.92 139.18 139.21 139.25 139.29 139.52 139.62 139.77 139.84 139.87 139.99 140.13 140.23 140.33 140.51 140.60
133.22 133.39 133.49 133.60 133.74 133.89 134.04 134.14 134.29 134.51 134.76 134.93 135.13 135.35 135.63 135.87 136.11 136.35 136.60 136.86 137.17 137.49 137.83 138.08 138.21 138.32 138.40 138.47 138.53 138.56 138.57 138.58 138.62 138.72 138.83 138.89 139.20 139.30 139.43 139.52 139.59 139.76 139.83 139.88 140.02 139.99 140.11 140.27 140.38 140.48 140.56 140.64
133.36 133.52 133.68 133.78 133.92 134.06 134.23 134.35 134.52 134.72 134.95 135.17 135.29 135.48 135.76 136.02 136.33 136.53 136.74 137.01 137.38 137.75 138.05 138.25 138.36 138.45 138.54 138.62 138.67 138.71 138.72 138.74 138.82 138.88 139.01 139.17 139.41 139.51 139.59 139.66 139.81 139.94 140.12 140.16 140.11 140.20 140.36 140.54 140.64 140.75 140.81 140.83
133.42 133.65 133.80 133.96 134.15 134.29 134.48 134.57 134.70 134.93 135.14 135.25 135.47 135.65 135.90 136.21 136.51 136.72 136.95 137.25 137.60 137.94 138.22 138.38 138.47 138.54 138.66 138.76 138.79 138.84 138.89 138.93 139.01 139.13 139.25 139.51 139.74 139.76 139.82 139.84 139.96 140.08 140.26 140.32 140.37 140.51 140.66 140.72 140.81 140.96 140.97 141.04
133.58 133.78 134.07 134.30 134.49 134.68 134.90 134.97 135.05 135.31 135.49 135.64 135.62 135.84 136.04 136.36 136.64 136.87 137.12 137.42 137.74 138.10 138.37 138.56 138.65 138.73 138.79 138.91 138.94 138.98 139.04 139.12 139.24 139.34 139.51 139.72 139.94 139.95 140.02 140.15 140.24 140.28 140.39 140.51 140.57 140.75 140.82 140.91 140.97 141.13 141.22 141.26
133.92 134.16 134.35 134.54 134.75 135.00 135.05 135.21 135.35 135.47 135.75 135.86 135.80 136.00 136.24 136.52 136.79 137.06 137.29 137.57 137.90 138.24 138.51 138.69 138.79 138.88 138.98 139.07 139.12 139.14 139.19 139.31 139.41 139.54 139.73 139.97 140.10 140.20 140.26 140.26 140.33 140.40 140.54 140.62 140.82 140.95 141.06 141.13 141.19 141.37 141.45 141.49
134.23 134.45 134.58 134.71 134.90 135.16 135.16 135.32 135.53 135.68 135.86 136.10 136.03 136.22 136.48 136.74 136.97 137.20 137.45 137.72 138.02 138.38 138.65 138.82 138.92 139.00 139.12 139.22 139.26 139.31 139.39 139.51 139.65 139.74 140.17 140.21 140.33 140.45 140.51 140.61 140.63 140.68 140.76 140.83 141.04 141.09 141.14 141.29 141.42 141.53 141.57 141.66
134.37 134.54 134.66 134.78 135.01 135.05 135.27 135.51 135.71 135.86 136.05 136.29 136.21 136.46 136.73 136.94 137.10 137.32 137.58 137.88 138.19 138.53 138.79 138.98 139.08 139.16 139.27 139.37 139.43 139.47 139.60 139.71 139.86 140.28 140.36 140.45 140.55 140.53 140.66 140.74 140.89 141.06 141.12 141.25 141.26 141.32 141.44 141.52 141.60 141.71 141.79 141.85
134.51 134.64 134.77 134.97 135.11 135.27 135.48 135.72 135.83 136.10 136.30 136.55 136.52 136.65 136.83 137.03 137.26 137.49 137.75 138.05 138.40 138.71 138.96 139.12 139.25 139.34 139.40 139.49 139.55 139.64 139.79 139.96 140.37 140.43 140.50 140.62 140.74 140.68 140.74 140.88 140.97 141.12 141.28 141.32 141.47 141.57 141.58 141.64 141.81 141.98 142.08 142.16
134.61 134.74 134.94 135.19 135.32 135.53 135.66 135.91 136.04 136.24 136.48 136.62 136.74 136.71 136.91 137.13 137.39 137.68 137.93 138.21 138.54 138.85 139.12 139.28 139.43 139.54 139.61 139.67 139.73 139.83 140.03 140.43 140.49 140.56 140.64 140.81 140.87 140.89 140.93 141.00 141.13 141.31 141.38 141.44 141.55 141.67 141.73 141.88 142.02 142.12 142.14 142.24
134.72 134.91 135.12 135.24 135.44 135.66 135.77 136.06 136.19 136.37 136.58 136.74 136.88 136.81 136.99 137.26 137.52 137.83 138.09 138.35 138.68 139.01 139.28 139.47 139.69 139.83 139.85 139.89 139.96 140.06 140.47 140.53 140.57 140.67 140.82 140.90 140.93 141.00 141.14 141.19 141.34 141.49 141.57 141.63 141.71 141.83 141.93 142.10 142.25 142.43 142.58 142.62
134.83 135.11 135.24 135.38 135.62 135.83 135.88 136.16 136.36 136.53 136.72 136.89 136.98 136.91 137.10 137.36 137.64 137.92 138.21 138.48 138.81 139.16 139.47 139.71 139.89 140.15 140.32 140.40 140.55 140.68 140.64 140.64 140.65 140.75 140.90 141.02 140.98 141.14 141.30 141.35 141.50 141.64 141.73 141.81 141.83 142.05 142.18 142.29 142.46 142.60 142.69 142.74
134.91 135.21 135.38 135.60 135.81 135.92 135.99 136.18 136.49 136.65 136.96 137.02 137.14 137.09 137.28 137.45 137.77 138.03 138.37 138.65 138.92 139.38 139.71 139.96 140.12 140.33 140.55 140.57 140.72 140.74 140.76 140.79 140.86 140.90 140.97 141.10 141.14 141.30 141.36 141.41 141.54 141.74 141.88 141.92 142.05 142.17 142.23 142.39 142.58 142.74 142.89 142.91
135.09 135.43 135.49 135.64 135.92 136.07 136.18 136.34 136.59 136.83 137.07 137.18 137.29 137.32 137.42 137.62 137.87 138.29 138.62 138.97 139.24 139.49 139.75 139.91 140.15 140.29 140.67 140.68 140.70 140.77 140.83 140.82 140.90 141.04 141.16 141.19 141.29 141.40 141.49 141.58 141.67 141.86 142.02 142.09 142.18 142.29 142.38 142.51 142.66 142.86 143.01 142.98
