ncols 52
nrows 52
xllcorner 444416
yllcorner 5713920
cellsize 10
NODATA_value -9999
114.51 114.26 114.10 114.06 113.99 113.97 113.86 113.84 113.88 113.91 114.08 114.38 114.58 114.66 114.84 115.02 115.15 115.22 115.33 115.47 115.64 115.81 116.01 116.22 116.38 116.49 116.65 116.76 116.85 116.97 117.04 117.12 117.20 117.28 117.37 117.47 117.54 117.60 117.56 117.88 117.57 117.58 117.69 117.78 117.87 117.96 118.04 118.11 118.19 118.25 118.27 118.34
114.50 114.33 114.26 114.20 114.15 114.07 113.96 114.00 114.08 114.09 114.18 114.36 114.74 114.85 114.99 115.17 115.28 115.33 115.43 115.57 115.69 115.85 116.08 116.33 116.51 116.69 116.83 116.93 117.00 117.08 117.12 117.22 117.32 117.44 117.51 117.60 117.63 117.71 117.80 118.04 117.71 117.76 117.86 117.93 117.96 118.03 118.12 118.19 118.28 118.34 118.43 118.51
114.55 114.44 114.43 114.34 114.32 114.17 114.12 114.16 114.22 114.26 114.37 114.55 114.86 115.00 115.11 115.26 115.35 115.46 115.59 115.72 115.87 116.07 116.29 116.50 116.69 116.81 116.94 117.02 117.12 117.25 117.29 117.32 117.44 117.51 117.57 117.66 117.74 117.89 118.04 117.81 117.74 117.92 117.93 118.01 118.08 118.19 118.30 118.39 118.49 118.71 118.77 118.69
114.64 114.61 114.58 114.52 114.41 114.33 114.32 114.41 114.51 114.51 114.55 114.68 114.95 115.14 115.23 115.41 115.54 115.70 115.82 115.96 116.09 116.29 116.49 116.68 116.82 117.00 117.11 117.20 117.29 117.35 117.39 117.45 117.54 117.58 117.68 117.80 117.92 118.06 118.21 118.28 118.36 118.10 118.11 118.19 118.29 118.45 118.59 118.63 118.64 118.82 118.91 119.04
114.76 114.74 114.71 114.67 114.58 114.57 114.57 114.67 114.75 114.81 114.76 114.90 115.17 115.37 115.42 115.58 115.75 115.91 116.04 116.15 116.31 116.48 116.70 116.90 117.08 117.20 117.31 117.38 117.45 117.49 117.52 117.54 117.62 117.71 117.83 117.92 118.01 118.12 118.28 118.38 118.55 118.22 118.37 118.48 118.50 118.53 118.75 118.83 118.87 118.99 119.07 119.12
114.83 114.83 114.83 114.80 114.77 114.81 114.84 114.93 115.02 115.03 114.99 115.07 115.25 115.58 115.67 115.75 115.92 116.03 116.14 116.32 116.58 116.79 116.97 117.12 117.28 117.38 117.50 117.53 117.61 117.65 117.69 117.70 117.74 117.80 117.93 118.02 118.11 118.24 118.39 118.49 118.46 118.57 118.50 118.59 118.69 118.77 118.93 119.00 119.01 119.06 119.15 119.24
114.93 114.96 114.99 114.94 114.96 115.04 115.11 115.16 115.21 115.25 115.22 115.28 115.48 115.75 115.82 115.89 116.08 116.26 116.43 116.56 116.78 117.00 117.17 117.31 117.44 117.56 117.66 117.71 117.77 117.81 117.79 117.79 117.85 117.96 118.10 118.20 118.32 118.41 118.49 118.64 118.54 118.69 118.70 118.74 118.82 118.95 119.02 119.10 119.10 119.16 119.24 119.33
115.07 115.13 115.13 115.15 115.21 115.32 115.38 115.41 115.44 115.48 115.42 115.49 115.68 115.93 116.03 116.15 116.34 116.47 116.59 116.73 116.93 117.16 117.40 117.54 117.67 117.71 117.80 117.86 117.90 117.88 117.87 117.94 118.00 118.10 118.23 118.35 118.45 118.55 118.63 118.68 118.75 118.93 118.89 118.92 118.96 119.08 119.15 119.18 119.24 119.29 119.36 119.38
115.21 115.28 115.29 115.35 115.50 115.64 115.68 115.65 115.67 115.63 115.65 115.69 115.92 116.16 116.35 116.41 116.57 116.71 116.85 117.02 117.20 117.44 117.58 117.68 117.83 117.88 117.94 117.98 118.04 118.04 118.06 118.13 118.19 118.24 118.35 118.43 118.50 118.62 118.68 118.68 118.82 118.94 119.01 119.07 119.15 119.18 119.28 119.35 119.38 119.44 119.52 119.49
115.35 115.49 115.48 115.54 115.74 115.89 115.95 115.91 115.90 115.90 115.89 115.96 116.14 116.32 116.59 116.66 116.81 117.00 117.15 117.31 117.46 117.66 117.78 117.84 117.94 118.02 118.08 118.13 118.16 118.18 118.20 118.23 118.24 118.34 118.42 118.48 118.51 118.55 118.52 118.58 118.74 118.72 119.01 119.27 119.33 119.38 119.42 119.51 119.58 119.61 119.66 119.65
115.56 115.68 115.66 115.75 115.90 116.07 116.17 116.15 116.16 116.15 116.17 116.22 116.38 116.65 116.87 116.93 117.07 117.26 117.40 117.58 117.72 117.90 118.00 118.04 118.08 118.13 118.20 118.25 118.31 118.29 118.29 118.30 118.33 118.36 118.38 118.43 118.49 118.59 118.68 118.73 118.88 119.04 119.36 119.43 119.53 119.56 119.59 119.66 119.74 119.78 119.76 119.76
115.77 115.79 115.85 115.94 116.11 116.27 116.38 116.37 116.38 116.39 116.39 116.47 116.68 116.93 117.15 117.24 117.33 117.50 117.69 117.82 117.96 118.11 118.19 118.24 118.24 118.28 118.29 118.36 118.37 118.34 118.28 118.22 118.26 118.35 118.42 118.54 118.62 118.68 118.79 118.96 119.03 119.26 119.44 119.55 119.65 119.73 119.78 119.77 119.87 119.90 119.87 119.79
115.98 115.95 116.03 116.13 116.30 116.46 116.59 116.60 116.62 116.64 116.66 116.79 116.94 117.18 117.41 117.56 117.59 117.75 117.87 118.03 118.15 118.27 118.33 118.39 118.40 118.40 118.41 118.38 118.31 118.31 118.36 118.38 118.46 118.47 118.57 118.63 118.70 118.79 118.92 119.05 119.16 119.39 119.15 119.26 119.79 119.86 119.92 119.98 120.03 119.99 119.96 120.00
116.10 116.11 116.22 116.34 116.54 116.73 116.82 116.86 116.88 116.91 116.99 117.10 117.25 117.43 117.54 117.86 117.87 118.00 118.11 118.17 118.27 118.40 118.47 118.45 118.36 118.31 118.36 118.44 118.44 118.50 118.59 118.59 118.59 118.63 118.71 118.79 118.88 118.96 118.99 119.11 119.25 119.35 119.50 119.81 120.02 120.02 120.06 120.15 120.22 120.21 120.18 120.18
116.24 116.28 116.42 116.60 116.84 117.08 117.14 117.15 117.15 117.20 117.24 117.38 117.54 117.75 117.85 118.07 118.14 118.17 118.22 118.26 118.25 118.30 118.38 118.46 118.50 118.49 118.50 118.54 118.61 118.62 118.71 118.76 118.79 118.86 118.88 118.96 119.00 119.04 119.10 119.22 119.29 119.41 119.59 119.90 120.06 120.15 120.21 120.30 120.41 120.40 120.38 120.29
116.47 116.53 116.65 116.88 117.14 117.35 117.38 117.42 117.46 117.49 117.54 117.67 117.83 117.98 118.13 118.25 118.26 118.17 118.22 118.25 118.35 118.48 118.55 118.64 118.68 118.69 118.75 118.68 118.73 118.86 118.89 118.88 118.98 118.97 119.04 119.02 119.07 119.14 119.22 119.34 119.42 119.50 119.76 119.53 119.63 120.19 120.27 120.39 120.51 120.53 120.57 120.43
116.65 116.75 116.93 117.22 117.44 117.61 117.64 117.70 117.75 117.79 117.86 117.93 118.07 118.21 118.40 118.53 118.40 118.35 118.38 118.44 118.54 118.60 118.73 118.83 118.87 118.88 118.89 118.89 118.86 118.92 119.01 118.99 119.04 119.08 119.13 119.15 119.20 119.29 119.33 119.40 119.53 119.68 119.79 119.93 120.20 120.34 120.36 120.47 120.58 120.60 120.63 120.61
116.79 116.94 117.17 117.46 117.68 117.83 117.89 117.96 118.03 118.04 118.09 118.15 118.26 118.36 118.52 118.66 118.63 118.50 118.54 118.57 118.67 118.83 118.95 119.00 119.05 119.05 119.00 118.97 118.96 119.02 119.08 119.14 119.18 119.21 119.27 119.33 119.32 119.42 119.50 119.53 119.65 119.76 119.80 120.09 120.35 120.40 120.47 120.51 120.62 120.66 120.69 120.73
117.11 117.24 117.39 117.66 117.86 117.98 118.09 118.21 118.28 118.28 118.29 118.31 118.38 118.47 118.62 118.72 118.69 118.59 118.59 118.66 118.77 118.95 119.03 119.11 119.15 119.08 119.06 119.03 119.07 119.14 119.23 119.33 119.35 119.38 119.38 119.47 119.48 119.56 119.61 119.69 119.75 119.84 119.92 120.06 120.12 120.21 120.58 120.59 120.65 120.73 120.77 120.79
117.31 117.49 117.68 117.90 118.04 118.14 118.28 118.39 118.47 118.51 118.50 118.50 118.54 118.63 118.68 118.85 118.77 118.69 118.67 118.74 118.82 118.93 119.04 119.14 119.19 119.19 119.14 119.19 119.24 119.31 119.37 119.43 119.51 119.54 119.57 119.60 119.66 119.71 119.77 119.83 119.88 119.97 120.05 120.17 120.29 120.54 120.68 120.66 120.74 120.81 120.87 120.92
117.54 117.73 117.92 118.12 118.29 118.38 118.46 118.56 118.65 118.69 118.71 118.68 118.69 118.76 118.79 118.87 118.84 118.86 118.79 118.83 118.91 118.97 119.11 119.25 119.32 119.32 119.30 119.35 119.40 119.45 119.50 119.57 119.65 119.70 119.72 119.75 119.78 119.86 119.90 119.96 120.06 120.07 120.10 120.25 120.40 120.75 120.76 120.81 120.88 120.97 121.00 121.04
117.82 117.92 118.11 118.28 118.47 118.58 118.71 118.77 118.81 118.88 118.86 118.87 118.87 118.92 118.88 118.89 118.96 118.93 118.89 118.93 119.03 119.15 119.27 119.41 119.49 119.50 119.46 119.49 119.54 119.57 119.61 119.68 119.79 119.87 119.90 119.93 119.96 120.00 120.05 120.11 120.09 120.16 120.24 120.30 120.53 120.71 120.88 121.01 121.09 121.10 121.19 121.20
118.04 118.11 118.29 118.49 118.64 118.77 118.90 119.01 119.03 119.03 119.00 119.00 119.01 119.03 118.99 118.99 119.03 119.03 119.01 119.09 119.15 119.29 119.44 119.56 119.63 119.64 119.65 119.66 119.68 119.68 119.75 119.83 119.90 120.00 120.03 120.02 120.06 120.13 120.15 120.18 120.22 120.26 120.33 120.44 120.60 120.78 120.97 121.16 121.25 121.33 121.38 121.36
118.21 118.29 118.47 118.67 118.83 118.97 119.08 119.19 119.24 119.23 119.18 119.17 119.16 119.16 119.10 119.07 119.15 119.14 119.13 119.18 119.31 119.42 119.57 119.69 119.79 119.82 119.82 119.80 119.82 119.83 119.92 119.96 120.09 120.11 120.14 120.23 120.23 120.30 120.28 120.40 120.35 120.39 120.46 120.61 120.77 120.93 121.23 121.29 121.39 121.49 121.49 121.47
118.39 118.47 118.64 118.82 118.97 119.10 119.21 119.34 119.38 119.40 119.36 119.33 119.32 119.31 119.27 119.20 119.23 119.32 119.45 119.33 119.49 119.57 119.72 119.85 119.95 119.96 120.05 119.96 119.97 120.01 120.06 120.15 120.18 120.21 120.29 120.34 120.41 120.44 120.46 120.45 120.50 120.56 120.65 120.79 120.87 121.11 121.31 121.37 121.48 121.58 121.62 121.57
118.58 118.68 118.81 118.97 119.11 119.25 119.36 119.45 119.49 119.49 119.51 119.48 119.51 119.48 119.45 119.35 119.35 119.47 119.52 119.51 119.61 119.71 119.86 120.02 120.08 120.09 120.07 120.04 120.09 120.13 120.25 120.32 120.33 120.35 120.43 120.52 120.64 120.64 120.61 120.59 120.60 120.75 120.80 120.87 120.96 121.13 121.10 121.27 121.57 121.61 121.65 121.58
118.77 118.88 118.99 119.13 119.26 119.37 119.47 119.54 119.64 119.66 119.63 119.62 119.65 119.61 119.56 119.50 119.44 119.58 119.68 119.68 119.74 119.85 120.02 120.15 120.18 120.16 120.13 120.14 120.17 120.22 120.30 120.39 120.42 120.46 120.56 120.65 120.71 120.76 120.74 120.72 120.74 120.81 120.89 121.00 121.15 121.34 121.36 121.63 121.63 121.63 121.65 121.70
118.90 119.00 119.11 119.24 119.34 119.48 119.60 119.68 119.74 119.71 119.67 119.67 119.75 119.72 119.68 119.60 119.58 119.71 119.79 119.75 119.86 119.95 120.14 120.24 120.30 120.31 120.24 120.20 120.22 120.29 120.37 120.44 120.54 120.57 120.66 120.73 120.79 120.85 120.86 120.90 120.91 121.00 121.04 121.16 121.27 121.31 121.49 121.64 121.62 121.68 121.72 121.75
119.01 119.12 119.22 119.35 119.43 119.55 119.64 119.72 119.72 119.71 119.71 119.76 119.82 119.84 119.80 119.76 119.75 119.83 119.97 119.94 119.93 120.15 120.32 120.41 120.46 120.43 120.37 120.34 120.33 120.39 120.43 120.52 120.67 120.70 120.77 120.85 120.90 120.94 120.96 121.01 121.08 121.13 121.20 121.31 121.39 121.35 121.50 121.29 121.33 121.71 121.78 121.77
119.17 119.28 119.33 119.40 119.49 119.56 119.65 119.70 119.71 119.74 119.79 119.88 119.96 119.97 119.98 119.95 119.91 120.02 120.12 120.06 120.09 120.27 120.39 120.49 120.55 120.54 120.52 120.52 120.53 120.53 120.56 120.65 120.73 120.82 120.92 120.99 121.07 121.08 121.11 121.19 121.26 121.28 121.37 121.38 121.53 121.57 121.64 121.58 121.92 121.83 121.62 121.65
119.20 119.31 119.38 119.43 119.50 119.56 119.62 119.69 119.75 119.81 119.87 119.98 120.04 120.11 120.15 120.18 120.30 120.39 120.34 120.22 120.31 120.33 120.43 120.54 120.61 120.63 120.66 120.66 120.71 120.78 120.74 120.78 120.85 120.94 121.07 121.18 121.26 121.26 121.29 121.32 121.42 121.44 121.46 121.50 121.58 121.69 121.72 121.73 122.05 121.70 121.68 121.71
119.19 119.30 119.39 119.43 119.51 119.57 119.65 119.73 119.82 119.86 119.97 120.05 120.14 120.26 120.39 120.59 120.64 120.59 120.53 120.40 120.44 120.40 120.51 120.58 120.67 120.74 120.81 120.82 120.87 120.93 120.94 120.95 121.03 121.13 121.24 121.37 121.45 121.47 121.43 121.54 121.60 121.60 121.61 121.64 121.71 121.79 121.85 121.96 121.78 121.60 121.90 121.80
119.18 119.31 119.42 119.48 119.56 119.60 119.69 119.80 119.84 119.93 120.10 120.31 120.44 120.63 120.74 120.78 120.78 120.77 120.77 120.58 120.62 120.56 120.61 120.66 120.75 120.88 120.93 120.99 121.05 121.10 121.15 121.15 121.21 121.31 121.38 121.54 121.65 121.66 121.65 121.72 121.74 121.77 121.76 121.78 121.82 121.90 121.98 122.12 122.20 122.32 122.12 122.00
119.23 119.38 119.48 119.56 119.62 119.68 119.79 119.91 120.09 120.19 120.35 120.46 120.54 120.71 120.85 120.88 120.92 120.93 120.91 120.89 120.74 120.65 120.67 120.78 120.88 120.97 121.05 121.12 121.18 121.26 121.29 121.35 121.43 121.47 121.58 121.70 121.85 121.83 121.82 121.85 121.88 121.90 121.93 121.98 122.03 122.10 122.17 122.25 122.39 122.56 122.35 122.29
119.32 119.46 119.56 119.71 119.85 120.00 120.12 120.21 120.25 120.33 120.44 120.55 120.60 120.77 120.91 120.96 121.00 121.04 121.04 120.95 120.81 120.80 120.88 120.98 121.03 121.09 121.17 121.27 121.32 121.43 121.47 121.49 121.56 121.62 121.72 121.84 121.93 121.96 121.99 122.04 122.10 122.09 122.13 122.18 122.25 122.29 122.33 122.38 122.47 122.51 122.25 122.54
119.44 119.65 119.86 120.00 120.11 120.17 120.23 120.32 120.42 120.51 120.59 120.65 120.68 120.81 120.98 121.06 121.11 121.16 121.17 121.11 120.91 120.96 121.00 121.08 121.16 121.22 121.30 121.40 121.46 121.57 121.57 121.62 121.67 121.74 121.85 122.00 122.11 122.18 122.25 122.31 122.31 122.32 122.32 122.33 122.42 122.45 122.47 122.53 122.59 122.63 122.86 122.75
119.76 119.89 120.00 120.10 120.20 120.28 120.36 120.44 120.53 120.61 120.68 120.75 120.78 120.88 121.05 121.14 121.21 121.27 121.27 121.25 121.11 121.08 121.15 121.23 121.29 121.33 121.42 121.47 121.57 121.64 121.67 121.70 121.77 121.86 122.02 122.18 122.31 122.37 122.43 122.46 122.44 122.46 122.45 122.46 122.50 122.53 122.59 122.71 122.77 122.82 123.17 122.85
119.87 119.96 120.08 120.18 120.29 120.39 120.48 120.56 120.64 120.71 120.80 120.88 120.95 121.02 121.03 121.16 121.32 121.36 121.38 121.40 121.34 121.21 121.24 121.32 121.42 121.44 121.50 121.57 121.66 121.76 121.81 121.87 121.92 121.99 122.13 122.32 122.39 122.43 122.54 122.61 122.60 122.56 122.50 122.51 122.64 122.71 122.82 122.94 122.97 122.96 123.23 122.93
119.99 120.07 120.15 120.26 120.40 120.51 120.60 120.72 120.84 120.94 121.04 121.07 121.12 121.17 121.21 121.28 121.42 121.40 121.38 121.37 121.45 121.45 121.43 121.43 121.49 121.60 121.68 121.75 121.81 121.87 121.93 121.98 122.04 122.10 122.24 122.42 122.48 122.57 122.68 122.74 122.74 122.72 122.71 122.71 122.87 122.96 123.09 123.11 123.08 123.25 122.95 123.26
120.04 120.12 120.26 120.38 120.52 120.65 120.76 120.89 121.03 121.16 121.22 121.24 121.29 121.34 121.40 121.36 121.37 121.31 121.26 121.28 121.35 121.66 121.62 121.61 121.71 121.79 121.85 121.90 121.94 121.97 122.06 122.14 122.19 122.26 122.38 122.52 122.61 122.72 122.84 122.91 122.90 123.04 122.99 123.03 123.05 123.06 123.26 123.31 123.38 123.40 123.33 123.67
120.10 120.21 120.37 120.52 120.64 120.74 120.87 121.01 121.12 121.23 121.32 121.39 121.46 121.43 121.39 121.33 121.37 121.39 121.40 121.47 121.63 121.91 121.83 121.80 121.85 121.92 121.94 122.02 122.07 122.13 122.19 122.27 122.33 122.38 122.50 122.65 122.71 122.85 123.10 123.16 123.18 123.24 123.18 123.24 123.30 123.35 123.45 123.47 123.54 123.50 123.69 123.82
120.19 120.32 120.44 120.60 120.71 120.83 120.94 121.11 121.20 121.28 121.29 121.28 121.30 121.39 121.45 121.50 121.56 121.59 121.62 121.68 121.85 122.11 122.00 122.00 122.03 122.07 122.10 122.15 122.21 122.26 122.32 122.43 122.48 122.55 122.71 122.79 122.94 123.02 123.11 123.21 123.40 123.42 123.43 123.47 123.47 123.53 123.52 123.60 123.71 123.85 123.86 123.46
120.29 120.39 120.53 120.68 120.82 120.94 121.06 121.11 121.08 121.14 121.21 121.30 121.40 121.49 121.60 121.66 121.66 121.70 121.76 121.87 122.00 122.14 122.19 122.19 122.18 122.25 122.30 122.35 122.41 122.48 122.54 122.72 122.84 122.88 122.91 122.90 123.10 123.19 123.35 123.39 123.51 123.55 123.65 123.55 123.67 123.72 123.71 123.79 123.92 124.01 124.06 124.03
120.32 120.46 120.64 120.75 120.79 120.87 120.97 121.06 121.15 121.25 121.32 121.41 121.52 121.62 121.73 121.82 121.84 121.83 121.85 121.92 121.99 122.11 122.36 122.25 122.29 122.37 122.45 122.47 122.67 122.69 122.82 122.83 122.91 123.10 123.16 123.21 123.31 123.31 123.39 123.55 123.72 123.70 123.84 123.77 123.92 123.78 123.89 123.95 124.13 123.98 124.05 124.13
120.30 120.38 120.47 120.60 120.74 120.91 121.06 121.21 121.31 121.38 121.47 121.56 121.68 121.77 121.86 121.93 121.92 121.96 121.98 122.05 122.11 122.21 122.47 122.38 122.36 122.47 122.57 122.69 122.71 122.71 122.91 123.01 123.10 123.22 123.20 123.31 123.38 123.43 123.51 123.67 123.71 123.82 123.92 123.98 124.04 124.06 124.04 124.12 124.06 124.22 124.30 124.28
120.12 120.31 120.47 120.65 120.81 120.99 121.15 121.32 121.44 121.54 121.62 121.71 121.82 121.90 122.01 122.04 122.02 122.07 122.10 122.18 122.23 122.30 122.49 122.42 122.48 122.56 122.61 122.78 122.84 122.90 123.01 123.01 123.18 123.19 123.22 123.37 123.51 123.60 123.74 123.78 123.86 123.92 124.01 124.03 124.15 124.18 124.25 124.31 124.31 124.39 124.37 124.41
120.23 120.39 120.57 120.72 120.90 121.07 121.24 121.42 121.51 121.66 121.74 121.86 121.94 122.03 122.12 122.15 122.15 122.17 122.21 122.28 122.35 122.38 122.54 122.54 122.74 122.70 122.80 122.86 122.95 123.00 123.03 123.19 123.23 123.30 123.38 123.47 123.57 123.70 123.86 123.87 123.97 124.03 124.13 124.24 124.29 124.37 124.40 124.47 124.49 124.49 124.55 124.56
120.36 120.54 120.73 120.85 120.99 121.11 121.29 121.43 121.62 121.75 121.87 121.96 122.08 122.13 122.21 122.24 122.28 122.32 122.38 122.43 122.48 122.53 122.60 122.76 122.89 122.86 122.89 122.93 123.08 123.14 123.21 123.29 123.35 123.48 123.55 123.59 123.51 123.75 123.89 124.07 124.20 124.19 124.29 124.29 124.43 124.38 124.47 124.58 124.65 124.69 124.76 124.75
120.51 120.68 120.82 120.93 121.07 121.23 121.35 121.52 121.69 121.85 121.95 122.06 122.15 122.24 122.31 122.35 122.41 122.44 122.49 122.51 122.57 122.58 122.69 122.92 123.00 122.88 123.02 123.09 123.21 123.27 123.31 123.44 123.47 123.47 123.65 123.74 123.77 123.82 123.92 124.06 124.21 124.39 124.38 124.48 124.49 124.51 124.63 124.70 124.69 124.80 124.77 124.72
120.60 120.80 120.92 121.04 121.19 121.34 121.46 121.58 121.76 121.90 122.04 122.16 122.24 122.34 122.40 122.46 122.52 122.56 122.58 122.62 122.71 122.74 122.78 123.01 123.26 123.03 123.18 123.29 123.30 123.30 123.35 123.47 123.56 123.61 123.77 123.81 123.84 123.97 123.96 124.04 124.21 124.41 124.57 124.65 124.60 124.61 124.73 124.71 124.72 124.79 124.92 124.93
120.71 120.93 121.10 121.23 121.34 121.44 121.51 121.64 121.81 121.99 122.12 122.27 122.33 122.44 122.51 122.58 122.65 122.76 122.75 122.78 122.81 122.85 122.91 123.06 123.28 123.45 123.21 123.41 123.44 123.47 123.57 123.63 123.65 123.75 123.85 123.86 123.93 124.07 124.11 124.19 124.31 124.45 124.53 124.59 124.68 124.59 124.74 124.84 124.90 124.98 125.04 125.07
120.88 121.09 121.27 121.44 121.54 121.59 121.66 121.72 121.88 122.03 122.23 122.34 122.46 122.55 122.68 122.74 122.82 122.84 122.89 122.90 122.96 122.98 123.07 123.08 123.26 123.50 123.53 123.51 123.52 123.59 123.62 123.73 123.71 123.92 123.97 124.09 124.14 124.14 124.22 124.30 124.35 124.38 124.45 124.71 124.70 124.76 124.87 124.97 124.99 125.08 125.19 125.14
