ncols 52
nrows 52
xllcorner 444416
yllcorner 5714944
cellsize 10
NODATA_value -9999
106.04 106.26 106.49 106.69 106.88 107.08 107.33 107.43 107.67 107.84 107.98 108.22 108.47 108.68 108.83 109.01 109.21 109.43 109.67 109.86 110.01 110.08 110.14 110.22 110.38 110.52 110.61 110.64 110.50 110.40 110.26 110.11 109.96 109.85 109.75 109.53 109.32 109.13 108.96 108.80 108.62 108.50 108.34 108.17 107.91 107.73 107.47 107.23 107.00 106.81 106.59 106.43
106.09 106.28 106.54 106.79 106.99 107.24 107.50 107.59 107.76 107.96 108.14 108.35 108.54 108.74 108.94 109.12 109.35 109.62 109.85 109.99 110.10 110.15 110.25 110.32 110.41 110.54 110.62 110.68 110.62 110.43 110.37 110.23 110.10 109.93 109.79 109.58 109.36 109.17 108.98 108.79 108.63 108.50 108.39 108.26 107.96 107.74 107.58 107.42 107.23 107.08 106.57 106.97
106.14 106.38 106.60 106.90 107.12 107.32 107.52 107.76 107.87 108.09 108.24 108.43 108.66 108.82 109.04 109.24 109.49 109.79 109.98 110.06 110.21 110.21 110.35 110.43 110.47 110.61 110.66 110.71 110.68 110.53 110.46 110.30 110.17 110.04 109.89 109.70 109.44 109.24 109.07 108.88 108.71 108.58 108.45 108.34 108.16 108.02 107.92 107.21 107.97 107.73 107.54 107.38
104.87 106.53 106.75 106.85 107.14 107.39 107.59 107.89 107.97 108.21 108.38 108.55 108.74 108.95 109.17 109.38 109.65 109.95 110.09 110.12 110.28 110.32 110.43 110.48 110.54 110.65 110.70 110.73 110.75 110.60 110.47 110.40 110.26 110.10 109.96 109.77 109.56 109.35 109.19 109.03 108.94 108.81 108.73 108.62 108.26 108.82 108.62 108.42 108.22 107.84 107.44 106.14
105.79 105.21 105.45 106.79 107.09 107.25 107.55 107.83 108.10 108.33 108.51 108.67 108.89 109.10 109.30 109.53 109.81 110.06 110.19 110.24 110.32 110.47 110.49 110.57 110.62 110.69 110.74 110.77 110.79 110.68 110.54 110.45 110.34 110.19 110.04 109.93 109.76 109.59 109.42 109.22 109.06 109.35 109.62 109.43 109.27 109.05 108.69 108.04 107.02 106.86 106.58 106.28
106.80 106.87 106.95 105.74 106.21 107.15 107.50 107.80 108.18 108.41 108.61 108.79 109.00 109.21 109.41 109.66 109.94 110.16 110.28 110.32 110.40 110.50 110.56 110.63 110.69 110.72 110.80 110.80 110.80 110.81 110.65 110.59 110.53 110.47 110.34 110.12 109.90 109.42 110.25 110.26 110.15 110.01 109.75 109.43 108.33 107.87 107.59 107.35 107.07 106.74 106.46 106.23
107.00 107.14 107.24 107.33 107.16 106.57 106.80 107.88 108.29 108.48 108.72 108.89 109.10 109.32 109.52 109.77 110.03 110.21 110.31 110.36 110.41 110.57 110.57 110.65 110.70 110.78 110.87 110.86 110.91 110.95 110.95 110.88 110.82 110.76 110.20 110.96 110.83 110.75 110.63 110.35 110.02 109.51 108.59 108.27 108.01 107.73 107.44 107.17 106.95 106.70 106.46 106.24
107.05 107.26 107.44 107.58 107.60 107.59 106.96 107.40 108.31 108.51 108.81 109.02 109.19 109.43 109.65 109.90 110.11 110.27 110.32 110.39 110.43 110.58 110.67 110.68 110.76 110.96 111.07 111.11 111.06 111.08 111.14 110.88 111.32 111.26 111.23 111.14 110.87 110.40 109.18 109.19 108.99 108.76 108.47 108.19 107.95 107.71 107.42 107.15 106.90 106.67 106.46 106.25
107.05 107.28 107.51 107.68 107.81 107.83 107.90 107.09 108.03 108.63 108.84 109.10 109.29 109.55 109.76 109.98 110.17 110.26 110.33 110.39 110.45 110.59 110.67 110.85 110.94 111.09 111.19 111.25 111.45 111.57 111.57 111.57 111.42 111.26 110.53 110.00 110.39 109.76 109.41 109.15 108.92 108.68 108.47 108.19 107.95 107.70 107.41 107.13 106.89 106.65 106.46 106.19
107.03 107.31 107.56 107.79 107.99 108.09 108.12 108.26 107.42 108.67 108.97 109.15 109.39 109.59 109.84 110.03 110.19 110.34 110.42 110.51 110.63 110.71 110.70 110.94 110.92 111.65 111.70 111.75 111.76 111.61 111.44 110.24 110.67 110.55 110.38 110.34 110.14 109.71 109.43 109.06 108.88 108.67 108.46 108.21 107.94 107.67 107.37 107.12 106.88 106.68 106.42 106.09
107.17 107.40 107.65 107.89 108.09 108.28 108.40 108.44 108.61 108.94 109.31 109.27 109.46 109.61 109.87 110.11 110.30 110.51 110.62 110.65 110.71 111.08 111.65 111.74 111.82 111.83 111.68 111.36 110.79 110.92 110.90 110.88 110.84 110.68 110.39 110.25 110.03 109.70 109.46 109.07 108.89 108.68 108.44 108.19 107.95 107.63 107.38 107.09 106.87 106.63 106.34 105.92
107.38 107.58 107.84 108.05 108.23 108.38 108.54 108.68 108.85 109.08 109.93 109.61 109.57 109.86 110.10 110.30 110.39 110.51 111.31 111.54 111.67 111.77 111.80 111.70 111.47 111.18 111.11 111.10 111.07 111.06 110.99 110.98 110.94 110.73 110.43 110.27 110.04 109.82 109.51 109.16 108.92 108.69 108.43 108.18 107.93 107.65 107.36 107.07 106.80 106.52 106.21 105.78
107.56 107.74 107.99 108.20 108.36 108.50 108.67 108.81 108.97 109.19 110.29 110.46 110.01 110.12 110.20 111.22 111.32 111.44 111.58 111.63 111.63 111.18 111.07 111.15 111.23 111.28 111.30 111.26 111.25 111.20 111.15 111.07 110.94 110.70 110.42 110.22 110.05 109.93 109.47 109.20 108.90 108.68 108.41 108.16 107.87 107.59 107.31 107.02 106.74 106.43 106.07 105.65
107.75 107.95 108.15 108.36 108.51 108.68 108.85 109.03 109.21 109.41 110.59 110.78 110.95 111.11 111.21 111.21 111.24 111.21 110.86 110.89 110.98 111.09 111.22 111.28 111.38 111.43 111.45 111.43 111.38 111.33 111.21 111.12 110.95 110.69 110.39 110.10 110.03 109.90 109.46 109.24 108.86 108.61 108.36 108.09 107.83 107.53 107.25 106.96 106.64 106.27 105.89 105.48
107.92 108.11 108.33 108.55 108.78 108.96 109.34 110.40 110.61 110.75 110.87 110.94 110.96 110.97 110.95 110.33 110.31 110.56 110.78 111.00 111.12 111.26 111.39 111.46 111.54 111.56 111.57 111.51 111.49 111.40 111.27 111.12 110.91 110.66 110.36 110.12 109.93 109.84 109.54 109.19 108.81 108.61 108.35 108.11 107.81 107.49 107.15 106.83 106.45 106.10 105.71 105.35
108.08 108.35 108.67 109.04 110.23 110.39 110.54 110.66 110.68 110.70 110.70 110.72 110.79 109.92 110.31 110.21 110.40 110.61 110.83 111.10 111.26 111.40 111.52 111.60 111.65 111.66 111.63 111.57 111.53 111.44 111.33 111.13 110.89 110.60 110.34 110.11 109.89 109.77 109.64 109.17 108.85 108.57 108.33 108.03 107.74 107.38 107.06 106.71 106.35 105.96 105.60 105.19
108.45 109.26 110.14 110.28 110.40 110.43 110.43 110.41 109.97 109.91 110.04 110.75 110.92 110.30 110.31 110.26 110.40 110.62 110.88 111.14 111.31 111.47 111.56 111.67 111.71 111.74 111.70 111.66 111.61 111.53 111.38 111.17 110.88 110.59 110.35 110.09 109.82 109.68 109.59 109.10 108.86 108.49 108.22 107.96 107.65 107.32 106.95 106.59 106.19 105.82 105.46 105.09
110.03 110.12 110.15 110.11 109.96 109.40 109.47 109.60 109.76 109.90 110.11 110.18 110.96 110.44 110.46 110.32 110.49 110.63 110.87 111.11 111.33 111.47 111.60 111.69 111.73 111.77 111.74 111.71 111.65 111.58 111.41 111.21 110.89 110.61 110.35 110.10 109.82 109.63 109.50 109.21 108.82 108.45 108.14 107.86 107.51 107.18 106.80 106.45 106.04 105.70 105.36 105.00
109.81 108.93 108.86 108.96 109.13 109.30 109.50 109.68 109.86 109.96 110.12 110.32 110.16 110.85 110.63 110.57 110.61 110.75 110.90 111.09 111.30 111.46 111.61 111.70 111.76 111.80 111.79 111.75 111.67 111.55 111.38 111.15 110.90 110.61 110.35 110.06 109.78 109.57 109.45 109.16 108.76 108.44 108.07 107.75 107.39 107.02 106.66 106.29 105.94 105.58 105.24 104.92
108.71 108.81 108.91 109.05 109.23 109.41 109.58 109.79 110.02 110.17 110.24 110.44 110.51 111.31 110.84 110.82 110.81 110.92 111.01 111.15 111.32 111.47 111.61 111.69 111.78 111.81 111.77 111.76 111.68 111.53 111.31 111.05 110.79 110.55 110.31 110.05 109.79 109.51 109.42 109.24 108.71 108.42 108.00 107.66 107.27 106.89 106.50 106.14 105.78 105.46 105.12 104.83
108.81 108.92 109.07 109.20 109.35 109.57 109.76 109.97 110.15 110.32 110.42 110.60 110.73 111.39 111.08 111.15 111.03 111.11 111.16 111.28 111.37 111.51 111.68 111.76 111.87 111.85 111.82 111.72 111.59 111.42 111.22 110.96 110.71 110.47 110.23 109.99 109.72 109.43 109.26 109.12 108.82 108.40 107.89 107.52 107.11 106.71 106.35 105.96 105.66 105.35 105.05 104.76
108.98 109.10 109.26 109.41 109.58 109.72 109.90 110.13 110.34 110.52 110.68 110.77 110.88 111.24 111.16 111.32 111.28 111.28 111.33 111.39 111.46 111.54 111.68 111.81 111.90 111.88 111.84 111.73 111.57 111.36 111.14 110.88 110.62 110.39 110.12 109.85 109.59 109.34 109.11 108.95 108.73 108.40 107.91 107.37 106.93 106.54 106.19 105.87 105.55 105.27 104.96 104.69
109.15 109.30 109.46 109.60 109.75 109.92 110.12 110.33 110.54 110.75 110.85 110.91 111.06 111.04 111.76 111.50 111.55 111.48 111.54 111.57 111.57 111.63 111.71 111.85 111.94 111.91 111.82 111.69 111.52 111.30 111.08 110.78 110.54 110.29 110.04 109.76 109.49 109.24 108.96 108.82 108.70 108.25 107.80 107.27 106.83 106.43 106.02 105.72 105.43 105.18 104.88 104.65
109.31 109.44 109.64 109.78 110.00 110.11 110.31 110.50 110.69 110.86 111.02 111.08 111.17 111.22 111.89 111.66 111.74 111.60 111.66 111.69 111.74 111.82 111.81 111.89 111.91 111.90 111.79 111.63 111.43 111.23 111.01 110.76 110.48 110.23 109.94 109.67 109.37 109.12 108.80 108.60 108.42 108.03 107.58 107.00 106.69 106.30 105.91 105.57 105.33 105.01 104.85 104.64
109.48 109.65 109.82 109.94 110.14 110.31 110.45 110.60 110.81 111.01 111.17 111.25 111.29 111.39 111.54 111.60 111.77 111.71 111.83 111.86 111.89 111.91 111.92 111.89 111.79 111.74 111.67 111.54 111.37 111.16 110.93 110.67 110.41 110.12 109.85 109.56 109.28 109.01 108.71 108.38 108.17 107.85 107.29 106.82 106.46 106.16 105.81 105.54 105.12 105.00 104.81 104.50
109.66 109.80 109.95 110.11 110.23 110.40 110.57 110.78 110.95 111.16 111.33 111.39 111.40 111.52 111.51 112.16 111.90 111.92 111.95 112.03 112.02 111.97 111.94 111.86 111.74 111.62 111.53 111.42 111.26 111.07 110.82 110.59 110.35 110.08 109.79 109.48 109.20 108.84 108.52 108.14 107.91 107.75 107.08 106.67 106.27 105.95 105.69 105.39 105.18 105.00 104.58 104.50
109.79 109.93 110.08 110.23 110.40 110.58 110.74 110.88 111.10 111.33 111.49 111.56 111.58 111.66 111.75 112.32 112.08 112.11 112.06 112.13 112.13 112.06 111.95 111.82 111.66 111.51 111.38 111.26 111.15 111.00 110.78 110.53 110.28 109.99 109.70 109.39 109.03 108.67 108.32 107.93 107.63 107.36 106.88 106.52 106.11 105.82 105.54 105.32 105.20 104.31 104.68 104.42
109.94 110.11 110.25 110.43 110.56 110.69 110.88 111.07 111.28 111.45 111.62 111.75 111.76 111.79 111.99 112.14 112.22 112.26 112.17 112.25 112.24 112.17 112.03 111.81 111.65 111.42 111.24 111.07 110.95 110.84 110.68 110.46 110.18 109.86 109.56 109.25 108.92 108.54 108.14 107.72 107.41 107.24 106.88 106.32 105.93 105.68 105.43 105.33 105.05 104.82 104.53 104.45
110.10 110.25 110.37 110.55 110.73 110.86 111.01 111.23 111.49 111.65 111.77 111.85 111.95 112.00 112.21 112.24 112.54 112.40 112.35 112.32 112.33 112.24 112.10 111.89 111.65 111.41 111.16 110.88 110.69 110.58 110.44 110.26 110.02 109.75 109.44 109.14 108.76 108.37 107.93 107.49 107.18 106.96 106.84 106.21 105.86 105.49 105.40 105.27 104.91 104.68 104.54 104.54
110.22 110.38 110.55 110.72 110.88 111.03 111.21 111.43 111.61 111.83 111.96 112.07 112.12 112.18 112.29 112.40 112.67 112.53 112.57 112.45 112.41 112.32 112.19 111.96 111.69 111.36 111.05 110.73 110.47 110.33 110.22 110.07 109.86 109.58 109.29 108.94 108.57 108.12 107.67 107.21 106.88 106.68 106.61 106.07 105.76 105.42 105.32 104.98 104.82 104.64 104.66 104.77
110.34 110.58 110.75 110.91 111.10 111.22 111.40 111.60 111.82 111.99 112.10 112.14 112.21 112.27 112.32 112.50 112.46 112.62 112.64 112.51 112.47 112.35 112.21 112.00 111.72 111.37 111.03 110.70 110.36 110.11 109.96 109.83 109.62 109.40 109.04 108.70 108.30 107.90 107.47 107.06 106.69 106.38 106.33 106.26 105.70 105.40 105.05 104.89 104.71 104.79 104.85 105.02
110.55 110.73 110.94 111.15 111.29 111.44 111.60 111.76 111.94 112.10 112.21 112.23 112.22 112.28 112.33 112.49 112.45 112.42 112.65 112.58 112.46 112.35 112.22 112.02 111.78 111.42 111.03 110.68 110.26 109.93 109.63 109.48 109.30 109.12 108.82 108.48 108.08 107.64 107.28 106.92 106.54 106.21 106.13 106.17 105.69 105.03 105.03 104.86 104.90 104.98 105.08 105.22
110.78 110.97 111.18 111.35 111.44 111.56 111.69 111.91 112.07 112.15 112.21 112.26 112.27 112.30 112.36 112.51 112.58 112.55 112.66 112.62 112.38 112.33 112.22 112.03 111.79 111.42 111.06 110.62 110.10 109.72 109.40 109.28 109.16 108.90 108.64 108.27 107.88 107.47 107.06 106.73 106.40 106.15 106.02 106.06 105.19 105.25 105.01 105.02 105.08 105.19 105.24 105.37
110.92 111.09 111.33 111.49 111.63 111.72 111.84 111.98 112.10 112.22 112.26 112.32 112.32 112.39 112.43 112.50 112.60 112.39 112.64 112.60 112.45 112.30 112.18 111.93 111.71 111.38 111.03 110.63 110.11 109.64 109.31 109.09 108.93 108.68 108.40 108.04 107.65 107.24 106.88 106.51 106.26 106.10 106.01 105.79 105.55 105.26 105.16 105.18 105.29 105.34 105.39 105.50
111.07 111.24 111.46 111.62 111.75 111.85 111.96 112.13 112.24 112.32 112.42 112.46 112.52 112.52 112.54 112.56 112.63 112.26 112.13 112.50 112.35 112.14 112.02 111.83 111.67 111.38 111.04 110.66 110.15 109.65 109.25 108.94 108.71 108.48 108.14 107.76 107.35 106.97 106.68 106.43 106.20 106.04 105.93 105.86 105.89 105.36 105.36 105.38 105.43 105.46 105.53 105.62
111.24 111.43 111.64 111.78 111.89 112.02 112.15 112.30 112.42 112.54 112.60 112.62 112.65 112.69 112.67 112.60 112.63 112.62 112.33 112.51 112.29 112.10 111.96 111.78 111.56 111.34 111.05 110.67 110.16 109.65 109.19 108.79 108.47 108.15 107.87 107.52 107.22 106.90 106.61 106.35 106.12 105.99 105.91 105.85 106.02 105.54 105.53 105.55 105.57 105.62 105.65 105.77
111.44 111.66 111.87 112.06 112.19 112.28 112.43 112.53 112.60 112.69 112.73 112.76 112.75 112.76 112.69 112.62 112.58 112.58 112.25 112.35 112.10 112.00 111.89 111.69 111.50 111.25 110.94 110.55 110.07 109.54 109.10 108.68 108.36 108.04 107.74 107.39 107.10 106.82 106.54 106.28 106.09 105.90 105.86 105.95 106.05 105.89 105.79 105.73 105.78 105.82 105.89 106.00
111.61 111.86 112.11 112.31 112.40 112.52 112.65 112.76 112.85 112.88 112.82 112.79 112.78 112.73 112.65 112.56 112.49 112.49 111.69 111.97 112.04 111.89 111.75 111.54 111.39 111.14 110.82 110.42 109.96 109.49 109.07 108.65 108.30 107.99 107.68 107.33 107.01 106.69 106.42 106.21 106.03 105.99 105.92 105.96 106.09 106.26 105.96 106.01 106.07 106.15 106.22 106.30
111.82 112.03 112.29 112.45 112.60 112.71 112.89 112.94 112.97 112.96 112.92 112.85 112.74 112.65 112.58 112.48 112.33 112.32 112.28 112.10 111.99 111.72 111.55 111.38 111.22 111.07 110.77 110.32 109.84 109.40 109.00 108.57 108.22 107.86 107.57 107.22 106.90 106.61 106.39 106.21 106.15 106.16 106.17 106.08 106.19 106.38 106.15 106.29 106.35 106.52 106.51 106.59
112.04 112.27 112.43 112.61 112.73 112.86 112.98 113.03 113.05 112.97 112.84 112.80 112.74 112.64 112.51 112.38 112.25 112.27 112.22 112.01 111.82 111.57 111.33 111.25 111.11 110.86 110.53 110.13 109.68 109.29 108.88 108.49 108.11 107.75 107.42 107.10 106.83 106.58 106.45 106.42 106.39 106.41 106.43 106.36 106.43 106.67 106.53 106.71 106.64 106.62 106.72 106.79
112.24 112.39 112.61 112.73 112.82 112.96 113.07 113.10 113.07 112.94 112.86 112.73 112.61 112.52 112.39 112.28 112.16 112.11 112.19 111.41 111.61 111.51 111.24 111.14 110.94 110.57 110.21 109.82 109.45 109.08 108.71 108.36 108.01 107.65 107.26 107.00 106.79 106.67 106.74 106.74 106.71 106.69 106.64 106.62 106.64 106.78 106.82 106.84 106.82 106.78 106.85 106.95
112.42 112.59 112.72 112.83 112.96 113.07 113.14 113.18 113.07 112.90 112.75 112.65 112.53 112.41 112.29 112.26 112.18 112.06 112.04 111.87 111.78 111.53 111.19 111.02 110.73 110.33 109.93 109.54 109.14 108.81 108.48 108.19 107.90 107.61 107.31 107.07 106.91 107.00 107.13 107.09 107.07 107.03 106.96 106.89 106.83 106.91 107.08 106.99 107.03 106.98 107.02 107.11
112.53 112.73 112.89 113.03 113.09 113.14 113.20 113.14 113.01 112.86 112.69 112.55 112.47 112.42 112.26 112.19 112.07 112.00 111.91 111.95 111.78 111.51 111.22 110.94 110.59 110.16 109.69 109.27 108.91 108.61 108.36 108.12 107.94 107.68 107.43 107.22 107.15 107.35 107.47 107.47 107.39 107.32 107.31 107.27 107.17 107.17 107.41 107.21 107.33 107.24 107.21 107.26
112.78 112.93 113.00 113.12 113.21 113.25 113.23 113.09 112.94 112.81 112.71 112.56 112.39 112.27 112.22 112.14 112.07 111.94 111.88 111.99 111.31 111.43 111.12 110.68 110.32 109.90 109.53 109.13 108.82 108.50 108.30 108.12 107.95 107.80 107.54 107.38 107.29 107.49 107.67 107.69 107.71 107.65 107.62 107.54 107.50 107.51 107.62 107.53 107.55 107.44 107.43 107.49
112.93 113.06 113.16 113.22 113.23 113.29 113.27 113.12 112.95 112.75 112.61 112.49 112.40 112.33 112.22 112.11 112.09 112.00 111.95 112.02 111.94 111.44 110.92 110.43 110.04 109.71 109.36 109.01 108.74 108.48 108.28 108.12 107.99 107.82 107.61 107.44 107.38 107.51 107.68 107.80 107.84 107.88 107.86 107.86 107.83 107.80 107.80 107.90 107.74 107.72 107.65 107.69
113.09 113.19 113.26 113.35 113.32 113.28 113.16 112.99 112.83 112.73 112.58 112.50 112.39 112.33 112.27 112.25 112.19 112.14 112.08 112.01 111.93 111.50 110.72 110.25 109.86 109.54 109.19 108.91 108.63 108.43 108.31 108.15 107.99 107.82 107.60 107.46 107.42 107.51 107.69 107.86 107.98 108.04 108.07 108.06 108.07 108.00 107.98 108.15 107.83 107.96 107.89 107.92
113.26 113.31 113.37 113.33 113.31 113.28 113.10 112.91 112.79 112.68 112.55 112.51 112.46 112.46 112.37 112.36 112.30 112.22 112.11 111.86 111.74 111.25 110.67 110.19 109.73 109.35 109.06 108.79 108.59 108.42 108.28 108.15 108.02 107.79 107.57 107.46 107.47 107.58 107.78 107.96 108.06 108.14 108.20 108.16 108.16 108.14 108.18 108.26 108.35 108.27 108.17 108.18
113.40 113.42 113.47 113.41 113.32 113.22 113.07 112.88 112.79 112.69 112.67 112.57 112.54 112.55 112.49 112.40 112.33 112.26 112.10 111.82 111.65 111.12 110.85 110.04 109.56 109.24 108.95 108.72 108.55 108.40 108.27 108.10 107.92 107.72 107.58 107.55 107.60 107.74 107.93 108.10 108.21 108.26 108.28 108.33 108.33 108.33 108.28 108.36 108.51 108.48 108.40 108.38
113.51 113.50 113.49 113.40 113.35 113.26 113.04 112.93 112.81 112.82 112.79 112.71 112.64 112.58 112.57 112.57 112.47 112.35 112.20 111.80 111.06 111.00 111.02 109.82 109.39 109.08 108.89 108.69 108.54 108.40 108.18 107.96 107.76 107.64 107.65 107.67 107.80 107.97 108.11 108.28 108.43 108.48 108.47 108.46 108.49 108.57 108.46 108.45 108.85 108.54 108.61 108.57
113.54 113.56 113.52 113.48 113.40 113.29 113.08 113.00 112.93 112.87 112.86 112.88 112.89 112.85 112.69 112.67 112.52 112.20 111.89 111.46 111.04 110.80 110.92 109.71 109.26 108.94 108.78 108.64 108.48 108.32 108.05 107.83 107.71 107.77 107.86 107.96 108.12 108.31 108.42 108.57 108.69 108.77 108.73 108.69 108.65 108.65 108.60 108.61 108.79 108.90 108.82 108.73
113.73 113.63 113.59 113.54 113.49 113.32 113.15 113.09 113.05 113.09 113.06 113.04 113.13 112.95 112.77 112.62 112.45 112.20 111.82 111.34 110.92 110.61 110.07 110.13 109.29 108.90 108.72 108.56 108.43 108.21 108.00 107.88 107.96 108.08 108.19 108.37 108.50 108.60 108.70 108.82 108.97 109.05 109.04 108.96 108.92 108.82 108.85 108.81 108.92 109.06 108.93 108.90
113.82 113.79 113.73 113.65 113.60 113.49 113.42 113.26 113.32 113.32 113.19 113.18 113.12 113.03 112.88 112.67 112.42 112.10 111.67 111.18 110.75 110.38 110.17 110.68 109.34 108.96 108.74 108.56 108.38 108.15 107.95 108.03 108.17 108.41 108.58 108.74 108.89 108.94 108.98 109.10 109.24 109.33 109.33 109.28 109.25 109.15 109.06 108.93 108.96 109.07 109.03 109.06
