ncols 52
nrows 52
xllcorner 444416
yllcorner 5714432
cellsize 10
NODATA_value -9999
113.86 113.79 113.74 113.69 113.66 113.53 113.42 113.35 113.39 113.26 113.22 113.21 113.16 113.06 112.90 112.66 112.41 112.07 111.64 111.15 110.72 110.33 110.15 110.68 109.35 108.96 108.74 108.56 108.40 108.17 108.00 108.03 108.21 108.46 108.60 108.78 108.93 109.03 109.07 109.18 109.27 109.40 109.42 109.39 109.35 109.25 108.96 109.00 108.96 108.94 109.02 109.09
113.93 113.97 113.90 113.84 113.88 113.68 113.45 113.42 113.38 113.40 113.41 113.41 113.32 113.15 112.93 112.65 112.36 111.99 111.52 111.01 110.56 110.20 110.03 110.56 109.29 108.94 108.74 108.59 108.38 108.18 108.07 108.23 108.52 108.75 108.94 109.10 109.26 109.31 109.36 109.44 109.58 109.68 109.66 109.67 109.62 109.52 109.40 109.24 109.17 109.21 109.31 109.26
113.97 114.04 113.97 113.82 113.79 113.70 113.66 113.63 113.64 113.63 113.62 113.54 113.39 113.16 112.89 112.58 112.27 111.92 111.46 110.94 110.46 110.10 109.92 110.19 109.64 108.99 108.67 108.57 108.38 108.24 108.23 108.46 108.70 108.98 109.25 109.49 109.64 109.74 109.68 109.64 109.89 109.99 110.01 109.93 109.87 109.74 109.64 109.51 109.35 109.40 109.46 109.44
113.99 113.93 113.92 113.95 113.93 113.89 113.85 113.85 113.87 113.83 113.73 113.58 113.36 113.08 112.80 112.51 112.20 111.83 111.33 110.82 110.37 110.02 109.80 109.71 110.39 109.09 108.86 108.72 108.54 108.41 108.46 108.67 108.92 109.20 109.54 109.72 109.94 110.09 110.06 110.03 110.15 110.25 110.22 110.16 110.10 109.95 109.85 109.74 109.60 109.62 109.59 109.48
114.04 114.03 114.03 114.04 114.05 114.02 114.01 114.02 114.03 113.96 113.81 113.58 113.33 113.01 112.72 112.42 112.10 111.68 111.18 110.72 110.30 109.99 109.77 109.72 110.33 109.16 109.04 108.85 108.73 108.65 108.73 108.98 109.10 109.47 109.77 110.04 110.26 110.32 110.29 110.27 110.43 110.51 110.47 110.40 110.33 110.26 110.10 109.96 109.87 109.89 109.79 109.65
114.21 114.14 114.12 114.14 114.13 114.10 114.09 114.10 114.08 114.00 113.85 113.60 113.35 113.04 112.71 112.36 111.96 111.54 111.07 110.65 110.27 109.97 109.76 109.64 109.40 109.21 109.15 109.03 108.98 108.90 108.97 109.22 109.49 109.72 109.99 110.21 110.42 110.53 110.48 110.51 110.66 110.75 110.80 110.68 110.58 110.49 110.33 110.21 110.11 110.06 110.13 110.01
114.40 114.28 114.22 114.25 114.23 114.23 114.21 114.19 114.13 113.99 113.80 113.55 113.28 113.00 112.67 112.32 111.93 111.45 110.98 110.59 110.24 109.97 109.77 109.57 109.65 110.14 109.37 109.43 109.09 109.12 109.15 109.37 109.65 109.95 110.22 110.43 110.63 110.74 110.73 110.73 110.85 110.96 111.00 110.91 110.82 110.68 110.55 110.50 110.53 110.36 110.31 110.38
114.52 114.42 114.37 114.37 114.34 114.35 114.35 114.29 114.17 113.98 113.76 113.52 113.23 112.89 112.55 112.16 111.77 111.37 110.94 110.56 110.19 109.93 109.73 109.56 109.57 110.13 109.54 109.37 109.06 109.32 109.38 109.60 109.87 110.15 110.44 110.69 110.85 110.96 110.99 110.96 110.97 111.07 111.13 111.09 111.03 110.99 110.88 110.80 110.75 110.65 110.56 110.62
114.56 114.53 114.49 114.44 114.42 114.42 114.37 114.32 114.20 114.00 113.75 113.45 113.15 112.82 112.45 112.04 111.61 111.21 110.83 110.50 110.18 109.93 109.69 109.57 109.55 109.72 109.13 109.29 109.41 109.48 109.69 109.91 110.15 110.38 110.62 110.86 110.99 111.10 111.11 111.08 111.10 111.26 111.36 111.33 111.26 111.20 111.14 111.06 111.00 110.90 110.86 110.92
114.79 114.64 114.55 114.54 114.55 114.50 114.43 114.33 114.15 113.93 113.68 113.40 113.10 112.76 112.36 111.95 111.51 111.10 110.73 110.42 110.15 109.92 109.73 109.59 109.50 109.51 110.04 109.42 109.63 109.76 110.04 110.25 110.44 110.61 110.79 110.96 111.11 111.21 111.30 111.29 111.40 111.47 111.54 111.54 111.47 111.42 111.34 111.29 111.22 111.18 111.15 111.21
114.90 114.78 114.65 114.66 114.64 114.60 114.50 114.36 114.15 113.87 113.57 113.31 113.04 112.68 112.31 111.87 111.45 111.07 110.71 110.40 110.15 109.95 109.78 109.60 109.44 109.46 110.15 109.61 109.84 110.04 110.27 110.43 110.61 110.78 110.96 111.21 111.39 111.43 111.43 111.46 111.55 111.63 111.68 111.68 111.62 111.61 111.58 111.54 111.48 111.45 111.40 111.44
114.98 114.98 114.75 114.78 114.75 114.68 114.53 114.36 114.11 113.81 113.51 113.25 112.98 112.66 112.24 111.78 111.39 111.05 110.72 110.43 110.15 109.93 109.73 109.58 109.44 109.46 110.09 109.74 110.03 110.22 110.49 110.65 110.83 111.04 111.24 111.43 111.53 111.53 111.56 111.52 111.62 111.75 111.78 111.77 111.75 111.76 111.73 111.73 111.72 111.71 111.70 111.70
115.12 115.03 114.87 114.83 114.77 114.66 114.51 114.29 114.04 113.76 113.49 113.26 113.03 112.66 112.22 111.75 111.33 110.96 110.65 110.37 110.13 109.94 109.74 109.57 109.49 109.51 109.46 110.34 110.32 110.68 110.96 111.12 111.01 111.21 111.37 111.57 111.64 111.62 111.63 111.61 111.74 111.85 111.87 111.86 111.88 111.88 111.89 111.90 111.90 111.93 111.93 111.91
115.05 115.20 114.91 114.81 114.74 114.62 114.45 114.23 113.97 113.71 113.47 113.27 113.01 112.62 112.14 111.67 111.27 110.92 110.59 110.34 110.12 109.92 109.75 109.60 109.53 109.56 109.77 110.60 110.81 111.16 111.26 111.28 111.14 111.29 111.43 111.62 111.75 111.83 111.82 111.70 111.87 111.99 112.01 112.00 111.99 112.00 112.01 112.07 112.06 112.07 112.05 112.07
115.13 115.31 114.95 114.78 114.71 114.57 114.39 114.18 113.95 113.67 113.44 113.21 112.94 112.54 112.06 111.63 111.21 110.88 110.57 110.32 110.10 109.91 109.74 109.64 109.64 109.76 110.05 110.71 111.09 111.61 111.47 111.47 111.40 111.38 111.64 111.76 111.82 111.94 111.95 111.94 112.07 112.15 112.17 112.14 112.15 112.14 112.17 112.23 112.28 112.24 112.16 112.14
115.13 115.13 115.04 114.80 114.73 114.54 114.34 114.12 113.88 113.65 113.43 113.15 112.83 112.44 111.99 111.59 111.21 110.86 110.57 110.32 110.12 109.97 109.81 109.73 109.78 110.00 110.32 110.18 110.60 111.95 111.68 111.66 111.46 111.53 111.74 111.87 111.96 112.03 112.06 112.18 112.24 112.33 112.33 112.34 112.32 112.32 112.35 112.40 112.48 112.44 112.36 112.31
115.09 115.10 115.06 114.86 114.77 114.58 114.36 114.11 113.85 113.60 113.35 113.06 112.74 112.35 111.93 111.55 111.17 110.90 110.63 110.39 110.17 110.01 109.90 109.83 109.86 110.11 110.46 110.69 111.17 111.71 111.94 111.84 111.82 111.75 111.77 111.87 112.18 113.81 112.42 112.18 112.38 112.47 112.52 112.53 112.52 112.50 112.55 112.62 112.68 112.62 112.55 112.48
115.02 115.11 115.28 114.95 114.81 114.61 114.36 114.15 113.90 113.63 113.32 112.99 112.63 112.26 111.88 111.53 111.21 110.90 110.65 110.46 110.18 110.01 109.93 109.96 110.10 110.39 110.68 110.99 111.32 111.62 111.94 111.99 111.97 112.01 113.18 112.60 112.38 112.33 112.43 112.39 112.53 112.62 112.72 112.75 112.75 112.75 112.77 112.83 112.84 112.78 112.68 112.66
115.03 115.07 115.32 114.97 114.76 114.59 114.35 114.14 113.92 113.66 113.36 112.99 112.60 112.19 111.83 111.53 111.20 110.86 110.63 110.43 110.21 110.07 110.01 110.11 110.39 110.73 111.06 111.35 110.89 111.12 111.96 112.07 112.21 112.25 112.25 112.24 112.25 112.30 112.37 112.45 112.68 112.81 112.92 112.94 112.96 112.92 112.93 112.97 113.04 113.03 112.96 112.88
115.01 115.07 115.03 114.96 114.71 114.49 114.29 114.13 113.93 113.65 113.31 112.94 112.60 112.15 111.78 111.44 111.19 110.90 110.67 110.46 110.25 110.17 110.17 110.38 110.72 111.10 111.41 111.59 111.72 111.76 111.85 112.18 112.27 112.19 112.18 112.18 112.20 112.26 112.35 112.52 112.79 112.96 113.01 113.08 113.13 113.14 113.17 113.22 113.26 113.25 113.13 113.05
115.00 114.94 114.98 114.88 114.69 114.46 114.29 114.12 113.93 113.63 113.21 112.83 112.46 112.11 111.78 111.48 111.20 110.93 110.71 110.46 110.30 110.21 110.30 110.61 110.97 111.38 111.68 111.87 112.01 111.92 112.11 112.23 112.26 112.35 112.14 112.15 112.18 112.25 112.38 112.90 112.74 112.97 113.14 113.25 113.31 113.32 113.34 113.36 113.43 113.46 113.39 113.29
115.02 114.96 114.97 115.04 114.63 114.45 114.26 114.08 113.84 113.53 113.14 112.76 112.39 112.06 111.74 111.46 111.17 110.94 110.71 110.50 110.34 110.30 110.42 110.71 111.12 111.51 111.76 112.00 112.10 111.38 112.07 112.16 112.18 112.20 112.13 112.04 112.85 112.99 112.60 112.67 112.80 112.99 113.19 113.36 113.44 113.46 113.53 113.54 113.60 113.68 113.60 113.50
115.05 114.90 114.82 114.92 114.61 114.36 114.22 114.03 113.80 113.45 113.06 112.68 112.32 111.99 111.68 111.40 111.14 110.90 110.70 110.49 110.39 110.38 110.49 110.73 111.07 111.43 111.69 111.92 111.92 111.66 112.15 113.43 112.21 112.55 112.50 112.58 112.65 112.72 112.80 112.83 112.90 113.01 113.22 113.43 113.51 113.60 113.65 113.68 113.78 113.86 113.82 113.75
115.01 114.84 114.74 114.71 114.55 114.27 114.18 114.00 113.69 113.32 112.95 112.60 112.23 111.94 111.62 111.35 111.08 110.85 110.65 110.50 110.45 110.47 110.54 110.71 111.00 111.33 111.59 111.65 111.62 111.60 112.32 112.17 112.35 112.44 112.62 112.73 112.81 112.90 113.02 113.11 113.15 113.16 113.29 113.48 113.62 113.70 113.76 113.83 113.92 114.01 114.03 113.94
114.96 114.79 114.65 114.61 114.52 114.24 114.14 113.91 113.58 113.18 112.83 112.46 112.14 111.84 111.54 111.30 111.03 110.80 110.63 110.55 110.58 110.66 110.72 110.82 111.00 111.28 111.43 111.46 111.54 111.71 112.01 112.35 112.49 112.57 112.76 112.87 113.02 113.13 113.21 113.34 113.36 113.36 113.40 113.53 113.67 113.82 113.87 113.96 114.04 114.17 114.22 114.14
114.90 114.75 114.61 114.57 114.67 114.28 114.08 113.78 113.43 113.04 112.71 112.36 112.06 111.76 111.49 111.23 110.97 110.79 110.71 110.71 110.76 110.82 110.91 110.99 111.15 111.32 111.49 111.54 111.70 111.91 112.05 112.58 112.76 112.75 112.91 113.05 113.18 113.28 113.42 113.50 113.54 113.56 113.54 113.61 113.76 113.87 113.96 114.07 114.15 114.32 114.41 114.35
114.86 114.69 114.53 114.45 114.57 114.34 114.00 113.69 113.31 112.93 112.59 112.26 111.99 111.69 111.44 111.20 110.97 110.82 110.82 110.90 110.96 111.03 111.06 111.14 111.31 111.48 111.65 111.73 111.88 112.14 112.36 112.91 112.98 112.99 113.06 113.19 113.29 113.40 113.54 113.62 113.72 113.75 113.74 113.79 113.88 113.97 114.09 114.17 114.30 114.47 114.61 114.58
114.81 114.63 114.44 114.30 114.28 114.27 113.90 113.58 113.20 112.85 112.53 112.19 111.95 111.65 111.35 111.12 110.98 110.96 111.04 111.18 111.26 111.33 111.35 111.39 111.49 111.59 111.80 111.98 112.19 112.43 112.72 112.98 113.26 113.23 113.21 113.37 113.47 113.61 113.75 113.84 113.96 114.01 114.05 114.03 114.01 114.10 114.23 114.32 114.44 114.60 114.72 114.75
114.80 114.61 114.38 114.17 114.12 114.16 113.76 113.43 113.07 112.79 112.46 112.13 111.85 111.56 111.33 111.17 111.12 111.22 111.40 111.54 111.61 111.60 111.61 111.68 111.72 111.84 112.01 112.23 112.43 112.68 112.92 113.14 113.06 113.47 113.38 113.50 113.65 113.82 113.97 114.12 114.17 114.18 114.19 114.14 114.17 114.24 114.33 114.42 114.54 114.66 114.81 114.97
114.87 114.64 114.40 114.18 114.05 114.01 113.59 113.27 112.93 112.67 112.37 112.11 111.84 111.58 111.39 111.29 111.34 111.48 111.69 111.81 111.89 111.93 111.97 112.01 112.03 112.06 112.23 112.41 112.61 112.80 113.07 113.28 113.52 113.62 113.57 113.63 113.78 113.94 114.11 114.20 114.22 114.26 114.29 114.32 114.33 114.40 114.44 114.51 114.68 114.79 114.94 115.11
114.84 114.66 114.46 114.24 114.06 114.08 113.47 113.09 112.85 112.60 112.33 112.07 111.81 111.60 111.43 111.42 111.52 111.77 111.99 112.11 112.21 112.29 112.29 112.27 112.23 112.25 112.36 112.53 112.72 112.92 113.24 113.58 113.67 113.69 113.72 113.76 113.92 114.06 114.16 114.24 114.31 114.36 114.46 114.48 114.54 114.62 114.62 114.74 114.82 114.90 114.99 115.09
114.76 114.61 114.46 114.25 114.00 113.86 113.32 113.02 112.82 112.56 112.30 112.04 111.80 111.61 111.54 111.61 111.79 112.11 112.38 112.49 112.49 112.54 112.52 112.44 112.38 112.39 112.51 112.69 112.87 113.06 113.33 113.65 113.36 113.51 113.91 113.92 114.07 114.15 114.24 114.33 114.45 114.54 114.62 114.68 114.82 114.81 114.79 114.81 114.90 115.03 115.14 115.21
114.70 114.50 114.33 114.10 113.83 113.66 113.33 113.00 112.74 112.50 112.30 112.03 111.85 111.72 111.68 111.85 112.27 112.61 112.82 112.90 112.75 112.76 112.68 112.64 112.60 112.58 112.67 112.83 113.05 113.24 113.47 113.75 113.83 114.18 114.01 114.12 114.24 114.35 114.46 114.55 114.67 114.79 114.85 114.92 115.07 115.04 114.96 114.96 114.97 115.12 115.25 115.38
114.60 114.39 114.19 113.92 113.65 113.53 113.40 112.93 112.73 112.52 112.29 112.08 111.89 111.83 111.79 112.15 112.62 112.94 113.12 113.16 113.08 113.00 112.90 112.80 112.81 112.83 112.89 113.03 113.22 113.47 113.65 113.80 113.94 114.40 114.19 114.33 114.41 114.57 114.65 114.78 114.90 114.94 115.02 115.11 115.26 115.22 115.15 115.10 115.14 115.25 115.39 115.52
114.53 114.31 114.08 113.83 113.59 113.46 113.37 112.91 112.68 112.48 112.29 112.11 111.99 111.94 112.00 112.39 112.93 113.18 113.27 113.31 113.24 113.17 113.12 113.01 113.03 113.02 113.11 113.22 113.38 113.62 113.83 113.96 114.04 113.99 114.05 114.62 114.59 114.70 114.82 114.97 115.04 115.16 115.22 115.33 115.49 115.46 115.39 115.34 115.36 115.43 115.51 115.63
114.44 114.23 114.01 113.79 113.55 113.35 113.25 112.86 112.67 112.48 112.35 112.21 112.09 112.08 112.28 112.74 113.12 113.28 113.29 113.34 113.40 113.35 113.27 113.23 113.19 113.22 113.28 113.40 113.58 113.82 114.00 114.11 114.24 114.36 114.86 114.80 114.86 114.95 114.98 115.14 115.25 115.29 115.35 115.53 115.57 115.62 115.57 115.49 115.53 115.59 115.69 115.77
114.39 114.17 113.95 113.78 113.53 113.29 113.23 113.04 112.68 112.53 112.45 112.36 112.24 112.32 112.67 112.98 113.19 113.33 113.46 113.59 113.60 113.54 113.45 113.42 113.40 113.46 113.52 113.62 113.79 113.99 114.17 114.24 114.36 114.49 115.09 115.05 115.07 115.15 115.23 115.33 115.46 115.44 115.46 115.58 115.62 115.66 115.64 115.67 115.72 115.76 115.85 115.94
114.34 114.15 113.93 113.71 113.49 113.26 113.20 113.23 112.74 112.57 112.47 112.41 112.40 112.52 112.88 113.27 113.35 113.57 113.73 113.76 113.75 113.72 113.70 113.67 113.68 113.71 113.74 113.84 114.03 114.22 114.38 114.42 114.54 114.78 114.94 114.99 115.33 115.41 115.48 115.61 115.64 115.57 115.61 115.70 115.76 115.81 115.83 115.83 115.89 115.96 116.03 116.12
114.28 114.08 113.89 113.66 113.46 113.24 113.18 113.15 112.80 112.60 112.55 112.53 112.65 112.98 113.14 113.46 113.62 113.75 113.94 113.96 113.96 113.95 113.91 113.92 113.91 113.94 113.98 114.09 114.25 114.47 114.62 114.71 114.79 114.89 115.04 115.52 115.53 115.60 115.65 115.76 115.85 115.79 115.79 115.88 115.94 115.99 116.02 116.04 116.10 116.15 116.21 116.29
114.26 114.06 113.85 113.64 113.42 113.23 113.11 113.07 113.09 112.77 112.66 112.62 112.84 113.06 113.38 113.58 113.89 114.00 114.11 114.15 114.17 114.17 114.12 114.15 114.13 114.22 114.30 114.47 114.62 114.77 114.85 114.88 114.94 115.14 115.30 115.78 115.69 115.72 115.80 115.96 116.02 115.97 116.01 116.16 116.14 116.19 116.22 116.21 116.28 116.31 116.39 116.49
114.26 114.05 113.83 113.61 113.40 113.19 113.08 113.10 113.15 112.74 113.07 112.84 113.03 113.30 113.54 113.86 114.01 114.10 114.29 114.32 114.35 114.33 114.37 114.44 114.55 114.58 114.65 114.75 114.88 114.97 115.01 115.10 115.30 115.50 115.68 115.80 115.83 115.86 115.92 116.11 116.14 116.14 116.21 116.28 116.31 116.36 116.41 116.42 116.45 116.49 116.61 116.69
114.27 114.06 113.84 113.60 113.38 113.21 113.07 113.09 113.27 112.75 112.76 112.90 113.19 113.50 113.85 114.07 114.14 114.17 114.38 114.49 114.59 114.62 114.66 114.74 114.78 114.78 114.85 114.93 115.06 115.19 115.29 115.43 115.59 115.75 115.91 115.77 116.00 116.04 116.07 116.17 116.29 116.24 116.31 116.42 116.49 116.53 116.59 116.60 116.65 116.69 116.77 116.86
114.26 114.04 113.85 113.60 113.41 113.26 113.16 113.17 113.20 112.86 112.88 113.02 113.33 113.75 113.94 114.15 114.39 114.58 114.64 114.73 114.80 114.86 114.92 114.97 115.00 115.07 115.12 115.18 115.31 115.40 115.53 115.67 115.78 115.91 116.06 116.08 116.32 116.17 116.13 116.24 116.32 116.38 116.44 116.54 116.62 116.68 116.71 116.74 116.79 116.83 116.94 117.10
114.26 114.06 113.85 113.64 113.47 113.33 113.26 113.18 113.23 112.97 112.97 113.21 113.54 113.82 114.08 114.32 114.46 114.69 114.82 114.93 115.01 115.10 115.19 115.22 115.19 115.24 115.29 115.44 115.53 115.59 115.66 115.79 115.89 116.01 116.18 116.26 116.39 116.37 116.28 116.32 116.37 116.42 116.51 116.60 116.68 116.81 116.89 116.93 116.98 116.94 117.05 117.19
114.27 114.11 113.88 113.68 113.54 113.42 113.30 113.21 113.26 113.30 113.35 113.52 113.75 113.93 114.14 114.39 114.59 114.77 114.92 115.03 115.11 115.20 115.28 115.31 115.32 115.39 115.49 115.59 115.69 115.75 115.81 115.96 116.04 116.15 116.32 116.47 116.09 116.27 116.41 116.35 116.43 116.47 116.59 116.72 116.84 116.93 116.98 117.05 117.10 117.11 117.18 117.31
114.32 114.13 113.91 113.73 113.59 113.48 113.38 113.26 113.28 113.37 113.48 113.65 113.89 114.14 114.30 114.54 114.74 114.86 115.00 115.14 115.27 115.37 115.41 115.43 115.49 115.57 115.61 115.70 115.84 115.95 116.07 116.15 116.22 116.31 116.41 116.57 116.62 116.84 116.52 116.64 116.62 116.65 116.73 116.85 116.93 117.03 117.14 117.22 117.26 117.26 117.29 117.39
114.35 114.14 113.95 113.77 113.65 113.56 113.44 113.32 113.33 113.26 113.57 113.73 113.97 114.26 114.49 114.70 114.84 114.98 115.12 115.24 115.32 115.43 115.51 115.53 115.55 115.66 115.75 115.90 116.04 116.15 116.23 116.27 116.35 116.42 116.51 116.67 116.83 116.99 116.78 116.87 116.80 116.81 116.89 116.98 117.08 117.19 117.26 117.35 117.37 117.39 117.45 117.53
114.37 114.19 113.98 113.83 113.69 113.57 113.47 113.37 113.29 113.34 113.65 113.91 114.14 114.41 114.62 114.79 114.91 115.04 115.20 115.31 115.41 115.54 115.63 115.68 115.73 115.79 115.90 116.07 116.19 116.22 116.31 116.39 116.49 116.60 116.65 116.80 117.01 116.62 116.74 117.09 117.04 117.10 117.15 117.19 117.25 117.33 117.39 117.46 117.51 117.51 117.56 117.64
114.44 114.24 114.02 113.85 113.70 113.60 113.50 113.42 113.32 113.44 113.71 113.99 114.22 114.45 114.65 114.83 114.96 115.05 115.22 115.39 115.54 115.68 115.75 115.79 115.85 115.98 116.09 116.21 116.32 116.41 116.51 116.60 116.69 116.77 116.80 116.94 117.17 117.10 117.36 117.16 117.23 117.29 117.36 117.43 117.49 117.54 117.58 117.61 117.63 117.66 117.70 117.76
114.50 114.29 114.06 113.88 113.76 113.66 113.63 113.53 113.46 113.59 113.73 114.11 114.28 114.46 114.68 114.87 114.96 115.10 115.25 115.41 115.58 115.74 115.83 115.88 115.98 116.14 116.27 116.36 116.45 116.55 116.64 116.75 116.80 116.89 117.01 117.12 117.28 117.28 117.50 117.22 117.31 117.38 117.50 117.60 117.68 117.78 117.83 117.85 117.85 117.82 117.85 117.91
114.56 114.29 114.08 113.93 113.84 113.80 113.76 113.67 113.64 113.77 113.89 114.22 114.42 114.56 114.72 114.90 115.05 115.16 115.30 115.42 115.56 115.75 115.91 116.03 116.14 116.28 116.42 116.49 116.58 116.65 116.78 116.89 116.97 117.07 117.18 117.28 117.40 117.51 117.23 117.10 117.38 117.43 117.54 117.66 117.76 117.86 117.96 118.04 118.10 118.11 118.08 118.08
114.55 114.25 114.09 114.03 113.97 113.95 113.85 113.80 113.83 113.89 114.04 114.33 114.57 114.63 114.81 115.02 115.12 115.20 115.32 115.48 115.63 115.81 115.99 116.19 116.33 116.46 116.58 116.70 116.79 116.93 117.01 117.10 117.16 117.26 117.33 117.42 117.51 117.60 117.53 117.82 117.54 117.56 117.64 117.75 117.84 117.92 118.04 118.13 118.17 118.23 118.24 118.29
