ncols 52
nrows 52
xllcorner 444416
yllcorner 5715968
cellsize 10
NODATA_value -9999
97.86 97.96 98.09 98.20 98.26 98.33 98.38 98.43 98.43 98.46 98.45 98.43 98.40 98.43 98.35 98.28 98.27 98.25 98.25 98.20 98.17 98.30 98.38 98.13 98.13 98.15 98.13 98.10 98.04 98.06 98.09 98.14 98.12 98.13 98.15 98.19 98.11 98.09 98.00 97.96 97.90 97.87 97.80 97.74 97.66 97.59 97.53 97.43 97.38 97.33 97.32 97.26
97.90 98.03 98.15 98.25 98.33 98.40 98.44 98.50 98.51 98.52 98.53 98.53 98.51 98.53 98.46 98.42 98.41 98.40 98.39 98.35 98.27 98.38 98.51 98.21 98.21 98.22 98.21 98.16 98.10 98.13 98.14 98.21 98.19 98.19 98.21 98.24 98.18 98.18 98.13 98.07 98.01 97.97 97.88 97.82 97.73 97.67 97.59 97.51 97.47 97.43 97.40 97.38
97.94 98.07 98.21 98.29 98.38 98.46 98.53 98.56 98.58 98.62 98.62 98.63 98.58 98.62 98.59 98.52 98.55 98.51 98.52 98.46 98.40 98.47 98.60 98.28 98.29 98.28 98.26 98.21 98.17 98.19 98.21 98.29 98.25 98.26 98.27 98.31 98.27 98.28 98.24 98.16 98.11 98.04 97.96 97.88 97.81 97.74 97.67 97.62 97.59 97.57 97.51 97.48
98.01 98.16 98.26 98.35 98.45 98.53 98.60 98.65 98.66 98.71 98.74 98.72 98.68 98.70 98.68 98.60 98.64 98.61 98.61 98.57 98.51 98.52 98.70 98.35 98.37 98.35 98.33 98.30 98.25 98.26 98.30 98.36 98.34 98.35 98.35 98.38 98.35 98.38 98.36 98.28 98.20 98.13 98.04 97.96 97.91 97.86 97.78 97.75 97.72 97.68 97.62 97.53
98.06 98.23 98.33 98.44 98.51 98.62 98.68 98.72 98.76 98.80 98.85 98.79 98.76 98.81 98.78 98.72 98.73 98.71 98.69 98.68 98.60 98.60 98.78 98.44 98.46 98.44 98.42 98.41 98.35 98.35 98.38 98.43 98.43 98.42 98.46 98.46 98.44 98.45 98.44 98.38 98.31 98.21 98.10 98.04 98.00 97.95 97.89 97.84 97.81 97.76 97.69 97.56
98.12 98.29 98.41 98.52 98.59 98.70 98.78 98.83 98.88 98.90 98.93 98.92 98.90 98.91 98.88 98.80 98.80 98.79 98.80 98.79 98.71 98.70 98.83 98.54 98.57 98.53 98.52 98.48 98.45 98.45 98.47 98.51 98.55 98.56 98.58 98.55 98.51 98.51 98.51 98.44 98.37 98.28 98.16 98.10 98.07 98.00 97.94 97.87 97.81 97.77 97.74 97.55
98.19 98.36 98.50 98.60 98.68 98.79 98.88 98.93 98.99 99.02 99.04 99.02 99.00 99.01 99.00 98.94 98.91 98.90 98.89 98.92 98.85 98.82 98.99 98.68 98.63 98.65 98.63 98.59 98.56 98.55 98.58 98.60 98.65 98.68 98.69 98.64 98.58 98.59 98.58 98.54 98.46 98.33 98.22 98.17 98.14 98.05 97.97 97.88 97.81 97.77 97.67 97.73
98.26 98.44 98.57 98.69 98.78 98.88 98.99 99.04 99.11 99.14 99.15 99.14 99.15 99.15 99.13 99.04 99.03 99.02 99.01 99.04 99.01 98.98 99.14 98.79 98.79 98.76 98.74 98.72 98.69 98.67 98.70 98.72 98.76 98.79 98.81 98.75 98.69 98.65 98.64 98.57 98.52 98.38 98.31 98.24 98.19 98.08 98.01 97.93 97.85 97.82 97.86 98.20
98.35 98.51 98.65 98.76 98.90 99.00 99.10 99.15 99.24 99.26 99.28 99.29 99.28 99.29 99.27 99.22 99.18 99.16 99.12 99.19 99.15 99.15 99.32 98.95 98.93 98.91 98.89 98.87 98.83 98.82 98.84 98.84 98.86 98.89 98.90 98.84 98.77 98.73 98.71 98.65 98.54 98.45 98.38 98.31 98.26 98.14 98.08 97.94 97.98 98.04 98.38 97.58
98.43 98.62 98.74 98.87 99.00 99.11 99.22 99.31 99.38 99.40 99.42 99.44 99.43 99.45 99.42 99.35 99.33 99.31 99.28 99.31 99.32 99.35 99.49 99.14 99.06 99.09 99.04 99.03 99.00 98.97 98.98 98.96 98.94 98.94 98.98 98.94 98.87 98.81 98.80 98.72 98.62 98.54 98.47 98.36 98.32 98.15 98.07 98.13 97.99 98.44 97.98 97.94
98.54 98.71 98.85 99.01 99.14 99.26 99.37 99.43 99.55 99.58 99.60 99.62 99.60 99.59 99.59 99.55 99.51 99.46 99.40 99.46 99.46 99.52 99.67 99.32 99.26 99.27 99.21 99.21 99.17 99.13 99.12 99.07 99.05 99.04 99.06 99.03 98.98 98.91 98.87 98.79 98.69 98.62 98.54 98.44 98.35 98.26 98.30 98.67 97.94 98.04 97.86 97.95
98.64 98.81 98.99 99.15 99.29 99.42 99.53 99.64 99.73 99.78 99.77 99.81 99.76 99.74 99.75 99.72 99.67 99.62 99.57 99.61 99.64 99.70 99.87 99.54 99.45 99.47 99.40 99.36 99.32 99.26 99.22 99.18 99.15 99.14 99.17 99.15 99.09 99.00 98.96 98.90 98.79 98.73 98.62 98.43 98.47 98.57 98.82 98.05 98.14 98.03 97.99 98.00
98.73 98.92 99.11 99.30 99.45 99.56 99.68 99.78 99.88 99.95 99.96 99.98 99.90 99.90 99.91 99.89 99.85 99.82 99.73 99.79 99.82 99.90 100.11 99.74 99.65 99.64 99.53 99.49 99.43 99.39 99.32 99.29 99.24 99.25 99.28 99.26 99.19 99.08 99.03 98.97 98.93 98.83 98.65 98.64 98.51 98.94 98.29 98.32 98.11 98.17 98.21 98.21
98.82 99.04 99.22 99.38 99.54 99.65 99.77 99.89 99.97 100.05 100.06 100.09 100.05 100.05 100.08 100.10 100.07 100.01 99.95 100.00 100.04 100.11 100.33 99.98 99.82 99.78 99.66 99.60 99.55 99.49 99.45 99.43 99.37 99.37 99.39 99.38 99.32 99.19 99.10 99.11 99.03 98.88 98.93 98.92 98.89 98.46 98.38 98.30 98.35 98.32 98.34 98.32
98.89 99.10 99.26 99.42 99.57 99.69 99.81 99.91 100.01 100.11 100.16 100.18 100.18 100.22 100.29 100.33 100.30 100.24 100.17 100.22 100.25 100.32 100.50 100.19 99.99 99.92 99.82 99.76 99.68 99.65 99.59 99.57 99.48 99.50 99.50 99.50 99.43 99.29 99.22 99.18 99.14 99.17 99.35 98.36 98.65 98.53 98.49 98.51 98.54 98.51 98.54 98.56
98.93 99.15 99.28 99.44 99.58 99.71 99.83 99.93 100.04 100.13 100.21 100.29 100.35 100.42 100.53 100.55 100.53 100.47 100.40 100.43 100.40 100.43 100.63 100.37 100.14 100.05 99.98 99.92 99.84 99.79 99.73 99.71 99.64 99.62 99.60 99.57 99.54 99.40 99.26 99.35 99.38 99.60 98.90 98.93 98.70 98.67 98.68 98.71 98.72 98.74 98.68 98.64
98.98 99.17 99.32 99.45 99.60 99.74 99.85 99.96 100.07 100.18 100.30 100.40 100.51 100.57 100.71 100.74 100.71 100.64 100.58 100.56 100.52 100.55 100.70 100.54 100.27 100.19 100.14 100.07 100.01 99.93 99.89 99.85 99.76 99.73 99.70 99.66 99.62 99.46 99.55 99.27 99.76 99.08 99.06 98.90 98.82 98.89 98.86 98.92 98.90 98.91 98.82 98.79
99.06 99.21 99.34 99.50 99.64 99.77 99.88 100.00 100.14 100.25 100.35 100.48 100.60 100.68 100.80 100.85 100.83 100.78 100.74 100.72 100.65 100.65 100.79 100.71 100.43 100.34 100.31 100.23 100.17 100.09 100.03 99.96 99.92 99.85 99.83 99.73 99.65 99.72 99.94 99.51 99.35 99.20 99.11 99.06 99.03 99.07 99.11 99.07 99.07 98.99 98.99 98.89
99.08 99.25 99.40 99.56 99.69 99.82 99.95 100.05 100.19 100.31 100.44 100.57 100.66 100.71 100.86 100.94 100.93 100.91 100.88 100.86 100.81 100.81 100.92 100.89 100.59 100.53 100.48 100.38 100.33 100.26 100.19 100.14 100.07 99.99 99.87 99.88 99.95 100.21 99.54 99.74 99.41 99.31 99.28 99.26 99.26 99.28 99.24 99.17 99.18 99.15 99.13 99.02
99.14 99.30 99.44 99.60 99.74 99.88 100.01 100.13 100.26 100.36 100.51 100.64 100.74 100.83 100.93 101.03 101.04 101.04 101.04 101.03 100.99 100.95 101.07 101.07 100.76 100.72 100.66 100.54 100.47 100.40 100.33 100.30 100.24 100.07 100.12 100.11 100.34 99.94 99.91 99.90 99.57 99.51 99.52 99.45 99.46 99.41 99.39 99.38 99.29 99.34 99.22 99.16
99.21 99.35 99.50 99.67 99.79 99.94 100.07 100.20 100.32 100.45 100.60 100.74 100.85 100.88 101.01 101.12 101.15 101.17 101.16 101.18 101.14 101.12 101.21 101.27 100.92 100.88 100.79 100.66 100.61 100.55 100.50 100.47 100.35 100.33 100.22 100.44 100.09 100.03 99.98 100.06 99.77 99.70 99.69 99.68 99.65 99.57 99.56 99.46 99.49 99.39 99.32 99.27
99.30 99.44 99.60 99.74 99.88 100.01 100.16 100.29 100.40 100.55 100.71 100.83 100.95 101.02 101.11 101.22 101.26 101.28 101.29 101.33 101.29 101.29 101.34 101.49 101.08 101.04 100.94 100.82 100.75 100.71 100.62 100.54 100.58 100.73 99.99 100.27 100.12 100.06 99.93 100.04 100.18 99.93 99.92 99.83 99.79 99.75 99.62 99.68 99.52 99.55 99.48 99.36
99.41 99.54 99.71 99.82 99.96 100.09 100.26 100.37 100.49 100.66 100.81 100.94 101.04 101.11 101.21 101.33 101.38 101.40 101.40 101.46 101.46 101.42 101.50 101.61 101.22 101.19 101.10 100.98 100.88 100.76 100.77 100.96 100.96 100.61 100.43 100.23 100.21 100.23 100.19 100.10 100.35 100.10 100.01 99.94 99.85 99.83 99.81 99.75 99.67 99.66 99.54 99.41
99.51 99.64 99.80 99.93 100.04 100.17 100.34 100.46 100.59 100.73 100.89 101.02 101.15 101.24 101.32 101.44 101.49 101.51 101.52 101.59 101.60 101.59 101.62 101.80 101.39 101.34 101.25 101.18 100.99 100.97 100.79 101.17 100.80 100.61 100.39 100.44 100.39 100.35 100.38 100.21 100.36 100.42 100.21 100.13 100.01 99.99 99.96 99.90 99.90 99.74 99.74 99.58
99.62 99.75 99.90 100.02 100.12 100.27 100.42 100.54 100.64 100.80 100.98 101.08 101.23 101.34 101.42 101.54 101.63 101.61 101.65 101.73 101.76 101.73 101.77 101.93 101.55 101.46 101.40 101.28 101.26 101.25 101.18 100.99 100.82 100.70 100.67 100.65 100.63 100.60 100.57 100.48 100.40 100.65 100.39 100.30 100.22 100.10 100.06 100.06 99.98 99.94 99.82 99.77
99.74 99.84 99.97 100.10 100.21 100.33 100.52 100.61 100.73 100.88 101.05 101.16 101.31 101.44 101.52 101.65 101.71 101.74 101.79 101.86 101.87 101.83 101.90 102.07 101.71 101.61 101.57 101.65 101.67 100.97 101.20 101.04 100.90 100.92 100.85 100.87 100.82 100.79 100.73 100.70 100.56 100.68 100.55 100.42 100.35 100.24 100.27 100.18 100.21 100.09 99.95 99.91
99.84 99.93 100.07 100.17 100.29 100.40 100.59 100.70 100.82 100.97 101.15 101.26 101.42 101.57 101.67 101.76 101.83 101.85 101.88 101.94 101.98 101.94 102.00 102.19 101.87 101.92 101.78 102.01 101.83 101.44 101.20 101.17 101.17 101.12 101.14 101.10 101.04 100.99 100.96 100.92 100.70 100.66 100.92 100.69 100.49 100.46 100.33 100.35 100.32 100.30 100.18 100.04
99.96 100.03 100.15 100.26 100.36 100.51 100.68 100.81 100.93 101.12 101.28 101.42 101.58 101.73 101.83 101.88 101.91 101.93 101.97 102.05 102.10 102.07 102.18 102.30 102.05 102.23 102.25 102.13 101.76 101.41 101.43 101.36 101.35 101.37 101.35 101.28 101.22 101.15 101.11 101.06 100.99 100.82 100.98 100.79 100.66 100.61 100.66 100.67 100.58 100.54 100.32 100.19
100.06 100.15 100.25 100.38 100.51 100.64 100.82 100.96 101.09 101.27 101.44 101.57 101.71 101.86 101.96 101.97 101.99 102.06 102.07 102.17 102.29 102.31 102.30 102.47 102.39 102.58 102.31 102.02 101.82 101.76 101.68 101.61 101.62 101.63 101.62 101.51 101.43 101.38 101.28 101.22 101.13 100.94 101.01 101.19 101.01 100.87 100.91 100.86 100.80 100.64 100.56 100.25
100.21 100.29 100.39 100.55 100.68 100.82 101.00 101.10 101.24 101.40 101.56 101.65 101.79 101.92 102.01 102.07 102.10 102.12 102.29 102.35 102.41 102.66 102.59 102.89 102.67 102.44 102.17 102.11 102.02 101.95 101.90 101.81 101.81 101.82 101.78 101.68 101.61 101.53 101.45 101.41 101.32 101.26 101.13 101.43 101.37 101.10 101.01 100.92 100.90 100.82 100.68 100.48
100.35 100.46 100.57 100.72 100.81 100.95 101.11 101.21 101.29 101.46 101.59 101.68 101.78 101.91 102.09 102.16 102.34 102.39 102.43 102.73 102.76 102.97 102.94 102.75 102.50 102.43 102.32 102.23 102.22 102.20 102.17 102.07 102.02 102.02 101.94 101.89 101.78 101.75 101.68 101.62 101.58 101.52 101.32 101.42 101.54 101.30 101.13 101.04 101.00 100.93 100.79 100.72
100.53 100.64 100.75 100.85 100.92 101.01 101.14 101.23 101.35 101.47 101.62 101.71 101.82 101.96 102.25 102.42 102.46 102.74 102.82 102.93 102.92 102.87 102.73 102.74 102.60 102.47 102.40 102.37 102.41 102.43 102.38 102.28 102.21 102.16 102.14 102.08 102.01 101.96 101.92 101.87 101.78 101.71 101.53 101.47 101.78 101.54 101.24 101.10 100.99 100.98 101.00 100.83
100.60 100.76 100.84 100.90 100.97 101.03 101.14 101.25 101.37 101.52 101.67 101.74 102.02 102.20 102.36 102.71 102.78 102.84 102.88 102.75 102.70 102.84 102.85 102.78 102.66 102.56 102.54 102.58 102.65 102.67 102.62 102.52 102.39 102.37 102.34 102.35 102.29 102.22 102.16 102.08 101.97 101.85 101.72 101.54 101.65 101.47 101.28 101.21 101.12 101.15 101.04 100.95
100.63 100.80 100.90 100.95 100.99 101.05 101.18 101.30 101.45 101.58 101.80 101.98 102.12 102.49 102.65 102.65 102.83 102.74 102.66 102.74 102.83 102.88 102.88 102.81 102.75 102.70 102.73 102.81 102.88 102.91 102.88 102.77 102.64 102.60 102.58 102.53 102.55 102.43 102.29 102.22 102.13 102.00 101.87 101.70 101.61 101.68 101.50 101.32 101.23 101.08 101.08 100.98
100.60 100.79 100.93 101.00 101.03 101.11 101.24 101.35 101.58 101.80 101.94 102.18 102.44 102.30 102.56 102.66 102.62 102.69 102.79 102.81 102.88 102.95 102.95 102.92 102.91 102.90 102.94 103.01 103.09 103.14 103.13 103.06 102.92 102.83 102.78 102.75 102.72 102.57 102.47 102.36 102.24 102.12 101.98 101.85 101.70 101.85 101.53 101.38 101.28 101.21 101.15 101.05
100.58 100.78 100.94 101.02 101.10 101.15 101.40 101.57 101.73 101.98 102.18 102.04 102.29 102.24 102.37 102.67 102.83 102.80 102.85 102.86 102.94 103.04 103.07 103.04 103.08 103.13 103.14 103.21 103.26 103.33 103.38 103.34 103.18 103.06 102.98 102.92 102.88 102.75 102.60 102.50 102.40 102.27 102.11 101.95 101.71 101.76 101.79 101.61 101.43 101.35 101.21 101.10
100.53 100.73 100.96 101.03 101.16 101.30 101.46 101.56 101.93 101.70 102.02 102.10 102.16 102.26 102.50 102.74 102.93 102.94 102.92 102.99 103.09 103.18 103.21 103.19 103.24 103.28 103.35 103.35 103.38 103.47 103.54 103.54 103.41 103.21 103.10 103.04 102.99 102.89 102.74 102.61 102.51 102.40 102.24 102.11 101.97 101.79 102.03 101.72 101.53 101.38 101.19 101.16
100.53 100.68 101.00 101.11 101.24 101.24 101.67 101.36 101.73 101.89 101.94 102.06 102.22 102.32 102.51 102.76 102.99 103.04 103.03 103.11 103.21 103.28 103.31 103.35 103.38 103.40 103.43 103.48 103.54 103.61 103.69 103.74 103.61 103.39 103.28 103.21 103.11 103.06 102.91 102.75 102.67 102.52 102.41 102.22 102.10 101.81 101.91 101.93 101.71 101.50 101.31 101.20
100.58 100.82 101.00 100.92 101.40 100.94 101.43 101.58 101.61 101.75 101.91 102.08 102.25 102.38 102.56 102.80 103.01 103.13 103.11 103.22 103.30 103.35 103.40 103.44 103.46 103.50 103.50 103.53 103.61 103.71 103.79 103.88 103.77 103.56 103.42 103.32 103.26 103.16 103.06 102.89 102.77 102.66 102.51 102.34 102.19 102.00 101.90 102.14 101.98 101.58 101.44 101.22
100.62 100.59 101.11 100.68 101.15 101.23 101.30 101.38 101.49 101.69 101.97 102.17 102.32 102.43 102.61 102.82 103.02 103.17 103.18 103.28 103.36 103.42 103.51 103.57 103.54 103.59 103.61 103.68 103.74 103.82 103.91 104.00 103.94 103.77 103.60 103.50 103.40 103.34 103.22 103.08 102.94 102.82 102.66 102.47 102.29 102.15 101.94 102.05 102.08 101.72 101.49 101.33
100.85 100.34 100.91 101.09 101.10 101.10 101.19 101.34 101.53 101.71 101.93 102.19 102.38 102.51 102.63 102.81 103.02 103.19 103.24 103.29 103.42 103.49 103.59 103.65 103.65 103.69 103.73 103.80 103.83 103.92 104.01 104.10 104.09 103.94 103.74 103.62 103.52 103.44 103.36 103.23 103.06 102.93 102.78 102.59 102.41 102.22 102.07 102.05 102.25 101.99 101.62 101.32
100.52 100.68 100.79 100.88 101.01 101.12 101.21 101.33 101.52 101.73 101.93 102.21 102.38 102.52 102.62 102.78 103.00 103.21 103.29 103.35 103.49 103.58 103.67 103.74 103.79 103.85 103.90 103.97 103.99 104.07 104.14 104.24 104.29 104.17 103.94 103.79 103.70 103.57 103.50 103.36 103.20 103.04 102.90 102.73 102.54 102.37 102.25 102.12 102.32 102.20 101.57 101.35
100.43 100.46 100.61 100.88 101.00 101.14 101.22 101.35 101.54 101.75 101.92 102.15 102.37 102.48 102.62 102.78 102.99 103.19 103.34 103.40 103.54 103.65 103.75 103.85 103.94 103.99 104.06 104.11 104.14 104.19 104.26 104.34 104.43 104.32 104.10 103.94 103.82 103.72 103.61 103.49 103.34 103.15 103.04 102.85 102.67 102.49 102.33 102.07 102.21 102.29 101.73 101.40
100.30 100.53 100.71 100.90 101.02 101.13 101.20 101.36 101.53 101.70 101.88 102.14 102.41 102.54 102.64 102.81 103.00 103.21 103.38 103.46 103.60 103.77 103.87 104.01 104.09 104.17 104.22 104.28 104.32 104.34 104.38 104.46 104.51 104.46 104.25 104.07 103.94 103.85 103.75 103.61 103.47 103.27 103.13 102.95 102.74 102.55 102.36 102.23 102.14 102.38 102.05 101.54
100.44 100.56 100.71 100.90 101.05 101.15 101.22 101.36 101.52 101.72 101.93 102.14 102.37 102.56 102.74 102.84 103.03 103.22 103.44 103.57 103.67 103.87 104.01 104.14 104.23 104.31 104.36 104.42 104.44 104.48 104.51 104.57 104.60 104.58 104.40 104.21 104.09 103.99 103.85 103.74 103.57 103.38 103.20 103.03 102.82 102.66 102.49 102.37 102.19 102.34 102.22 101.62
100.47 100.62 100.73 100.90 101.09 101.18 101.28 101.41 101.55 101.72 101.96 102.17 102.47 102.59 102.75 102.85 103.02 103.28 103.51 103.68 103.81 103.96 104.12 104.25 104.36 104.43 104.49 104.55 104.57 104.58 104.62 104.67 104.71 104.70 104.55 104.35 104.21 104.09 103.96 103.82 103.63 103.47 103.27 103.12 102.93 102.74 102.56 102.41 102.21 102.28 102.31 101.79
100.57 100.71 100.81 100.99 101.13 101.22 101.35 101.47 101.63 101.82 102.01 102.22 102.45 102.68 102.76 102.90 103.07 103.32 103.56 103.76 103.86 104.05 104.22 104.35 104.46 104.53 104.58 104.66 104.71 104.72 104.75 104.78 104.83 104.83 104.69 104.49 104.33 104.18 104.06 103.93 103.76 103.58 103.42 103.25 103.05 102.86 102.68 102.48 102.34 102.19 102.36 102.01
100.70 100.83 100.91 101.04 101.21 101.33 101.44 101.54 101.69 101.88 102.08 102.26 102.54 102.76 102.88 102.94 103.12 103.36 103.60 103.84 103.99 104.13 104.33 104.45 104.57 104.65 104.69 104.75 104.80 104.85 104.83 104.84 104.89 104.94 104.82 104.60 104.40 104.25 104.14 103.99 103.83 103.67 103.50 103.29 103.12 102.90 102.71 102.53 102.41 102.17 102.41 102.07
100.85 100.96 100.98 101.13 101.26 101.42 101.56 101.63 101.77 101.92 102.12 102.39 102.57 102.79 102.93 103.07 103.20 103.43 103.69 103.94 104.09 104.25 104.43 104.53 104.66 104.72 104.81 104.85 104.90 104.94 104.96 104.96 105.01 105.05 105.04 104.78 104.54 104.38 104.24 104.07 103.93 103.76 103.57 103.40 103.21 103.02 102.82 102.64 102.49 102.33 102.35 102.27
100.97 101.06 101.15 101.23 101.34 101.56 101.68 101.79 101.92 102.02 102.26 102.46 102.67 102.90 103.05 103.16 103.33 103.55 103.80 104.03 104.20 104.33 104.48 104.62 104.72 104.81 104.89 104.94 105.00 105.03 105.03 105.05 105.06 105.13 105.11 104.91 104.63 104.45 104.29 104.14 103.98 103.80 103.64 103.44 103.28 103.08 102.88 102.74 102.53 102.39 102.29 102.38
101.06 101.17 101.26 101.35 101.52 101.69 101.85 101.93 102.03 102.22 102.40 102.58 102.76 102.96 103.19 103.29 103.49 103.69 103.89 104.12 104.32 104.42 104.58 104.72 104.81 104.93 105.01 105.06 105.12 105.16 105.17 105.15 105.15 105.22 105.22 105.04 104.78 104.55 104.39 104.21 104.06 103.88 103.72 103.53 103.38 103.17 103.00 102.83 102.61 102.47 102.27 102.54
101.18 101.26 101.40 101.44 101.60 101.85 102.01 102.14 102.22 102.36 102.57 102.74 102.91 103.11 103.36 103.45 103.58 103.77 103.98 104.21 104.42 104.56 104.65 104.81 104.91 105.00 105.10 105.15 105.22 105.21 105.26 105.26 105.22 105.27 105.30 105.13 104.88 104.62 104.46 104.29 104.07 103.93 103.78 103.62 103.42 103.26 103.05 102.87 102.72 102.53 102.38 102.45
