ncols 52
nrows 52
xllcorner 444416
yllcorner 5716480
cellsize 10
NODATA_value -9999
96.54 96.44 96.35 96.27 96.19 96.09 95.96 95.85 95.82 95.74 95.65 95.61 95.62 95.59 95.60 95.62 95.61 95.60 95.68 95.57 95.67 95.50 95.40 95.25 95.09 94.87 94.73 94.64 94.51 94.44 94.41 94.32 94.49 94.42 94.42 94.39 94.30 94.21 94.12 94.04 93.95 93.88 93.79 93.68 93.62 93.52 93.47 93.40 93.32 93.31 93.29 93.56
96.76 96.65 96.54 96.43 96.33 96.19 96.07 95.94 95.87 95.79 95.74 95.70 95.66 95.65 95.64 95.65 95.64 95.69 95.64 95.38 95.75 95.58 95.49 95.34 95.17 94.98 94.84 94.71 94.61 94.53 94.46 94.34 94.60 94.54 94.50 94.49 94.37 94.26 94.12 94.05 93.97 93.86 93.78 93.67 93.59 93.52 93.49 93.44 93.39 93.33 93.22 93.58
96.84 96.73 96.60 96.50 96.41 96.29 96.17 96.03 95.94 95.86 95.80 95.78 95.72 95.69 95.65 95.65 95.65 95.67 95.64 95.28 95.79 95.61 95.56 95.41 95.29 95.06 94.97 94.85 94.74 94.61 94.50 94.40 94.54 94.54 94.54 94.49 94.34 94.19 94.10 94.01 93.90 93.79 93.76 93.66 93.59 93.53 93.50 93.43 93.39 93.30 93.26 93.58
96.94 96.82 96.71 96.58 96.47 96.35 96.23 96.10 95.99 95.92 95.85 95.79 95.77 95.73 95.71 95.69 95.68 95.72 95.64 95.60 95.87 95.71 95.64 95.49 95.39 95.22 95.10 94.97 94.89 94.75 94.66 94.54 94.55 94.58 94.46 94.40 94.31 94.15 94.03 93.98 93.93 93.87 93.84 93.72 93.64 93.58 93.54 93.50 93.36 93.30 93.28 93.54
97.03 96.92 96.80 96.68 96.57 96.46 96.29 96.17 96.06 96.00 95.93 95.87 95.82 95.77 95.76 95.75 95.71 95.68 95.74 95.82 95.92 95.78 95.73 95.57 95.50 95.35 95.21 95.11 95.03 94.92 94.83 94.69 94.58 94.67 94.53 94.41 94.35 94.22 94.15 94.10 94.06 93.96 93.90 93.80 93.70 93.65 93.64 93.54 93.37 93.27 93.28 93.58
97.10 96.98 96.83 96.74 96.59 96.49 96.35 96.21 96.11 96.04 95.98 95.95 95.89 95.85 95.81 95.77 95.73 95.71 95.81 95.84 95.99 95.84 95.79 95.64 95.59 95.43 95.31 95.23 95.14 95.03 94.93 94.83 94.71 94.71 94.56 94.43 94.37 94.28 94.21 94.17 94.14 94.04 93.96 93.85 93.77 93.73 93.68 93.54 93.37 93.29 93.32 93.61
97.18 97.02 96.90 96.78 96.67 96.54 96.40 96.27 96.18 96.10 96.05 96.00 95.95 95.90 95.88 95.86 95.83 95.81 95.89 95.92 96.06 95.90 95.82 95.70 95.63 95.49 95.39 95.30 95.20 95.09 95.03 94.90 94.90 94.74 94.58 94.51 94.43 94.33 94.27 94.24 94.21 94.08 94.02 93.93 93.88 93.79 93.74 93.60 93.45 93.31 93.35 93.74
97.24 97.10 96.98 96.86 96.73 96.62 96.47 96.32 96.18 96.10 96.04 96.00 95.96 95.94 95.89 95.90 95.85 95.86 95.92 95.86 96.16 95.94 95.83 95.73 95.67 95.54 95.42 95.35 95.21 95.14 95.04 94.93 94.95 94.82 94.61 94.52 94.46 94.38 94.32 94.27 94.23 94.12 94.07 94.01 93.91 93.84 93.79 93.66 93.50 93.38 93.41 93.87
97.31 97.16 97.02 96.87 96.73 96.62 96.49 96.36 96.22 96.14 96.07 96.04 95.99 95.95 95.90 95.88 95.85 95.85 95.92 95.87 96.25 95.93 95.85 95.78 95.68 95.54 95.45 95.37 95.27 95.18 95.10 94.95 95.01 94.81 94.65 94.56 94.48 94.43 94.32 94.33 94.27 94.14 94.11 94.02 93.91 93.91 93.81 93.68 93.56 93.47 93.52 93.85
97.40 97.23 97.08 96.93 96.78 96.65 96.52 96.39 96.28 96.19 96.12 96.08 96.02 95.97 95.93 95.89 95.88 95.86 95.91 95.86 96.33 95.96 95.83 95.83 95.83 95.72 95.57 95.46 95.41 95.29 95.18 95.15 95.07 94.85 94.68 94.61 94.49 94.46 94.38 94.33 94.27 94.12 94.07 94.00 93.93 93.87 93.76 93.68 93.58 93.56 93.64 93.81
97.46 97.32 97.15 97.03 96.87 96.72 96.58 96.43 96.32 96.23 96.16 96.11 96.06 96.00 95.96 95.95 95.94 95.92 95.88 95.89 96.40 96.06 95.96 95.97 95.93 95.83 95.75 95.63 95.54 95.45 95.35 95.30 95.12 94.90 94.71 94.65 94.55 94.51 94.43 94.34 94.21 94.08 94.01 93.98 93.96 93.89 93.82 93.75 93.67 93.63 93.73 93.69
97.50 97.38 97.25 97.08 96.94 96.77 96.62 96.46 96.36 96.26 96.19 96.12 96.06 96.02 95.99 95.99 95.96 95.90 95.92 95.93 96.41 96.12 96.08 96.00 95.99 95.85 95.76 95.64 95.51 95.38 95.28 95.19 95.21 94.95 94.79 94.68 94.59 94.51 94.44 94.37 94.26 94.12 94.07 94.03 94.02 93.97 93.90 93.83 93.75 93.73 93.77 93.48
97.52 97.37 97.25 97.11 96.96 96.82 96.68 96.53 96.40 96.30 96.21 96.15 96.09 96.05 96.03 96.01 95.99 95.97 95.96 96.00 96.54 96.15 96.02 96.04 95.97 95.87 95.76 95.67 95.51 95.41 95.30 95.31 95.25 95.04 94.89 94.75 94.65 94.57 94.51 94.43 94.33 94.23 94.19 94.18 94.15 94.07 94.01 93.95 93.92 93.85 93.90 93.80
97.57 97.42 97.29 97.16 97.03 96.89 96.72 96.57 96.46 96.38 96.29 96.19 96.15 96.10 96.08 96.07 96.04 96.03 96.00 96.07 96.60 96.24 96.15 96.10 96.05 95.94 95.85 95.73 95.61 95.50 95.42 95.37 95.29 95.13 94.93 94.79 94.71 94.66 94.56 94.49 94.39 94.31 94.29 94.29 94.22 94.15 94.08 94.04 94.00 93.93 93.93 93.93
97.57 97.43 97.31 97.18 97.07 96.92 96.75 96.60 96.50 96.40 96.31 96.22 96.18 96.16 96.15 96.12 96.11 96.08 96.07 96.15 96.59 96.31 96.25 96.18 96.10 96.02 95.96 95.82 95.70 95.56 95.48 95.39 95.28 95.25 94.97 94.85 94.75 94.67 94.55 94.49 94.39 94.35 94.35 94.32 94.25 94.19 94.13 94.10 94.06 94.00 93.90 93.93
97.57 97.44 97.32 97.18 97.06 96.91 96.78 96.66 96.55 96.43 96.33 96.24 96.19 96.17 96.15 96.14 96.12 96.11 96.13 96.23 96.66 96.40 96.31 96.24 96.14 96.10 96.00 95.88 95.78 95.62 95.50 95.43 95.31 95.29 95.08 94.93 94.80 94.68 94.57 94.51 94.43 94.42 94.40 94.37 94.32 94.24 94.17 94.18 94.13 94.07 94.01 94.00
97.56 97.43 97.30 97.19 97.07 96.97 96.82 96.69 96.57 96.46 96.35 96.30 96.25 96.25 96.20 96.16 96.15 96.19 96.21 96.28 96.62 96.46 96.33 96.24 96.20 96.16 96.04 95.93 95.83 95.69 95.56 95.46 95.37 95.35 95.16 95.01 94.88 94.78 94.72 94.61 94.54 94.51 94.49 94.44 94.38 94.29 94.25 94.23 94.19 94.15 94.11 94.07
97.62 97.49 97.37 97.23 97.11 97.01 96.86 96.73 96.60 96.47 96.39 96.33 96.31 96.30 96.28 96.23 96.22 96.24 96.26 96.35 96.61 96.49 96.37 96.31 96.27 96.21 96.09 95.99 95.87 95.76 95.63 95.52 95.44 95.48 95.24 95.06 94.97 94.88 94.83 94.72 94.65 94.60 94.54 94.48 94.44 94.35 94.30 94.28 94.23 94.19 94.16 94.14
97.67 97.54 97.44 97.31 97.19 97.06 96.90 96.73 96.60 96.50 96.45 96.42 96.40 96.36 96.35 96.32 96.29 96.30 96.28 96.40 96.48 96.56 96.42 96.38 96.35 96.26 96.13 96.04 95.92 95.82 95.68 95.56 95.51 95.64 95.29 95.09 94.99 94.92 94.86 94.79 94.70 94.64 94.60 94.55 94.48 94.40 94.36 94.32 94.30 94.22 94.23 94.21
97.71 97.60 97.49 97.39 97.27 97.11 96.93 96.76 96.63 96.57 96.51 96.50 96.46 96.45 96.43 96.40 96.39 96.33 96.32 96.43 96.53 96.64 96.47 96.40 96.35 96.28 96.14 96.06 95.94 95.83 95.68 95.56 95.52 95.61 95.33 95.15 95.02 95.00 94.91 94.86 94.76 94.70 94.68 94.64 94.57 94.53 94.48 94.40 94.35 94.33 94.30 94.31
97.65 97.56 97.50 97.40 97.26 97.10 96.93 96.78 96.71 96.68 96.65 96.62 96.58 96.53 96.50 96.49 96.46 96.44 96.37 96.50 96.46 96.69 96.50 96.40 96.35 96.25 96.13 96.04 95.94 95.82 95.69 95.58 95.55 95.55 95.39 95.18 95.11 95.06 95.00 94.95 94.84 94.78 94.76 94.74 94.66 94.62 94.55 94.52 94.48 94.42 94.37 94.39
97.61 97.50 97.42 97.30 97.18 97.02 96.90 96.80 96.73 96.69 96.67 96.63 96.60 96.58 96.57 96.53 96.51 96.47 96.43 96.56 96.76 96.75 96.53 96.42 96.34 96.26 96.14 96.07 95.96 95.85 95.75 95.64 95.60 95.54 95.43 95.27 95.18 95.11 95.06 95.00 94.90 94.86 94.85 94.79 94.74 94.69 94.62 94.60 94.60 94.54 94.45 94.44
97.60 97.50 97.40 97.28 97.15 96.97 96.85 96.79 96.76 96.73 96.68 96.64 96.60 96.59 96.56 96.54 96.52 96.50 96.48 96.56 96.52 96.78 96.53 96.43 96.36 96.29 96.19 96.11 96.00 95.90 95.79 95.69 95.62 95.48 95.46 95.29 95.22 95.17 95.14 95.04 94.98 94.93 94.92 94.89 94.84 94.78 94.71 94.70 94.67 94.62 94.54 94.54
97.62 97.51 97.42 97.31 97.16 97.00 96.90 96.83 96.82 96.78 96.73 96.68 96.64 96.60 96.56 96.52 96.49 96.48 96.51 96.60 96.68 96.74 96.55 96.46 96.38 96.32 96.24 96.13 96.06 95.94 95.84 95.72 95.66 95.50 95.51 95.34 95.30 95.26 95.21 95.12 95.05 95.03 95.00 94.97 94.93 94.87 94.81 94.81 94.76 94.69 94.64 94.62
97.63 97.53 97.43 97.31 97.18 97.04 96.96 96.92 96.86 96.84 96.77 96.71 96.67 96.64 96.62 96.57 96.53 96.49 96.52 96.62 96.75 96.68 96.58 96.47 96.42 96.35 96.27 96.19 96.10 96.01 95.89 95.78 95.71 95.63 95.63 95.41 95.38 95.35 95.29 95.18 95.12 95.08 95.09 95.07 95.00 94.92 94.93 94.92 94.92 94.82 94.74 94.75
97.60 97.54 97.46 97.34 97.21 97.08 97.01 96.96 96.92 96.85 96.80 96.74 96.70 96.65 96.63 96.59 96.57 96.56 96.57 96.68 96.78 96.80 96.62 96.52 96.47 96.40 96.32 96.23 96.15 96.06 95.94 95.82 95.74 95.63 95.72 95.54 95.47 95.44 95.39 95.28 95.21 95.16 95.17 95.17 95.12 95.16 95.17 95.00 95.02 94.93 94.88 94.83
97.61 97.56 97.48 97.38 97.24 97.14 97.09 97.03 96.96 96.89 96.83 96.79 96.76 96.74 96.71 96.67 96.64 96.66 96.69 96.76 96.84 96.85 96.69 96.57 96.51 96.46 96.38 96.28 96.20 96.10 95.97 95.88 95.82 95.74 95.80 95.63 95.56 95.53 95.47 95.39 95.32 95.29 95.29 95.30 95.28 95.26 95.26 95.15 95.07 94.92 94.89 94.88
97.61 97.54 97.44 97.37 97.25 97.15 97.10 97.06 96.97 96.90 96.87 96.87 96.83 96.81 96.77 96.75 96.74 96.74 96.80 96.90 96.92 97.04 96.77 96.61 96.54 96.48 96.40 96.30 96.23 96.13 96.02 95.94 95.90 95.83 95.89 95.72 95.65 95.61 95.58 95.49 95.44 95.46 95.46 95.46 95.43 95.40 95.33 95.41 94.61 94.62 94.70 95.01
97.57 97.50 97.42 97.35 97.27 97.19 97.13 97.11 97.03 96.96 96.90 96.90 96.87 96.86 96.83 96.83 96.82 96.84 96.86 96.96 96.97 97.20 96.83 96.66 96.60 96.54 96.46 96.34 96.26 96.18 96.08 96.00 95.97 95.86 95.93 95.78 95.74 95.69 95.62 95.57 95.57 95.58 95.57 95.57 95.53 95.51 95.47 95.48 94.63 94.62 94.59 94.74
97.53 97.52 97.45 97.38 97.28 97.18 97.15 97.15 97.06 96.98 96.96 96.95 96.92 96.90 96.90 96.89 96.91 96.90 96.91 96.96 97.06 97.29 96.89 96.74 96.68 96.62 96.55 96.43 96.36 96.25 96.17 96.12 96.07 95.99 95.97 95.83 95.79 95.73 95.69 95.63 95.63 95.65 95.65 95.63 95.61 95.57 95.55 95.48 94.62 94.64 94.65 94.65
97.54 97.50 97.43 97.36 97.28 97.21 97.17 97.15 97.07 96.99 96.96 96.98 96.97 96.94 96.94 96.94 96.93 96.92 96.95 96.97 97.08 97.35 96.94 96.81 96.78 96.69 96.60 96.53 96.44 96.35 96.29 96.23 96.19 96.13 96.08 95.93 95.84 95.79 95.76 95.68 95.67 95.68 95.72 95.71 95.68 95.63 95.60 95.65 94.79 94.67 94.93 95.17
97.49 97.48 97.41 97.33 97.26 97.21 97.18 97.18 97.11 97.05 97.03 97.03 97.02 96.99 96.98 96.98 97.00 97.00 96.98 97.01 97.12 97.44 96.98 96.88 96.84 96.73 96.64 96.56 96.49 96.41 96.34 96.30 96.25 96.20 96.19 96.02 95.92 95.86 95.82 95.77 95.74 95.75 95.77 95.81 95.76 95.67 95.71 95.76 95.75 95.56 95.49 95.43
97.49 97.46 97.41 97.37 97.32 97.28 97.25 97.19 97.14 97.08 97.08 97.08 97.08 97.07 97.04 97.04 97.03 97.06 97.04 97.08 97.17 97.46 97.01 96.91 96.82 96.75 96.65 96.58 96.52 96.44 96.37 96.34 96.30 96.24 96.22 96.06 96.03 95.89 95.88 95.80 95.75 95.81 95.83 95.90 95.85 95.86 95.85 95.83 95.94 95.74 95.76 95.80
97.49 97.52 97.47 97.44 97.37 97.33 97.29 97.26 97.21 97.15 97.15 97.15 97.18 97.16 97.15 97.12 97.10 97.10 97.08 97.13 97.21 97.43 97.04 96.93 96.86 96.79 96.70 96.64 96.57 96.53 96.45 96.39 96.38 96.29 96.32 96.16 96.09 96.01 96.01 95.95 95.91 95.94 96.01 96.04 96.04 96.06 96.04 96.07 96.17 96.31 96.19 96.10
97.51 97.54 97.49 97.44 97.42 97.37 97.33 97.30 97.24 97.21 97.19 97.24 97.25 97.22 97.18 97.16 97.14 97.12 97.10 97.19 97.25 97.43 97.10 97.00 96.92 96.85 96.79 96.72 96.67 96.65 96.55 96.46 96.35 96.35 96.44 96.29 96.22 96.14 96.12 96.04 95.93 96.00 96.28 96.42 96.43 96.29 96.00 96.12 96.21 96.12 96.02 95.90
97.52 97.56 97.51 97.46 97.44 97.42 97.38 97.37 97.32 97.27 97.26 97.31 97.30 97.28 97.24 97.22 97.18 97.15 97.12 97.24 97.31 97.46 97.19 97.12 96.99 96.92 96.91 96.83 96.77 96.78 96.70 96.64 96.54 96.49 96.64 96.57 96.48 96.30 96.08 95.92 96.33 96.28 96.19 96.29 96.29 96.37 96.33 96.14 96.11 96.06 96.00 95.94
97.53 97.56 97.55 97.52 97.52 97.48 97.44 97.41 97.37 97.32 97.32 97.35 97.36 97.33 97.31 97.27 97.26 97.24 97.22 97.35 97.34 97.46 97.24 97.21 97.15 97.08 97.02 97.00 97.04 97.01 96.89 96.77 96.34 96.63 96.58 96.51 96.62 96.66 96.63 96.60 96.57 96.57 96.50 96.48 96.43 96.33 96.26 96.21 96.08 96.04 96.01 95.99
97.52 97.56 97.56 97.53 97.53 97.49 97.46 97.41 97.38 97.35 97.35 97.42 97.43 97.40 97.35 97.32 97.32 97.28 97.28 97.38 97.42 97.50 97.31 97.25 97.08 97.10 97.04 97.01 97.00 97.04 97.03 96.99 96.91 96.88 96.87 96.87 96.80 96.72 96.61 96.56 96.51 96.46 96.39 96.34 96.34 96.29 96.27 96.25 96.17 96.22 96.17 96.12
97.48 97.53 97.53 97.51 97.51 97.48 97.46 97.43 97.41 97.38 97.41 97.44 97.46 97.42 97.37 97.37 97.42 97.45 97.54 97.51 97.00 97.35 97.29 97.26 97.28 97.30 97.31 97.29 97.27 97.14 97.07 96.99 96.94 96.90 96.81 96.72 96.67 96.64 96.61 96.60 96.56 96.53 96.47 96.47 96.46 96.44 96.41 96.36 96.35 96.24 96.26 96.21
97.44 97.50 97.50 97.51 97.53 97.50 97.49 97.45 97.46 97.44 97.39 97.41 97.44 97.46 97.55 97.59 97.73 97.04 97.35 97.38 97.47 97.53 97.36 97.34 97.30 97.26 97.19 97.18 97.08 97.04 97.00 96.99 96.96 96.97 96.90 96.82 96.78 96.76 96.74 96.71 96.67 96.63 96.59 96.57 96.55 96.55 96.54 96.48 96.44 96.40 96.35 96.31
97.50 97.58 97.59 97.60 97.60 97.57 97.56 97.54 97.54 97.55 97.53 97.56 97.67 97.90 97.75 97.55 97.56 97.54 97.46 97.40 97.44 97.61 97.30 97.25 97.24 97.26 97.23 97.22 97.19 97.18 97.15 97.12 97.09 97.07 97.00 96.91 96.87 96.87 96.85 96.82 96.78 96.73 96.71 96.67 96.65 96.65 96.63 96.59 96.53 96.51 96.49 96.41
97.62 97.68 97.68 97.68 97.69 97.68 97.62 97.65 97.71 97.81 97.84 97.98 97.27 97.66 97.64 97.60 97.53 97.51 97.51 97.45 97.47 97.75 97.40 97.35 97.35 97.34 97.33 97.31 97.29 97.28 97.24 97.23 97.20 97.18 97.11 97.04 96.95 96.99 96.96 96.95 96.89 96.84 96.82 96.81 96.75 96.76 96.75 96.71 96.63 96.57 96.54 96.39
97.65 97.72 97.71 97.66 97.75 97.77 97.82 97.89 98.14 97.94 97.72 97.78 97.77 97.70 97.59 97.60 97.62 97.57 97.53 97.48 97.52 97.79 97.51 97.46 97.44 97.44 97.41 97.40 97.34 97.38 97.35 97.33 97.30 97.28 97.23 97.16 97.08 97.10 97.09 97.08 97.01 96.93 96.90 96.90 96.86 96.85 96.85 96.81 96.74 96.68 96.66 96.55
97.66 97.72 97.76 97.81 97.95 98.09 98.06 97.86 97.83 97.82 97.81 97.78 97.77 97.74 97.65 97.64 97.62 97.60 97.60 97.54 97.56 97.83 97.61 97.53 97.54 97.53 97.51 97.47 97.44 97.47 97.46 97.46 97.43 97.42 97.37 97.32 97.20 97.20 97.19 97.19 97.13 97.06 97.01 96.99 96.97 96.94 96.93 96.91 96.84 96.76 96.73 96.68
97.72 97.90 97.95 98.09 97.64 97.88 97.94 97.94 97.87 97.84 97.88 97.81 97.80 97.80 97.75 97.71 97.68 97.64 97.64 97.61 97.62 97.82 97.68 97.59 97.63 97.58 97.61 97.55 97.52 97.56 97.57 97.57 97.60 97.59 97.53 97.48 97.35 97.31 97.29 97.28 97.23 97.17 97.10 97.09 97.07 97.04 96.99 96.97 96.92 96.86 96.82 96.75
97.90 97.78 97.96 97.90 97.94 97.96 97.93 97.98 97.90 97.90 97.88 97.85 97.86 97.86 97.82 97.78 97.75 97.68 97.69 97.67 97.68 97.89 97.74 97.68 97.69 97.69 97.68 97.64 97.60 97.64 97.66 97.67 97.70 97.70 97.68 97.62 97.49 97.43 97.38 97.34 97.29 97.27 97.22 97.18 97.15 97.11 97.09 97.07 97.03 96.96 96.91 96.84
97.72 97.87 97.91 97.88 97.96 97.97 97.99 97.96 97.97 97.94 97.96 97.92 97.92 97.90 97.87 97.84 97.82 97.76 97.76 97.73 97.74 97.95 97.83 97.74 97.76 97.74 97.76 97.71 97.71 97.72 97.74 97.75 97.79 97.82 97.79 97.73 97.60 97.51 97.46 97.43 97.38 97.37 97.34 97.29 97.24 97.22 97.21 97.17 97.13 97.06 97.01 96.94
97.70 97.75 97.90 97.94 98.01 98.04 98.04 98.05 98.05 98.04 98.03 98.00 98.01 97.98 97.94 97.92 97.88 97.82 97.82 97.80 97.79 98.00 97.88 97.79 97.81 97.83 97.83 97.79 97.77 97.80 97.82 97.82 97.86 97.88 97.87 97.82 97.69 97.61 97.55 97.51 97.49 97.45 97.45 97.40 97.35 97.31 97.30 97.24 97.19 97.14 97.07 97.00
97.72 97.79 97.92 98.01 98.06 98.12 98.13 98.16 98.14 98.13 98.14 98.09 98.08 98.07 98.01 97.98 97.93 97.92 97.92 97.90 97.86 98.04 97.99 97.85 97.86 97.90 97.89 97.89 97.85 97.88 97.85 97.88 97.91 97.95 97.92 97.91 97.79 97.71 97.67 97.61 97.57 97.55 97.53 97.50 97.43 97.39 97.35 97.29 97.24 97.20 97.15 97.05
97.74 97.83 97.96 98.06 98.13 98.20 98.22 98.26 98.26 98.26 98.22 98.20 98.18 98.17 98.10 98.07 98.03 98.02 98.01 97.96 97.96 98.08 98.08 97.93 97.91 97.96 97.95 97.94 97.92 97.96 97.94 97.96 97.99 98.01 98.01 98.01 97.90 97.83 97.78 97.70 97.68 97.65 97.60 97.58 97.53 97.45 97.39 97.30 97.28 97.23 97.19 97.11
97.81 97.90 98.04 98.13 98.20 98.26 98.31 98.35 98.35 98.34 98.32 98.31 98.26 98.28 98.21 98.16 98.12 98.11 98.10 98.06 98.03 98.17 98.21 98.01 98.01 98.04 98.04 98.02 97.98 98.00 98.03 98.03 98.05 98.07 98.08 98.11 98.01 97.94 97.88 97.80 97.78 97.74 97.70 97.65 97.60 97.51 97.43 97.35 97.34 97.24 97.23 97.16
97.85 97.96 98.07 98.19 98.25 98.32 98.37 98.41 98.43 98.44 98.43 98.42 98.40 98.41 98.32 98.25 98.25 98.23 98.22 98.18 98.15 98.29 98.35 98.10 98.10 98.13 98.13 98.07 98.04 98.07 98.08 98.12 98.11 98.12 98.13 98.18 98.10 98.07 97.98 97.92 97.90 97.85 97.79 97.73 97.66 97.58 97.51 97.41 97.38 97.32 97.30 97.24
