ncols 52
nrows 52
xllcorner 444416
yllcorner 5715456
cellsize 10
NODATA_value -9999
101.21 101.29 101.42 101.49 101.64 101.87 102.04 102.17 102.25 102.38 102.60 102.76 102.95 103.13 103.37 103.48 103.62 103.80 103.98 104.21 104.44 104.58 104.69 104.83 104.93 105.04 105.12 105.18 105.24 105.25 105.27 105.29 105.24 105.29 105.32 105.18 104.90 104.65 104.48 104.30 104.10 103.96 103.79 103.63 103.44 103.26 103.07 102.90 102.73 102.57 102.41 102.46
101.33 101.45 101.55 101.62 101.81 101.96 102.20 102.33 102.43 102.59 102.72 102.91 103.12 103.31 103.56 103.61 103.75 103.88 104.07 104.31 104.56 104.72 104.82 104.95 105.07 105.17 105.24 105.31 105.36 105.38 105.40 105.36 105.37 105.36 105.38 105.27 105.01 104.73 104.56 104.38 104.19 104.04 103.85 103.70 103.49 103.32 103.14 102.96 102.81 102.68 102.46 102.32
101.46 101.61 101.73 101.83 101.95 102.11 102.32 102.46 102.59 102.71 102.88 103.04 103.29 103.47 103.68 103.80 103.84 104.01 104.24 104.45 104.69 104.87 104.93 105.09 105.19 105.25 105.36 105.42 105.44 105.48 105.51 105.49 105.46 105.44 105.44 105.37 105.12 104.85 104.65 104.47 104.30 104.11 103.94 103.76 103.61 103.42 103.25 103.08 102.92 102.76 102.66 102.46
101.64 101.78 101.88 102.01 102.11 102.28 102.47 102.60 102.74 102.85 102.99 103.19 103.42 103.61 103.81 103.97 104.06 104.17 104.39 104.60 104.82 105.01 105.10 105.22 105.31 105.39 105.48 105.52 105.56 105.59 105.58 105.60 105.55 105.51 105.49 105.46 105.25 104.96 104.72 104.55 104.38 104.18 104.02 103.87 103.73 103.55 103.37 103.15 103.00 102.83 102.71 102.53
101.84 101.93 102.07 102.21 102.27 102.44 102.62 102.76 102.91 103.02 103.12 103.30 103.54 103.82 103.98 104.14 104.24 104.37 104.53 104.74 104.94 105.16 105.29 105.36 105.47 105.54 105.60 105.65 105.69 105.70 105.71 105.71 105.68 105.61 105.61 105.56 105.40 105.10 104.88 104.70 104.51 104.28 104.15 104.02 103.86 103.70 103.52 103.29 103.13 102.91 102.74 102.55
102.02 102.09 102.27 102.37 102.49 102.61 102.77 102.93 103.06 103.18 103.30 103.44 103.70 103.97 104.15 104.33 104.39 104.53 104.68 104.89 105.09 105.32 105.49 105.57 105.63 105.68 105.74 105.77 105.80 105.77 105.79 105.80 105.75 105.70 105.65 105.60 105.52 105.25 104.97 104.81 104.62 104.45 104.28 104.13 103.98 103.79 103.57 103.32 103.18 102.94 102.69 102.43
102.19 102.28 102.39 102.52 102.66 102.79 102.95 103.10 103.22 103.36 103.48 103.67 103.85 104.09 104.26 104.43 104.54 104.65 104.85 105.07 105.26 105.50 105.69 105.75 105.80 105.84 105.88 105.92 105.91 105.88 105.88 105.89 105.88 105.81 105.73 105.70 105.63 105.41 105.16 104.95 104.76 104.60 104.44 104.29 104.14 103.91 103.61 103.34 103.09 102.75 102.38 102.03
102.37 102.47 102.58 102.71 102.82 102.98 103.13 103.31 103.43 103.57 103.69 103.81 104.00 104.21 104.32 104.54 104.74 104.88 105.06 105.24 105.46 105.67 105.87 105.93 105.94 106.01 106.00 105.99 105.99 105.95 105.96 105.96 105.94 105.86 105.80 105.78 105.74 105.53 105.26 105.02 104.86 104.71 104.51 104.35 104.07 103.72 103.32 102.95 102.58 102.21 101.96 101.74
102.51 102.64 102.78 102.91 103.05 103.17 103.36 103.49 103.62 103.75 103.85 103.99 104.11 104.29 104.48 104.64 104.92 105.09 105.28 105.43 105.60 105.80 106.01 106.07 106.05 106.07 106.08 106.08 106.04 106.04 106.05 106.04 106.04 105.98 105.89 105.85 105.78 105.65 105.38 105.15 104.95 104.73 104.43 104.08 103.67 103.23 102.79 102.52 102.25 101.14 100.94 101.47
102.68 102.80 102.91 103.09 103.19 103.38 103.54 103.67 103.81 103.89 104.04 104.14 104.26 104.44 104.61 104.79 105.09 105.28 105.38 105.55 105.71 105.85 106.02 106.11 106.11 106.15 106.16 106.14 106.11 106.12 106.12 106.14 106.12 106.05 105.92 105.86 105.80 105.70 105.43 105.08 104.78 104.40 103.97 103.58 103.26 102.91 101.69 101.29 102.16 102.05 102.08 102.18
102.80 102.95 103.05 103.18 103.31 103.50 103.72 103.88 103.99 104.08 104.20 104.33 104.46 104.60 104.76 104.94 105.18 105.40 105.48 105.61 105.77 105.90 106.05 106.18 106.20 106.20 106.25 106.26 106.26 106.24 106.25 106.27 106.25 106.18 106.00 105.84 105.68 105.58 105.18 104.78 104.43 104.07 103.65 102.45 101.90 102.51 102.72 102.59 102.55 102.63 102.57 102.71
102.96 103.03 103.20 103.32 103.40 103.63 103.85 104.02 104.17 104.24 104.40 104.52 104.62 104.77 104.92 105.06 105.25 105.50 105.59 105.70 105.81 105.99 106.13 106.26 106.30 106.29 106.36 106.38 106.36 106.37 106.33 106.32 106.29 106.15 105.98 105.77 105.56 105.39 105.19 104.78 103.32 102.73 103.27 103.34 103.27 103.22 103.15 103.19 103.14 103.19 103.24 103.25
103.07 103.19 103.35 103.48 103.60 103.76 103.94 104.17 104.26 104.43 104.55 104.70 104.79 104.88 105.03 105.18 105.31 105.57 105.65 105.77 105.88 106.04 106.19 106.33 106.39 106.40 106.44 106.45 106.50 106.43 106.35 106.29 106.20 106.08 106.03 105.98 105.33 104.26 103.89 104.07 103.93 103.78 103.75 103.73 103.70 103.75 103.71 103.74 103.75 103.70 103.68 103.64
103.26 103.38 103.50 103.60 103.72 103.87 104.06 104.24 104.40 104.57 104.68 104.84 104.88 104.99 105.10 105.23 105.35 105.55 105.72 105.81 105.96 106.12 106.23 106.37 106.43 106.43 106.47 106.46 106.46 106.28 106.22 106.32 106.41 105.74 104.62 104.29 104.82 104.79 104.58 104.44 104.30 104.24 104.16 104.24 104.27 104.27 104.21 104.20 104.17 104.10 104.04 103.95
103.38 103.49 103.62 103.73 103.86 103.94 104.13 104.32 104.45 104.63 104.74 104.85 104.91 105.00 105.11 105.23 105.32 105.50 105.72 105.79 105.96 106.08 106.17 106.24 106.29 106.29 106.28 106.30 106.35 106.40 106.29 105.17 104.81 105.17 105.65 105.40 105.18 105.07 105.02 104.95 104.90 104.80 104.76 104.77 104.81 104.74 104.61 104.57 104.52 104.43 104.32 104.25
103.49 103.65 103.68 103.85 103.96 104.07 104.23 104.33 104.44 104.60 104.70 104.81 104.85 104.89 105.01 105.10 105.19 105.31 105.50 105.73 105.76 105.82 105.80 105.88 106.09 106.25 106.39 106.41 106.07 105.72 106.14 106.29 106.07 105.95 105.83 105.71 105.64 105.62 105.57 105.53 105.43 105.38 105.30 105.25 105.17 105.08 104.93 104.86 104.81 104.70 104.57 104.45
103.60 103.76 103.82 103.94 104.04 104.18 104.23 104.31 104.36 104.44 104.57 104.64 104.72 104.75 104.82 104.93 104.95 105.03 105.35 105.38 105.40 105.52 105.72 105.86 106.15 106.21 106.43 106.92 106.87 106.82 106.68 106.57 106.46 106.43 106.29 106.19 106.17 106.11 106.08 106.01 105.89 105.80 105.68 105.58 105.44 105.35 105.21 105.09 105.02 104.95 104.78 104.64
103.71 103.85 103.96 104.04 104.09 104.13 104.20 104.21 104.25 104.29 104.40 104.44 104.50 104.54 104.63 104.74 104.87 105.01 105.12 105.36 105.53 105.67 105.82 106.35 106.80 106.92 106.92 106.95 107.02 107.07 107.07 106.99 106.92 106.84 106.73 106.61 106.56 106.48 106.44 106.38 106.22 106.10 105.97 105.82 105.70 105.58 105.45 105.31 105.23 105.13 105.00 104.80
103.77 103.90 103.99 104.01 104.02 104.06 104.06 104.07 104.08 104.12 104.20 104.31 104.43 104.56 104.62 104.76 104.95 105.11 105.41 105.51 106.17 106.43 106.57 106.71 106.86 106.96 107.07 107.15 107.28 107.33 107.40 107.33 107.23 107.16 107.02 106.91 106.84 106.75 106.66 106.60 106.47 106.35 106.18 106.06 105.93 105.80 105.67 105.53 105.39 105.30 105.11 104.86
103.71 103.85 103.96 103.89 103.92 103.84 103.88 103.89 103.96 104.13 104.26 104.38 104.48 104.51 105.08 105.29 105.53 105.83 106.01 106.10 106.23 106.47 106.65 106.76 106.93 107.17 107.28 107.37 107.45 107.51 107.57 107.53 107.44 107.33 107.25 107.11 107.04 106.96 106.87 106.79 106.68 106.54 106.43 106.29 106.14 105.99 105.84 105.70 105.54 105.36 105.14 104.85
103.62 103.72 103.75 103.72 103.73 103.83 103.92 103.98 104.06 104.22 104.51 104.87 104.87 105.35 105.60 105.93 105.55 105.76 106.03 106.20 106.33 106.59 106.81 106.93 107.03 107.27 107.43 107.52 107.56 107.59 107.62 107.60 107.52 107.43 107.39 107.29 107.20 107.13 107.00 106.95 106.85 106.76 106.65 106.51 106.34 106.17 106.00 105.82 105.57 105.33 105.07 104.80
103.48 103.53 103.60 103.65 103.74 103.82 103.92 104.35 104.53 104.58 104.79 104.91 105.21 105.36 105.63 105.75 105.85 105.89 106.10 106.33 106.39 106.64 106.88 107.00 107.09 107.28 107.49 107.60 107.65 107.70 107.67 107.61 107.58 107.53 107.53 107.43 107.34 107.29 107.19 107.12 107.06 106.92 106.82 106.64 106.48 106.31 106.09 105.85 105.56 105.25 105.02 104.82
103.41 103.43 103.47 103.55 103.99 104.02 104.03 104.26 104.45 104.59 104.71 104.84 105.23 105.50 105.77 105.85 106.26 106.01 106.14 106.40 106.49 106.69 106.90 107.07 107.11 107.27 107.50 107.65 107.64 107.70 107.67 107.69 107.61 107.62 107.61 107.58 107.48 107.43 107.37 107.27 107.16 107.05 106.88 106.70 106.51 106.32 106.12 105.88 105.62 105.39 105.18 105.01
103.33 103.51 103.76 103.81 103.85 103.93 104.00 104.05 104.20 104.38 104.55 104.79 105.01 105.44 105.71 105.84 106.05 105.96 106.13 106.38 106.57 106.70 106.96 107.10 107.18 107.26 107.49 107.61 107.63 107.66 107.69 107.69 107.69 107.70 107.73 107.74 107.65 107.56 107.49 107.38 107.25 107.12 106.93 106.80 106.61 106.43 106.24 106.06 105.86 105.67 105.51 105.36
103.64 103.80 103.86 103.89 103.86 103.96 104.00 104.09 104.21 104.35 104.52 104.71 104.97 105.27 105.60 105.60 105.79 105.95 106.02 106.33 106.58 106.69 106.97 107.15 107.21 107.27 107.42 107.56 107.59 107.62 107.69 107.74 107.78 107.80 107.85 107.85 107.77 107.68 107.62 107.51 107.41 107.30 107.14 107.01 106.85 106.68 106.54 106.40 106.23 106.03 105.88 105.68
103.63 103.81 103.93 104.03 104.10 104.16 104.23 104.26 104.41 104.51 104.62 104.76 104.96 105.20 105.24 105.51 105.60 105.82 105.91 106.18 106.49 106.68 106.93 107.13 107.21 107.27 107.40 107.52 107.58 107.58 107.70 107.77 107.92 107.93 107.98 108.03 107.99 107.90 107.81 107.76 107.66 107.57 107.42 107.32 107.14 107.00 106.85 106.67 106.49 106.32 106.14 105.95
103.69 103.90 104.07 104.18 104.30 104.42 104.47 104.56 104.67 104.75 104.85 104.95 105.07 105.37 105.38 105.46 105.59 105.67 105.82 106.04 106.36 106.61 106.86 107.05 107.21 107.29 107.33 107.44 107.46 107.49 107.65 107.81 107.96 108.03 108.06 108.15 108.14 108.08 108.06 108.00 107.92 107.78 107.72 107.57 107.40 107.21 107.04 106.83 106.66 106.48 106.31 106.17
103.83 104.01 104.18 104.34 104.46 104.57 104.67 104.72 104.83 104.93 105.02 105.13 105.23 105.42 105.52 105.61 105.75 105.77 105.82 105.94 106.15 106.46 106.67 106.99 107.12 107.22 107.23 107.31 107.36 107.43 107.62 107.85 108.01 108.08 108.14 108.23 108.23 108.19 108.21 108.19 108.07 107.95 107.85 107.70 107.54 107.37 107.17 106.95 106.80 106.65 106.50 106.37
103.91 104.07 104.26 104.42 104.53 104.65 104.77 104.82 104.89 105.01 105.11 105.24 105.33 105.51 105.71 105.78 105.85 105.87 106.00 105.99 106.07 106.29 106.46 106.73 106.97 107.05 107.12 107.18 107.34 107.48 107.70 107.90 108.06 108.15 108.19 108.28 108.29 108.24 108.33 108.32 108.20 108.05 107.94 107.80 107.65 107.46 107.29 107.09 106.92 106.79 106.65 106.56
104.02 104.11 104.29 104.47 104.54 104.67 104.82 104.86 104.90 105.01 105.09 105.19 105.35 105.52 105.50 105.55 105.65 105.76 105.93 106.05 106.14 106.30 106.37 106.53 106.78 106.93 107.02 107.21 107.43 107.64 107.80 108.00 108.10 108.23 108.25 108.31 108.35 108.34 108.39 108.40 108.26 108.12 108.00 107.88 107.73 107.54 107.38 107.21 107.04 106.90 106.80 106.65
104.09 104.14 104.31 104.49 104.60 104.69 104.80 104.81 104.84 104.86 104.97 105.07 105.26 105.50 105.50 105.67 105.71 105.81 105.94 106.09 106.28 106.48 106.56 106.65 106.82 106.95 107.10 107.25 107.52 107.71 107.84 108.00 108.17 108.21 108.31 108.34 108.40 108.40 108.42 108.43 108.32 108.18 108.05 107.97 107.79 107.64 107.48 107.32 107.14 107.01 106.88 106.74
104.13 104.21 104.35 104.50 104.64 104.67 104.72 104.71 104.70 104.78 104.94 105.08 105.35 105.55 105.69 105.73 105.83 105.97 106.11 106.37 106.54 106.76 106.93 106.93 107.11 107.21 107.28 107.36 107.54 107.69 107.78 107.94 108.08 108.21 108.29 108.35 108.43 108.44 108.44 108.45 108.36 108.21 108.10 108.00 107.86 107.71 107.57 107.40 107.22 107.08 106.98 106.75
104.04 104.21 104.36 104.47 104.54 104.55 104.60 104.68 104.79 104.93 105.15 105.36 105.58 105.72 105.91 105.89 106.10 106.28 106.42 106.70 106.86 107.07 107.24 107.31 107.46 107.54 107.55 107.57 107.67 107.74 107.77 107.83 108.00 108.09 108.24 108.35 108.42 108.49 108.47 108.50 108.38 108.23 108.12 108.02 107.89 107.76 107.58 107.46 107.27 107.14 106.99 106.78
104.00 104.21 104.34 104.43 104.49 104.56 104.71 104.88 105.10 105.26 105.45 105.67 105.87 106.01 106.16 106.26 106.41 106.55 106.74 106.98 107.17 107.35 107.51 107.57 107.72 107.82 107.81 107.82 107.94 107.99 107.95 107.90 108.00 108.10 108.22 108.33 108.43 108.51 108.53 108.52 108.39 108.22 108.11 108.01 107.90 107.74 107.60 107.43 107.28 107.14 106.99 106.77
104.17 104.35 104.43 104.52 104.62 104.70 104.91 105.12 105.34 105.51 105.62 105.83 106.07 106.21 106.34 106.54 106.65 106.84 107.02 107.19 107.42 107.55 107.71 107.84 107.88 108.07 108.07 108.08 108.18 108.28 108.22 108.16 108.20 108.25 108.27 108.32 108.39 108.50 108.53 108.53 108.38 108.21 108.08 107.98 107.88 107.74 107.61 107.47 107.29 107.16 107.01 106.77
104.46 104.51 104.57 104.68 104.78 104.88 105.06 105.28 105.50 105.67 105.74 105.93 106.14 106.35 106.48 106.76 106.82 107.06 107.25 107.43 107.61 107.75 107.91 108.03 108.06 108.25 108.30 108.28 108.40 108.47 108.46 108.40 108.42 108.46 108.43 108.37 108.34 108.35 108.40 108.40 108.31 108.17 108.06 107.99 107.90 107.76 107.64 107.48 107.33 107.19 107.05 106.82
104.62 104.66 104.78 104.83 104.94 105.02 105.17 105.38 105.58 105.76 105.86 106.02 106.24 106.44 106.62 106.90 107.06 107.29 107.46 107.64 107.80 107.95 108.11 108.23 108.30 108.45 108.47 108.47 108.54 108.60 108.62 108.60 108.57 108.62 108.57 108.51 108.34 108.20 108.17 108.18 108.15 108.06 107.99 107.93 107.88 107.75 107.63 107.49 107.35 107.19 107.04 106.80
104.78 104.85 104.95 104.97 105.08 105.16 105.29 105.49 105.68 105.87 105.98 106.12 106.32 106.55 106.76 107.02 107.29 107.47 107.66 107.82 107.99 108.15 108.29 108.44 108.53 108.68 108.71 108.71 108.72 108.71 108.75 108.71 108.65 108.67 108.68 108.60 108.39 108.15 107.99 107.96 107.94 107.85 107.82 107.78 107.75 107.69 107.53 107.48 107.29 107.14 106.94 106.72
104.90 104.96 105.07 105.13 105.24 105.34 105.46 105.64 105.80 105.99 106.15 106.29 106.46 106.68 106.88 107.13 107.40 107.59 107.82 107.98 108.12 108.31 108.43 108.61 108.74 108.82 108.96 108.93 108.91 108.83 108.87 108.82 108.72 108.73 108.70 108.63 108.49 108.24 107.99 107.85 107.72 107.63 107.57 107.53 107.52 107.53 107.43 107.39 107.23 107.06 106.90 106.66
105.02 105.10 105.17 105.25 105.40 105.51 105.64 105.81 105.96 106.16 106.37 106.53 106.65 106.84 107.00 107.23 107.55 107.68 107.94 108.12 108.24 108.44 108.57 108.76 108.90 108.99 109.10 109.10 109.02 108.99 108.97 108.91 108.82 108.76 108.76 108.68 108.57 108.39 108.14 107.95 107.71 107.54 107.38 107.27 107.22 107.23 107.18 107.17 107.08 106.97 106.83 106.63
105.19 105.26 105.40 105.47 105.54 105.71 105.83 105.96 106.13 106.31 106.54 106.71 106.84 106.98 107.12 107.37 107.65 107.88 108.08 108.21 108.36 108.52 108.68 108.87 109.05 109.12 109.20 109.20 109.12 109.07 109.07 109.01 108.93 108.82 108.80 108.71 108.68 108.53 108.34 108.15 107.89 107.61 107.37 107.14 107.00 106.90 106.86 106.84 106.87 106.88 106.78 106.63
105.31 105.40 105.53 105.63 105.60 105.83 106.00 106.11 106.29 106.46 106.64 106.85 106.99 107.15 107.29 107.48 107.75 108.04 108.18 108.36 108.50 108.64 108.81 109.00 109.21 109.29 109.25 109.31 109.22 109.22 109.17 109.14 109.03 108.92 108.84 108.77 108.72 108.62 108.46 108.31 108.10 107.84 107.55 107.23 106.95 106.75 106.64 106.54 106.61 106.65 106.63 106.51
105.50 105.54 105.61 105.67 105.80 105.93 106.10 106.25 106.40 106.59 106.75 106.96 107.14 107.29 107.46 107.62 107.85 108.15 108.30 108.50 108.65 108.76 108.96 109.13 109.33 109.45 109.37 109.43 109.37 109.34 109.31 109.25 109.18 109.01 108.90 108.84 108.80 108.65 108.54 108.42 108.27 108.03 107.75 107.43 107.10 106.83 106.59 106.38 106.35 106.36 106.33 106.29
105.51 105.59 105.68 105.77 105.92 106.03 106.22 106.38 106.52 106.68 106.87 107.10 107.31 107.49 107.64 107.81 107.99 108.31 108.45 108.65 108.81 108.94 109.12 109.26 109.47 109.61 109.58 109.59 109.54 109.51 109.42 109.32 109.25 109.14 108.93 108.89 108.79 108.71 108.55 108.45 108.34 108.17 107.92 107.63 107.35 107.07 106.77 106.46 106.27 106.12 106.04 105.98
105.65 105.75 105.81 105.93 106.07 106.16 106.40 106.52 106.67 106.83 107.03 107.26 107.48 107.70 107.86 108.01 108.19 108.43 108.67 108.85 108.98 109.10 109.29 109.43 109.63 109.79 109.76 109.72 109.67 109.66 109.56 109.45 109.36 109.22 109.00 108.90 108.85 108.73 108.55 108.44 108.35 108.21 108.01 107.77 107.56 107.33 107.03 106.75 106.38 106.12 105.90 105.75
105.79 105.84 105.96 106.06 106.18 106.31 106.51 106.69 106.82 107.00 107.19 107.40 107.67 107.90 108.07 108.25 108.43 108.62 108.89 109.01 109.18 109.31 109.47 109.67 109.83 109.96 109.98 109.84 109.87 109.79 109.65 109.53 109.48 109.32 109.07 108.95 108.88 108.73 108.58 108.45 108.36 108.25 108.05 107.86 107.67 107.45 107.24 106.96 106.61 106.30 106.00 105.68
105.90 106.00 106.10 106.20 106.32 106.49 106.62 106.82 106.96 107.14 107.34 107.57 107.87 108.09 108.25 108.44 108.61 108.78 109.10 109.20 109.40 109.54 109.64 109.88 110.01 110.12 110.15 110.04 109.99 109.90 109.78 109.68 109.58 109.40 109.18 109.04 108.96 108.78 108.62 108.48 108.38 108.30 108.08 107.92 107.75 107.53 107.33 107.10 106.77 106.50 106.18 105.79
105.92 106.08 106.21 106.32 106.43 106.65 106.73 106.95 107.10 107.26 107.47 107.72 108.01 108.22 108.38 108.54 108.70 108.89 109.17 109.36 109.56 109.67 109.80 110.03 110.17 110.23 110.30 110.22 110.11 110.03 109.92 109.81 109.71 109.55 109.36 109.16 109.08 108.86 108.71 108.54 108.42 108.29 108.15 107.95 107.78 107.57 107.39 107.15 106.88 106.60 106.32 105.94
105.97 106.12 106.28 106.41 106.57 106.72 106.82 107.06 107.22 107.38 107.58 107.86 108.13 108.35 108.49 108.62 108.78 108.98 109.21 109.50 109.63 109.79 109.93 110.13 110.30 110.37 110.43 110.37 110.19 110.11 110.00 109.92 109.84 109.76 109.53 109.34 109.17 108.99 108.77 108.62 108.48 108.35 108.19 107.99 107.79 107.59 107.43 107.18 106.96 106.67 106.42 106.08
106.01 106.21 106.35 106.53 106.66 106.82 106.96 107.16 107.36 107.50 107.70 107.98 108.24 108.45 108.60 108.71 108.89 109.09 109.32 109.58 109.71 109.86 110.01 110.17 110.36 110.46 110.54 110.48 110.22 110.16 110.03 109.92 109.87 109.81 109.65 109.44 109.28 109.06 108.86 108.69 108.56 108.38 108.20 108.02 107.79 107.61 107.43 107.22 106.97 106.68 106.44 106.18
106.04 106.29 106.47 106.65 106.78 106.95 107.16 107.28 107.49 107.64 107.84 108.10 108.37 108.55 108.69 108.84 109.04 109.24 109.44 109.72 109.78 109.96 110.06 110.18 110.41 110.49 110.58 110.57 110.34 110.22 110.12 109.96 109.91 109.82 109.67 109.48 109.29 109.12 108.90 108.75 108.61 108.45 108.29 108.07 107.85 107.63 107.44 107.21 106.99 106.70 106.46 106.20
106.03 106.25 106.49 106.68 106.88 107.07 107.33 107.41 107.64 107.80 107.97 108.20 108.46 108.65 108.80 108.98 109.18 109.40 109.64 109.84 109.96 110.07 110.12 110.22 110.39 110.51 110.60 110.62 110.47 110.38 110.22 110.10 109.94 109.84 109.72 109.54 109.31 109.13 108.95 108.81 108.61 108.49 108.35 108.14 107.90 107.72 107.47 107.19 107.01 106.75 106.55 106.39
