ncols 52
nrows 52
xllcorner 444416
yllcorner 5713408
cellsize 10
NODATA_value -9999
120.90 121.12 121.31 121.49 121.59 121.62 121.68 121.76 121.88 122.06 122.21 122.37 122.47 122.64 122.69 122.76 122.83 122.87 122.92 122.95 122.99 123.02 123.08 123.08 123.31 123.50 123.56 123.50 123.49 123.61 123.68 123.62 123.74 123.93 124.01 124.09 124.13 124.17 124.20 124.31 124.39 124.37 124.60 124.74 124.72 124.83 124.92 125.04 125.05 125.16 125.13 125.19
121.04 121.28 121.50 121.69 121.78 121.81 121.84 121.89 121.99 122.15 122.35 122.47 122.59 122.69 122.77 122.86 122.97 123.02 123.08 123.14 123.13 123.11 123.12 123.18 123.41 123.56 123.51 123.60 123.57 123.77 123.80 123.85 123.93 123.99 124.12 124.17 124.18 124.20 124.22 124.43 124.48 124.54 124.64 124.77 124.87 124.96 125.04 125.11 125.29 125.43 125.47 125.43
121.11 121.35 121.60 121.79 121.87 121.93 122.01 122.11 122.17 122.27 122.42 122.56 122.71 122.83 122.90 123.00 123.08 123.20 123.25 123.26 123.25 123.23 123.25 123.31 123.42 123.71 123.57 123.72 123.74 123.85 123.96 123.97 124.01 124.07 124.07 124.20 124.35 124.36 124.41 124.52 124.59 124.67 124.71 124.76 124.88 125.12 125.21 125.32 125.55 125.64 125.67 125.59
121.19 121.40 121.65 121.92 121.97 122.01 122.11 122.20 122.30 122.43 122.58 122.72 122.86 122.94 123.02 123.11 123.21 123.29 123.32 123.31 123.28 123.33 123.41 123.46 123.50 123.68 123.75 123.79 123.82 123.90 123.99 123.99 124.11 124.20 124.29 124.40 124.45 124.52 124.56 124.64 124.68 124.73 124.82 124.92 125.00 125.15 125.30 125.46 125.64 125.68 125.67 125.72
121.26 121.37 121.68 121.93 122.02 122.08 122.22 122.32 122.47 122.60 122.72 122.83 122.94 123.05 123.18 123.25 123.36 123.40 123.42 123.43 123.44 123.47 123.43 123.50 123.49 123.65 123.87 123.71 123.85 124.02 124.04 124.15 124.20 124.29 124.34 124.46 124.55 124.56 124.63 124.69 124.89 124.91 124.94 125.01 125.18 125.26 125.35 125.49 125.63 125.67 125.74 125.71
120.96 120.99 121.33 121.89 122.11 122.23 122.34 122.48 122.57 122.69 122.81 122.92 123.02 123.15 123.27 123.43 123.54 123.58 123.56 123.47 123.56 123.58 123.60 123.57 123.58 123.76 123.84 123.85 124.00 124.06 124.21 124.32 124.35 124.41 124.42 124.52 124.66 124.69 124.77 124.84 124.94 125.03 125.04 125.09 125.28 125.38 125.51 125.66 125.72 125.80 125.76 125.79
120.78 120.87 121.30 121.93 122.22 122.37 122.46 122.55 122.65 122.75 122.85 122.99 123.09 123.25 123.36 123.49 123.68 123.71 123.65 123.64 123.59 123.58 123.58 123.65 123.73 123.91 123.96 123.99 124.10 124.15 124.18 124.35 124.47 124.61 124.65 124.76 124.81 124.87 124.89 124.99 124.97 125.19 125.16 125.25 125.32 125.43 125.61 125.65 125.79 125.79 125.90 125.89
120.77 121.23 122.18 122.30 122.34 122.50 122.59 122.64 122.73 122.84 122.96 123.07 123.13 123.38 123.48 123.58 123.67 123.67 123.60 123.63 123.69 123.69 123.74 123.79 123.86 123.95 124.06 124.26 124.14 124.17 124.39 124.57 124.63 124.68 124.86 124.92 124.91 124.95 125.06 125.18 125.25 125.20 125.36 125.41 125.48 125.57 125.56 125.74 125.88 125.96 126.07 126.17
120.96 121.30 122.38 122.36 122.52 122.62 122.65 122.76 122.84 122.87 123.05 123.17 123.31 123.44 123.52 123.58 123.69 123.69 123.68 123.75 123.79 123.83 123.91 123.97 124.02 124.07 124.22 124.31 124.37 124.38 124.52 124.61 124.76 124.78 124.96 125.07 125.12 125.17 125.19 125.26 125.35 125.44 125.41 125.47 125.61 125.69 125.86 125.94 126.00 126.11 126.18 126.25
120.67 122.17 122.25 122.47 122.62 122.67 122.80 122.88 122.93 123.01 123.07 123.17 123.30 123.50 123.63 123.74 123.79 123.78 123.81 123.88 123.93 123.95 124.01 124.10 124.18 124.28 124.36 124.53 124.32 124.53 124.54 124.81 124.84 124.95 125.06 125.19 125.25 125.27 125.36 125.37 125.53 125.60 125.66 125.75 125.87 125.94 126.01 126.14 126.11 126.18 126.31 126.36
121.74 122.12 122.28 122.49 122.66 122.80 122.85 122.90 122.98 123.05 123.15 123.26 123.43 123.63 123.81 123.91 123.94 123.91 123.92 123.98 124.01 124.07 124.15 124.21 124.32 124.40 124.51 124.58 124.54 124.72 124.72 124.74 124.99 125.08 125.17 125.27 125.32 125.46 125.53 125.62 125.77 125.81 125.89 125.97 125.99 126.08 126.19 126.38 126.38 126.48 126.48 126.57
122.01 122.20 122.37 122.49 122.60 122.71 122.82 122.93 123.03 123.16 123.25 123.39 123.53 123.75 123.96 124.06 124.06 124.01 124.07 124.10 124.15 124.22 124.29 124.36 124.47 124.57 124.69 124.65 124.90 124.81 124.83 125.00 124.96 125.09 125.26 125.42 125.54 125.64 125.72 125.78 125.82 125.98 125.97 126.15 126.20 126.36 126.41 126.51 126.53 126.54 126.66 126.62
122.04 122.21 122.34 122.49 122.61 122.72 122.85 122.94 123.08 123.21 123.34 123.49 123.67 123.86 124.06 124.19 124.19 124.18 124.21 124.25 124.29 124.36 124.42 124.50 124.65 124.75 124.74 124.85 124.93 124.87 125.04 125.15 125.26 125.36 125.53 125.60 125.75 125.74 125.80 125.89 126.11 126.14 126.25 126.31 126.46 126.54 126.63 126.65 126.71 126.80 126.80 126.83
122.14 122.31 122.43 122.55 122.68 122.80 122.92 123.03 123.13 123.25 123.40 123.56 123.78 123.98 124.16 124.27 124.31 124.35 124.42 124.45 124.49 124.50 124.56 124.65 124.75 124.83 124.89 125.00 125.06 125.18 125.34 125.46 125.56 125.60 125.66 125.65 125.82 125.90 126.01 126.13 126.26 126.43 126.44 126.56 126.54 126.68 126.87 126.88 126.96 126.96 127.01 127.06
122.29 122.46 122.58 122.66 122.77 122.90 123.03 123.13 123.25 123.37 123.49 123.64 123.85 124.05 124.25 124.38 124.43 124.53 124.68 124.73 124.68 124.66 124.69 124.79 124.86 124.95 125.03 125.08 125.24 125.35 125.47 125.59 125.61 125.76 125.83 125.97 125.97 126.07 126.19 126.32 126.36 126.40 126.57 126.75 126.83 126.89 126.89 126.99 127.18 127.08 127.12 127.10
122.45 122.58 122.72 122.81 122.90 123.04 123.16 123.26 123.38 123.53 123.65 123.79 123.96 124.14 124.31 124.43 124.53 124.67 124.88 124.95 124.93 124.88 124.85 124.93 124.97 125.03 125.12 125.95 125.44 125.61 125.57 125.72 125.86 125.97 126.02 126.04 126.19 126.19 126.17 126.43 126.48 126.58 126.68 126.81 126.92 127.00 127.10 127.09 127.13 127.24 127.35 127.33
122.62 122.72 122.86 122.97 123.08 123.20 123.32 123.43 123.54 123.68 123.81 123.97 124.14 124.28 124.38 124.48 124.59 124.81 124.96 125.01 125.07 125.07 125.08 125.11 125.14 125.17 125.23 125.36 125.55 125.69 125.82 125.90 125.95 126.08 126.00 126.11 126.30 126.43 126.51 126.57 126.66 126.75 126.84 127.01 126.98 127.08 127.15 127.26 127.41 127.41 127.47 127.63
122.75 122.88 122.99 123.11 123.22 123.35 123.48 123.57 123.71 123.85 123.97 124.11 124.25 124.39 124.50 124.59 124.71 124.89 124.98 125.02 125.08 125.18 125.25 125.28 125.25 125.27 125.37 125.56 125.69 125.83 125.84 125.91 126.17 126.24 126.29 126.43 126.44 126.49 126.65 126.71 126.68 126.78 126.91 127.07 127.13 127.27 127.33 127.48 127.60 127.69 127.56 127.58
122.88 123.01 123.14 123.24 123.35 123.50 123.62 123.75 123.90 124.01 124.11 124.25 124.36 124.47 124.58 124.70 124.85 124.98 125.01 125.03 125.12 125.21 125.32 125.40 125.42 125.45 125.53 125.86 125.89 126.10 126.08 126.13 126.26 126.42 126.44 126.58 126.58 126.60 126.73 126.82 126.88 127.00 127.06 127.12 127.22 127.46 127.59 127.44 127.46 127.54 127.63 127.66
123.00 123.14 123.27 123.37 123.48 123.61 123.75 123.89 124.01 124.16 124.27 124.38 124.49 124.58 124.67 124.80 124.97 125.04 125.08 125.12 125.20 125.29 125.41 125.55 125.61 125.65 125.78 125.91 126.08 126.14 126.22 126.31 126.49 126.51 126.60 126.81 126.90 126.88 127.04 126.94 127.01 127.24 127.30 127.30 127.29 127.35 127.42 127.45 127.49 127.62 127.76 127.85
123.14 123.30 123.43 123.54 123.61 123.72 123.86 124.01 124.11 124.25 124.40 124.50 124.61 124.67 124.77 124.93 125.07 125.14 125.21 125.26 125.35 125.44 125.58 125.71 125.68 125.74 125.97 126.06 126.15 126.32 126.23 126.33 126.57 126.75 126.89 127.02 126.97 127.04 127.22 127.22 127.09 127.15 127.17 127.26 127.32 127.37 127.41 127.51 127.56 127.68 127.86 128.01
123.25 123.44 123.61 123.75 123.84 123.90 124.00 124.10 124.21 124.33 124.46 124.58 124.68 124.80 124.93 125.10 125.19 125.29 125.40 125.50 125.58 125.58 125.74 125.78 125.90 126.00 126.08 126.13 126.36 126.46 126.41 126.50 126.67 126.87 127.03 127.24 127.28 127.08 127.07 127.10 127.15 127.22 127.27 127.31 127.44 127.51 127.50 127.55 127.63 127.75 127.92 128.10
123.38 123.55 123.74 123.90 124.01 124.11 124.20 124.27 124.33 124.42 124.52 124.65 124.76 124.90 125.21 125.27 125.38 125.47 125.49 125.69 125.70 125.86 125.92 125.88 125.98 126.08 126.16 126.24 126.43 126.75 126.72 126.90 127.17 127.18 127.14 127.16 127.16 127.12 127.13 127.23 127.30 127.33 127.36 127.43 127.50 127.59 127.63 127.64 127.70 127.80 127.98 128.18
123.50 123.67 123.82 123.99 124.10 124.20 124.33 124.46 124.51 124.55 124.65 124.89 124.96 125.09 125.24 125.29 125.50 125.59 125.75 125.84 125.94 126.02 126.04 125.96 125.93 126.17 126.35 126.41 126.52 126.76 127.05 127.03 127.03 127.15 127.24 127.31 127.34 127.28 127.32 127.39 127.43 127.45 127.51 127.60 127.64 127.73 127.75 127.72 127.74 127.90 128.06 128.26
123.63 123.82 123.93 124.07 124.19 124.27 124.41 124.61 124.73 124.74 124.88 124.88 124.97 125.19 125.37 125.38 125.66 125.73 125.86 125.97 125.96 126.02 126.18 126.19 126.23 126.26 126.36 126.50 126.60 126.85 127.13 127.08 127.15 127.29 127.43 127.53 127.54 127.52 127.52 127.53 127.55 127.61 127.68 127.76 127.82 127.89 127.91 127.87 127.90 128.00 128.13 128.34
123.76 123.92 124.07 124.18 124.36 124.48 124.62 124.69 124.77 124.92 125.00 125.14 125.26 125.41 125.45 125.59 125.70 125.78 125.99 126.20 126.28 126.33 126.21 126.25 126.27 126.36 126.45 126.62 126.77 126.98 127.25 127.22 127.28 127.44 127.60 127.73 127.78 127.75 127.72 127.69 127.69 127.76 127.85 127.94 127.99 128.00 128.03 128.05 128.08 128.16 128.29 128.46
123.87 124.17 124.33 124.40 124.49 124.54 124.76 124.86 125.04 125.14 125.19 125.22 125.35 125.50 125.52 125.69 125.90 126.05 126.19 126.25 126.35 126.34 126.36 126.35 126.40 126.51 126.61 126.74 126.88 127.06 127.25 127.39 127.49 127.60 127.76 127.93 127.97 127.99 127.93 127.85 127.87 127.94 128.03 128.12 128.17 128.19 128.22 128.25 128.27 128.32 128.44 128.58
124.06 124.21 124.33 124.52 124.68 124.78 124.92 125.03 125.15 125.24 125.32 125.35 125.57 125.70 125.77 125.85 125.92 126.08 126.21 126.34 126.44 126.49 126.51 126.53 126.56 126.65 126.76 126.90 127.01 127.17 127.39 127.69 127.67 127.71 127.91 128.04 128.11 128.17 128.14 128.06 128.09 128.13 128.22 128.29 128.34 128.38 128.43 128.47 128.47 128.49 128.59 128.70
124.17 124.35 124.50 124.65 124.83 124.91 124.96 125.06 125.19 125.43 125.58 125.67 125.71 125.78 125.77 125.87 125.99 126.14 126.32 126.50 126.59 126.65 126.71 126.73 126.76 126.84 126.93 127.06 127.18 127.29 127.55 127.84 127.77 127.83 128.04 128.16 128.24 128.34 128.35 128.33 128.37 128.38 128.41 128.45 128.49 128.56 128.63 128.68 128.66 128.69 128.75 128.85
124.29 124.42 124.60 124.76 124.81 124.94 125.15 125.26 125.45 125.50 125.62 125.71 125.76 125.78 125.86 125.99 126.13 126.29 126.44 126.59 126.72 126.82 126.87 126.90 126.96 127.04 127.13 127.23 127.35 127.44 127.67 127.97 127.96 128.03 128.18 128.31 128.42 128.51 128.51 128.49 128.52 128.54 128.56 128.57 128.64 128.74 128.82 128.86 128.86 128.85 128.90 129.02
124.33 124.40 124.65 124.88 125.09 125.18 125.23 125.35 125.46 125.58 125.68 125.79 125.88 125.92 125.99 126.11 126.24 126.38 126.53 126.69 126.83 126.97 127.07 127.11 127.14 127.22 127.30 127.40 127.55 127.63 127.75 127.97 128.15 128.34 128.38 128.51 128.63 128.66 128.65 128.66 128.69 128.71 128.75 128.76 128.80 128.88 128.95 129.02 129.05 129.04 129.09 129.18
124.49 124.64 124.73 124.90 125.04 125.18 125.29 125.40 125.53 125.67 125.79 125.91 125.97 126.04 126.11 126.24 126.34 126.49 126.65 126.82 126.97 127.11 127.20 127.26 127.32 127.39 127.46 127.59 127.72 127.84 127.92 128.18 128.46 128.57 128.60 128.74 128.82 128.85 128.85 128.86 128.87 128.90 128.92 128.95 129.01 129.03 129.10 129.18 129.23 129.22 129.25 129.33
124.62 124.66 124.78 124.90 125.06 125.24 125.37 125.50 125.65 125.77 125.90 126.00 126.08 126.15 126.26 126.35 126.44 126.57 126.75 126.93 127.12 127.27 127.35 127.44 127.49 127.55 127.63 127.75 127.88 128.02 128.14 128.38 128.62 128.70 128.78 128.95 129.01 129.00 129.04 129.07 129.07 129.11 129.11 129.16 129.18 129.21 129.25 129.32 129.38 129.41 129.46 129.51
124.66 124.76 124.86 125.01 125.16 125.33 125.46 125.57 125.71 125.85 125.98 126.11 126.21 126.32 126.38 126.47 126.55 126.68 126.86 127.05 127.27 127.44 127.57 127.62 127.67 127.73 127.79 127.89 128.02 128.18 128.29 128.55 128.79 128.85 128.95 129.10 129.18 129.18 129.21 129.26 129.32 129.34 129.35 129.36 129.37 129.39 129.43 129.49 129.54 129.62 129.67 129.77
124.74 124.90 125.03 125.16 125.25 125.39 125.51 125.64 125.79 125.95 126.10 126.21 126.34 126.44 126.51 126.60 126.66 126.77 126.94 127.17 127.39 127.57 127.70 127.80 127.84 127.88 127.97 128.08 128.23 128.34 128.49 128.65 128.85 129.08 129.18 129.24 129.33 129.37 129.42 129.47 129.51 129.57 129.60 129.58 129.55 129.57 129.62 129.67 129.75 129.87 129.92 130.02
124.78 124.94 125.15 125.28 125.38 125.51 125.61 125.73 125.88 126.02 126.17 126.31 126.43 126.54 126.62 126.72 126.82 126.92 127.05 127.26 127.47 127.66 127.83 127.96 128.04 128.11 128.20 128.29 128.39 128.54 128.67 128.79 129.06 129.33 129.35 129.40 129.49 129.55 129.62 129.69 129.74 129.78 129.81 129.80 129.79 129.79 129.84 129.91 130.02 130.14 130.21 130.29
124.83 124.96 125.15 125.33 125.48 125.62 125.71 125.83 125.97 126.10 126.22 126.39 126.53 126.65 126.76 126.86 126.96 127.04 127.14 127.34 127.55 127.79 127.96 128.11 128.24 128.34 128.42 128.51 128.61 128.77 128.90 128.99 129.31 129.60 129.55 129.57 129.62 129.71 129.78 129.87 129.92 129.98 130.07 130.09 130.07 130.09 130.13 130.20 130.33 130.47 130.59 130.60
124.97 125.03 125.18 125.32 125.52 125.71 125.81 125.92 126.06 126.17 126.30 126.43 126.59 126.72 126.86 126.97 127.09 127.19 127.32 127.46 127.68 127.90 128.08 128.24 128.38 128.51 128.63 128.72 128.86 128.99 129.11 129.25 129.50 129.78 129.78 129.77 129.80 129.88 129.96 130.06 130.11 130.19 130.27 130.34 130.35 130.41 130.45 130.55 130.63 130.75 130.83 130.85
125.12 125.15 125.21 125.33 125.51 125.73 125.94 126.07 126.15 126.26 126.36 126.50 126.65 126.81 126.95 127.11 127.24 127.41 127.51 127.63 127.83 128.02 128.19 128.37 128.52 128.69 128.79 128.92 129.07 129.20 129.33 129.47 129.67 129.91 130.02 130.03 130.02 130.08 130.15 130.21 130.27 130.35 130.47 130.55 130.63 130.70 130.75 130.82 130.88 130.93 131.01 131.10
125.27 125.26 125.32 125.40 125.51 125.71 125.97 126.15 126.26 126.35 126.47 126.61 126.77 126.92 127.08 127.24 127.41 127.57 127.69 127.83 127.99 128.15 128.33 128.48 128.65 128.85 128.97 129.08 129.26 129.42 129.57 129.73 129.89 130.15 130.38 130.28 130.26 130.27 130.35 130.43 130.48 130.54 130.62 130.71 130.81 130.87 130.98 131.02 131.08 131.10 131.15 131.26
125.43 125.44 125.43 125.49 125.55 125.69 125.92 126.15 126.37 126.48 126.62 126.75 126.89 127.03 127.21 127.36 127.56 127.72 127.88 128.02 128.15 128.34 128.49 128.59 128.75 128.97 129.13 129.28 129.43 129.62 129.76 129.94 130.10 130.36 130.55 130.53 130.49 130.57 130.59 130.63 130.68 130.71 130.77 130.86 130.99 131.05 131.12 131.21 131.25 131.25 131.30 131.62
125.64 125.60 125.57 125.62 125.67 125.79 125.98 126.18 126.40 126.60 126.76 126.92 127.04 127.18 127.37 127.54 127.70 127.86 128.05 128.20 128.32 128.47 128.63 128.76 128.92 129.11 129.30 129.46 129.63 129.84 129.99 130.17 130.30 130.50 130.63 130.72 130.82 130.80 130.88 130.87 130.87 130.85 130.86 131.01 131.27 131.48 131.55 131.58 131.63 131.70 131.83 132.02
125.82 125.80 125.79 125.77 125.86 125.93 126.08 126.22 126.38 126.61 126.82 127.04 127.25 127.36 127.52 127.71 127.86 128.01 128.21 128.37 128.49 128.62 128.77 128.91 129.07 129.23 129.41 129.61 129.80 130.01 130.18 130.31 130.43 130.55 130.74 131.06 130.93 131.16 131.40 131.46 131.42 131.37 131.29 131.38 131.43 131.55 131.68 131.79 131.92 131.98 132.09 132.14
126.00 126.01 125.99 125.99 125.99 126.06 126.21 126.33 126.45 126.62 126.85 127.14 127.40 127.57 127.70 127.91 128.05 128.19 128.38 128.52 128.66 128.76 128.92 129.06 129.21 129.35 129.55 129.74 129.89 130.05 130.42 130.71 130.89 131.02 131.15 131.26 131.52 131.54 131.59 131.63 131.66 131.57 131.57 131.64 131.67 131.76 131.87 132.02 132.11 132.24 132.37 132.40
126.10 126.12 126.15 126.17 126.16 126.23 126.32 126.43 126.54 126.70 126.87 127.14 127.50 127.72 127.89 128.09 128.26 128.38 128.56 128.72 128.82 128.89 129.04 129.43 129.76 129.97 130.09 130.18 130.28 130.35 130.55 130.78 131.05 131.17 131.46 131.43 131.65 131.78 131.83 131.86 131.88 131.80 131.77 131.89 131.87 132.02 132.19 132.30 132.41 132.49 132.52 132.60
126.22 126.25 126.29 126.30 126.32 126.38 126.47 126.59 126.69 126.83 126.97 127.18 127.49 127.76 128.00 128.26 128.70 128.99 129.12 129.29 129.44 129.53 129.62 129.85 129.88 129.91 130.05 130.14 130.24 130.42 130.63 130.96 131.13 131.35 131.52 131.75 131.85 131.99 132.08 132.10 132.13 132.09 132.07 132.13 132.21 132.34 132.45 132.57 132.63 132.67 132.62 133.43
126.28 126.36 126.41 126.46 126.46 126.55 126.62 126.69 126.82 127.19 127.53 127.81 128.03 128.21 128.40 128.62 128.89 129.12 129.27 129.48 129.57 129.62 129.78 129.95 130.13 130.14 130.21 130.33 130.40 130.64 130.89 131.24 131.38 131.57 131.66 131.93 132.04 132.20 132.34 132.57 132.50 132.51 132.50 132.48 132.51 132.56 132.59 132.70 132.80 133.12 134.05 134.13
126.37 126.50 126.88 127.11 127.21 127.32 127.37 127.34 127.15 127.20 127.30 127.45 127.64 128.02 128.22 128.60 128.96 129.29 129.49 129.64 129.79 129.98 130.08 130.28 130.44 130.44 130.60 130.76 130.79 131.06 131.26 131.51 131.69 131.87 131.99 132.17 132.26 132.34 132.54 132.68 132.71 132.71 132.84 133.01 132.76 132.94 133.13 133.93 134.08 134.15 134.21 134.32
127.07 126.87 126.74 126.78 126.83 126.90 126.96 127.08 127.17 127.33 127.51 127.65 127.79 128.07 128.29 128.61 128.96 129.30 129.57 129.90 130.12 130.27 130.62 130.60 130.77 130.87 130.96 131.11 131.34 131.39 131.69 131.80 131.96 132.11 132.25 132.42 132.52 132.65 132.79 133.15 132.90 133.06 133.73 134.22 134.03 134.04 134.06 134.16 134.24 134.28 134.32 134.22
126.80 126.83 126.84 126.89 126.93 126.96 127.10 127.17 127.27 127.46 127.67 127.78 127.92 128.22 128.48 128.78 129.08 129.41 129.66 130.08 130.43 130.65 130.90 130.95 131.12 131.20 131.31 131.45 131.64 131.64 131.89 132.04 132.18 132.29 132.52 132.80 132.91 133.01 133.07 133.51 134.18 134.07 133.94 133.92 133.96 134.06 134.26 134.31 134.52 134.27 134.17 134.10
126.91 126.90 126.91 126.96 127.01 127.10 127.21 127.33 127.46 127.64 127.85 127.99 128.11 128.35 128.66 128.89 129.23 129.60 129.87 130.29 130.69 130.98 131.15 131.23 131.43 131.51 131.63 131.78 131.87 131.86 132.08 132.32 132.44 132.66 132.89 133.05 133.33 133.52 134.18 133.95 133.82 133.69 133.51 133.96 134.27 134.33 134.44 134.33 134.26 134.17 134.13 133.76
127.07 127.06 127.09 127.12 127.18 127.24 127.36 127.49 127.61 127.82 128.02 128.16 128.30 128.49 128.83 129.02 129.39 129.76 130.10 130.49 130.89 131.22 131.48 131.58 131.65 131.74 131.81 131.90 132.09 132.11 132.26 132.45 132.67 132.92 133.14 133.65 134.14 133.98 133.76 133.48 133.29 133.59 134.24 134.35 134.42 134.46 134.33 134.22 133.91 134.19 134.03 133.94
